(G-CODE GENERATED BY FLATCAM v8.994 - www.flatcam.org - Version Date: 2020/11/7)

(Name: copper_bottom.gbr_iso_combined_cnc)
(Type: G-code from Geometry)
(Units: MM)

(Created on sábado, 19 fevereiro 2022 at 14:11)

(This preprocessor is the default preprocessor used by FlatCAM.)
(It is made to work with MACH3 compatible motion controllers.)

(TOOL DIAMETER: 0.2161 mm)
(Feedrate_XY: 60.0 mm/min)
(Feedrate_Z: 60.0 mm/min)
(Feedrate rapids 1500.0 mm/min)

(Z_Cut: -0.03 mm)
(Z_Move: 3.0 mm)
(Z Start: None mm)
(Z End: 15.0 mm)
(X,Y End: None mm)
(Steps per circle: 64)
(Preprocessor Geometry: default)

(X range:    0.5266 ...  131.9180  mm)
(Y range:    0.3404 ...   90.4734  mm)

(Spindle Speed: 1000.0 RPM)
G21
G90
G94

G01 F60.00

M5
G00 Z15.0000
G00 X0.0000 Y0.0000
T1
M6    
(MSG, Change to Tool Dia = 0.2161)
M0
G00 Z15.0000

M03 S1000.0
G01 F60.00
G00 X1.1616 Y4.3393
G01 F60.00
G01 Z-0.0300
G01 F60.00
G01 X1.1137 Y4.2958
G01 X1.1080 Y4.2903
G01 X1.0392 Y4.2144
G01 X1.0340 Y4.2083
G01 X0.9700 Y4.1218
G01 X0.9158 Y4.0317
G01 X0.9120 Y4.0248
G01 X0.8660 Y3.9273
G01 X0.8289 Y3.8234
G01 X0.8020 Y3.7164
G01 X0.7859 Y3.6072
G01 X0.7804 Y3.4970
G01 X0.7805 Y1.4623
G01 X0.7855 Y1.3601
G01 X0.7865 Y1.3495
G01 X0.8020 Y1.2456
G01 X0.8281 Y1.1411
G01 X0.8305 Y1.1335
G01 X0.8660 Y1.0347
G01 X0.9132 Y0.9349
G01 X0.9700 Y0.8402
G01 X1.0357 Y0.7516
G01 X1.1098 Y0.6698
G01 X1.1916 Y0.5957
G01 X1.2802 Y0.5300
G01 X1.3749 Y0.4732
G01 X1.4747 Y0.4260
G01 X1.5786 Y0.3889
G01 X1.6856 Y0.3620
G01 X1.7948 Y0.3459
G01 X1.9050 Y0.3404
G01 X2.0152 Y0.3459
G01 X2.1244 Y0.3620
G01 X2.2289 Y0.3881
G01 X2.2365 Y0.3905
G01 X2.3304 Y0.4241
G01 X2.3402 Y0.4282
G01 X2.4351 Y0.4732
G01 X2.5298 Y0.5300
G01 X2.6184 Y0.5957
G01 X2.6963 Y0.6662
G01 X2.7038 Y0.6737
G01 X2.7708 Y0.7476
G01 X2.7776 Y0.7558
G01 X2.8400 Y0.8402
G01 X2.8968 Y0.9349
G01 X2.9440 Y1.0347
G01 X2.9795 Y1.1335
G01 X2.9825 Y1.1437
G01 X3.0068 Y1.2404
G01 X3.0089 Y1.2508
G01 X3.0241 Y1.3548
G01 X3.0295 Y1.4623
G01 X3.0296 Y3.4970
G01 X3.0245 Y3.6019
G01 X3.0239 Y3.6099
G01 X3.0080 Y3.7164
G01 X2.9811 Y3.8234
G01 X2.9440 Y3.9273
G01 X2.8980 Y4.0248
G01 X2.8942 Y4.0317
G01 X2.8400 Y4.1218
G01 X2.7760 Y4.2083
G01 X2.7708 Y4.2144
G01 X2.7020 Y4.2903
G01 X2.6963 Y4.2958
G01 X2.6484 Y4.3393
G01 X2.6484 Y45.7299
G01 X2.6847 Y45.7628
G01 X2.6904 Y45.7684
G01 X2.7598 Y45.8450
G01 X2.7648 Y45.8512
G01 X2.8248 Y45.9322
G01 X2.8291 Y45.9389
G01 X2.8822 Y46.0277
G01 X2.9277 Y46.1235
G01 X2.9306 Y46.1309
G01 X2.9653 Y46.2284
G01 X2.9918 Y46.3338
G01 X3.0077 Y46.4414
G01 X3.0130 Y46.5500
G01 X3.0077 Y46.6586
G01 X2.9918 Y46.7662
G01 X2.9653 Y46.8716
G01 X2.9287 Y46.9740
G01 X2.8822 Y47.0723
G01 X2.8263 Y47.1656
G01 X2.7615 Y47.2529
G01 X2.6885 Y47.3335
G01 X2.6079 Y47.4065
G01 X2.5206 Y47.4713
G01 X2.4273 Y47.5272
G01 X2.3290 Y47.5737
G01 X2.2266 Y47.6103
G01 X2.1212 Y47.6368
G01 X2.0136 Y47.6527
G01 X1.9077 Y47.6580
G01 X1.8997 Y47.6579
G01 X1.7964 Y47.6527
G01 X1.6888 Y47.6368
G01 X1.5834 Y47.6103
G01 X1.4810 Y47.5737
G01 X1.3827 Y47.5272
G01 X1.2894 Y47.4713
G01 X1.2021 Y47.4065
G01 X1.1215 Y47.3335
G01 X1.0485 Y47.2529
G01 X0.9837 Y47.1656
G01 X0.9278 Y47.0723
G01 X0.8813 Y46.9740
G01 X0.8447 Y46.8716
G01 X0.8182 Y46.7662
G01 X0.8023 Y46.6586
G01 X0.7970 Y46.5527
G01 X0.7971 Y46.5447
G01 X0.8023 Y46.4414
G01 X0.8182 Y46.3338
G01 X0.8447 Y46.2284
G01 X0.8794 Y46.1309
G01 X0.8823 Y46.1235
G01 X0.9278 Y46.0277
G01 X0.9809 Y45.9389
G01 X0.9852 Y45.9322
G01 X1.0452 Y45.8512
G01 X1.0502 Y45.8450
G01 X1.1196 Y45.7684
G01 X1.1253 Y45.7628
G01 X1.1616 Y45.7299
G01 X1.1616 Y4.3393
G00 Z3.0000
G00 X6.2416 Y4.3393
G01 F60.00
G01 Z-0.0300
G01 F60.00
G01 X6.1937 Y4.2958
G01 X6.1880 Y4.2903
G01 X6.1192 Y4.2144
G01 X6.1140 Y4.2083
G01 X6.0500 Y4.1218
G01 X5.9958 Y4.0317
G01 X5.9920 Y4.0248
G01 X5.9460 Y3.9273
G01 X5.9089 Y3.8234
G01 X5.8820 Y3.7164
G01 X5.8659 Y3.6072
G01 X5.8604 Y3.4970
G01 X5.8605 Y1.4623
G01 X5.8655 Y1.3601
G01 X5.8665 Y1.3495
G01 X5.8820 Y1.2456
G01 X5.9081 Y1.1411
G01 X5.9105 Y1.1335
G01 X5.9460 Y1.0347
G01 X5.9932 Y0.9349
G01 X6.0500 Y0.8402
G01 X6.1157 Y0.7516
G01 X6.1898 Y0.6698
G01 X6.2716 Y0.5957
G01 X6.3602 Y0.5300
G01 X6.4549 Y0.4732
G01 X6.5547 Y0.4260
G01 X6.6586 Y0.3889
G01 X6.7656 Y0.3620
G01 X6.8748 Y0.3459
G01 X6.9850 Y0.3404
G01 X7.0952 Y0.3459
G01 X7.2044 Y0.3620
G01 X7.3089 Y0.3881
G01 X7.3165 Y0.3905
G01 X7.4104 Y0.4241
G01 X7.4202 Y0.4282
G01 X7.5151 Y0.4732
G01 X7.6098 Y0.5300
G01 X7.6984 Y0.5957
G01 X7.7763 Y0.6662
G01 X7.7838 Y0.6737
G01 X7.8508 Y0.7476
G01 X7.8576 Y0.7558
G01 X7.9200 Y0.8402
G01 X7.9768 Y0.9349
G01 X8.0240 Y1.0347
G01 X8.0595 Y1.1335
G01 X8.0625 Y1.1437
G01 X8.0868 Y1.2404
G01 X8.0889 Y1.2508
G01 X8.1041 Y1.3548
G01 X8.1096 Y1.4650
G01 X8.1096 Y3.4970
G01 X8.1045 Y3.6019
G01 X8.1039 Y3.6099
G01 X8.0880 Y3.7164
G01 X8.0611 Y3.8234
G01 X8.0240 Y3.9273
G01 X7.9780 Y4.0248
G01 X7.9742 Y4.0317
G01 X7.9200 Y4.1218
G01 X7.8560 Y4.2083
G01 X7.8508 Y4.2144
G01 X7.7820 Y4.2903
G01 X7.7763 Y4.2958
G01 X7.7284 Y4.3393
G01 X7.7284 Y47.7116
G01 X9.9749 Y47.7116
G01 X10.0078 Y47.6753
G01 X10.0134 Y47.6696
G01 X10.0900 Y47.6002
G01 X10.0962 Y47.5952
G01 X10.1772 Y47.5352
G01 X10.1839 Y47.5309
G01 X10.2727 Y47.4778
G01 X10.3685 Y47.4323
G01 X10.3759 Y47.4294
G01 X10.4734 Y47.3947
G01 X10.5788 Y47.3682
G01 X10.6864 Y47.3523
G01 X10.7950 Y47.3470
G01 X10.9036 Y47.3523
G01 X11.0112 Y47.3682
G01 X11.1166 Y47.3947
G01 X11.2141 Y47.4294
G01 X11.2215 Y47.4323
G01 X11.3173 Y47.4778
G01 X11.4061 Y47.5309
G01 X11.4128 Y47.5352
G01 X11.4938 Y47.5952
G01 X11.5000 Y47.6002
G01 X11.5766 Y47.6696
G01 X11.5822 Y47.6753
G01 X11.6151 Y47.7116
G01 X50.4542 Y47.7116
G01 X50.5067 Y47.6643
G01 X50.5873 Y47.6045
G01 X50.6734 Y47.5529
G01 X50.7617 Y47.5110
G01 X50.7691 Y47.5080
G01 X50.8536 Y47.4778
G01 X50.8638 Y47.4747
G01 X50.9560 Y47.4517
G01 X51.0553 Y47.4370
G01 X51.1556 Y47.4321
G01 X52.9871 Y47.4321
G01 X53.0847 Y47.4370
G01 X53.1787 Y47.4508
G01 X53.1891 Y47.4529
G01 X53.2813 Y47.4761
G01 X53.3709 Y47.5080
G01 X53.3807 Y47.5121
G01 X53.4666 Y47.5529
G01 X53.5527 Y47.6045
G01 X53.6333 Y47.6643
G01 X53.7039 Y47.7280
G01 X53.7114 Y47.7355
G01 X53.7751 Y47.8061
G01 X53.8349 Y47.8867
G01 X53.8839 Y47.9682
G01 X53.8889 Y47.9775
G01 X53.9294 Y48.0636
G01 X53.9633 Y48.1581
G01 X53.9865 Y48.2503
G01 X53.9886 Y48.2607
G01 X54.0024 Y48.3547
G01 X54.0073 Y48.4550
G01 X54.0028 Y48.5500
G01 X54.0017 Y48.5605
G01 X53.9877 Y48.6546
G01 X53.9633 Y48.7519
G01 X53.9314 Y48.8415
G01 X53.9273 Y48.8513
G01 X53.8865 Y48.9372
G01 X53.8378 Y49.0188
G01 X53.8319 Y49.0276
G01 X53.7751 Y49.1039
G01 X53.7096 Y49.1764
G01 X53.7039 Y49.1820
G01 X53.6333 Y49.2457
G01 X53.5527 Y49.3055
G01 X53.4666 Y49.3571
G01 X53.3758 Y49.4000
G01 X53.2813 Y49.4339
G01 X53.1840 Y49.4583
G01 X53.0847 Y49.4730
G01 X52.9844 Y49.4779
G01 X51.1556 Y49.4779
G01 X51.0553 Y49.4730
G01 X50.9560 Y49.4583
G01 X50.8638 Y49.4353
G01 X50.8536 Y49.4322
G01 X50.7691 Y49.4020
G01 X50.7617 Y49.3990
G01 X50.6734 Y49.3571
G01 X50.5873 Y49.3055
G01 X50.5067 Y49.2457
G01 X50.4542 Y49.1984
G01 X11.6151 Y49.1984
G01 X11.5822 Y49.2347
G01 X11.5766 Y49.2404
G01 X11.5000 Y49.3098
G01 X11.4938 Y49.3148
G01 X11.4128 Y49.3748
G01 X11.4061 Y49.3791
G01 X11.3173 Y49.4322
G01 X11.2215 Y49.4777
G01 X11.2141 Y49.4806
G01 X11.1166 Y49.5153
G01 X11.0112 Y49.5418
G01 X10.9036 Y49.5577
G01 X10.7950 Y49.5630
G01 X10.6864 Y49.5577
G01 X10.5788 Y49.5418
G01 X10.4734 Y49.5153
G01 X10.3759 Y49.4806
G01 X10.3685 Y49.4777
G01 X10.2727 Y49.4322
G01 X10.1839 Y49.3791
G01 X10.1772 Y49.3748
G01 X10.0962 Y49.3148
G01 X10.0900 Y49.3098
G01 X10.0134 Y49.2404
G01 X10.0078 Y49.2347
G01 X9.9749 Y49.1984
G01 X6.9850 Y49.1984
G01 X6.9148 Y49.1950
G01 X6.9069 Y49.1941
G01 X6.8400 Y49.1841
G01 X6.7743 Y49.1678
G01 X6.7642 Y49.1647
G01 X6.7055 Y49.1437
G01 X6.6957 Y49.1396
G01 X6.6346 Y49.1106
G01 X6.5720 Y49.0731
G01 X6.5134 Y49.0296
G01 X6.4613 Y48.9825
G01 X6.4557 Y48.9768
G01 X6.4104 Y48.9266
G01 X6.3669 Y48.8680
G01 X6.3294 Y48.8054
G01 X6.2982 Y48.7395
G01 X6.2736 Y48.6708
G01 X6.2559 Y48.6000
G01 X6.2452 Y48.5279
G01 X6.2416 Y48.4550
G01 X6.2416 Y4.3393
G00 Z3.0000
G00 X8.4004 Y3.4970
G01 F60.00
G01 Z-0.0300
G01 F60.00
G01 X8.4004 Y1.4650
G01 X8.4055 Y1.3601
G01 X8.4065 Y1.3495
G01 X8.4220 Y1.2456
G01 X8.4489 Y1.1386
G01 X8.4860 Y1.0347
G01 X8.5332 Y0.9349
G01 X8.5900 Y0.8402
G01 X8.6557 Y0.7516
G01 X8.7298 Y0.6698
G01 X8.8116 Y0.5957
G01 X8.9002 Y0.5300
G01 X8.9949 Y0.4732
G01 X9.0947 Y0.4260
G01 X9.1986 Y0.3889
G01 X9.3056 Y0.3620
G01 X9.4148 Y0.3459
G01 X9.5250 Y0.3404
G01 X9.6352 Y0.3459
G01 X9.7444 Y0.3620
G01 X9.8514 Y0.3889
G01 X9.9553 Y0.4260
G01 X10.0551 Y0.4732
G01 X10.1453 Y0.5271
G01 X10.1541 Y0.5330
G01 X10.2384 Y0.5957
G01 X10.3163 Y0.6662
G01 X10.3238 Y0.6737
G01 X10.3943 Y0.7516
G01 X10.4570 Y0.8359
G01 X10.4629 Y0.8447
G01 X10.5168 Y0.9349
G01 X10.5618 Y1.0298
G01 X10.5659 Y1.0396
G01 X10.6011 Y1.1386
G01 X10.6268 Y1.2404
G01 X10.6289 Y1.2508
G01 X10.6441 Y1.3548
G01 X10.6495 Y1.4623
G01 X10.6496 Y3.4970
G01 X10.6445 Y3.6019
G01 X10.6439 Y3.6099
G01 X10.6280 Y3.7164
G01 X10.6011 Y3.8234
G01 X10.5640 Y3.9273
G01 X10.5180 Y4.0248
G01 X10.5142 Y4.0317
G01 X10.4600 Y4.1218
G01 X10.3960 Y4.2083
G01 X10.3908 Y4.2144
G01 X10.3220 Y4.2903
G01 X10.3163 Y4.2958
G01 X10.2684 Y4.3393
G01 X10.2684 Y42.5549
G01 X10.3047 Y42.5878
G01 X10.3104 Y42.5934
G01 X10.3798 Y42.6700
G01 X10.3848 Y42.6762
G01 X10.4448 Y42.7572
G01 X10.4491 Y42.7639
G01 X10.5022 Y42.8527
G01 X10.5477 Y42.9485
G01 X10.5506 Y42.9559
G01 X10.5853 Y43.0534
G01 X10.6118 Y43.1588
G01 X10.6277 Y43.2664
G01 X10.6330 Y43.3750
G01 X10.6277 Y43.4836
G01 X10.6118 Y43.5912
G01 X10.5853 Y43.6966
G01 X10.5487 Y43.7990
G01 X10.5022 Y43.8973
G01 X10.4463 Y43.9906
G01 X10.3815 Y44.0779
G01 X10.3085 Y44.1585
G01 X10.2279 Y44.2315
G01 X10.1406 Y44.2963
G01 X10.0473 Y44.3522
G01 X9.9490 Y44.3987
G01 X9.8466 Y44.4353
G01 X9.7412 Y44.4618
G01 X9.6336 Y44.4777
G01 X9.5277 Y44.4830
G01 X9.5197 Y44.4829
G01 X9.4164 Y44.4777
G01 X9.3088 Y44.4618
G01 X9.2034 Y44.4353
G01 X9.1010 Y44.3987
G01 X9.0027 Y44.3522
G01 X8.9094 Y44.2963
G01 X8.8221 Y44.2315
G01 X8.7415 Y44.1585
G01 X8.6685 Y44.0779
G01 X8.6037 Y43.9906
G01 X8.5478 Y43.8973
G01 X8.5013 Y43.7990
G01 X8.4647 Y43.6966
G01 X8.4382 Y43.5912
G01 X8.4223 Y43.4836
G01 X8.4170 Y43.3777
G01 X8.4171 Y43.3697
G01 X8.4223 Y43.2664
G01 X8.4382 Y43.1588
G01 X8.4647 Y43.0534
G01 X8.4994 Y42.9559
G01 X8.5023 Y42.9485
G01 X8.5478 Y42.8527
G01 X8.6009 Y42.7639
G01 X8.6052 Y42.7572
G01 X8.6652 Y42.6762
G01 X8.6702 Y42.6700
G01 X8.7396 Y42.5934
G01 X8.7453 Y42.5878
G01 X8.7816 Y42.5549
G01 X8.7816 Y4.3393
G01 X8.7298 Y4.2922
G01 X8.6574 Y4.2124
G01 X8.6524 Y4.2062
G01 X8.5915 Y4.1240
G01 X8.5871 Y4.1173
G01 X8.5332 Y4.0271
G01 X8.4871 Y3.9298
G01 X8.4841 Y3.9224
G01 X8.4489 Y3.8234
G01 X8.4220 Y3.7164
G01 X8.4059 Y3.6072
G01 X8.4004 Y3.4970
G00 Z3.0000
G00 X11.3216 Y4.3393
G01 F60.00
G01 Z-0.0300
G01 F60.00
G01 X11.2737 Y4.2958
G01 X11.2680 Y4.2903
G01 X11.1992 Y4.2144
G01 X11.1940 Y4.2083
G01 X11.1300 Y4.1218
G01 X11.0758 Y4.0317
G01 X11.0720 Y4.0248
G01 X11.0260 Y3.9273
G01 X10.9889 Y3.8234
G01 X10.9620 Y3.7164
G01 X10.9459 Y3.6072
G01 X10.9404 Y3.4970
G01 X10.9405 Y1.4623
G01 X10.9455 Y1.3601
G01 X10.9465 Y1.3495
G01 X10.9620 Y1.2456
G01 X10.9881 Y1.1411
G01 X10.9905 Y1.1335
G01 X11.0260 Y1.0347
G01 X11.0732 Y0.9349
G01 X11.1300 Y0.8402
G01 X11.1957 Y0.7516
G01 X11.2698 Y0.6698
G01 X11.3516 Y0.5957
G01 X11.4402 Y0.5300
G01 X11.5349 Y0.4732
G01 X11.6347 Y0.4260
G01 X11.7386 Y0.3889
G01 X11.8456 Y0.3620
G01 X11.9548 Y0.3459
G01 X12.0650 Y0.3404
G01 X12.1752 Y0.3459
G01 X12.2844 Y0.3620
G01 X12.3889 Y0.3881
G01 X12.3965 Y0.3905
G01 X12.4904 Y0.4241
G01 X12.5002 Y0.4282
G01 X12.5951 Y0.4732
G01 X12.6898 Y0.5300
G01 X12.7784 Y0.5957
G01 X12.8563 Y0.6662
G01 X12.8638 Y0.6737
G01 X12.9308 Y0.7476
G01 X12.9376 Y0.7558
G01 X13.0000 Y0.8402
G01 X13.0568 Y0.9349
G01 X13.1040 Y1.0347
G01 X13.1395 Y1.1335
G01 X13.1425 Y1.1437
G01 X13.1668 Y1.2404
G01 X13.1689 Y1.2508
G01 X13.1841 Y1.3548
G01 X13.1896 Y1.4650
G01 X13.1896 Y3.4970
G01 X13.1845 Y3.6019
G01 X13.1839 Y3.6099
G01 X13.1680 Y3.7164
G01 X13.1411 Y3.8234
G01 X13.1040 Y3.9273
G01 X13.0580 Y4.0248
G01 X13.0542 Y4.0317
G01 X13.0000 Y4.1218
G01 X12.9360 Y4.2083
G01 X12.9308 Y4.2144
G01 X12.8620 Y4.2903
G01 X12.8563 Y4.2958
G01 X12.8084 Y4.3393
G01 X12.8084 Y40.0916
G01 X50.4542 Y40.0916
G01 X50.5067 Y40.0443
G01 X50.5873 Y39.9845
G01 X50.6734 Y39.9329
G01 X50.7617 Y39.8910
G01 X50.7691 Y39.8880
G01 X50.8536 Y39.8578
G01 X50.8638 Y39.8547
G01 X50.9560 Y39.8317
G01 X51.0553 Y39.8170
G01 X51.1556 Y39.8121
G01 X52.9844 Y39.8121
G01 X53.0847 Y39.8170
G01 X53.1840 Y39.8317
G01 X53.2762 Y39.8547
G01 X53.2864 Y39.8578
G01 X53.3709 Y39.8880
G01 X53.3807 Y39.8921
G01 X53.4666 Y39.9329
G01 X53.5527 Y39.9845
G01 X53.6333 Y40.0443
G01 X53.7058 Y40.1098
G01 X53.7114 Y40.1155
G01 X53.7717 Y40.1821
G01 X53.7784 Y40.1903
G01 X53.8349 Y40.2667
G01 X53.8839 Y40.3482
G01 X53.8877 Y40.3552
G01 X53.9294 Y40.4436
G01 X53.9633 Y40.5381
G01 X53.9877 Y40.6354
G01 X53.9980 Y40.7046
G01 X54.0128 Y40.7086
G01 X54.0790 Y40.7324
G01 X54.1402 Y40.7612
G01 X54.1495 Y40.7662
G01 X54.2075 Y40.8011
G01 X54.2619 Y40.8413
G01 X54.2701 Y40.8480
G01 X54.3182 Y40.8917
G01 X57.9632 Y44.5366
G01 X63.5027 Y44.5367
G01 X63.5729 Y44.5402
G01 X63.6398 Y44.5500
G01 X63.6502 Y44.5521
G01 X63.7158 Y44.5686
G01 X63.7795 Y44.5913
G01 X63.7893 Y44.5954
G01 X63.8481 Y44.6232
G01 X63.8550 Y44.6270
G01 X63.9085 Y44.6591
G01 X63.9173 Y44.6650
G01 X63.9716 Y44.7054
G01 X64.0218 Y44.7507
G01 X64.0293 Y44.7582
G01 X64.0746 Y44.8084
G01 X64.1150 Y44.8627
G01 X64.1209 Y44.8715
G01 X64.1556 Y44.9296
G01 X64.1846 Y44.9907
G01 X64.1887 Y45.0005
G01 X64.2114 Y45.0642
G01 X64.2279 Y45.1298
G01 X64.2300 Y45.1402
G01 X64.2398 Y45.2071
G01 X64.2433 Y45.2773
G01 X64.2434 Y75.6516
G01 X83.4742 Y75.6516
G01 X83.5267 Y75.6043
G01 X83.6073 Y75.5445
G01 X83.6934 Y75.4929
G01 X83.7817 Y75.4510
G01 X83.7891 Y75.4480
G01 X83.8736 Y75.4178
G01 X83.8838 Y75.4147
G01 X83.9760 Y75.3917
G01 X84.0753 Y75.3770
G01 X84.1756 Y75.3721
G01 X86.0044 Y75.3721
G01 X86.1020 Y75.3768
G01 X86.1099 Y75.3777
G01 X86.1987 Y75.3908
G01 X86.2091 Y75.3929
G01 X86.3013 Y75.4161
G01 X86.3958 Y75.4500
G01 X86.4819 Y75.4905
G01 X86.4912 Y75.4955
G01 X86.5727 Y75.5445
G01 X86.6491 Y75.6010
G01 X86.6573 Y75.6077
G01 X86.7239 Y75.6680
G01 X86.7314 Y75.6755
G01 X86.7951 Y75.7461
G01 X86.8519 Y75.8224
G01 X86.8578 Y75.8312
G01 X86.9065 Y75.9128
G01 X86.9473 Y75.9987
G01 X86.9514 Y76.0085
G01 X86.9833 Y76.0981
G01 X87.0065 Y76.1903
G01 X87.0086 Y76.2007
G01 X87.0224 Y76.2947
G01 X87.0273 Y76.3950
G01 X87.0228 Y76.4900
G01 X87.0217 Y76.5005
G01 X87.0077 Y76.5946
G01 X86.9847 Y76.6868
G01 X86.9816 Y76.6970
G01 X86.9494 Y76.7864
G01 X86.9065 Y76.8772
G01 X86.8578 Y76.9588
G01 X86.8519 Y76.9676
G01 X86.7951 Y77.0439
G01 X86.7296 Y77.1164
G01 X86.7239 Y77.1220
G01 X86.6533 Y77.1857
G01 X86.5770 Y77.2425
G01 X86.5682 Y77.2484
G01 X86.4912 Y77.2945
G01 X86.4819 Y77.2995
G01 X86.3958 Y77.3400
G01 X86.3013 Y77.3739
G01 X86.2040 Y77.3983
G01 X86.1073 Y77.4127
G01 X86.0994 Y77.4134
G01 X86.0044 Y77.4179
G01 X84.1756 Y77.4179
G01 X84.0753 Y77.4130
G01 X83.9760 Y77.3983
G01 X83.8787 Y77.3739
G01 X83.7866 Y77.3410
G01 X83.7793 Y77.3379
G01 X83.6934 Y77.2971
G01 X83.6095 Y77.2470
G01 X83.6030 Y77.2425
G01 X83.5267 Y77.1857
G01 X83.4742 Y77.1384
G01 X63.4973 Y77.1383
G01 X63.4271 Y77.1348
G01 X63.3602 Y77.1250
G01 X63.3498 Y77.1229
G01 X63.2893 Y77.1078
G01 X63.2792 Y77.1047
G01 X63.2155 Y77.0818
G01 X63.1543 Y77.0530
G01 X63.1450 Y77.0480
G01 X63.0870 Y77.0131
G01 X63.0284 Y76.9696
G01 X62.9744 Y76.9206
G01 X62.9288 Y76.8706
G01 X62.9237 Y76.8645
G01 X62.8819 Y76.8080
G01 X62.8444 Y76.7454
G01 X62.8132 Y76.6795
G01 X62.7903 Y76.6158
G01 X62.7872 Y76.6057
G01 X62.7721 Y76.5452
G01 X62.7700 Y76.5348
G01 X62.7602 Y76.4679
G01 X62.7566 Y76.3950
G01 X62.7566 Y46.0234
G01 X57.6553 Y46.0234
G01 X57.5824 Y46.0198
G01 X57.5103 Y46.0091
G01 X57.4395 Y45.9914
G01 X57.3758 Y45.9687
G01 X57.3660 Y45.9646
G01 X57.3049 Y45.9356
G01 X57.2423 Y45.8981
G01 X57.1837 Y45.8546
G01 X57.1297 Y45.8056
G01 X53.4866 Y42.1626
G01 X52.6515 Y42.1625
G01 X52.5813 Y42.1590
G01 X52.5092 Y42.1483
G01 X52.4384 Y42.1306
G01 X52.3697 Y42.1060
G01 X52.3038 Y42.0748
G01 X52.2434 Y42.0387
G01 X52.2369 Y42.0342
G01 X52.1868 Y41.9971
G01 X52.1786 Y41.9904
G01 X52.1305 Y41.9467
G01 X52.0416 Y41.8579
G01 X51.1529 Y41.8579
G01 X51.0553 Y41.8530
G01 X50.9586 Y41.8387
G01 X50.9509 Y41.8371
G01 X50.8638 Y41.8153
G01 X50.8536 Y41.8122
G01 X50.7642 Y41.7800
G01 X50.6758 Y41.7383
G01 X50.6688 Y41.7345
G01 X50.5918 Y41.6884
G01 X50.5851 Y41.6840
G01 X50.5067 Y41.6257
G01 X50.4542 Y41.5784
G01 X12.0650 Y41.5784
G01 X11.9921 Y41.5748
G01 X11.9200 Y41.5641
G01 X11.8492 Y41.5464
G01 X11.7805 Y41.5218
G01 X11.7146 Y41.4906
G01 X11.6520 Y41.4531
G01 X11.5934 Y41.4096
G01 X11.5413 Y41.3625
G01 X11.5357 Y41.3568
G01 X11.4904 Y41.3066
G01 X11.4469 Y41.2480
G01 X11.4094 Y41.1854
G01 X11.3782 Y41.1195
G01 X11.3536 Y41.0508
G01 X11.3359 Y40.9800
G01 X11.3252 Y40.9079
G01 X11.3216 Y40.8350
G01 X11.3216 Y4.3393
G00 Z3.0000
G00 X13.4804 Y3.4970
G01 F60.00
G01 Z-0.0300
G01 F60.00
G01 X13.4804 Y1.4650
G01 X13.4855 Y1.3601
G01 X13.4865 Y1.3495
G01 X13.5020 Y1.2456
G01 X13.5289 Y1.1386
G01 X13.5660 Y1.0347
G01 X13.6132 Y0.9349
G01 X13.6700 Y0.8402
G01 X13.7357 Y0.7516
G01 X13.8098 Y0.6698
G01 X13.8916 Y0.5957
G01 X13.9802 Y0.5300
G01 X14.0749 Y0.4732
G01 X14.1747 Y0.4260
G01 X14.2786 Y0.3889
G01 X14.3856 Y0.3620
G01 X14.4948 Y0.3459
G01 X14.6050 Y0.3404
G01 X14.7152 Y0.3459
G01 X14.8244 Y0.3620
G01 X14.9314 Y0.3889
G01 X15.0353 Y0.4260
G01 X15.1351 Y0.4732
G01 X15.2253 Y0.5271
G01 X15.2341 Y0.5330
G01 X15.3184 Y0.5957
G01 X15.4002 Y0.6698
G01 X15.4708 Y0.7476
G01 X15.4776 Y0.7558
G01 X15.5400 Y0.8402
G01 X15.5942 Y0.9303
G01 X15.5992 Y0.9396
G01 X15.6440 Y1.0347
G01 X15.6795 Y1.1335
G01 X15.6825 Y1.1437
G01 X15.7080 Y1.2456
G01 X15.7235 Y1.3495
G01 X15.7245 Y1.3601
G01 X15.7296 Y1.4650
G01 X15.7296 Y3.4970
G01 X15.7245 Y3.6019
G01 X15.7239 Y3.6099
G01 X15.7080 Y3.7164
G01 X15.6811 Y3.8234
G01 X15.6440 Y3.9273
G01 X15.5980 Y4.0248
G01 X15.5942 Y4.0317
G01 X15.5400 Y4.1218
G01 X15.4760 Y4.2083
G01 X15.4708 Y4.2144
G01 X15.4020 Y4.2903
G01 X15.3963 Y4.2958
G01 X15.3484 Y4.3393
G01 X15.3484 Y35.0116
G01 X38.5499 Y35.0116
G01 X38.5828 Y34.9753
G01 X38.5884 Y34.9696
G01 X38.6650 Y34.9002
G01 X38.6712 Y34.8952
G01 X38.7522 Y34.8352
G01 X38.7589 Y34.8309
G01 X38.8477 Y34.7778
G01 X38.9435 Y34.7323
G01 X38.9509 Y34.7294
G01 X39.0484 Y34.6947
G01 X39.1538 Y34.6682
G01 X39.2614 Y34.6523
G01 X39.3700 Y34.6470
G01 X39.4786 Y34.6523
G01 X39.5862 Y34.6682
G01 X39.6916 Y34.6947
G01 X39.7891 Y34.7294
G01 X39.7965 Y34.7323
G01 X39.8923 Y34.7778
G01 X39.9811 Y34.8309
G01 X39.9878 Y34.8352
G01 X40.0688 Y34.8952
G01 X40.0750 Y34.9002
G01 X40.1516 Y34.9696
G01 X40.1572 Y34.9753
G01 X40.1901 Y35.0116
G01 X50.4542 Y35.0116
G01 X50.5067 Y34.9643
G01 X50.5873 Y34.9045
G01 X50.6734 Y34.8529
G01 X50.7617 Y34.8110
G01 X50.7691 Y34.8080
G01 X50.8536 Y34.7778
G01 X50.8638 Y34.7747
G01 X50.9560 Y34.7517
G01 X51.0553 Y34.7370
G01 X51.1556 Y34.7321
G01 X52.9871 Y34.7321
G01 X53.0847 Y34.7370
G01 X53.1787 Y34.7508
G01 X53.1891 Y34.7529
G01 X53.2813 Y34.7761
G01 X53.3709 Y34.8080
G01 X53.3807 Y34.8121
G01 X53.4666 Y34.8529
G01 X53.5527 Y34.9045
G01 X53.6333 Y34.9643
G01 X53.7039 Y35.0280
G01 X53.7114 Y35.0355
G01 X53.7751 Y35.1061
G01 X53.8319 Y35.1824
G01 X53.8378 Y35.1912
G01 X53.8865 Y35.2728
G01 X53.9273 Y35.3587
G01 X53.9314 Y35.3685
G01 X53.9616 Y35.4530
G01 X53.9647 Y35.4632
G01 X53.9877 Y35.5554
G01 X54.0017 Y35.6495
G01 X54.0028 Y35.6600
G01 X54.0073 Y35.7550
G01 X54.0028 Y35.8500
G01 X54.0017 Y35.8605
G01 X53.9877 Y35.9546
G01 X53.9647 Y36.0468
G01 X53.9616 Y36.0570
G01 X53.9294 Y36.1464
G01 X53.8889 Y36.2325
G01 X53.8839 Y36.2418
G01 X53.8349 Y36.3233
G01 X53.7751 Y36.4039
G01 X53.7077 Y36.4783
G01 X53.6333 Y36.5457
G01 X53.5527 Y36.6055
G01 X53.4712 Y36.6545
G01 X53.4619 Y36.6595
G01 X53.3807 Y36.6979
G01 X53.3709 Y36.7020
G01 X53.2813 Y36.7339
G01 X53.1891 Y36.7571
G01 X53.1787 Y36.7592
G01 X53.0847 Y36.7730
G01 X52.9871 Y36.7779
G01 X51.1556 Y36.7779
G01 X51.0553 Y36.7730
G01 X50.9560 Y36.7583
G01 X50.8638 Y36.7353
G01 X50.8536 Y36.7322
G01 X50.7691 Y36.7020
G01 X50.7617 Y36.6990
G01 X50.6734 Y36.6571
G01 X50.5873 Y36.6055
G01 X50.5067 Y36.5457
G01 X50.4542 Y36.4984
G01 X40.1901 Y36.4984
G01 X40.1572 Y36.5347
G01 X40.1516 Y36.5404
G01 X40.0750 Y36.6098
G01 X40.0688 Y36.6148
G01 X39.9878 Y36.6748
G01 X39.9811 Y36.6791
G01 X39.8923 Y36.7322
G01 X39.7965 Y36.7777
G01 X39.7891 Y36.7806
G01 X39.6916 Y36.8153
G01 X39.5862 Y36.8418
G01 X39.4786 Y36.8577
G01 X39.3700 Y36.8630
G01 X39.2614 Y36.8577
G01 X39.1538 Y36.8418
G01 X39.0484 Y36.8153
G01 X38.9509 Y36.7806
G01 X38.9435 Y36.7777
G01 X38.8477 Y36.7322
G01 X38.7589 Y36.6791
G01 X38.7522 Y36.6748
G01 X38.6712 Y36.6148
G01 X38.6650 Y36.6098
G01 X38.5884 Y36.5404
G01 X38.5828 Y36.5347
G01 X38.5499 Y36.4984
G01 X14.6050 Y36.4984
G01 X14.5321 Y36.4948
G01 X14.4652 Y36.4850
G01 X14.4548 Y36.4829
G01 X14.3981 Y36.4687
G01 X14.3842 Y36.4647
G01 X14.3205 Y36.4418
G01 X14.2546 Y36.4106
G01 X14.1920 Y36.3731
G01 X14.1334 Y36.3296
G01 X14.0794 Y36.2806
G01 X14.0338 Y36.2306
G01 X14.0271 Y36.2224
G01 X13.9900 Y36.1723
G01 X13.9841 Y36.1635
G01 X13.9494 Y36.1054
G01 X13.9204 Y36.0443
G01 X13.9163 Y36.0345
G01 X13.8936 Y35.9708
G01 X13.8759 Y35.9000
G01 X13.8652 Y35.8279
G01 X13.8616 Y35.7550
G01 X13.8616 Y4.3393
G01 X13.8098 Y4.2922
G01 X13.7374 Y4.2124
G01 X13.7324 Y4.2062
G01 X13.6715 Y4.1240
G01 X13.6671 Y4.1173
G01 X13.6132 Y4.0271
G01 X13.5671 Y3.9298
G01 X13.5641 Y3.9224
G01 X13.5289 Y3.8234
G01 X13.5020 Y3.7164
G01 X13.4859 Y3.6072
G01 X13.4804 Y3.4970
G00 Z3.0000
G00 X16.4016 Y4.3393
G01 F60.00
G01 Z-0.0300
G01 F60.00
G01 X16.3537 Y4.2958
G01 X16.3480 Y4.2903
G01 X16.2792 Y4.2144
G01 X16.2740 Y4.2083
G01 X16.2100 Y4.1218
G01 X16.1558 Y4.0317
G01 X16.1520 Y4.0248
G01 X16.1060 Y3.9273
G01 X16.0689 Y3.8234
G01 X16.0420 Y3.7164
G01 X16.0259 Y3.6072
G01 X16.0204 Y3.4970
G01 X16.0205 Y1.4623
G01 X16.0255 Y1.3601
G01 X16.0265 Y1.3495
G01 X16.0420 Y1.2456
G01 X16.0681 Y1.1411
G01 X16.0705 Y1.1335
G01 X16.1060 Y1.0347
G01 X16.1532 Y0.9349
G01 X16.2100 Y0.8402
G01 X16.2757 Y0.7516
G01 X16.3498 Y0.6698
G01 X16.4316 Y0.5957
G01 X16.5202 Y0.5300
G01 X16.6149 Y0.4732
G01 X16.7147 Y0.4260
G01 X16.8186 Y0.3889
G01 X16.9256 Y0.3620
G01 X17.0348 Y0.3459
G01 X17.1450 Y0.3404
G01 X17.2552 Y0.3459
G01 X17.3644 Y0.3620
G01 X17.4689 Y0.3881
G01 X17.4765 Y0.3905
G01 X17.5704 Y0.4241
G01 X17.5802 Y0.4282
G01 X17.6751 Y0.4732
G01 X17.7698 Y0.5300
G01 X17.8584 Y0.5957
G01 X17.9363 Y0.6662
G01 X17.9438 Y0.6737
G01 X18.0108 Y0.7476
G01 X18.0176 Y0.7558
G01 X18.0800 Y0.8402
G01 X18.1368 Y0.9349
G01 X18.1840 Y1.0347
G01 X18.2195 Y1.1335
G01 X18.2225 Y1.1437
G01 X18.2468 Y1.2404
G01 X18.2489 Y1.2508
G01 X18.2641 Y1.3548
G01 X18.2695 Y1.4623
G01 X18.2696 Y3.4970
G01 X18.2645 Y3.6019
G01 X18.2639 Y3.6099
G01 X18.2480 Y3.7164
G01 X18.2211 Y3.8234
G01 X18.1840 Y3.9273
G01 X18.1380 Y4.0248
G01 X18.1342 Y4.0317
G01 X18.0800 Y4.1218
G01 X18.0160 Y4.2083
G01 X18.0108 Y4.2144
G01 X17.9420 Y4.2903
G01 X17.9363 Y4.2958
G01 X17.8884 Y4.3393
G01 X17.8884 Y32.3949
G01 X17.9247 Y32.4278
G01 X17.9304 Y32.4334
G01 X17.9998 Y32.5100
G01 X18.0048 Y32.5162
G01 X18.0648 Y32.5972
G01 X18.0691 Y32.6039
G01 X18.1222 Y32.6927
G01 X18.1677 Y32.7885
G01 X18.1706 Y32.7959
G01 X18.2053 Y32.8934
G01 X18.2318 Y32.9988
G01 X18.2477 Y33.1064
G01 X18.2530 Y33.2150
G01 X18.2477 Y33.3236
G01 X18.2318 Y33.4312
G01 X18.2053 Y33.5366
G01 X18.1687 Y33.6390
G01 X18.1222 Y33.7373
G01 X18.0663 Y33.8306
G01 X18.0015 Y33.9179
G01 X17.9285 Y33.9985
G01 X17.8479 Y34.0715
G01 X17.7606 Y34.1363
G01 X17.6673 Y34.1922
G01 X17.5690 Y34.2387
G01 X17.4666 Y34.2753
G01 X17.3612 Y34.3018
G01 X17.2536 Y34.3177
G01 X17.1477 Y34.3230
G01 X17.1397 Y34.3229
G01 X17.0364 Y34.3177
G01 X16.9288 Y34.3018
G01 X16.8234 Y34.2753
G01 X16.7210 Y34.2387
G01 X16.6227 Y34.1922
G01 X16.5294 Y34.1363
G01 X16.4421 Y34.0715
G01 X16.3615 Y33.9985
G01 X16.2885 Y33.9179
G01 X16.2237 Y33.8306
G01 X16.1678 Y33.7373
G01 X16.1213 Y33.6390
G01 X16.0847 Y33.5366
G01 X16.0582 Y33.4312
G01 X16.0423 Y33.3236
G01 X16.0370 Y33.2177
G01 X16.0371 Y33.2097
G01 X16.0423 Y33.1064
G01 X16.0582 Y32.9988
G01 X16.0847 Y32.8934
G01 X16.1194 Y32.7959
G01 X16.1223 Y32.7885
G01 X16.1678 Y32.6927
G01 X16.2209 Y32.6039
G01 X16.2252 Y32.5972
G01 X16.2852 Y32.5162
G01 X16.2902 Y32.5100
G01 X16.3596 Y32.4334
G01 X16.3653 Y32.4278
G01 X16.4016 Y32.3949
G01 X16.4016 Y4.3393
G00 Z3.0000
G00 X18.5604 Y3.4970
G01 F60.00
G01 Z-0.0300
G01 F60.00
G01 X18.5604 Y1.4650
G01 X18.5655 Y1.3601
G01 X18.5665 Y1.3495
G01 X18.5820 Y1.2456
G01 X18.6089 Y1.1386
G01 X18.6460 Y1.0347
G01 X18.6932 Y0.9349
G01 X18.7500 Y0.8402
G01 X18.8157 Y0.7516
G01 X18.8898 Y0.6698
G01 X18.9716 Y0.5957
G01 X19.0602 Y0.5300
G01 X19.1549 Y0.4732
G01 X19.2547 Y0.4260
G01 X19.3586 Y0.3889
G01 X19.4656 Y0.3620
G01 X19.5748 Y0.3459
G01 X19.6850 Y0.3404
G01 X19.7952 Y0.3459
G01 X19.9044 Y0.3620
G01 X20.0114 Y0.3889
G01 X20.1153 Y0.4260
G01 X20.2151 Y0.4732
G01 X20.3053 Y0.5271
G01 X20.3141 Y0.5330
G01 X20.3984 Y0.5957
G01 X20.4763 Y0.6662
G01 X20.4838 Y0.6737
G01 X20.5543 Y0.7516
G01 X20.6170 Y0.8359
G01 X20.6229 Y0.8447
G01 X20.6768 Y0.9349
G01 X20.7218 Y1.0298
G01 X20.7259 Y1.0396
G01 X20.7611 Y1.1386
G01 X20.7868 Y1.2404
G01 X20.7889 Y1.2508
G01 X20.8041 Y1.3548
G01 X20.8095 Y1.4623
G01 X20.8096 Y3.4970
G01 X20.8045 Y3.6019
G01 X20.8039 Y3.6099
G01 X20.7880 Y3.7164
G01 X20.7611 Y3.8234
G01 X20.7240 Y3.9273
G01 X20.6780 Y4.0248
G01 X20.6742 Y4.0317
G01 X20.6200 Y4.1218
G01 X20.5560 Y4.2083
G01 X20.5508 Y4.2144
G01 X20.4820 Y4.2903
G01 X20.4763 Y4.2958
G01 X20.4284 Y4.3393
G01 X20.4284 Y32.3949
G01 X20.4647 Y32.4278
G01 X20.4704 Y32.4334
G01 X20.5398 Y32.5100
G01 X20.5448 Y32.5162
G01 X20.6048 Y32.5972
G01 X20.6091 Y32.6039
G01 X20.6622 Y32.6927
G01 X20.7077 Y32.7885
G01 X20.7106 Y32.7959
G01 X20.7453 Y32.8934
G01 X20.7718 Y32.9988
G01 X20.7877 Y33.1064
G01 X20.7929 Y33.2097
G01 X20.7930 Y33.2177
G01 X20.7877 Y33.3236
G01 X20.7718 Y33.4312
G01 X20.7453 Y33.5366
G01 X20.7087 Y33.6390
G01 X20.6622 Y33.7373
G01 X20.6063 Y33.8306
G01 X20.5415 Y33.9179
G01 X20.4685 Y33.9985
G01 X20.3879 Y34.0715
G01 X20.3006 Y34.1363
G01 X20.2073 Y34.1922
G01 X20.1090 Y34.2387
G01 X20.0066 Y34.2753
G01 X19.9012 Y34.3018
G01 X19.7936 Y34.3177
G01 X19.6877 Y34.3230
G01 X19.6797 Y34.3229
G01 X19.5764 Y34.3177
G01 X19.4688 Y34.3018
G01 X19.3634 Y34.2753
G01 X19.2610 Y34.2387
G01 X19.1627 Y34.1922
G01 X19.0694 Y34.1363
G01 X18.9821 Y34.0715
G01 X18.9015 Y33.9985
G01 X18.8285 Y33.9179
G01 X18.7637 Y33.8306
G01 X18.7078 Y33.7373
G01 X18.6613 Y33.6390
G01 X18.6247 Y33.5366
G01 X18.5982 Y33.4312
G01 X18.5823 Y33.3236
G01 X18.5770 Y33.2177
G01 X18.5771 Y33.2097
G01 X18.5823 Y33.1064
G01 X18.5982 Y32.9988
G01 X18.6247 Y32.8934
G01 X18.6594 Y32.7959
G01 X18.6623 Y32.7885
G01 X18.7078 Y32.6927
G01 X18.7609 Y32.6039
G01 X18.7652 Y32.5972
G01 X18.8252 Y32.5162
G01 X18.8302 Y32.5100
G01 X18.8996 Y32.4334
G01 X18.9053 Y32.4278
G01 X18.9416 Y32.3949
G01 X18.9416 Y4.3393
G01 X18.8898 Y4.2922
G01 X18.8174 Y4.2124
G01 X18.8124 Y4.2062
G01 X18.7515 Y4.1240
G01 X18.7471 Y4.1173
G01 X18.6932 Y4.0271
G01 X18.6471 Y3.9298
G01 X18.6441 Y3.9224
G01 X18.6089 Y3.8234
G01 X18.5820 Y3.7164
G01 X18.5659 Y3.6072
G01 X18.5604 Y3.4970
G00 Z3.0000
G00 X21.4816 Y4.3393
G01 F60.00
G01 Z-0.0300
G01 F60.00
G01 X21.4337 Y4.2958
G01 X21.4280 Y4.2903
G01 X21.3592 Y4.2144
G01 X21.3540 Y4.2083
G01 X21.2900 Y4.1218
G01 X21.2358 Y4.0317
G01 X21.2320 Y4.0248
G01 X21.1860 Y3.9273
G01 X21.1489 Y3.8234
G01 X21.1220 Y3.7164
G01 X21.1059 Y3.6072
G01 X21.1004 Y3.4970
G01 X21.1005 Y1.4623
G01 X21.1055 Y1.3601
G01 X21.1065 Y1.3495
G01 X21.1220 Y1.2456
G01 X21.1481 Y1.1411
G01 X21.1505 Y1.1335
G01 X21.1860 Y1.0347
G01 X21.2332 Y0.9349
G01 X21.2900 Y0.8402
G01 X21.3557 Y0.7516
G01 X21.4298 Y0.6698
G01 X21.5116 Y0.5957
G01 X21.6002 Y0.5300
G01 X21.6949 Y0.4732
G01 X21.7947 Y0.4260
G01 X21.8986 Y0.3889
G01 X22.0056 Y0.3620
G01 X22.1148 Y0.3459
G01 X22.2250 Y0.3404
G01 X22.3352 Y0.3459
G01 X22.4444 Y0.3620
G01 X22.5489 Y0.3881
G01 X22.5565 Y0.3905
G01 X22.6504 Y0.4241
G01 X22.6602 Y0.4282
G01 X22.7551 Y0.4732
G01 X22.8498 Y0.5300
G01 X22.9384 Y0.5957
G01 X23.0163 Y0.6662
G01 X23.0238 Y0.6737
G01 X23.0908 Y0.7476
G01 X23.0976 Y0.7558
G01 X23.1600 Y0.8402
G01 X23.2168 Y0.9349
G01 X23.2640 Y1.0347
G01 X23.2995 Y1.1335
G01 X23.3025 Y1.1437
G01 X23.3268 Y1.2404
G01 X23.3289 Y1.2508
G01 X23.3441 Y1.3548
G01 X23.3495 Y1.4623
G01 X23.3496 Y3.4970
G01 X23.3445 Y3.6019
G01 X23.3439 Y3.6099
G01 X23.3280 Y3.7164
G01 X23.3011 Y3.8234
G01 X23.2640 Y3.9273
G01 X23.2180 Y4.0248
G01 X23.2142 Y4.0317
G01 X23.1600 Y4.1218
G01 X23.0960 Y4.2083
G01 X23.0908 Y4.2144
G01 X23.0220 Y4.2903
G01 X23.0163 Y4.2958
G01 X22.9684 Y4.3393
G01 X22.9684 Y32.3949
G01 X23.0047 Y32.4278
G01 X23.0104 Y32.4334
G01 X23.0798 Y32.5100
G01 X23.0848 Y32.5162
G01 X23.1448 Y32.5972
G01 X23.1491 Y32.6039
G01 X23.2022 Y32.6927
G01 X23.2477 Y32.7885
G01 X23.2506 Y32.7959
G01 X23.2853 Y32.8934
G01 X23.3118 Y32.9988
G01 X23.3277 Y33.1064
G01 X23.3330 Y33.2150
G01 X23.3277 Y33.3236
G01 X23.3118 Y33.4312
G01 X23.2853 Y33.5366
G01 X23.2487 Y33.6390
G01 X23.2022 Y33.7373
G01 X23.1463 Y33.8306
G01 X23.0815 Y33.9179
G01 X23.0085 Y33.9985
G01 X22.9279 Y34.0715
G01 X22.8406 Y34.1363
G01 X22.7473 Y34.1922
G01 X22.6490 Y34.2387
G01 X22.5466 Y34.2753
G01 X22.4412 Y34.3018
G01 X22.3336 Y34.3177
G01 X22.2277 Y34.3230
G01 X22.2197 Y34.3229
G01 X22.1164 Y34.3177
G01 X22.0088 Y34.3018
G01 X21.9034 Y34.2753
G01 X21.8010 Y34.2387
G01 X21.7027 Y34.1922
G01 X21.6094 Y34.1363
G01 X21.5221 Y34.0715
G01 X21.4415 Y33.9985
G01 X21.3685 Y33.9179
G01 X21.3037 Y33.8306
G01 X21.2478 Y33.7373
G01 X21.2013 Y33.6390
G01 X21.1647 Y33.5366
G01 X21.1382 Y33.4312
G01 X21.1223 Y33.3236
G01 X21.1170 Y33.2177
G01 X21.1171 Y33.2097
G01 X21.1223 Y33.1064
G01 X21.1382 Y32.9988
G01 X21.1647 Y32.8934
G01 X21.1994 Y32.7959
G01 X21.2023 Y32.7885
G01 X21.2478 Y32.6927
G01 X21.3009 Y32.6039
G01 X21.3052 Y32.5972
G01 X21.3652 Y32.5162
G01 X21.3702 Y32.5100
G01 X21.4396 Y32.4334
G01 X21.4453 Y32.4278
G01 X21.4816 Y32.3949
G01 X21.4816 Y4.3393
G00 Z3.0000
G00 X23.6404 Y3.4970
G01 F60.00
G01 Z-0.0300
G01 F60.00
G01 X23.6404 Y1.4650
G01 X23.6455 Y1.3601
G01 X23.6465 Y1.3495
G01 X23.6620 Y1.2456
G01 X23.6889 Y1.1386
G01 X23.7260 Y1.0347
G01 X23.7732 Y0.9349
G01 X23.8300 Y0.8402
G01 X23.8957 Y0.7516
G01 X23.9698 Y0.6698
G01 X24.0516 Y0.5957
G01 X24.1402 Y0.5300
G01 X24.2349 Y0.4732
G01 X24.3347 Y0.4260
G01 X24.4386 Y0.3889
G01 X24.5456 Y0.3620
G01 X24.6548 Y0.3459
G01 X24.7650 Y0.3404
G01 X24.8752 Y0.3459
G01 X24.9844 Y0.3620
G01 X25.0914 Y0.3889
G01 X25.1953 Y0.4260
G01 X25.2951 Y0.4732
G01 X25.3853 Y0.5271
G01 X25.3941 Y0.5330
G01 X25.4784 Y0.5957
G01 X25.5563 Y0.6662
G01 X25.5638 Y0.6737
G01 X25.6343 Y0.7516
G01 X25.6970 Y0.8359
G01 X25.7029 Y0.8447
G01 X25.7568 Y0.9349
G01 X25.8018 Y1.0298
G01 X25.8059 Y1.0396
G01 X25.8411 Y1.1386
G01 X25.8668 Y1.2404
G01 X25.8689 Y1.2508
G01 X25.8841 Y1.3548
G01 X25.8895 Y1.4623
G01 X25.8896 Y3.4970
G01 X25.8845 Y3.6019
G01 X25.8839 Y3.6099
G01 X25.8680 Y3.7164
G01 X25.8411 Y3.8234
G01 X25.8040 Y3.9273
G01 X25.7580 Y4.0248
G01 X25.7542 Y4.0317
G01 X25.7000 Y4.1218
G01 X25.6360 Y4.2083
G01 X25.6308 Y4.2144
G01 X25.5620 Y4.2903
G01 X25.5563 Y4.2958
G01 X25.5084 Y4.3393
G01 X25.5084 Y32.3949
G01 X25.5447 Y32.4278
G01 X25.5504 Y32.4334
G01 X25.6198 Y32.5100
G01 X25.6248 Y32.5162
G01 X25.6848 Y32.5972
G01 X25.6891 Y32.6039
G01 X25.7422 Y32.6927
G01 X25.7877 Y32.7885
G01 X25.7906 Y32.7959
G01 X25.8253 Y32.8934
G01 X25.8518 Y32.9988
G01 X25.8677 Y33.1064
G01 X25.8729 Y33.2097
G01 X25.8730 Y33.2177
G01 X25.8677 Y33.3236
G01 X25.8518 Y33.4312
G01 X25.8253 Y33.5366
G01 X25.7887 Y33.6390
G01 X25.7422 Y33.7373
G01 X25.6863 Y33.8306
G01 X25.6215 Y33.9179
G01 X25.5485 Y33.9985
G01 X25.4679 Y34.0715
G01 X25.3806 Y34.1363
G01 X25.2873 Y34.1922
G01 X25.1890 Y34.2387
G01 X25.0866 Y34.2753
G01 X24.9812 Y34.3018
G01 X24.8736 Y34.3177
G01 X24.7677 Y34.3230
G01 X24.7597 Y34.3229
G01 X24.6564 Y34.3177
G01 X24.5488 Y34.3018
G01 X24.4434 Y34.2753
G01 X24.3410 Y34.2387
G01 X24.2427 Y34.1922
G01 X24.1494 Y34.1363
G01 X24.0621 Y34.0715
G01 X23.9815 Y33.9985
G01 X23.9085 Y33.9179
G01 X23.8437 Y33.8306
G01 X23.7878 Y33.7373
G01 X23.7413 Y33.6390
G01 X23.7047 Y33.5366
G01 X23.6782 Y33.4312
G01 X23.6623 Y33.3236
G01 X23.6570 Y33.2177
G01 X23.6571 Y33.2097
G01 X23.6623 Y33.1064
G01 X23.6782 Y32.9988
G01 X23.7047 Y32.8934
G01 X23.7394 Y32.7959
G01 X23.7423 Y32.7885
G01 X23.7878 Y32.6927
G01 X23.8409 Y32.6039
G01 X23.8452 Y32.5972
G01 X23.9052 Y32.5162
G01 X23.9102 Y32.5100
G01 X23.9796 Y32.4334
G01 X23.9853 Y32.4278
G01 X24.0216 Y32.3949
G01 X24.0216 Y4.3393
G01 X23.9698 Y4.2922
G01 X23.8974 Y4.2124
G01 X23.8924 Y4.2062
G01 X23.8315 Y4.1240
G01 X23.8271 Y4.1173
G01 X23.7732 Y4.0271
G01 X23.7271 Y3.9298
G01 X23.7241 Y3.9224
G01 X23.6889 Y3.8234
G01 X23.6620 Y3.7164
G01 X23.6459 Y3.6072
G01 X23.6404 Y3.4970
G00 Z3.0000
G00 X26.5616 Y4.3393
G01 F60.00
G01 Z-0.0300
G01 F60.00
G01 X26.5137 Y4.2958
G01 X26.5080 Y4.2903
G01 X26.4392 Y4.2144
G01 X26.4340 Y4.2083
G01 X26.3700 Y4.1218
G01 X26.3158 Y4.0317
G01 X26.3120 Y4.0248
G01 X26.2660 Y3.9273
G01 X26.2289 Y3.8234
G01 X26.2020 Y3.7164
G01 X26.1859 Y3.6072
G01 X26.1804 Y3.4970
G01 X26.1805 Y1.4623
G01 X26.1855 Y1.3601
G01 X26.1865 Y1.3495
G01 X26.2020 Y1.2456
G01 X26.2281 Y1.1411
G01 X26.2305 Y1.1335
G01 X26.2660 Y1.0347
G01 X26.3132 Y0.9349
G01 X26.3700 Y0.8402
G01 X26.4357 Y0.7516
G01 X26.5098 Y0.6698
G01 X26.5916 Y0.5957
G01 X26.6802 Y0.5300
G01 X26.7749 Y0.4732
G01 X26.8747 Y0.4260
G01 X26.9786 Y0.3889
G01 X27.0856 Y0.3620
G01 X27.1948 Y0.3459
G01 X27.3050 Y0.3404
G01 X27.4152 Y0.3459
G01 X27.5244 Y0.3620
G01 X27.6289 Y0.3881
G01 X27.6365 Y0.3905
G01 X27.7304 Y0.4241
G01 X27.7402 Y0.4282
G01 X27.8351 Y0.4732
G01 X27.9298 Y0.5300
G01 X28.0184 Y0.5957
G01 X28.0963 Y0.6662
G01 X28.1038 Y0.6737
G01 X28.1708 Y0.7476
G01 X28.1776 Y0.7558
G01 X28.2400 Y0.8402
G01 X28.2968 Y0.9349
G01 X28.3440 Y1.0347
G01 X28.3795 Y1.1335
G01 X28.3825 Y1.1437
G01 X28.4068 Y1.2404
G01 X28.4089 Y1.2508
G01 X28.4241 Y1.3548
G01 X28.4295 Y1.4623
G01 X28.4296 Y3.4970
G01 X28.4245 Y3.6019
G01 X28.4239 Y3.6099
G01 X28.4080 Y3.7164
G01 X28.3811 Y3.8234
G01 X28.3440 Y3.9273
G01 X28.2980 Y4.0248
G01 X28.2942 Y4.0317
G01 X28.2400 Y4.1218
G01 X28.1760 Y4.2083
G01 X28.1708 Y4.2144
G01 X28.1020 Y4.2903
G01 X28.0963 Y4.2958
G01 X28.0484 Y4.3393
G01 X28.0484 Y32.3949
G01 X28.0847 Y32.4278
G01 X28.0904 Y32.4334
G01 X28.1598 Y32.5100
G01 X28.1648 Y32.5162
G01 X28.2248 Y32.5972
G01 X28.2291 Y32.6039
G01 X28.2822 Y32.6927
G01 X28.3277 Y32.7885
G01 X28.3306 Y32.7959
G01 X28.3653 Y32.8934
G01 X28.3918 Y32.9988
G01 X28.4077 Y33.1064
G01 X28.4130 Y33.2150
G01 X28.4077 Y33.3236
G01 X28.3918 Y33.4312
G01 X28.3653 Y33.5366
G01 X28.3287 Y33.6390
G01 X28.2822 Y33.7373
G01 X28.2263 Y33.8306
G01 X28.1615 Y33.9179
G01 X28.0885 Y33.9985
G01 X28.0079 Y34.0715
G01 X27.9206 Y34.1363
G01 X27.8273 Y34.1922
G01 X27.7290 Y34.2387
G01 X27.6266 Y34.2753
G01 X27.5212 Y34.3018
G01 X27.4136 Y34.3177
G01 X27.3077 Y34.3230
G01 X27.2997 Y34.3229
G01 X27.1964 Y34.3177
G01 X27.0888 Y34.3018
G01 X26.9834 Y34.2753
G01 X26.8810 Y34.2387
G01 X26.7827 Y34.1922
G01 X26.6894 Y34.1363
G01 X26.6021 Y34.0715
G01 X26.5215 Y33.9985
G01 X26.4485 Y33.9179
G01 X26.3837 Y33.8306
G01 X26.3278 Y33.7373
G01 X26.2813 Y33.6390
G01 X26.2447 Y33.5366
G01 X26.2182 Y33.4312
G01 X26.2023 Y33.3236
G01 X26.1970 Y33.2177
G01 X26.1971 Y33.2097
G01 X26.2023 Y33.1064
G01 X26.2182 Y32.9988
G01 X26.2447 Y32.8934
G01 X26.2794 Y32.7959
G01 X26.2823 Y32.7885
G01 X26.3278 Y32.6927
G01 X26.3809 Y32.6039
G01 X26.3852 Y32.5972
G01 X26.4452 Y32.5162
G01 X26.4502 Y32.5100
G01 X26.5196 Y32.4334
G01 X26.5253 Y32.4278
G01 X26.5616 Y32.3949
G01 X26.5616 Y4.3393
G00 Z3.0000
G00 X28.7204 Y3.4970
G01 F60.00
G01 Z-0.0300
G01 F60.00
G01 X28.7204 Y1.4650
G01 X28.7255 Y1.3601
G01 X28.7265 Y1.3495
G01 X28.7420 Y1.2456
G01 X28.7689 Y1.1386
G01 X28.8060 Y1.0347
G01 X28.8532 Y0.9349
G01 X28.9100 Y0.8402
G01 X28.9757 Y0.7516
G01 X29.0498 Y0.6698
G01 X29.1316 Y0.5957
G01 X29.2202 Y0.5300
G01 X29.3149 Y0.4732
G01 X29.4147 Y0.4260
G01 X29.5186 Y0.3889
G01 X29.6256 Y0.3620
G01 X29.7348 Y0.3459
G01 X29.8450 Y0.3404
G01 X29.9552 Y0.3459
G01 X30.0644 Y0.3620
G01 X30.1714 Y0.3889
G01 X30.2753 Y0.4260
G01 X30.3751 Y0.4732
G01 X30.4653 Y0.5271
G01 X30.4741 Y0.5330
G01 X30.5584 Y0.5957
G01 X30.6363 Y0.6662
G01 X30.6438 Y0.6737
G01 X30.7143 Y0.7516
G01 X30.7770 Y0.8359
G01 X30.7829 Y0.8447
G01 X30.8368 Y0.9349
G01 X30.8818 Y1.0298
G01 X30.8859 Y1.0396
G01 X30.9211 Y1.1386
G01 X30.9468 Y1.2404
G01 X30.9489 Y1.2508
G01 X30.9641 Y1.3548
G01 X30.9695 Y1.4623
G01 X30.9696 Y3.4970
G01 X30.9645 Y3.6019
G01 X30.9639 Y3.6099
G01 X30.9480 Y3.7164
G01 X30.9211 Y3.8234
G01 X30.8840 Y3.9273
G01 X30.8380 Y4.0248
G01 X30.8342 Y4.0317
G01 X30.7800 Y4.1218
G01 X30.7160 Y4.2083
G01 X30.7108 Y4.2144
G01 X30.6420 Y4.2903
G01 X30.6363 Y4.2958
G01 X30.5884 Y4.3393
G01 X30.5884 Y17.2316
G01 X56.5150 Y17.2316
G01 X56.5879 Y17.2352
G01 X56.6548 Y17.2450
G01 X56.6652 Y17.2471
G01 X56.7257 Y17.2622
G01 X56.7358 Y17.2653
G01 X56.7995 Y17.2882
G01 X56.8607 Y17.3170
G01 X56.8700 Y17.3220
G01 X56.9280 Y17.3569
G01 X56.9866 Y17.4004
G01 X57.0406 Y17.4494
G01 X57.0862 Y17.4994
G01 X57.0913 Y17.5055
G01 X57.1331 Y17.5620
G01 X57.1706 Y17.6246
G01 X57.2018 Y17.6905
G01 X57.2247 Y17.7542
G01 X57.2278 Y17.7643
G01 X57.2429 Y17.8248
G01 X57.2450 Y17.8352
G01 X57.2548 Y17.9021
G01 X57.2584 Y17.9750
G01 X57.2584 Y40.0916
G01 X65.6942 Y40.0916
G01 X65.7467 Y40.0443
G01 X65.8273 Y39.9845
G01 X65.9134 Y39.9329
G01 X66.0017 Y39.8910
G01 X66.0091 Y39.8880
G01 X66.0936 Y39.8578
G01 X66.1038 Y39.8547
G01 X66.1960 Y39.8317
G01 X66.2953 Y39.8170
G01 X66.3956 Y39.8121
G01 X68.2244 Y39.8121
G01 X68.3247 Y39.8170
G01 X68.4240 Y39.8317
G01 X68.5213 Y39.8561
G01 X68.6134 Y39.8890
G01 X68.6207 Y39.8921
G01 X68.7066 Y39.9329
G01 X68.7905 Y39.9830
G01 X68.7970 Y39.9875
G01 X68.8733 Y40.0443
G01 X68.9258 Y40.0916
G01 X115.5700 Y40.0916
G01 X115.6429 Y40.0952
G01 X115.7098 Y40.1050
G01 X115.7202 Y40.1071
G01 X115.7807 Y40.1222
G01 X115.7908 Y40.1253
G01 X115.8545 Y40.1482
G01 X115.9204 Y40.1794
G01 X115.9830 Y40.2169
G01 X116.0416 Y40.2604
G01 X116.0956 Y40.3094
G01 X116.1412 Y40.3594
G01 X116.1479 Y40.3676
G01 X116.1850 Y40.4177
G01 X116.1909 Y40.4265
G01 X116.2256 Y40.4846
G01 X116.2546 Y40.5457
G01 X116.2587 Y40.5555
G01 X116.2814 Y40.6192
G01 X116.2991 Y40.6900
G01 X116.3098 Y40.7621
G01 X116.3134 Y40.8350
G01 X116.3134 Y72.8730
G01 X116.3098 Y72.9459
G01 X116.3000 Y73.0128
G01 X116.2979 Y73.0232
G01 X116.2828 Y73.0837
G01 X116.2806 Y73.0913
G01 X116.2568 Y73.1575
G01 X116.2268 Y73.2211
G01 X116.2230 Y73.2280
G01 X116.1895 Y73.2838
G01 X116.1770 Y73.3012
G01 X116.1770 Y74.4088
G01 X116.1895 Y74.4262
G01 X116.2243 Y74.4843
G01 X116.2280 Y74.4913
G01 X116.2546 Y74.5477
G01 X116.2578 Y74.5550
G01 X116.2797 Y74.6162
G01 X116.2828 Y74.6263
G01 X116.2991 Y74.6920
G01 X116.3095 Y74.7615
G01 X116.3102 Y74.7694
G01 X116.3134 Y74.8370
G01 X116.3134 Y75.5749
G01 X116.3497 Y75.6078
G01 X116.3554 Y75.6134
G01 X116.4248 Y75.6900
G01 X116.4298 Y75.6962
G01 X116.4898 Y75.7772
G01 X116.4941 Y75.7839
G01 X116.5472 Y75.8727
G01 X116.5927 Y75.9685
G01 X116.5956 Y75.9759
G01 X116.6303 Y76.0734
G01 X116.6568 Y76.1788
G01 X116.6727 Y76.2864
G01 X116.6780 Y76.3950
G01 X116.6727 Y76.5036
G01 X116.6577 Y76.6059
G01 X116.6556 Y76.6163
G01 X116.6318 Y76.7115
G01 X116.6287 Y76.7217
G01 X116.5937 Y76.8190
G01 X116.5472 Y76.9173
G01 X116.4913 Y77.0106
G01 X116.4265 Y77.0979
G01 X116.3572 Y77.1747
G01 X116.3497 Y77.1822
G01 X116.2729 Y77.2515
G01 X116.1856 Y77.3163
G01 X116.0923 Y77.3722
G01 X115.9989 Y77.4166
G01 X115.9891 Y77.4206
G01 X115.8916 Y77.4553
G01 X115.7862 Y77.4818
G01 X115.6839 Y77.4971
G01 X115.6733 Y77.4981
G01 X115.5700 Y77.5030
G01 X115.4614 Y77.4977
G01 X115.3591 Y77.4827
G01 X115.3487 Y77.4806
G01 X115.2535 Y77.4568
G01 X115.2433 Y77.4537
G01 X115.1460 Y77.4187
G01 X115.0524 Y77.3746
G01 X115.0431 Y77.3696
G01 X114.9544 Y77.3163
G01 X114.8671 Y77.2515
G01 X114.7903 Y77.1822
G01 X114.7828 Y77.1747
G01 X114.7169 Y77.1020
G01 X114.7102 Y77.0938
G01 X114.6487 Y77.0106
G01 X114.5928 Y76.9173
G01 X114.5463 Y76.8190
G01 X114.5113 Y76.7217
G01 X114.5082 Y76.7115
G01 X114.4844 Y76.6163
G01 X114.4823 Y76.6059
G01 X114.4673 Y76.5036
G01 X114.4621 Y76.4003
G01 X114.4621 Y76.3897
G01 X114.4673 Y76.2864
G01 X114.4832 Y76.1788
G01 X114.5097 Y76.0734
G01 X114.5444 Y75.9759
G01 X114.5473 Y75.9685
G01 X114.5928 Y75.8727
G01 X114.6459 Y75.7839
G01 X114.6502 Y75.7772
G01 X114.7102 Y75.6962
G01 X114.7152 Y75.6900
G01 X114.7846 Y75.6134
G01 X114.7903 Y75.6078
G01 X114.8266 Y75.5749
G01 X114.8266 Y75.1288
G01 X114.8141 Y75.1114
G01 X114.7806 Y75.0556
G01 X114.7768 Y75.0487
G01 X114.7468 Y74.9851
G01 X114.7230 Y74.9189
G01 X114.7208 Y74.9113
G01 X114.7057 Y74.8508
G01 X114.7036 Y74.8404
G01 X114.6938 Y74.7735
G01 X114.6902 Y74.7006
G01 X114.6902 Y73.0094
G01 X114.6936 Y72.9392
G01 X114.6945 Y72.9313
G01 X114.7036 Y72.8696
G01 X114.7057 Y72.8592
G01 X114.7222 Y72.7936
G01 X114.7449 Y72.7299
G01 X114.7490 Y72.7201
G01 X114.7780 Y72.6590
G01 X114.8141 Y72.5986
G01 X114.8266 Y72.5812
G01 X114.8266 Y41.5784
G01 X68.9258 Y41.5784
G01 X68.8733 Y41.6257
G01 X68.7927 Y41.6855
G01 X68.7066 Y41.7371
G01 X68.6183 Y41.7790
G01 X68.6109 Y41.7820
G01 X68.5264 Y41.8122
G01 X68.5162 Y41.8153
G01 X68.4240 Y41.8383
G01 X68.3247 Y41.8530
G01 X68.2244 Y41.8579
G01 X66.3956 Y41.8579
G01 X66.2953 Y41.8530
G01 X66.1960 Y41.8383
G01 X66.0987 Y41.8139
G01 X66.0066 Y41.7810
G01 X65.9993 Y41.7779
G01 X65.9134 Y41.7371
G01 X65.8295 Y41.6870
G01 X65.8230 Y41.6825
G01 X65.7467 Y41.6257
G01 X65.6942 Y41.5784
G01 X56.5150 Y41.5784
G01 X56.4421 Y41.5748
G01 X56.3700 Y41.5641
G01 X56.2992 Y41.5464
G01 X56.2355 Y41.5237
G01 X56.2281 Y41.5207
G01 X56.1646 Y41.4906
G01 X56.1065 Y41.4559
G01 X56.0977 Y41.4500
G01 X56.0434 Y41.4096
G01 X55.9932 Y41.3643
G01 X55.9857 Y41.3568
G01 X55.9404 Y41.3066
G01 X55.8969 Y41.2480
G01 X55.8594 Y41.1854
G01 X55.8304 Y41.1243
G01 X55.8263 Y41.1145
G01 X55.8036 Y41.0508
G01 X55.7871 Y40.9852
G01 X55.7850 Y40.9748
G01 X55.7752 Y40.9079
G01 X55.7717 Y40.8377
G01 X55.7716 Y18.7184
G01 X29.8450 Y18.7184
G01 X29.7774 Y18.7152
G01 X29.7669 Y18.7141
G01 X29.7000 Y18.7041
G01 X29.6343 Y18.6878
G01 X29.6242 Y18.6847
G01 X29.5605 Y18.6618
G01 X29.4993 Y18.6330
G01 X29.4923 Y18.6293
G01 X29.4365 Y18.5959
G01 X29.4277 Y18.5900
G01 X29.3734 Y18.5496
G01 X29.3232 Y18.5043
G01 X29.3157 Y18.4968
G01 X29.2704 Y18.4466
G01 X29.2269 Y18.3880
G01 X29.1920 Y18.3300
G01 X29.1870 Y18.3207
G01 X29.1582 Y18.2595
G01 X29.1353 Y18.1958
G01 X29.1322 Y18.1857
G01 X29.1159 Y18.1200
G01 X29.1059 Y18.0531
G01 X29.1048 Y18.0426
G01 X29.1016 Y17.9750
G01 X29.1016 Y4.3393
G01 X29.0498 Y4.2922
G01 X28.9774 Y4.2124
G01 X28.9724 Y4.2062
G01 X28.9115 Y4.1240
G01 X28.9071 Y4.1173
G01 X28.8532 Y4.0271
G01 X28.8071 Y3.9298
G01 X28.8041 Y3.9224
G01 X28.7689 Y3.8234
G01 X28.7420 Y3.7164
G01 X28.7259 Y3.6072
G01 X28.7204 Y3.4970
G00 Z3.0000
G00 X31.6416 Y4.3393
G01 F60.00
G01 Z-0.0300
G01 F60.00
G01 X31.5937 Y4.2958
G01 X31.5880 Y4.2903
G01 X31.5192 Y4.2144
G01 X31.5140 Y4.2083
G01 X31.4500 Y4.1218
G01 X31.3958 Y4.0317
G01 X31.3920 Y4.0248
G01 X31.3460 Y3.9273
G01 X31.3089 Y3.8234
G01 X31.2820 Y3.7164
G01 X31.2659 Y3.6072
G01 X31.2604 Y3.4970
G01 X31.2605 Y1.4623
G01 X31.2655 Y1.3601
G01 X31.2665 Y1.3495
G01 X31.2820 Y1.2456
G01 X31.3081 Y1.1411
G01 X31.3105 Y1.1335
G01 X31.3460 Y1.0347
G01 X31.3932 Y0.9349
G01 X31.4500 Y0.8402
G01 X31.5157 Y0.7516
G01 X31.5898 Y0.6698
G01 X31.6716 Y0.5957
G01 X31.7602 Y0.5300
G01 X31.8549 Y0.4732
G01 X31.9547 Y0.4260
G01 X32.0586 Y0.3889
G01 X32.1656 Y0.3620
G01 X32.2748 Y0.3459
G01 X32.3850 Y0.3404
G01 X32.4952 Y0.3459
G01 X32.6044 Y0.3620
G01 X32.7089 Y0.3881
G01 X32.7165 Y0.3905
G01 X32.8104 Y0.4241
G01 X32.8202 Y0.4282
G01 X32.9151 Y0.4732
G01 X33.0098 Y0.5300
G01 X33.0984 Y0.5957
G01 X33.1763 Y0.6662
G01 X33.1838 Y0.6737
G01 X33.2508 Y0.7476
G01 X33.2576 Y0.7558
G01 X33.3200 Y0.8402
G01 X33.3768 Y0.9349
G01 X33.4240 Y1.0347
G01 X33.4595 Y1.1335
G01 X33.4625 Y1.1437
G01 X33.4868 Y1.2404
G01 X33.4889 Y1.2508
G01 X33.5041 Y1.3548
G01 X33.5095 Y1.4623
G01 X33.5096 Y3.4970
G01 X33.5045 Y3.6019
G01 X33.5039 Y3.6099
G01 X33.4880 Y3.7164
G01 X33.4611 Y3.8234
G01 X33.4240 Y3.9273
G01 X33.3780 Y4.0248
G01 X33.3742 Y4.0317
G01 X33.3200 Y4.1218
G01 X33.2560 Y4.2083
G01 X33.2508 Y4.2144
G01 X33.1820 Y4.2903
G01 X33.1763 Y4.2958
G01 X33.1284 Y4.3393
G01 X33.1284 Y15.3266
G01 X58.4200 Y15.3266
G01 X58.4929 Y15.3302
G01 X58.5650 Y15.3409
G01 X58.6358 Y15.3586
G01 X58.6995 Y15.3813
G01 X58.7093 Y15.3854
G01 X58.7704 Y15.4144
G01 X58.8285 Y15.4491
G01 X58.8373 Y15.4550
G01 X58.8874 Y15.4921
G01 X58.8956 Y15.4988
G01 X58.9456 Y15.5444
G01 X58.9946 Y15.5984
G01 X59.0381 Y15.6570
G01 X59.0756 Y15.7196
G01 X59.1068 Y15.7855
G01 X59.1297 Y15.8492
G01 X59.1328 Y15.8593
G01 X59.1479 Y15.9198
G01 X59.1500 Y15.9302
G01 X59.1598 Y15.9971
G01 X59.1634 Y16.0700
G01 X59.1634 Y37.5516
G01 X65.6942 Y37.5516
G01 X65.7467 Y37.5043
G01 X65.8273 Y37.4445
G01 X65.9134 Y37.3929
G01 X66.0017 Y37.3510
G01 X66.0091 Y37.3480
G01 X66.0936 Y37.3178
G01 X66.1038 Y37.3147
G01 X66.1960 Y37.2917
G01 X66.2953 Y37.2770
G01 X66.3956 Y37.2721
G01 X68.2244 Y37.2721
G01 X68.3247 Y37.2770
G01 X68.4240 Y37.2917
G01 X68.5213 Y37.3161
G01 X68.6134 Y37.3490
G01 X68.6207 Y37.3521
G01 X68.7066 Y37.3929
G01 X68.7905 Y37.4430
G01 X68.7970 Y37.4475
G01 X68.8733 Y37.5043
G01 X68.9258 Y37.5516
G01 X117.4750 Y37.5516
G01 X117.5479 Y37.5552
G01 X117.6148 Y37.5650
G01 X117.6252 Y37.5671
G01 X117.6857 Y37.5822
G01 X117.6958 Y37.5853
G01 X117.7595 Y37.6082
G01 X117.8254 Y37.6394
G01 X117.8880 Y37.6769
G01 X117.9466 Y37.7204
G01 X118.0006 Y37.7694
G01 X118.0462 Y37.8194
G01 X118.0529 Y37.8276
G01 X118.0900 Y37.8777
G01 X118.0959 Y37.8865
G01 X118.1306 Y37.9446
G01 X118.1596 Y38.0057
G01 X118.1637 Y38.0155
G01 X118.1864 Y38.0792
G01 X118.2041 Y38.1500
G01 X118.2148 Y38.2221
G01 X118.2184 Y38.2950
G01 X118.2184 Y70.3330
G01 X118.2148 Y70.4059
G01 X118.2050 Y70.4728
G01 X118.2029 Y70.4832
G01 X118.1878 Y70.5437
G01 X118.1856 Y70.5513
G01 X118.1618 Y70.6175
G01 X118.1318 Y70.6811
G01 X118.1280 Y70.6880
G01 X118.0945 Y70.7438
G01 X118.0820 Y70.7612
G01 X118.0820 Y71.8688
G01 X118.0945 Y71.8862
G01 X118.1293 Y71.9443
G01 X118.1330 Y71.9513
G01 X118.1596 Y72.0077
G01 X118.1628 Y72.0150
G01 X118.1847 Y72.0762
G01 X118.1878 Y72.0863
G01 X118.2041 Y72.1520
G01 X118.2145 Y72.2215
G01 X118.2152 Y72.2294
G01 X118.2184 Y72.2970
G01 X118.2184 Y73.0349
G01 X118.2547 Y73.0678
G01 X118.2604 Y73.0734
G01 X118.3298 Y73.1500
G01 X118.3348 Y73.1562
G01 X118.3948 Y73.2372
G01 X118.3991 Y73.2439
G01 X118.4522 Y73.3327
G01 X118.4977 Y73.4285
G01 X118.5006 Y73.4359
G01 X118.5353 Y73.5334
G01 X118.5618 Y73.6388
G01 X118.5777 Y73.7464
G01 X118.5830 Y73.8550
G01 X118.5777 Y73.9636
G01 X118.5627 Y74.0659
G01 X118.5606 Y74.0763
G01 X118.5368 Y74.1715
G01 X118.5337 Y74.1817
G01 X118.4987 Y74.2790
G01 X118.4522 Y74.3773
G01 X118.3963 Y74.4706
G01 X118.3315 Y74.5579
G01 X118.2585 Y74.6385
G01 X118.1820 Y74.7081
G01 X118.1738 Y74.7148
G01 X118.0906 Y74.7763
G01 X117.9973 Y74.8322
G01 X117.9039 Y74.8766
G01 X117.8941 Y74.8806
G01 X117.7966 Y74.9153
G01 X117.6963 Y74.9406
G01 X117.6859 Y74.9427
G01 X117.5836 Y74.9577
G01 X117.4750 Y74.9630
G01 X117.3664 Y74.9577
G01 X117.2641 Y74.9427
G01 X117.2537 Y74.9406
G01 X117.1585 Y74.9168
G01 X117.1483 Y74.9137
G01 X117.0510 Y74.8787
G01 X116.9574 Y74.8346
G01 X116.9481 Y74.8296
G01 X116.8594 Y74.7763
G01 X116.7721 Y74.7115
G01 X116.6953 Y74.6422
G01 X116.6878 Y74.6347
G01 X116.6219 Y74.5620
G01 X116.6152 Y74.5538
G01 X116.5537 Y74.4706
G01 X116.4978 Y74.3773
G01 X116.4513 Y74.2790
G01 X116.4163 Y74.1817
G01 X116.4132 Y74.1715
G01 X116.3894 Y74.0763
G01 X116.3873 Y74.0659
G01 X116.3723 Y73.9636
G01 X116.3671 Y73.8603
G01 X116.3671 Y73.8497
G01 X116.3723 Y73.7464
G01 X116.3882 Y73.6388
G01 X116.4147 Y73.5334
G01 X116.4494 Y73.4359
G01 X116.4523 Y73.4285
G01 X116.4978 Y73.3327
G01 X116.5509 Y73.2439
G01 X116.5552 Y73.2372
G01 X116.6152 Y73.1562
G01 X116.6202 Y73.1500
G01 X116.6896 Y73.0734
G01 X116.6953 Y73.0678
G01 X116.7316 Y73.0349
G01 X116.7316 Y72.5888
G01 X116.7191 Y72.5714
G01 X116.6856 Y72.5156
G01 X116.6818 Y72.5087
G01 X116.6518 Y72.4451
G01 X116.6280 Y72.3789
G01 X116.6258 Y72.3713
G01 X116.6107 Y72.3108
G01 X116.6086 Y72.3004
G01 X116.5988 Y72.2335
G01 X116.5952 Y72.1606
G01 X116.5952 Y70.4694
G01 X116.5986 Y70.3992
G01 X116.5995 Y70.3913
G01 X116.6086 Y70.3296
G01 X116.6107 Y70.3192
G01 X116.6272 Y70.2536
G01 X116.6499 Y70.1899
G01 X116.6540 Y70.1801
G01 X116.6830 Y70.1190
G01 X116.7191 Y70.0586
G01 X116.7316 Y70.0412
G01 X116.7316 Y39.0384
G01 X68.9258 Y39.0384
G01 X68.8733 Y39.0857
G01 X68.7927 Y39.1455
G01 X68.7066 Y39.1971
G01 X68.6183 Y39.2390
G01 X68.6109 Y39.2420
G01 X68.5264 Y39.2722
G01 X68.5162 Y39.2753
G01 X68.4240 Y39.2983
G01 X68.3247 Y39.3130
G01 X68.2244 Y39.3179
G01 X66.3956 Y39.3179
G01 X66.2953 Y39.3130
G01 X66.1960 Y39.2983
G01 X66.0987 Y39.2739
G01 X66.0066 Y39.2410
G01 X65.9993 Y39.2379
G01 X65.9134 Y39.1971
G01 X65.8295 Y39.1470
G01 X65.8230 Y39.1425
G01 X65.7467 Y39.0857
G01 X65.6942 Y39.0384
G01 X58.4200 Y39.0384
G01 X58.3471 Y39.0348
G01 X58.2750 Y39.0241
G01 X58.2042 Y39.0064
G01 X58.1355 Y38.9818
G01 X58.0743 Y38.9530
G01 X58.0650 Y38.9480
G01 X58.0070 Y38.9131
G01 X57.9484 Y38.8696
G01 X57.8982 Y38.8243
G01 X57.8907 Y38.8168
G01 X57.8454 Y38.7666
G01 X57.8019 Y38.7080
G01 X57.7644 Y38.6454
G01 X57.7354 Y38.5843
G01 X57.7313 Y38.5745
G01 X57.7086 Y38.5108
G01 X57.6921 Y38.4452
G01 X57.6900 Y38.4348
G01 X57.6802 Y38.3679
G01 X57.6767 Y38.2977
G01 X57.6766 Y16.8134
G01 X32.3850 Y16.8134
G01 X32.3121 Y16.8098
G01 X32.2452 Y16.8000
G01 X32.2348 Y16.7979
G01 X32.1743 Y16.7828
G01 X32.1642 Y16.7797
G01 X32.1005 Y16.7568
G01 X32.0393 Y16.7280
G01 X32.0300 Y16.7230
G01 X31.9765 Y16.6909
G01 X31.9677 Y16.6850
G01 X31.9134 Y16.6446
G01 X31.8632 Y16.5993
G01 X31.8557 Y16.5918
G01 X31.8104 Y16.5416
G01 X31.7700 Y16.4873
G01 X31.7641 Y16.4785
G01 X31.7294 Y16.4204
G01 X31.7004 Y16.3593
G01 X31.6963 Y16.3495
G01 X31.6736 Y16.2858
G01 X31.6571 Y16.2202
G01 X31.6550 Y16.2098
G01 X31.6452 Y16.1429
G01 X31.6417 Y16.0727
G01 X31.6416 Y4.3393
G00 Z3.0000
G00 X33.8004 Y3.4970
G01 F60.00
G01 Z-0.0300
G01 F60.00
G01 X33.8004 Y1.4650
G01 X33.8055 Y1.3601
G01 X33.8065 Y1.3495
G01 X33.8220 Y1.2456
G01 X33.8489 Y1.1386
G01 X33.8860 Y1.0347
G01 X33.9332 Y0.9349
G01 X33.9900 Y0.8402
G01 X34.0557 Y0.7516
G01 X34.1298 Y0.6698
G01 X34.2116 Y0.5957
G01 X34.3002 Y0.5300
G01 X34.3949 Y0.4732
G01 X34.4947 Y0.4260
G01 X34.5986 Y0.3889
G01 X34.7056 Y0.3620
G01 X34.8148 Y0.3459
G01 X34.9250 Y0.3404
G01 X35.0352 Y0.3459
G01 X35.1444 Y0.3620
G01 X35.2514 Y0.3889
G01 X35.3553 Y0.4260
G01 X35.4551 Y0.4732
G01 X35.5453 Y0.5271
G01 X35.5541 Y0.5330
G01 X35.6384 Y0.5957
G01 X35.7163 Y0.6662
G01 X35.7238 Y0.6737
G01 X35.7943 Y0.7516
G01 X35.8570 Y0.8359
G01 X35.8629 Y0.8447
G01 X35.9168 Y0.9349
G01 X35.9618 Y1.0298
G01 X35.9659 Y1.0396
G01 X36.0011 Y1.1386
G01 X36.0268 Y1.2404
G01 X36.0289 Y1.2508
G01 X36.0441 Y1.3548
G01 X36.0495 Y1.4623
G01 X36.0496 Y3.4970
G01 X36.0445 Y3.6019
G01 X36.0439 Y3.6099
G01 X36.0280 Y3.7164
G01 X36.0011 Y3.8234
G01 X35.9640 Y3.9273
G01 X35.9180 Y4.0248
G01 X35.9142 Y4.0317
G01 X35.8600 Y4.1218
G01 X35.7960 Y4.2083
G01 X35.7908 Y4.2144
G01 X35.7220 Y4.2903
G01 X35.7163 Y4.2958
G01 X35.6684 Y4.3393
G01 X35.6684 Y13.4216
G01 X60.3250 Y13.4216
G01 X60.3979 Y13.4252
G01 X60.4700 Y13.4359
G01 X60.5408 Y13.4536
G01 X60.6045 Y13.4763
G01 X60.6143 Y13.4804
G01 X60.6754 Y13.5094
G01 X60.7335 Y13.5441
G01 X60.7423 Y13.5500
G01 X60.7924 Y13.5871
G01 X60.8006 Y13.5938
G01 X60.8506 Y13.6394
G01 X60.8979 Y13.6914
G01 X60.9029 Y13.6976
G01 X60.9431 Y13.7520
G01 X60.9780 Y13.8100
G01 X60.9830 Y13.8193
G01 X61.0096 Y13.8757
G01 X61.0137 Y13.8855
G01 X61.0364 Y13.9492
G01 X61.0541 Y14.0200
G01 X61.0648 Y14.0921
G01 X61.0684 Y14.1650
G01 X61.0684 Y35.0116
G01 X65.6942 Y35.0116
G01 X65.7467 Y34.9643
G01 X65.8273 Y34.9045
G01 X65.9134 Y34.8529
G01 X66.0017 Y34.8110
G01 X66.0091 Y34.8080
G01 X66.0936 Y34.7778
G01 X66.1038 Y34.7747
G01 X66.1960 Y34.7517
G01 X66.2953 Y34.7370
G01 X66.3956 Y34.7321
G01 X68.2244 Y34.7321
G01 X68.3247 Y34.7370
G01 X68.4240 Y34.7517
G01 X68.5213 Y34.7761
G01 X68.6134 Y34.8090
G01 X68.6207 Y34.8121
G01 X68.7066 Y34.8529
G01 X68.7905 Y34.9030
G01 X68.7970 Y34.9075
G01 X68.8733 Y34.9643
G01 X68.9258 Y35.0116
G01 X119.3800 Y35.0116
G01 X119.4529 Y35.0152
G01 X119.5198 Y35.0250
G01 X119.5302 Y35.0271
G01 X119.5907 Y35.0422
G01 X119.6008 Y35.0453
G01 X119.6645 Y35.0682
G01 X119.7304 Y35.0994
G01 X119.7930 Y35.1369
G01 X119.8495 Y35.1787
G01 X119.8556 Y35.1838
G01 X119.9056 Y35.2294
G01 X119.9546 Y35.2834
G01 X119.9981 Y35.3420
G01 X120.0330 Y35.4000
G01 X120.0380 Y35.4093
G01 X120.0668 Y35.4705
G01 X120.0897 Y35.5342
G01 X120.0928 Y35.5443
G01 X120.1079 Y35.6048
G01 X120.1100 Y35.6152
G01 X120.1198 Y35.6821
G01 X120.1234 Y35.7550
G01 X120.1234 Y67.7930
G01 X120.1198 Y67.8659
G01 X120.1100 Y67.9328
G01 X120.1079 Y67.9432
G01 X120.0928 Y68.0037
G01 X120.0906 Y68.0113
G01 X120.0668 Y68.0775
G01 X120.0368 Y68.1411
G01 X120.0330 Y68.1480
G01 X119.9995 Y68.2038
G01 X119.9870 Y68.2212
G01 X119.9870 Y69.3288
G01 X119.9995 Y69.3462
G01 X120.0343 Y69.4043
G01 X120.0380 Y69.4113
G01 X120.0646 Y69.4677
G01 X120.0678 Y69.4750
G01 X120.0897 Y69.5362
G01 X120.0928 Y69.5463
G01 X120.1091 Y69.6120
G01 X120.1195 Y69.6815
G01 X120.1202 Y69.6894
G01 X120.1234 Y69.7570
G01 X120.1234 Y70.4949
G01 X120.1597 Y70.5278
G01 X120.1654 Y70.5334
G01 X120.2348 Y70.6100
G01 X120.2398 Y70.6162
G01 X120.2998 Y70.6972
G01 X120.3041 Y70.7039
G01 X120.3572 Y70.7927
G01 X120.4027 Y70.8885
G01 X120.4056 Y70.8959
G01 X120.4403 Y70.9934
G01 X120.4668 Y71.0988
G01 X120.4827 Y71.2064
G01 X120.4880 Y71.3150
G01 X120.4827 Y71.4236
G01 X120.4677 Y71.5259
G01 X120.4656 Y71.5363
G01 X120.4418 Y71.6315
G01 X120.4387 Y71.6417
G01 X120.4037 Y71.7390
G01 X120.3572 Y71.8373
G01 X120.3013 Y71.9306
G01 X120.2382 Y72.0159
G01 X120.2331 Y72.0220
G01 X120.1672 Y72.0947
G01 X120.1597 Y72.1022
G01 X120.0829 Y72.1715
G01 X119.9956 Y72.2363
G01 X119.9069 Y72.2896
G01 X119.8976 Y72.2946
G01 X119.8040 Y72.3387
G01 X119.7016 Y72.3753
G01 X119.6013 Y72.4006
G01 X119.5909 Y72.4027
G01 X119.4886 Y72.4177
G01 X119.3800 Y72.4230
G01 X119.2714 Y72.4177
G01 X119.1691 Y72.4027
G01 X119.1587 Y72.4006
G01 X119.0635 Y72.3768
G01 X119.0533 Y72.3737
G01 X118.9560 Y72.3387
G01 X118.8624 Y72.2946
G01 X118.8531 Y72.2896
G01 X118.7644 Y72.2363
G01 X118.6771 Y72.1715
G01 X118.6003 Y72.1022
G01 X118.5928 Y72.0947
G01 X118.5269 Y72.0220
G01 X118.5202 Y72.0138
G01 X118.4587 Y71.9306
G01 X118.4028 Y71.8373
G01 X118.3563 Y71.7390
G01 X118.3213 Y71.6417
G01 X118.3182 Y71.6315
G01 X118.2944 Y71.5363
G01 X118.2923 Y71.5259
G01 X118.2773 Y71.4236
G01 X118.2721 Y71.3203
G01 X118.2721 Y71.3097
G01 X118.2773 Y71.2064
G01 X118.2932 Y71.0988
G01 X118.3197 Y70.9934
G01 X118.3544 Y70.8959
G01 X118.3573 Y70.8885
G01 X118.4028 Y70.7927
G01 X118.4559 Y70.7039
G01 X118.4602 Y70.6972
G01 X118.5202 Y70.6162
G01 X118.5252 Y70.6100
G01 X118.5946 Y70.5334
G01 X118.6003 Y70.5278
G01 X118.6366 Y70.4949
G01 X118.6366 Y70.0488
G01 X118.6241 Y70.0314
G01 X118.5906 Y69.9756
G01 X118.5868 Y69.9687
G01 X118.5568 Y69.9051
G01 X118.5330 Y69.8389
G01 X118.5308 Y69.8313
G01 X118.5157 Y69.7708
G01 X118.5136 Y69.7604
G01 X118.5038 Y69.6935
G01 X118.5002 Y69.6206
G01 X118.5002 Y67.9294
G01 X118.5036 Y67.8592
G01 X118.5045 Y67.8513
G01 X118.5136 Y67.7896
G01 X118.5157 Y67.7792
G01 X118.5322 Y67.7136
G01 X118.5549 Y67.6499
G01 X118.5590 Y67.6401
G01 X118.5880 Y67.5790
G01 X118.6241 Y67.5186
G01 X118.6366 Y67.5012
G01 X118.6366 Y36.4984
G01 X68.9258 Y36.4984
G01 X68.8733 Y36.5457
G01 X68.7927 Y36.6055
G01 X68.7066 Y36.6571
G01 X68.6183 Y36.6990
G01 X68.6109 Y36.7020
G01 X68.5264 Y36.7322
G01 X68.5162 Y36.7353
G01 X68.4240 Y36.7583
G01 X68.3247 Y36.7730
G01 X68.2244 Y36.7779
G01 X66.3956 Y36.7779
G01 X66.2953 Y36.7730
G01 X66.1960 Y36.7583
G01 X66.0987 Y36.7339
G01 X66.0066 Y36.7010
G01 X65.9993 Y36.6979
G01 X65.9134 Y36.6571
G01 X65.8295 Y36.6070
G01 X65.8230 Y36.6025
G01 X65.7467 Y36.5457
G01 X65.6942 Y36.4984
G01 X60.3250 Y36.4984
G01 X60.2521 Y36.4948
G01 X60.1800 Y36.4841
G01 X60.1092 Y36.4664
G01 X60.0430 Y36.4428
G01 X60.0357 Y36.4396
G01 X59.9793 Y36.4130
G01 X59.9700 Y36.4080
G01 X59.9120 Y36.3731
G01 X59.8534 Y36.3296
G01 X59.8032 Y36.2843
G01 X59.7957 Y36.2768
G01 X59.7504 Y36.2266
G01 X59.7069 Y36.1680
G01 X59.6694 Y36.1054
G01 X59.6404 Y36.0443
G01 X59.6363 Y36.0345
G01 X59.6136 Y35.9708
G01 X59.5971 Y35.9052
G01 X59.5950 Y35.8948
G01 X59.5852 Y35.8279
G01 X59.5817 Y35.7577
G01 X59.5816 Y14.9084
G01 X34.9250 Y14.9084
G01 X34.8521 Y14.9048
G01 X34.7800 Y14.8941
G01 X34.7092 Y14.8764
G01 X34.6455 Y14.8537
G01 X34.6381 Y14.8507
G01 X34.5746 Y14.8206
G01 X34.5165 Y14.7859
G01 X34.5077 Y14.7800
G01 X34.4534 Y14.7396
G01 X34.4032 Y14.6943
G01 X34.3957 Y14.6868
G01 X34.3504 Y14.6366
G01 X34.3100 Y14.5823
G01 X34.3041 Y14.5735
G01 X34.2694 Y14.5154
G01 X34.2404 Y14.4543
G01 X34.2363 Y14.4445
G01 X34.2136 Y14.3808
G01 X34.1971 Y14.3152
G01 X34.1950 Y14.3048
G01 X34.1859 Y14.2431
G01 X34.1850 Y14.2352
G01 X34.1816 Y14.1650
G01 X34.1816 Y4.3393
G01 X34.1298 Y4.2922
G01 X34.0574 Y4.2124
G01 X34.0524 Y4.2062
G01 X33.9915 Y4.1240
G01 X33.9871 Y4.1173
G01 X33.9332 Y4.0271
G01 X33.8871 Y3.9298
G01 X33.8841 Y3.9224
G01 X33.8489 Y3.8234
G01 X33.8220 Y3.7164
G01 X33.8059 Y3.6072
G01 X33.8004 Y3.4970
G00 Z3.0000
G00 X36.7216 Y4.3393
G01 F60.00
G01 Z-0.0300
G01 F60.00
G01 X36.6737 Y4.2958
G01 X36.6680 Y4.2903
G01 X36.5992 Y4.2144
G01 X36.5940 Y4.2083
G01 X36.5300 Y4.1218
G01 X36.4758 Y4.0317
G01 X36.4720 Y4.0248
G01 X36.4260 Y3.9273
G01 X36.3889 Y3.8234
G01 X36.3620 Y3.7164
G01 X36.3459 Y3.6072
G01 X36.3404 Y3.4970
G01 X36.3405 Y1.4623
G01 X36.3455 Y1.3601
G01 X36.3465 Y1.3495
G01 X36.3620 Y1.2456
G01 X36.3881 Y1.1411
G01 X36.3905 Y1.1335
G01 X36.4260 Y1.0347
G01 X36.4732 Y0.9349
G01 X36.5300 Y0.8402
G01 X36.5957 Y0.7516
G01 X36.6698 Y0.6698
G01 X36.7516 Y0.5957
G01 X36.8402 Y0.5300
G01 X36.9349 Y0.4732
G01 X37.0347 Y0.4260
G01 X37.1386 Y0.3889
G01 X37.2456 Y0.3620
G01 X37.3548 Y0.3459
G01 X37.4650 Y0.3404
G01 X37.5752 Y0.3459
G01 X37.6844 Y0.3620
G01 X37.7889 Y0.3881
G01 X37.7965 Y0.3905
G01 X37.8904 Y0.4241
G01 X37.9002 Y0.4282
G01 X37.9951 Y0.4732
G01 X38.0898 Y0.5300
G01 X38.1784 Y0.5957
G01 X38.2563 Y0.6662
G01 X38.2638 Y0.6737
G01 X38.3308 Y0.7476
G01 X38.3376 Y0.7558
G01 X38.4000 Y0.8402
G01 X38.4568 Y0.9349
G01 X38.5040 Y1.0347
G01 X38.5395 Y1.1335
G01 X38.5425 Y1.1437
G01 X38.5668 Y1.2404
G01 X38.5689 Y1.2508
G01 X38.5841 Y1.3548
G01 X38.5894 Y1.4597
G01 X38.5896 Y3.4970
G01 X38.5845 Y3.6019
G01 X38.5839 Y3.6099
G01 X38.5680 Y3.7164
G01 X38.5411 Y3.8234
G01 X38.5040 Y3.9273
G01 X38.4580 Y4.0248
G01 X38.4542 Y4.0317
G01 X38.4000 Y4.1218
G01 X38.3360 Y4.2083
G01 X38.3308 Y4.2144
G01 X38.2620 Y4.2903
G01 X38.2563 Y4.2958
G01 X38.2084 Y4.3393
G01 X38.2084 Y11.5166
G01 X62.2300 Y11.5166
G01 X62.3029 Y11.5202
G01 X62.3750 Y11.5309
G01 X62.4458 Y11.5486
G01 X62.5145 Y11.5732
G01 X62.5804 Y11.6044
G01 X62.6430 Y11.6419
G01 X62.7016 Y11.6854
G01 X62.7518 Y11.7307
G01 X62.7575 Y11.7363
G01 X62.8046 Y11.7884
G01 X62.8481 Y11.8470
G01 X62.8856 Y11.9096
G01 X62.9168 Y11.9755
G01 X62.9414 Y12.0442
G01 X62.9591 Y12.1150
G01 X62.9698 Y12.1871
G01 X62.9734 Y12.2600
G01 X62.9734 Y32.4716
G01 X65.6942 Y32.4716
G01 X65.7467 Y32.4243
G01 X65.8273 Y32.3645
G01 X65.9134 Y32.3129
G01 X66.0017 Y32.2710
G01 X66.0091 Y32.2680
G01 X66.0936 Y32.2378
G01 X66.1038 Y32.2347
G01 X66.1960 Y32.2117
G01 X66.2953 Y32.1970
G01 X66.3956 Y32.1921
G01 X68.2244 Y32.1921
G01 X68.3247 Y32.1970
G01 X68.4240 Y32.2117
G01 X68.5213 Y32.2361
G01 X68.6134 Y32.2690
G01 X68.6207 Y32.2721
G01 X68.7066 Y32.3129
G01 X68.7905 Y32.3630
G01 X68.7970 Y32.3675
G01 X68.8733 Y32.4243
G01 X68.9258 Y32.4716
G01 X121.2850 Y32.4716
G01 X121.3579 Y32.4752
G01 X121.4248 Y32.4850
G01 X121.4352 Y32.4871
G01 X121.4957 Y32.5022
G01 X121.5058 Y32.5053
G01 X121.5695 Y32.5282
G01 X121.6354 Y32.5594
G01 X121.6980 Y32.5969
G01 X121.7545 Y32.6387
G01 X121.7606 Y32.6438
G01 X121.8106 Y32.6894
G01 X121.8596 Y32.7434
G01 X121.9031 Y32.8020
G01 X121.9380 Y32.8600
G01 X121.9430 Y32.8693
G01 X121.9718 Y32.9305
G01 X121.9947 Y32.9942
G01 X121.9978 Y33.0043
G01 X122.0129 Y33.0648
G01 X122.0150 Y33.0752
G01 X122.0248 Y33.1421
G01 X122.0284 Y33.2150
G01 X122.0284 Y65.2530
G01 X122.0248 Y65.3259
G01 X122.0150 Y65.3928
G01 X122.0129 Y65.4032
G01 X121.9978 Y65.4637
G01 X121.9956 Y65.4713
G01 X121.9718 Y65.5375
G01 X121.9418 Y65.6011
G01 X121.9380 Y65.6080
G01 X121.9045 Y65.6638
G01 X121.8920 Y65.6812
G01 X121.8920 Y66.7888
G01 X121.9045 Y66.8062
G01 X121.9393 Y66.8643
G01 X121.9430 Y66.8713
G01 X121.9696 Y66.9277
G01 X121.9728 Y66.9350
G01 X121.9947 Y66.9962
G01 X121.9978 Y67.0063
G01 X122.0141 Y67.0720
G01 X122.0245 Y67.1415
G01 X122.0252 Y67.1494
G01 X122.0284 Y67.2170
G01 X122.0284 Y67.9549
G01 X122.0647 Y67.9878
G01 X122.0704 Y67.9934
G01 X122.1398 Y68.0700
G01 X122.1448 Y68.0762
G01 X122.2048 Y68.1572
G01 X122.2091 Y68.1639
G01 X122.2622 Y68.2527
G01 X122.3077 Y68.3485
G01 X122.3106 Y68.3559
G01 X122.3453 Y68.4534
G01 X122.3718 Y68.5588
G01 X122.3877 Y68.6664
G01 X122.3930 Y68.7750
G01 X122.3877 Y68.8836
G01 X122.3727 Y68.9859
G01 X122.3706 Y68.9963
G01 X122.3468 Y69.0915
G01 X122.3437 Y69.1017
G01 X122.3087 Y69.1990
G01 X122.2622 Y69.2973
G01 X122.2063 Y69.3906
G01 X122.1432 Y69.4759
G01 X122.1381 Y69.4820
G01 X122.0722 Y69.5547
G01 X122.0647 Y69.5622
G01 X121.9879 Y69.6315
G01 X121.9006 Y69.6963
G01 X121.8073 Y69.7522
G01 X121.7139 Y69.7966
G01 X121.7041 Y69.8006
G01 X121.6066 Y69.8353
G01 X121.5063 Y69.8606
G01 X121.4959 Y69.8627
G01 X121.3936 Y69.8777
G01 X121.2850 Y69.8830
G01 X121.1764 Y69.8777
G01 X121.0741 Y69.8627
G01 X121.0637 Y69.8606
G01 X120.9685 Y69.8368
G01 X120.9583 Y69.8337
G01 X120.8610 Y69.7987
G01 X120.7674 Y69.7546
G01 X120.7581 Y69.7496
G01 X120.6694 Y69.6963
G01 X120.5821 Y69.6315
G01 X120.5053 Y69.5622
G01 X120.4978 Y69.5547
G01 X120.4319 Y69.4820
G01 X120.4252 Y69.4738
G01 X120.3637 Y69.3906
G01 X120.3078 Y69.2973
G01 X120.2613 Y69.1990
G01 X120.2263 Y69.1017
G01 X120.2232 Y69.0915
G01 X120.1994 Y68.9963
G01 X120.1973 Y68.9859
G01 X120.1823 Y68.8836
G01 X120.1771 Y68.7803
G01 X120.1771 Y68.7697
G01 X120.1823 Y68.6664
G01 X120.1982 Y68.5588
G01 X120.2247 Y68.4534
G01 X120.2594 Y68.3559
G01 X120.2623 Y68.3485
G01 X120.3078 Y68.2527
G01 X120.3609 Y68.1639
G01 X120.3652 Y68.1572
G01 X120.4252 Y68.0762
G01 X120.4302 Y68.0700
G01 X120.4996 Y67.9934
G01 X120.5053 Y67.9878
G01 X120.5416 Y67.9549
G01 X120.5416 Y67.5088
G01 X120.5291 Y67.4914
G01 X120.4956 Y67.4356
G01 X120.4918 Y67.4287
G01 X120.4618 Y67.3651
G01 X120.4380 Y67.2989
G01 X120.4358 Y67.2913
G01 X120.4207 Y67.2308
G01 X120.4186 Y67.2204
G01 X120.4088 Y67.1535
G01 X120.4052 Y67.0806
G01 X120.4052 Y65.3894
G01 X120.4086 Y65.3192
G01 X120.4095 Y65.3113
G01 X120.4186 Y65.2496
G01 X120.4207 Y65.2392
G01 X120.4372 Y65.1736
G01 X120.4599 Y65.1099
G01 X120.4640 Y65.1001
G01 X120.4930 Y65.0390
G01 X120.5291 Y64.9786
G01 X120.5416 Y64.9612
G01 X120.5416 Y33.9584
G01 X68.9258 Y33.9584
G01 X68.8733 Y34.0057
G01 X68.7927 Y34.0655
G01 X68.7066 Y34.1171
G01 X68.6183 Y34.1590
G01 X68.6109 Y34.1620
G01 X68.5264 Y34.1922
G01 X68.5162 Y34.1953
G01 X68.4240 Y34.2183
G01 X68.3247 Y34.2330
G01 X68.2244 Y34.2379
G01 X66.3956 Y34.2379
G01 X66.2953 Y34.2330
G01 X66.1960 Y34.2183
G01 X66.0987 Y34.1939
G01 X66.0066 Y34.1610
G01 X65.9993 Y34.1579
G01 X65.9134 Y34.1171
G01 X65.8295 Y34.0670
G01 X65.8230 Y34.0625
G01 X65.7467 Y34.0057
G01 X65.6942 Y33.9584
G01 X62.2300 Y33.9584
G01 X62.1571 Y33.9548
G01 X62.0902 Y33.9450
G01 X62.0798 Y33.9429
G01 X62.0193 Y33.9278
G01 X62.0092 Y33.9247
G01 X61.9455 Y33.9018
G01 X61.8843 Y33.8730
G01 X61.8750 Y33.8680
G01 X61.8215 Y33.8359
G01 X61.8127 Y33.8300
G01 X61.7584 Y33.7896
G01 X61.7044 Y33.7406
G01 X61.6554 Y33.6866
G01 X61.6150 Y33.6323
G01 X61.6091 Y33.6235
G01 X61.5770 Y33.5700
G01 X61.5720 Y33.5607
G01 X61.5432 Y33.4995
G01 X61.5186 Y33.4308
G01 X61.5021 Y33.3652
G01 X61.5000 Y33.3548
G01 X61.4902 Y33.2879
G01 X61.4867 Y33.2177
G01 X61.4866 Y13.0034
G01 X37.4650 Y13.0034
G01 X37.3921 Y12.9998
G01 X37.3252 Y12.9900
G01 X37.3148 Y12.9879
G01 X37.2543 Y12.9728
G01 X37.2442 Y12.9697
G01 X37.1805 Y12.9468
G01 X37.1193 Y12.9180
G01 X37.1100 Y12.9130
G01 X37.0520 Y12.8781
G01 X36.9934 Y12.8346
G01 X36.9432 Y12.7893
G01 X36.9357 Y12.7818
G01 X36.8904 Y12.7316
G01 X36.8500 Y12.6773
G01 X36.8441 Y12.6685
G01 X36.8094 Y12.6104
G01 X36.7782 Y12.5445
G01 X36.7536 Y12.4758
G01 X36.7371 Y12.4102
G01 X36.7350 Y12.3998
G01 X36.7259 Y12.3381
G01 X36.7248 Y12.3276
G01 X36.7216 Y12.2600
G01 X36.7216 Y4.3393
G00 Z3.0000
G00 X38.8804 Y3.4970
G01 F60.00
G01 Z-0.0300
G01 F60.00
G01 X38.8804 Y1.4650
G01 X38.8855 Y1.3601
G01 X38.8865 Y1.3495
G01 X38.9020 Y1.2456
G01 X38.9289 Y1.1386
G01 X38.9660 Y1.0347
G01 X39.0132 Y0.9349
G01 X39.0700 Y0.8402
G01 X39.1357 Y0.7516
G01 X39.2098 Y0.6698
G01 X39.2916 Y0.5957
G01 X39.3802 Y0.5300
G01 X39.4749 Y0.4732
G01 X39.5747 Y0.4260
G01 X39.6786 Y0.3889
G01 X39.7856 Y0.3620
G01 X39.8948 Y0.3459
G01 X40.0050 Y0.3404
G01 X40.1152 Y0.3459
G01 X40.2244 Y0.3620
G01 X40.3314 Y0.3889
G01 X40.4353 Y0.4260
G01 X40.5351 Y0.4732
G01 X40.6253 Y0.5271
G01 X40.6341 Y0.5330
G01 X40.7184 Y0.5957
G01 X40.7963 Y0.6662
G01 X40.8038 Y0.6737
G01 X40.8743 Y0.7516
G01 X40.9370 Y0.8359
G01 X40.9429 Y0.8447
G01 X40.9968 Y0.9349
G01 X41.0418 Y1.0298
G01 X41.0459 Y1.0396
G01 X41.0811 Y1.1386
G01 X41.1068 Y1.2404
G01 X41.1089 Y1.2508
G01 X41.1241 Y1.3548
G01 X41.1295 Y1.4623
G01 X41.1296 Y3.4970
G01 X41.1245 Y3.6019
G01 X41.1239 Y3.6099
G01 X41.1080 Y3.7164
G01 X41.0811 Y3.8234
G01 X41.0440 Y3.9273
G01 X40.9980 Y4.0248
G01 X40.9942 Y4.0317
G01 X40.9400 Y4.1218
G01 X40.8760 Y4.2083
G01 X40.8708 Y4.2144
G01 X40.8020 Y4.2903
G01 X40.7963 Y4.2958
G01 X40.7484 Y4.3393
G01 X40.7484 Y9.6116
G01 X64.1350 Y9.6116
G01 X64.2079 Y9.6152
G01 X64.2800 Y9.6259
G01 X64.3508 Y9.6436
G01 X64.4195 Y9.6682
G01 X64.4854 Y9.6994
G01 X64.5480 Y9.7369
G01 X64.6066 Y9.7804
G01 X64.6606 Y9.8294
G01 X64.7096 Y9.8834
G01 X64.7531 Y9.9420
G01 X64.7906 Y10.0046
G01 X64.8218 Y10.0705
G01 X64.8464 Y10.1392
G01 X64.8641 Y10.2100
G01 X64.8748 Y10.2821
G01 X64.8784 Y10.3550
G01 X64.8784 Y29.9316
G01 X65.6942 Y29.9316
G01 X65.7467 Y29.8843
G01 X65.8273 Y29.8245
G01 X65.9134 Y29.7729
G01 X66.0017 Y29.7310
G01 X66.0091 Y29.7280
G01 X66.0936 Y29.6978
G01 X66.1038 Y29.6947
G01 X66.1960 Y29.6717
G01 X66.2901 Y29.6577
G01 X66.2980 Y29.6568
G01 X66.3956 Y29.6521
G01 X68.2244 Y29.6521
G01 X68.3247 Y29.6570
G01 X68.4240 Y29.6717
G01 X68.5213 Y29.6961
G01 X68.6134 Y29.7290
G01 X68.6207 Y29.7321
G01 X68.7066 Y29.7729
G01 X68.7905 Y29.8230
G01 X68.7970 Y29.8275
G01 X68.8733 Y29.8843
G01 X68.9258 Y29.9316
G01 X123.1900 Y29.9316
G01 X123.2629 Y29.9352
G01 X123.3298 Y29.9450
G01 X123.3402 Y29.9471
G01 X123.4007 Y29.9622
G01 X123.4108 Y29.9653
G01 X123.4745 Y29.9882
G01 X123.5404 Y30.0194
G01 X123.6030 Y30.0569
G01 X123.6574 Y30.0971
G01 X123.6656 Y30.1038
G01 X123.7156 Y30.1494
G01 X123.7646 Y30.2034
G01 X123.8081 Y30.2620
G01 X123.8430 Y30.3200
G01 X123.8480 Y30.3293
G01 X123.8768 Y30.3905
G01 X123.8997 Y30.4542
G01 X123.9028 Y30.4643
G01 X123.9179 Y30.5248
G01 X123.9200 Y30.5352
G01 X123.9298 Y30.6021
G01 X123.9334 Y30.6750
G01 X123.9334 Y62.7130
G01 X123.9298 Y62.7859
G01 X123.9200 Y62.8528
G01 X123.9179 Y62.8632
G01 X123.9028 Y62.9237
G01 X123.9006 Y62.9313
G01 X123.8768 Y62.9975
G01 X123.8468 Y63.0611
G01 X123.8430 Y63.0680
G01 X123.8095 Y63.1238
G01 X123.7970 Y63.1412
G01 X123.7970 Y64.2488
G01 X123.8095 Y64.2662
G01 X123.8443 Y64.3243
G01 X123.8480 Y64.3313
G01 X123.8746 Y64.3877
G01 X123.8778 Y64.3950
G01 X123.8997 Y64.4562
G01 X123.9028 Y64.4663
G01 X123.9191 Y64.5320
G01 X123.9295 Y64.6015
G01 X123.9302 Y64.6094
G01 X123.9334 Y64.6770
G01 X123.9334 Y65.4149
G01 X123.9697 Y65.4478
G01 X123.9754 Y65.4534
G01 X124.0448 Y65.5300
G01 X124.0498 Y65.5362
G01 X124.1098 Y65.6172
G01 X124.1141 Y65.6239
G01 X124.1672 Y65.7127
G01 X124.2127 Y65.8085
G01 X124.2156 Y65.8159
G01 X124.2503 Y65.9134
G01 X124.2768 Y66.0188
G01 X124.2927 Y66.1264
G01 X124.2980 Y66.2350
G01 X124.2927 Y66.3436
G01 X124.2777 Y66.4459
G01 X124.2756 Y66.4563
G01 X124.2518 Y66.5515
G01 X124.2487 Y66.5617
G01 X124.2137 Y66.6590
G01 X124.1672 Y66.7573
G01 X124.1113 Y66.8506
G01 X124.0498 Y66.9338
G01 X124.0431 Y66.9420
G01 X123.9772 Y67.0147
G01 X123.9697 Y67.0222
G01 X123.8929 Y67.0915
G01 X123.8056 Y67.1563
G01 X123.7123 Y67.2122
G01 X123.6189 Y67.2566
G01 X123.6091 Y67.2606
G01 X123.5116 Y67.2953
G01 X123.4062 Y67.3218
G01 X123.3039 Y67.3371
G01 X123.2933 Y67.3381
G01 X123.1900 Y67.3430
G01 X123.0814 Y67.3377
G01 X122.9791 Y67.3227
G01 X122.9687 Y67.3206
G01 X122.8735 Y67.2968
G01 X122.8633 Y67.2937
G01 X122.7660 Y67.2587
G01 X122.6724 Y67.2146
G01 X122.6631 Y67.2096
G01 X122.5744 Y67.1563
G01 X122.4871 Y67.0915
G01 X122.4103 Y67.0222
G01 X122.4028 Y67.0147
G01 X122.3369 Y66.9420
G01 X122.3302 Y66.9338
G01 X122.2687 Y66.8506
G01 X122.2128 Y66.7573
G01 X122.1663 Y66.6590
G01 X122.1313 Y66.5617
G01 X122.1282 Y66.5515
G01 X122.1044 Y66.4563
G01 X122.1023 Y66.4459
G01 X122.0873 Y66.3436
G01 X122.0821 Y66.2403
G01 X122.0821 Y66.2297
G01 X122.0873 Y66.1264
G01 X122.1032 Y66.0188
G01 X122.1297 Y65.9134
G01 X122.1644 Y65.8159
G01 X122.1673 Y65.8085
G01 X122.2128 Y65.7127
G01 X122.2659 Y65.6239
G01 X122.2702 Y65.6172
G01 X122.3302 Y65.5362
G01 X122.3352 Y65.5300
G01 X122.4046 Y65.4534
G01 X122.4103 Y65.4478
G01 X122.4466 Y65.4149
G01 X122.4466 Y64.9688
G01 X122.4341 Y64.9514
G01 X122.4006 Y64.8956
G01 X122.3968 Y64.8887
G01 X122.3668 Y64.8251
G01 X122.3430 Y64.7589
G01 X122.3408 Y64.7513
G01 X122.3257 Y64.6908
G01 X122.3236 Y64.6804
G01 X122.3138 Y64.6135
G01 X122.3102 Y64.5406
G01 X122.3102 Y62.8494
G01 X122.3136 Y62.7792
G01 X122.3145 Y62.7713
G01 X122.3236 Y62.7096
G01 X122.3257 Y62.6992
G01 X122.3422 Y62.6336
G01 X122.3649 Y62.5699
G01 X122.3690 Y62.5601
G01 X122.3980 Y62.4990
G01 X122.4341 Y62.4386
G01 X122.4466 Y62.4212
G01 X122.4466 Y31.4184
G01 X68.9258 Y31.4184
G01 X68.8733 Y31.4657
G01 X68.7927 Y31.5255
G01 X68.7066 Y31.5771
G01 X68.6183 Y31.6190
G01 X68.6109 Y31.6220
G01 X68.5264 Y31.6522
G01 X68.5162 Y31.6553
G01 X68.4240 Y31.6783
G01 X68.3247 Y31.6930
G01 X68.2244 Y31.6979
G01 X66.3956 Y31.6979
G01 X66.2953 Y31.6930
G01 X66.1960 Y31.6783
G01 X66.0987 Y31.6539
G01 X66.0066 Y31.6210
G01 X65.9993 Y31.6179
G01 X65.9134 Y31.5771
G01 X65.8295 Y31.5270
G01 X65.8230 Y31.5225
G01 X65.7467 Y31.4657
G01 X65.6942 Y31.4184
G01 X64.1323 Y31.4183
G01 X64.0621 Y31.4148
G01 X63.9952 Y31.4050
G01 X63.9848 Y31.4029
G01 X63.9243 Y31.3878
G01 X63.9167 Y31.3856
G01 X63.8505 Y31.3618
G01 X63.7893 Y31.3330
G01 X63.7800 Y31.3280
G01 X63.7265 Y31.2959
G01 X63.7177 Y31.2900
G01 X63.6634 Y31.2496
G01 X63.6094 Y31.2006
G01 X63.5604 Y31.1466
G01 X63.5200 Y31.0923
G01 X63.5141 Y31.0835
G01 X63.4820 Y31.0300
G01 X63.4770 Y31.0207
G01 X63.4482 Y30.9595
G01 X63.4236 Y30.8908
G01 X63.4071 Y30.8252
G01 X63.4050 Y30.8148
G01 X63.3952 Y30.7479
G01 X63.3917 Y30.6777
G01 X63.3916 Y11.0984
G01 X40.0050 Y11.0984
G01 X39.9374 Y11.0952
G01 X39.9269 Y11.0941
G01 X39.8600 Y11.0841
G01 X39.7892 Y11.0664
G01 X39.7205 Y11.0418
G01 X39.6593 Y11.0130
G01 X39.6500 Y11.0080
G01 X39.5920 Y10.9731
G01 X39.5334 Y10.9296
G01 X39.4832 Y10.8843
G01 X39.4757 Y10.8768
G01 X39.4304 Y10.8266
G01 X39.3900 Y10.7723
G01 X39.3841 Y10.7635
G01 X39.3494 Y10.7054
G01 X39.3182 Y10.6395
G01 X39.2953 Y10.5758
G01 X39.2922 Y10.5657
G01 X39.2759 Y10.5000
G01 X39.2655 Y10.4305
G01 X39.2648 Y10.4226
G01 X39.2616 Y10.3550
G01 X39.2616 Y4.3393
G01 X39.2098 Y4.2922
G01 X39.1374 Y4.2124
G01 X39.1324 Y4.2062
G01 X39.0715 Y4.1240
G01 X39.0671 Y4.1173
G01 X39.0132 Y4.0271
G01 X38.9671 Y3.9298
G01 X38.9641 Y3.9224
G01 X38.9289 Y3.8234
G01 X38.9020 Y3.7164
G01 X38.8859 Y3.6072
G01 X38.8804 Y3.4970
G00 Z3.0000
G00 X41.8016 Y4.3393
G01 F60.00
G01 Z-0.0300
G01 F60.00
G01 X41.7537 Y4.2958
G01 X41.7480 Y4.2903
G01 X41.6792 Y4.2144
G01 X41.6740 Y4.2083
G01 X41.6100 Y4.1218
G01 X41.5558 Y4.0317
G01 X41.5520 Y4.0248
G01 X41.5060 Y3.9273
G01 X41.4689 Y3.8234
G01 X41.4420 Y3.7164
G01 X41.4261 Y3.6099
G01 X41.4255 Y3.6019
G01 X41.4204 Y3.4970
G01 X41.4204 Y1.4650
G01 X41.4259 Y1.3548
G01 X41.4411 Y1.2508
G01 X41.4426 Y1.2430
G01 X41.4689 Y1.1386
G01 X41.5060 Y1.0347
G01 X41.5532 Y0.9349
G01 X41.6100 Y0.8402
G01 X41.6757 Y0.7516
G01 X41.7498 Y0.6698
G01 X41.8316 Y0.5957
G01 X41.9159 Y0.5330
G01 X41.9247 Y0.5271
G01 X42.0103 Y0.4758
G01 X42.0196 Y0.4708
G01 X42.1147 Y0.4260
G01 X42.2135 Y0.3905
G01 X42.2237 Y0.3875
G01 X42.3256 Y0.3620
G01 X42.4348 Y0.3459
G01 X42.5450 Y0.3404
G01 X42.6499 Y0.3455
G01 X42.6605 Y0.3465
G01 X42.7644 Y0.3620
G01 X42.8714 Y0.3889
G01 X42.9753 Y0.4260
G01 X43.0704 Y0.4708
G01 X43.0797 Y0.4758
G01 X43.1653 Y0.5271
G01 X43.1741 Y0.5330
G01 X43.2584 Y0.5957
G01 X43.3402 Y0.6698
G01 X43.4143 Y0.7516
G01 X43.4800 Y0.8402
G01 X43.5368 Y0.9349
G01 X43.5818 Y1.0298
G01 X43.5859 Y1.0396
G01 X43.6195 Y1.1335
G01 X43.6225 Y1.1437
G01 X43.6480 Y1.2456
G01 X43.6635 Y1.3495
G01 X43.6644 Y1.3574
G01 X43.6696 Y1.4650
G01 X43.6696 Y3.4970
G01 X43.6645 Y3.6019
G01 X43.6639 Y3.6099
G01 X43.6480 Y3.7164
G01 X43.6211 Y3.8234
G01 X43.5840 Y3.9273
G01 X43.5380 Y4.0248
G01 X43.5342 Y4.0317
G01 X43.4800 Y4.1218
G01 X43.4160 Y4.2083
G01 X43.4108 Y4.2144
G01 X43.3420 Y4.2903
G01 X43.3363 Y4.2958
G01 X43.2884 Y4.3393
G01 X43.2884 Y7.7066
G01 X66.0400 Y7.7066
G01 X66.1076 Y7.7098
G01 X66.1181 Y7.7109
G01 X66.1850 Y7.7209
G01 X66.2507 Y7.7372
G01 X66.2608 Y7.7403
G01 X66.3245 Y7.7632
G01 X66.3857 Y7.7920
G01 X66.3927 Y7.7957
G01 X66.4530 Y7.8319
G01 X66.5074 Y7.8721
G01 X66.5156 Y7.8788
G01 X66.5656 Y7.9244
G01 X66.6112 Y7.9744
G01 X66.6179 Y7.9826
G01 X66.6581 Y8.0370
G01 X66.6930 Y8.0950
G01 X66.6980 Y8.1043
G01 X66.7268 Y8.1655
G01 X66.7497 Y8.2292
G01 X66.7528 Y8.2393
G01 X66.7691 Y8.3050
G01 X66.7791 Y8.3719
G01 X66.7802 Y8.3824
G01 X66.7833 Y8.4473
G01 X66.7834 Y18.9371
G01 X67.3384 Y19.4921
G01 X68.2271 Y19.4921
G01 X68.3247 Y19.4970
G01 X68.4214 Y19.5113
G01 X68.4291 Y19.5129
G01 X68.5162 Y19.5347
G01 X68.5264 Y19.5378
G01 X68.6158 Y19.5700
G01 X68.7042 Y19.6117
G01 X68.7112 Y19.6155
G01 X68.7882 Y19.6616
G01 X68.7949 Y19.6660
G01 X68.8733 Y19.7243
G01 X68.9258 Y19.7716
G01 X130.8100 Y19.7716
G01 X130.8829 Y19.7752
G01 X130.9550 Y19.7859
G01 X131.0258 Y19.8036
G01 X131.0945 Y19.8282
G01 X131.1604 Y19.8594
G01 X131.2230 Y19.8969
G01 X131.2816 Y19.9404
G01 X131.3337 Y19.9875
G01 X131.3393 Y19.9932
G01 X131.3846 Y20.0434
G01 X131.4281 Y20.1020
G01 X131.4656 Y20.1646
G01 X131.4968 Y20.2305
G01 X131.5214 Y20.2992
G01 X131.5391 Y20.3700
G01 X131.5498 Y20.4421
G01 X131.5534 Y20.5150
G01 X131.5534 Y55.2549
G01 X131.5897 Y55.2878
G01 X131.5954 Y55.2934
G01 X131.6648 Y55.3700
G01 X131.6698 Y55.3762
G01 X131.7298 Y55.4572
G01 X131.7341 Y55.4639
G01 X131.7872 Y55.5527
G01 X131.8327 Y55.6485
G01 X131.8356 Y55.6559
G01 X131.8703 Y55.7534
G01 X131.8968 Y55.8588
G01 X131.9127 Y55.9664
G01 X131.9180 Y56.0750
G01 X131.9127 Y56.1836
G01 X131.8968 Y56.2912
G01 X131.8703 Y56.3966
G01 X131.8356 Y56.4941
G01 X131.8327 Y56.5015
G01 X131.7872 Y56.5973
G01 X131.7341 Y56.6861
G01 X131.7298 Y56.6928
G01 X131.6698 Y56.7738
G01 X131.6648 Y56.7800
G01 X131.5954 Y56.8566
G01 X131.5897 Y56.8622
G01 X131.5534 Y56.8951
G01 X131.5534 Y57.3412
G01 X131.5659 Y57.3586
G01 X131.6020 Y57.4190
G01 X131.6310 Y57.4801
G01 X131.6351 Y57.4899
G01 X131.6578 Y57.5536
G01 X131.6743 Y57.6192
G01 X131.6764 Y57.6296
G01 X131.6855 Y57.6913
G01 X131.6866 Y57.7018
G01 X131.6898 Y57.7694
G01 X131.6898 Y59.4606
G01 X131.6862 Y59.5335
G01 X131.6764 Y59.6004
G01 X131.6743 Y59.6108
G01 X131.6592 Y59.6713
G01 X131.6570 Y59.6789
G01 X131.6332 Y59.7451
G01 X131.6032 Y59.8087
G01 X131.5994 Y59.8156
G01 X131.5659 Y59.8714
G01 X131.5534 Y59.8888
G01 X131.5534 Y89.0950
G01 X131.5498 Y89.1679
G01 X131.5391 Y89.2400
G01 X131.5214 Y89.3108
G01 X131.4968 Y89.3795
G01 X131.4656 Y89.4454
G01 X131.4281 Y89.5080
G01 X131.3846 Y89.5666
G01 X131.3375 Y89.6187
G01 X131.3318 Y89.6243
G01 X131.2816 Y89.6696
G01 X131.2230 Y89.7131
G01 X131.1604 Y89.7506
G01 X131.0945 Y89.7818
G01 X131.0258 Y89.8064
G01 X130.9550 Y89.8241
G01 X130.8829 Y89.8348
G01 X130.8100 Y89.8384
G01 X109.4051 Y89.8384
G01 X109.3722 Y89.8747
G01 X109.3666 Y89.8804
G01 X109.2900 Y89.9498
G01 X109.2838 Y89.9548
G01 X109.2028 Y90.0148
G01 X109.1961 Y90.0191
G01 X109.1073 Y90.0722
G01 X109.0115 Y90.1177
G01 X109.0041 Y90.1206
G01 X108.9066 Y90.1553
G01 X108.8012 Y90.1818
G01 X108.6936 Y90.1977
G01 X108.5903 Y90.2029
G01 X108.5823 Y90.2030
G01 X108.4764 Y90.1977
G01 X108.3688 Y90.1818
G01 X108.2634 Y90.1553
G01 X108.1610 Y90.1187
G01 X108.0627 Y90.0722
G01 X107.9694 Y90.0163
G01 X107.8821 Y89.9515
G01 X107.8015 Y89.8785
G01 X107.7285 Y89.7979
G01 X107.6637 Y89.7106
G01 X107.6078 Y89.6173
G01 X107.5613 Y89.5190
G01 X107.5247 Y89.4166
G01 X107.4982 Y89.3112
G01 X107.4823 Y89.2036
G01 X107.4770 Y89.0977
G01 X107.4771 Y89.0897
G01 X107.4823 Y88.9864
G01 X107.4982 Y88.8788
G01 X107.5247 Y88.7734
G01 X107.5613 Y88.6710
G01 X107.6078 Y88.5727
G01 X107.6637 Y88.4794
G01 X107.7285 Y88.3921
G01 X107.8015 Y88.3115
G01 X107.8821 Y88.2385
G01 X107.9694 Y88.1737
G01 X108.0627 Y88.1178
G01 X108.1610 Y88.0713
G01 X108.2634 Y88.0347
G01 X108.3688 Y88.0082
G01 X108.4764 Y87.9923
G01 X108.5823 Y87.9870
G01 X108.5903 Y87.9871
G01 X108.6936 Y87.9923
G01 X108.8012 Y88.0082
G01 X108.9066 Y88.0347
G01 X109.0041 Y88.0694
G01 X109.0115 Y88.0723
G01 X109.1073 Y88.1178
G01 X109.1961 Y88.1709
G01 X109.2028 Y88.1752
G01 X109.2838 Y88.2352
G01 X109.2900 Y88.2402
G01 X109.3666 Y88.3096
G01 X109.3722 Y88.3153
G01 X109.4051 Y88.3516
G01 X130.0666 Y88.3516
G01 X130.0666 Y59.5970
G01 X130.0702 Y59.5241
G01 X130.0800 Y59.4572
G01 X130.0821 Y59.4468
G01 X130.0972 Y59.3863
G01 X130.0994 Y59.3787
G01 X130.1232 Y59.3125
G01 X130.1532 Y59.2489
G01 X130.1570 Y59.2420
G01 X130.1905 Y59.1862
G01 X130.2030 Y59.1688
G01 X130.2030 Y58.0612
G01 X130.1905 Y58.0438
G01 X130.1557 Y57.9857
G01 X130.1520 Y57.9787
G01 X130.1254 Y57.9223
G01 X130.1222 Y57.9150
G01 X130.0986 Y57.8488
G01 X130.0840 Y57.7908
G01 X130.0804 Y57.7754
G01 X130.0705 Y57.7085
G01 X130.0698 Y57.7006
G01 X130.0666 Y57.6330
G01 X130.0666 Y56.8951
G01 X130.0303 Y56.8622
G01 X130.0246 Y56.8566
G01 X129.9552 Y56.7800
G01 X129.9502 Y56.7738
G01 X129.8902 Y56.6928
G01 X129.8859 Y56.6861
G01 X129.8328 Y56.5973
G01 X129.7873 Y56.5015
G01 X129.7844 Y56.4941
G01 X129.7497 Y56.3966
G01 X129.7232 Y56.2912
G01 X129.7073 Y56.1836
G01 X129.7020 Y56.0750
G01 X129.7073 Y55.9664
G01 X129.7232 Y55.8588
G01 X129.7497 Y55.7534
G01 X129.7844 Y55.6559
G01 X129.7873 Y55.6485
G01 X129.8328 Y55.5527
G01 X129.8859 Y55.4639
G01 X129.8902 Y55.4572
G01 X129.9502 Y55.3762
G01 X129.9552 Y55.3700
G01 X130.0246 Y55.2934
G01 X130.0303 Y55.2878
G01 X130.0666 Y55.2549
G01 X130.0666 Y21.2584
G01 X68.9258 Y21.2584
G01 X68.8733 Y21.3057
G01 X68.7927 Y21.3655
G01 X68.7066 Y21.4171
G01 X68.6183 Y21.4590
G01 X68.6109 Y21.4620
G01 X68.5264 Y21.4922
G01 X68.5162 Y21.4953
G01 X68.4240 Y21.5183
G01 X68.3247 Y21.5330
G01 X68.2244 Y21.5379
G01 X66.3956 Y21.5379
G01 X66.2953 Y21.5330
G01 X66.1960 Y21.5183
G01 X66.0987 Y21.4939
G01 X66.0091 Y21.4620
G01 X65.9993 Y21.4579
G01 X65.9181 Y21.4195
G01 X65.9088 Y21.4145
G01 X65.8273 Y21.3655
G01 X65.7467 Y21.3057
G01 X65.6723 Y21.2383
G01 X65.6083 Y21.1679
G01 X65.6016 Y21.1597
G01 X65.5481 Y21.0876
G01 X65.5422 Y21.0788
G01 X65.4935 Y20.9972
G01 X65.4506 Y20.9064
G01 X65.4167 Y20.8119
G01 X65.3935 Y20.7197
G01 X65.3914 Y20.7093
G01 X65.3783 Y20.6205
G01 X65.3774 Y20.6126
G01 X65.3727 Y20.5150
G01 X65.3776 Y20.4147
G01 X65.3923 Y20.3154
G01 X65.4167 Y20.2181
G01 X65.4506 Y20.1236
G01 X65.4935 Y20.0328
G01 X65.5451 Y19.9467
G01 X65.6016 Y19.8703
G01 X65.6071 Y19.8634
G01 X65.5125 Y19.7687
G01 X65.4654 Y19.7166
G01 X65.4219 Y19.6580
G01 X65.3870 Y19.6000
G01 X65.3832 Y19.5931
G01 X65.3554 Y19.5343
G01 X65.3513 Y19.5245
G01 X65.3286 Y19.4608
G01 X65.3121 Y19.3952
G01 X65.3100 Y19.3848
G01 X65.3002 Y19.3179
G01 X65.2967 Y19.2477
G01 X65.2966 Y9.1934
G01 X42.5450 Y9.1934
G01 X42.4721 Y9.1898
G01 X42.4000 Y9.1791
G01 X42.3343 Y9.1628
G01 X42.3242 Y9.1597
G01 X42.2605 Y9.1368
G01 X42.1946 Y9.1056
G01 X42.1320 Y9.0681
G01 X42.0776 Y9.0279
G01 X42.0694 Y9.0212
G01 X42.0232 Y8.9793
G01 X42.0157 Y8.9718
G01 X41.9704 Y8.9216
G01 X41.9269 Y8.8630
G01 X41.8894 Y8.8004
G01 X41.8604 Y8.7393
G01 X41.8563 Y8.7295
G01 X41.8353 Y8.6708
G01 X41.8322 Y8.6607
G01 X41.8159 Y8.5950
G01 X41.8055 Y8.5255
G01 X41.8048 Y8.5176
G01 X41.8016 Y8.4500
G01 X41.8016 Y4.3393
G00 Z3.0000
G00 X43.9604 Y3.4970
G01 F60.00
G01 Z-0.0300
G01 F60.00
G01 X43.9604 Y1.4650
G01 X43.9655 Y1.3601
G01 X43.9665 Y1.3495
G01 X43.9820 Y1.2456
G01 X44.0089 Y1.1386
G01 X44.0460 Y1.0347
G01 X44.0932 Y0.9349
G01 X44.1500 Y0.8402
G01 X44.2157 Y0.7516
G01 X44.2898 Y0.6698
G01 X44.3716 Y0.5957
G01 X44.4602 Y0.5300
G01 X44.5549 Y0.4732
G01 X44.6547 Y0.4260
G01 X44.7586 Y0.3889
G01 X44.8656 Y0.3620
G01 X44.9748 Y0.3459
G01 X45.0850 Y0.3404
G01 X45.1952 Y0.3459
G01 X45.3044 Y0.3620
G01 X45.4114 Y0.3889
G01 X45.5153 Y0.4260
G01 X45.6151 Y0.4732
G01 X45.7053 Y0.5271
G01 X45.7141 Y0.5330
G01 X45.7984 Y0.5957
G01 X45.8763 Y0.6662
G01 X45.8838 Y0.6737
G01 X45.9543 Y0.7516
G01 X46.0200 Y0.8402
G01 X46.0768 Y0.9349
G01 X46.1218 Y1.0298
G01 X46.1259 Y1.0396
G01 X46.1611 Y1.1386
G01 X46.1868 Y1.2404
G01 X46.1889 Y1.2508
G01 X46.2041 Y1.3548
G01 X46.2096 Y1.4650
G01 X46.2096 Y3.4970
G01 X46.2045 Y3.6019
G01 X46.2039 Y3.6099
G01 X46.1880 Y3.7164
G01 X46.1611 Y3.8234
G01 X46.1240 Y3.9273
G01 X46.0780 Y4.0248
G01 X46.0742 Y4.0317
G01 X46.0200 Y4.1218
G01 X45.9560 Y4.2083
G01 X45.9508 Y4.2144
G01 X45.8820 Y4.2903
G01 X45.8763 Y4.2958
G01 X45.8284 Y4.3393
G01 X45.8284 Y5.0899
G01 X45.8647 Y5.1228
G01 X45.8704 Y5.1284
G01 X45.9398 Y5.2050
G01 X45.9448 Y5.2112
G01 X46.0048 Y5.2922
G01 X46.0091 Y5.2989
G01 X46.0622 Y5.3877
G01 X46.1077 Y5.4835
G01 X46.1106 Y5.4909
G01 X46.1453 Y5.5884
G01 X46.1718 Y5.6938
G01 X46.1877 Y5.8014
G01 X46.1929 Y5.9047
G01 X46.1930 Y5.9127
G01 X46.1877 Y6.0186
G01 X46.1727 Y6.1209
G01 X46.1706 Y6.1313
G01 X46.1453 Y6.2316
G01 X46.1087 Y6.3340
G01 X46.0646 Y6.4276
G01 X46.0596 Y6.4369
G01 X46.0063 Y6.5256
G01 X45.9448 Y6.6088
G01 X45.9381 Y6.6170
G01 X45.8685 Y6.6935
G01 X45.7879 Y6.7665
G01 X45.7049 Y6.8283
G01 X45.6961 Y6.8341
G01 X45.6073 Y6.8872
G01 X45.5115 Y6.9327
G01 X45.5041 Y6.9356
G01 X45.4066 Y6.9703
G01 X45.3012 Y6.9968
G01 X45.1936 Y7.0127
G01 X45.0850 Y7.0180
G01 X44.9764 Y7.0127
G01 X44.8688 Y6.9968
G01 X44.7634 Y6.9703
G01 X44.6610 Y6.9337
G01 X44.5627 Y6.8872
G01 X44.4694 Y6.8313
G01 X44.3821 Y6.7665
G01 X44.3015 Y6.6935
G01 X44.2285 Y6.6129
G01 X44.1637 Y6.5256
G01 X44.1078 Y6.4323
G01 X44.0623 Y6.3365
G01 X44.0594 Y6.3291
G01 X44.0263 Y6.2367
G01 X44.0232 Y6.2265
G01 X43.9982 Y6.1262
G01 X43.9829 Y6.0239
G01 X43.9819 Y6.0133
G01 X43.9770 Y5.9100
G01 X43.9819 Y5.8067
G01 X43.9829 Y5.7961
G01 X43.9982 Y5.6938
G01 X44.0247 Y5.5884
G01 X44.0613 Y5.4860
G01 X44.1066 Y5.3900
G01 X44.1104 Y5.3831
G01 X44.1637 Y5.2944
G01 X44.2268 Y5.2091
G01 X44.2319 Y5.2030
G01 X44.2996 Y5.1284
G01 X44.3053 Y5.1228
G01 X44.3416 Y5.0899
G01 X44.3416 Y4.3393
G01 X44.2898 Y4.2922
G01 X44.2174 Y4.2124
G01 X44.2124 Y4.2062
G01 X44.1515 Y4.1240
G01 X44.1471 Y4.1173
G01 X44.0932 Y4.0271
G01 X44.0471 Y3.9298
G01 X44.0441 Y3.9224
G01 X44.0089 Y3.8234
G01 X43.9820 Y3.7164
G01 X43.9659 Y3.6072
G01 X43.9604 Y3.4970
G00 Z3.0000
G00 X49.0404 Y3.4970
G01 F60.00
G01 Z-0.0300
G01 F60.00
G01 X49.0404 Y1.4650
G01 X49.0455 Y1.3601
G01 X49.0465 Y1.3495
G01 X49.0620 Y1.2456
G01 X49.0889 Y1.1386
G01 X49.1260 Y1.0347
G01 X49.1732 Y0.9349
G01 X49.2300 Y0.8402
G01 X49.2957 Y0.7516
G01 X49.3698 Y0.6698
G01 X49.4516 Y0.5957
G01 X49.5402 Y0.5300
G01 X49.6349 Y0.4732
G01 X49.7347 Y0.4260
G01 X49.8386 Y0.3889
G01 X49.9456 Y0.3620
G01 X50.0548 Y0.3459
G01 X50.1650 Y0.3404
G01 X50.2752 Y0.3459
G01 X50.3844 Y0.3620
G01 X50.4914 Y0.3889
G01 X50.5953 Y0.4260
G01 X50.6951 Y0.4732
G01 X50.7853 Y0.5271
G01 X50.7941 Y0.5330
G01 X50.8784 Y0.5957
G01 X50.9563 Y0.6662
G01 X50.9638 Y0.6737
G01 X51.0343 Y0.7516
G01 X51.1000 Y0.8402
G01 X51.1568 Y0.9349
G01 X51.2018 Y1.0298
G01 X51.2059 Y1.0396
G01 X51.2411 Y1.1386
G01 X51.2668 Y1.2404
G01 X51.2689 Y1.2508
G01 X51.2839 Y1.3521
G01 X51.2845 Y1.3601
G01 X51.2896 Y1.4650
G01 X51.2894 Y3.5023
G01 X51.2845 Y3.6019
G01 X51.2835 Y3.6125
G01 X51.2680 Y3.7164
G01 X51.2425 Y3.8183
G01 X51.2395 Y3.8285
G01 X51.2040 Y3.9273
G01 X51.1568 Y4.0271
G01 X51.1000 Y4.1218
G01 X51.0343 Y4.2104
G01 X50.9602 Y4.2922
G01 X50.8824 Y4.3628
G01 X50.8742 Y4.3696
G01 X50.7941 Y4.4290
G01 X50.7853 Y4.4349
G01 X50.6951 Y4.4888
G01 X50.5953 Y4.5360
G01 X50.4914 Y4.5731
G01 X50.3896 Y4.5988
G01 X50.3792 Y4.6009
G01 X50.2805 Y4.6155
G01 X50.2699 Y4.6165
G01 X50.1650 Y4.6216
G01 X50.0548 Y4.6161
G01 X49.9456 Y4.6000
G01 X49.8437 Y4.5745
G01 X49.8335 Y4.5715
G01 X49.7396 Y4.5379
G01 X49.7298 Y4.5338
G01 X49.6349 Y4.4888
G01 X49.5402 Y4.4320
G01 X49.4516 Y4.3663
G01 X49.3737 Y4.2958
G01 X49.3662 Y4.2883
G01 X49.2992 Y4.2144
G01 X49.2924 Y4.2062
G01 X49.2300 Y4.1218
G01 X49.1732 Y4.0271
G01 X49.1260 Y3.9273
G01 X49.0905 Y3.8285
G01 X49.0875 Y3.8183
G01 X49.0632 Y3.7216
G01 X49.0611 Y3.7112
G01 X49.0459 Y3.6072
G01 X49.0404 Y3.4970
G00 Z3.0000
G00 X48.7496 Y1.4650
G01 F60.00
G01 Z-0.0300
G01 F60.00
G01 X48.7496 Y3.4970
G01 X48.7445 Y3.6019
G01 X48.7435 Y3.6125
G01 X48.7280 Y3.7164
G01 X48.7011 Y3.8234
G01 X48.6640 Y3.9273
G01 X48.6168 Y4.0271
G01 X48.5600 Y4.1218
G01 X48.4943 Y4.2104
G01 X48.4202 Y4.2922
G01 X48.3384 Y4.3663
G01 X48.2498 Y4.4320
G01 X48.1551 Y4.4888
G01 X48.0553 Y4.5360
G01 X47.9514 Y4.5731
G01 X47.8444 Y4.6000
G01 X47.7352 Y4.6161
G01 X47.6250 Y4.6216
G01 X47.5148 Y4.6161
G01 X47.4056 Y4.6000
G01 X47.2986 Y4.5731
G01 X47.1947 Y4.5360
G01 X47.0949 Y4.4888
G01 X47.0047 Y4.4349
G01 X46.9959 Y4.4290
G01 X46.9116 Y4.3663
G01 X46.8337 Y4.2958
G01 X46.8262 Y4.2883
G01 X46.7557 Y4.2104
G01 X46.6900 Y4.1218
G01 X46.6332 Y4.0271
G01 X46.5882 Y3.9322
G01 X46.5841 Y3.9224
G01 X46.5489 Y3.8234
G01 X46.5232 Y3.7216
G01 X46.5211 Y3.7112
G01 X46.5061 Y3.6099
G01 X46.5055 Y3.6019
G01 X46.5004 Y3.4970
G01 X46.5006 Y1.4597
G01 X46.5055 Y1.3601
G01 X46.5065 Y1.3495
G01 X46.5220 Y1.2456
G01 X46.5475 Y1.1437
G01 X46.5505 Y1.1335
G01 X46.5860 Y1.0347
G01 X46.6332 Y0.9349
G01 X46.6900 Y0.8402
G01 X46.7557 Y0.7516
G01 X46.8298 Y0.6698
G01 X46.9076 Y0.5992
G01 X46.9158 Y0.5924
G01 X46.9959 Y0.5330
G01 X47.0047 Y0.5271
G01 X47.0949 Y0.4732
G01 X47.1947 Y0.4260
G01 X47.2986 Y0.3889
G01 X47.4004 Y0.3632
G01 X47.4108 Y0.3611
G01 X47.5095 Y0.3465
G01 X47.5201 Y0.3455
G01 X47.6250 Y0.3404
G01 X47.7352 Y0.3459
G01 X47.8444 Y0.3620
G01 X47.9463 Y0.3875
G01 X47.9565 Y0.3905
G01 X48.0504 Y0.4241
G01 X48.0602 Y0.4282
G01 X48.1551 Y0.4732
G01 X48.2498 Y0.5300
G01 X48.3384 Y0.5957
G01 X48.4163 Y0.6662
G01 X48.4238 Y0.6737
G01 X48.4908 Y0.7476
G01 X48.4976 Y0.7558
G01 X48.5600 Y0.8402
G01 X48.6168 Y0.9349
G01 X48.6640 Y1.0347
G01 X48.6995 Y1.1335
G01 X48.7025 Y1.1437
G01 X48.7268 Y1.2404
G01 X48.7289 Y1.2508
G01 X48.7441 Y1.3548
G01 X48.7496 Y1.4650
G00 Z3.0000
G00 X53.8296 Y1.4650
G01 F60.00
G01 Z-0.0300
G01 F60.00
G01 X53.8296 Y3.4970
G01 X53.8245 Y3.6019
G01 X53.8235 Y3.6125
G01 X53.8080 Y3.7164
G01 X53.7811 Y3.8234
G01 X53.7440 Y3.9273
G01 X53.6968 Y4.0271
G01 X53.6400 Y4.1218
G01 X53.5743 Y4.2104
G01 X53.5002 Y4.2922
G01 X53.4184 Y4.3663
G01 X53.3298 Y4.4320
G01 X53.2351 Y4.4888
G01 X53.1353 Y4.5360
G01 X53.0314 Y4.5731
G01 X52.9244 Y4.6000
G01 X52.8152 Y4.6161
G01 X52.7050 Y4.6216
G01 X52.5948 Y4.6161
G01 X52.4856 Y4.6000
G01 X52.3786 Y4.5731
G01 X52.2747 Y4.5360
G01 X52.1749 Y4.4888
G01 X52.0847 Y4.4349
G01 X52.0759 Y4.4290
G01 X51.9916 Y4.3663
G01 X51.9137 Y4.2958
G01 X51.9062 Y4.2883
G01 X51.8357 Y4.2104
G01 X51.7700 Y4.1218
G01 X51.7132 Y4.0271
G01 X51.6682 Y3.9322
G01 X51.6641 Y3.9224
G01 X51.6289 Y3.8234
G01 X51.6032 Y3.7216
G01 X51.6011 Y3.7112
G01 X51.5861 Y3.6099
G01 X51.5855 Y3.6019
G01 X51.5804 Y3.4970
G01 X51.5806 Y1.4597
G01 X51.5855 Y1.3601
G01 X51.5865 Y1.3495
G01 X51.6020 Y1.2456
G01 X51.6275 Y1.1437
G01 X51.6305 Y1.1335
G01 X51.6660 Y1.0347
G01 X51.7132 Y0.9349
G01 X51.7700 Y0.8402
G01 X51.8357 Y0.7516
G01 X51.9098 Y0.6698
G01 X51.9876 Y0.5992
G01 X51.9958 Y0.5924
G01 X52.0759 Y0.5330
G01 X52.0847 Y0.5271
G01 X52.1749 Y0.4732
G01 X52.2747 Y0.4260
G01 X52.3786 Y0.3889
G01 X52.4804 Y0.3632
G01 X52.4908 Y0.3611
G01 X52.5895 Y0.3465
G01 X52.6001 Y0.3455
G01 X52.7050 Y0.3404
G01 X52.8152 Y0.3459
G01 X52.9244 Y0.3620
G01 X53.0263 Y0.3875
G01 X53.0365 Y0.3905
G01 X53.1304 Y0.4241
G01 X53.1402 Y0.4282
G01 X53.2351 Y0.4732
G01 X53.3298 Y0.5300
G01 X53.4184 Y0.5957
G01 X53.4963 Y0.6662
G01 X53.5038 Y0.6737
G01 X53.5708 Y0.7476
G01 X53.5776 Y0.7558
G01 X53.6400 Y0.8402
G01 X53.6968 Y0.9349
G01 X53.7440 Y1.0347
G01 X53.7795 Y1.1335
G01 X53.7825 Y1.1437
G01 X53.8068 Y1.2404
G01 X53.8089 Y1.2508
G01 X53.8241 Y1.3548
G01 X53.8296 Y1.4650
G00 Z3.0000
G00 X54.1204 Y3.4970
G01 F60.00
G01 Z-0.0300
G01 F60.00
G01 X54.1204 Y1.4650
G01 X54.1255 Y1.3601
G01 X54.1265 Y1.3495
G01 X54.1420 Y1.2456
G01 X54.1689 Y1.1386
G01 X54.2060 Y1.0347
G01 X54.2532 Y0.9349
G01 X54.3100 Y0.8402
G01 X54.3757 Y0.7516
G01 X54.4498 Y0.6698
G01 X54.5316 Y0.5957
G01 X54.6202 Y0.5300
G01 X54.7149 Y0.4732
G01 X54.8147 Y0.4260
G01 X54.9186 Y0.3889
G01 X55.0256 Y0.3620
G01 X55.1348 Y0.3459
G01 X55.2450 Y0.3404
G01 X55.3552 Y0.3459
G01 X55.4644 Y0.3620
G01 X55.5714 Y0.3889
G01 X55.6753 Y0.4260
G01 X55.7751 Y0.4732
G01 X55.8653 Y0.5271
G01 X55.8741 Y0.5330
G01 X55.9584 Y0.5957
G01 X56.0363 Y0.6662
G01 X56.0438 Y0.6737
G01 X56.1143 Y0.7516
G01 X56.1800 Y0.8402
G01 X56.2368 Y0.9349
G01 X56.2818 Y1.0298
G01 X56.2859 Y1.0396
G01 X56.3211 Y1.1386
G01 X56.3468 Y1.2404
G01 X56.3489 Y1.2508
G01 X56.3639 Y1.3521
G01 X56.3645 Y1.3601
G01 X56.3696 Y1.4650
G01 X56.3694 Y3.5023
G01 X56.3645 Y3.6019
G01 X56.3635 Y3.6125
G01 X56.3480 Y3.7164
G01 X56.3225 Y3.8183
G01 X56.3195 Y3.8285
G01 X56.2840 Y3.9273
G01 X56.2368 Y4.0271
G01 X56.1800 Y4.1218
G01 X56.1143 Y4.2104
G01 X56.0402 Y4.2922
G01 X55.9624 Y4.3628
G01 X55.9542 Y4.3696
G01 X55.8741 Y4.4290
G01 X55.8653 Y4.4349
G01 X55.7751 Y4.4888
G01 X55.6753 Y4.5360
G01 X55.5714 Y4.5731
G01 X55.4696 Y4.5988
G01 X55.4592 Y4.6009
G01 X55.3605 Y4.6155
G01 X55.3499 Y4.6165
G01 X55.2450 Y4.6216
G01 X55.1348 Y4.6161
G01 X55.0256 Y4.6000
G01 X54.9237 Y4.5745
G01 X54.9135 Y4.5715
G01 X54.8196 Y4.5379
G01 X54.8098 Y4.5338
G01 X54.7149 Y4.4888
G01 X54.6202 Y4.4320
G01 X54.5316 Y4.3663
G01 X54.4537 Y4.2958
G01 X54.4462 Y4.2883
G01 X54.3792 Y4.2144
G01 X54.3724 Y4.2062
G01 X54.3100 Y4.1218
G01 X54.2532 Y4.0271
G01 X54.2060 Y3.9273
G01 X54.1705 Y3.8285
G01 X54.1675 Y3.8183
G01 X54.1432 Y3.7216
G01 X54.1411 Y3.7112
G01 X54.1259 Y3.6072
G01 X54.1204 Y3.4970
G00 Z3.0000
G00 X57.0416 Y4.3393
G01 F60.00
G01 Z-0.0300
G01 F60.00
G01 X56.9937 Y4.2958
G01 X56.9880 Y4.2903
G01 X56.9192 Y4.2144
G01 X56.9140 Y4.2083
G01 X56.8500 Y4.1218
G01 X56.7958 Y4.0317
G01 X56.7920 Y4.0248
G01 X56.7460 Y3.9273
G01 X56.7089 Y3.8234
G01 X56.6820 Y3.7164
G01 X56.6659 Y3.6072
G01 X56.6604 Y3.4970
G01 X56.6605 Y1.4623
G01 X56.6655 Y1.3601
G01 X56.6665 Y1.3495
G01 X56.6820 Y1.2456
G01 X56.7081 Y1.1411
G01 X56.7105 Y1.1335
G01 X56.7460 Y1.0347
G01 X56.7932 Y0.9349
G01 X56.8500 Y0.8402
G01 X56.9157 Y0.7516
G01 X56.9898 Y0.6698
G01 X57.0716 Y0.5957
G01 X57.1602 Y0.5300
G01 X57.2549 Y0.4732
G01 X57.3547 Y0.4260
G01 X57.4586 Y0.3889
G01 X57.5656 Y0.3620
G01 X57.6748 Y0.3459
G01 X57.7850 Y0.3404
G01 X57.8952 Y0.3459
G01 X58.0044 Y0.3620
G01 X58.1089 Y0.3881
G01 X58.1165 Y0.3905
G01 X58.2104 Y0.4241
G01 X58.2202 Y0.4282
G01 X58.3151 Y0.4732
G01 X58.4098 Y0.5300
G01 X58.4984 Y0.5957
G01 X58.5763 Y0.6662
G01 X58.5838 Y0.6737
G01 X58.6508 Y0.7476
G01 X58.6576 Y0.7558
G01 X58.7200 Y0.8402
G01 X58.7768 Y0.9349
G01 X58.8240 Y1.0347
G01 X58.8595 Y1.1335
G01 X58.8625 Y1.1437
G01 X58.8868 Y1.2404
G01 X58.8889 Y1.2508
G01 X58.9041 Y1.3548
G01 X58.9095 Y1.4623
G01 X58.9096 Y3.4970
G01 X58.9045 Y3.6019
G01 X58.9039 Y3.6099
G01 X58.8880 Y3.7164
G01 X58.8611 Y3.8234
G01 X58.8240 Y3.9273
G01 X58.7780 Y4.0248
G01 X58.7742 Y4.0317
G01 X58.7200 Y4.1218
G01 X58.6560 Y4.2083
G01 X58.6508 Y4.2144
G01 X58.5820 Y4.2903
G01 X58.5763 Y4.2958
G01 X58.5284 Y4.3393
G01 X58.5284 Y5.0899
G01 X58.5647 Y5.1228
G01 X58.5704 Y5.1284
G01 X58.6398 Y5.2050
G01 X58.6448 Y5.2112
G01 X58.7048 Y5.2922
G01 X58.7091 Y5.2989
G01 X58.7622 Y5.3877
G01 X58.8066 Y5.4811
G01 X58.8097 Y5.4884
G01 X58.8437 Y5.5833
G01 X58.8468 Y5.5935
G01 X58.8718 Y5.6938
G01 X58.8871 Y5.7961
G01 X58.8881 Y5.8067
G01 X58.8930 Y5.9100
G01 X58.8881 Y6.0133
G01 X58.8874 Y6.0212
G01 X58.8727 Y6.1209
G01 X58.8706 Y6.1313
G01 X58.8453 Y6.2316
G01 X58.8106 Y6.3291
G01 X58.8066 Y6.3389
G01 X58.7622 Y6.4323
G01 X58.7063 Y6.5256
G01 X58.6448 Y6.6088
G01 X58.6381 Y6.6170
G01 X58.5685 Y6.6935
G01 X58.4920 Y6.7631
G01 X58.4838 Y6.7698
G01 X58.4006 Y6.8313
G01 X58.3119 Y6.8846
G01 X58.3050 Y6.8884
G01 X58.2090 Y6.9337
G01 X58.1066 Y6.9703
G01 X58.0012 Y6.9968
G01 X57.8936 Y7.0127
G01 X57.7850 Y7.0180
G01 X57.6764 Y7.0127
G01 X57.5688 Y6.9968
G01 X57.4634 Y6.9703
G01 X57.3610 Y6.9337
G01 X57.2627 Y6.8872
G01 X57.1694 Y6.8313
G01 X57.0821 Y6.7665
G01 X57.0015 Y6.6935
G01 X56.9285 Y6.6129
G01 X56.8637 Y6.5256
G01 X56.8104 Y6.4369
G01 X56.8066 Y6.4300
G01 X56.7613 Y6.3340
G01 X56.7263 Y6.2367
G01 X56.7232 Y6.2265
G01 X56.6982 Y6.1262
G01 X56.6823 Y6.0186
G01 X56.6771 Y5.9153
G01 X56.6771 Y5.9047
G01 X56.6819 Y5.8067
G01 X56.6826 Y5.7988
G01 X56.6982 Y5.6938
G01 X56.7247 Y5.5884
G01 X56.7613 Y5.4860
G01 X56.8066 Y5.3900
G01 X56.8104 Y5.3831
G01 X56.8637 Y5.2944
G01 X56.9268 Y5.2091
G01 X56.9319 Y5.2030
G01 X56.9996 Y5.1284
G01 X57.0053 Y5.1228
G01 X57.0416 Y5.0899
G01 X57.0416 Y4.3393
G00 Z3.0000
G00 X59.2004 Y3.4970
G01 F60.00
G01 Z-0.0300
G01 F60.00
G01 X59.2004 Y1.4650
G01 X59.2055 Y1.3601
G01 X59.2065 Y1.3495
G01 X59.2220 Y1.2456
G01 X59.2489 Y1.1386
G01 X59.2860 Y1.0347
G01 X59.3332 Y0.9349
G01 X59.3900 Y0.8402
G01 X59.4557 Y0.7516
G01 X59.5298 Y0.6698
G01 X59.6116 Y0.5957
G01 X59.7002 Y0.5300
G01 X59.7949 Y0.4732
G01 X59.8947 Y0.4260
G01 X59.9986 Y0.3889
G01 X60.1056 Y0.3620
G01 X60.2148 Y0.3459
G01 X60.3250 Y0.3404
G01 X60.4352 Y0.3459
G01 X60.5444 Y0.3620
G01 X60.6514 Y0.3889
G01 X60.7553 Y0.4260
G01 X60.8551 Y0.4732
G01 X60.9453 Y0.5271
G01 X60.9541 Y0.5330
G01 X61.0384 Y0.5957
G01 X61.1163 Y0.6662
G01 X61.1238 Y0.6737
G01 X61.1943 Y0.7516
G01 X61.2600 Y0.8402
G01 X61.3168 Y0.9349
G01 X61.3618 Y1.0298
G01 X61.3659 Y1.0396
G01 X61.4011 Y1.1386
G01 X61.4268 Y1.2404
G01 X61.4289 Y1.2508
G01 X61.4441 Y1.3548
G01 X61.4496 Y1.4650
G01 X61.4496 Y3.4970
G01 X61.4445 Y3.6019
G01 X61.4439 Y3.6099
G01 X61.4280 Y3.7164
G01 X61.4011 Y3.8234
G01 X61.3640 Y3.9273
G01 X61.3180 Y4.0248
G01 X61.3142 Y4.0317
G01 X61.2600 Y4.1218
G01 X61.1960 Y4.2083
G01 X61.1908 Y4.2144
G01 X61.1220 Y4.2903
G01 X61.1163 Y4.2958
G01 X61.0684 Y4.3393
G01 X61.0684 Y5.0899
G01 X61.1047 Y5.1228
G01 X61.1104 Y5.1284
G01 X61.1798 Y5.2050
G01 X61.1848 Y5.2112
G01 X61.2448 Y5.2922
G01 X61.2491 Y5.2989
G01 X61.3022 Y5.3877
G01 X61.3477 Y5.4835
G01 X61.3506 Y5.4909
G01 X61.3853 Y5.5884
G01 X61.4118 Y5.6938
G01 X61.4277 Y5.8014
G01 X61.4329 Y5.9047
G01 X61.4330 Y5.9127
G01 X61.4277 Y6.0186
G01 X61.4127 Y6.1209
G01 X61.4106 Y6.1313
G01 X61.3853 Y6.2316
G01 X61.3487 Y6.3340
G01 X61.3046 Y6.4276
G01 X61.2996 Y6.4369
G01 X61.2463 Y6.5256
G01 X61.1848 Y6.6088
G01 X61.1781 Y6.6170
G01 X61.1085 Y6.6935
G01 X61.0279 Y6.7665
G01 X60.9449 Y6.8283
G01 X60.9361 Y6.8341
G01 X60.8473 Y6.8872
G01 X60.7515 Y6.9327
G01 X60.7441 Y6.9356
G01 X60.6466 Y6.9703
G01 X60.5412 Y6.9968
G01 X60.4336 Y7.0127
G01 X60.3250 Y7.0180
G01 X60.2164 Y7.0127
G01 X60.1088 Y6.9968
G01 X60.0034 Y6.9703
G01 X59.9010 Y6.9337
G01 X59.8027 Y6.8872
G01 X59.7094 Y6.8313
G01 X59.6221 Y6.7665
G01 X59.5415 Y6.6935
G01 X59.4685 Y6.6129
G01 X59.4037 Y6.5256
G01 X59.3478 Y6.4323
G01 X59.3023 Y6.3365
G01 X59.2994 Y6.3291
G01 X59.2663 Y6.2367
G01 X59.2632 Y6.2265
G01 X59.2382 Y6.1262
G01 X59.2229 Y6.0239
G01 X59.2219 Y6.0133
G01 X59.2170 Y5.9100
G01 X59.2219 Y5.8067
G01 X59.2229 Y5.7961
G01 X59.2382 Y5.6938
G01 X59.2647 Y5.5884
G01 X59.3013 Y5.4860
G01 X59.3466 Y5.3900
G01 X59.3504 Y5.3831
G01 X59.4037 Y5.2944
G01 X59.4668 Y5.2091
G01 X59.4719 Y5.2030
G01 X59.5396 Y5.1284
G01 X59.5453 Y5.1228
G01 X59.5816 Y5.0899
G01 X59.5816 Y4.3393
G01 X59.5298 Y4.2922
G01 X59.4574 Y4.2124
G01 X59.4524 Y4.2062
G01 X59.3915 Y4.1240
G01 X59.3871 Y4.1173
G01 X59.3332 Y4.0271
G01 X59.2871 Y3.9298
G01 X59.2841 Y3.9224
G01 X59.2489 Y3.8234
G01 X59.2220 Y3.7164
G01 X59.2059 Y3.6072
G01 X59.2004 Y3.4970
G00 Z3.0000
G00 X62.1216 Y4.3393
G01 F60.00
G01 Z-0.0300
G01 F60.00
G01 X62.0737 Y4.2958
G01 X62.0680 Y4.2903
G01 X61.9992 Y4.2144
G01 X61.9940 Y4.2083
G01 X61.9300 Y4.1218
G01 X61.8758 Y4.0317
G01 X61.8720 Y4.0248
G01 X61.8260 Y3.9273
G01 X61.7889 Y3.8234
G01 X61.7620 Y3.7164
G01 X61.7459 Y3.6072
G01 X61.7404 Y3.4970
G01 X61.7405 Y1.4623
G01 X61.7455 Y1.3601
G01 X61.7465 Y1.3495
G01 X61.7620 Y1.2456
G01 X61.7881 Y1.1411
G01 X61.7905 Y1.1335
G01 X61.8260 Y1.0347
G01 X61.8732 Y0.9349
G01 X61.9300 Y0.8402
G01 X61.9957 Y0.7516
G01 X62.0698 Y0.6698
G01 X62.1516 Y0.5957
G01 X62.2402 Y0.5300
G01 X62.3349 Y0.4732
G01 X62.4347 Y0.4260
G01 X62.5386 Y0.3889
G01 X62.6456 Y0.3620
G01 X62.7548 Y0.3459
G01 X62.8650 Y0.3404
G01 X62.9752 Y0.3459
G01 X63.0844 Y0.3620
G01 X63.1889 Y0.3881
G01 X63.1965 Y0.3905
G01 X63.2904 Y0.4241
G01 X63.3002 Y0.4282
G01 X63.3951 Y0.4732
G01 X63.4898 Y0.5300
G01 X63.5784 Y0.5957
G01 X63.6563 Y0.6662
G01 X63.6638 Y0.6737
G01 X63.7308 Y0.7476
G01 X63.7376 Y0.7558
G01 X63.8000 Y0.8402
G01 X63.8568 Y0.9349
G01 X63.9040 Y1.0347
G01 X63.9395 Y1.1335
G01 X63.9425 Y1.1437
G01 X63.9668 Y1.2404
G01 X63.9689 Y1.2508
G01 X63.9841 Y1.3548
G01 X63.9895 Y1.4623
G01 X63.9896 Y3.4970
G01 X63.9845 Y3.6019
G01 X63.9839 Y3.6099
G01 X63.9680 Y3.7164
G01 X63.9411 Y3.8234
G01 X63.9040 Y3.9273
G01 X63.8580 Y4.0248
G01 X63.8542 Y4.0317
G01 X63.8000 Y4.1218
G01 X63.7360 Y4.2083
G01 X63.7308 Y4.2144
G01 X63.6620 Y4.2903
G01 X63.6563 Y4.2958
G01 X63.6084 Y4.3393
G01 X63.6084 Y5.0899
G01 X63.6447 Y5.1228
G01 X63.6504 Y5.1284
G01 X63.7198 Y5.2050
G01 X63.7248 Y5.2112
G01 X63.7848 Y5.2922
G01 X63.7891 Y5.2989
G01 X63.8422 Y5.3877
G01 X63.8866 Y5.4811
G01 X63.8897 Y5.4884
G01 X63.9237 Y5.5833
G01 X63.9268 Y5.5935
G01 X63.9518 Y5.6938
G01 X63.9671 Y5.7961
G01 X63.9681 Y5.8067
G01 X63.9730 Y5.9100
G01 X63.9681 Y6.0133
G01 X63.9674 Y6.0212
G01 X63.9527 Y6.1209
G01 X63.9506 Y6.1313
G01 X63.9253 Y6.2316
G01 X63.8906 Y6.3291
G01 X63.8866 Y6.3389
G01 X63.8422 Y6.4323
G01 X63.7863 Y6.5256
G01 X63.7248 Y6.6088
G01 X63.7181 Y6.6170
G01 X63.6485 Y6.6935
G01 X63.5720 Y6.7631
G01 X63.5638 Y6.7698
G01 X63.4806 Y6.8313
G01 X63.3919 Y6.8846
G01 X63.3850 Y6.8884
G01 X63.2890 Y6.9337
G01 X63.1866 Y6.9703
G01 X63.0812 Y6.9968
G01 X62.9736 Y7.0127
G01 X62.8650 Y7.0180
G01 X62.7564 Y7.0127
G01 X62.6488 Y6.9968
G01 X62.5434 Y6.9703
G01 X62.4410 Y6.9337
G01 X62.3427 Y6.8872
G01 X62.2494 Y6.8313
G01 X62.1621 Y6.7665
G01 X62.0815 Y6.6935
G01 X62.0085 Y6.6129
G01 X61.9437 Y6.5256
G01 X61.8904 Y6.4369
G01 X61.8866 Y6.4300
G01 X61.8413 Y6.3340
G01 X61.8063 Y6.2367
G01 X61.8032 Y6.2265
G01 X61.7782 Y6.1262
G01 X61.7623 Y6.0186
G01 X61.7571 Y5.9153
G01 X61.7571 Y5.9047
G01 X61.7619 Y5.8067
G01 X61.7626 Y5.7988
G01 X61.7782 Y5.6938
G01 X61.8047 Y5.5884
G01 X61.8413 Y5.4860
G01 X61.8866 Y5.3900
G01 X61.8904 Y5.3831
G01 X61.9437 Y5.2944
G01 X62.0068 Y5.2091
G01 X62.0119 Y5.2030
G01 X62.0796 Y5.1284
G01 X62.0853 Y5.1228
G01 X62.1216 Y5.0899
G01 X62.1216 Y4.3393
G00 Z3.0000
G00 X64.2804 Y3.4970
G01 F60.00
G01 Z-0.0300
G01 F60.00
G01 X64.2804 Y1.4650
G01 X64.2855 Y1.3601
G01 X64.2865 Y1.3495
G01 X64.3020 Y1.2456
G01 X64.3289 Y1.1386
G01 X64.3660 Y1.0347
G01 X64.4132 Y0.9349
G01 X64.4700 Y0.8402
G01 X64.5357 Y0.7516
G01 X64.6098 Y0.6698
G01 X64.6916 Y0.5957
G01 X64.7802 Y0.5300
