(G-CODE GENERATED BY FLATCAM v8.994 - www.flatcam.org - Version Date: 2020/11/7)

(Name: copper_bottom.gbr_iso_combined_cnc)
(Type: G-code from Geometry)
(Units: MM)

(Created on sexta, 18 março 2022 at 14:51)

(This preprocessor is the default preprocessor used by FlatCAM.)
(It is made to work with MACH3 compatible motion controllers.)

(TOOL DIAMETER: 0.2161 mm)
(Feedrate_XY: 120.0 mm/min)
(Feedrate_Z: 60.0 mm/min)
(Feedrate rapids 1500.0 mm/min)

(Z_Cut: -0.03 mm)
(Z_Move: 3.0 mm)
(Z Start: None mm)
(Z End: 15.0 mm)
(X,Y End: None mm)
(Steps per circle: 64)
(Preprocessor Geometry: default)

(X range:    0.3994 ...  136.9124  mm)
(Y range:    0.5154 ...   86.6180  mm)

(Spindle Speed: 1000.0 RPM)
G21
G90
G94

G01 F120.00

M5
G00 Z15.0000
G00 X0.0000 Y0.0000
T1
M6    
(MSG, Change to Tool Dia = 0.2161)
M0
G00 Z15.0000

M03 S1000.0
G01 F120.00
G00 X3.6646 Y1.6400
G01 F60.00
G01 Z-0.0300
G01 F120.00
G01 X3.6646 Y3.6720
G01 X3.6595 Y3.7769
G01 X3.6585 Y3.7875
G01 X3.6430 Y3.8914
G01 X3.6161 Y3.9984
G01 X3.5790 Y4.1023
G01 X3.5318 Y4.2021
G01 X3.4750 Y4.2968
G01 X3.4093 Y4.3854
G01 X3.3352 Y4.4672
G01 X3.2534 Y4.5413
G01 X3.1648 Y4.6070
G01 X3.0701 Y4.6638
G01 X2.9703 Y4.7110
G01 X2.8664 Y4.7481
G01 X2.7594 Y4.7750
G01 X2.6502 Y4.7911
G01 X2.5400 Y4.7966
G01 X2.4298 Y4.7911
G01 X2.3206 Y4.7750
G01 X2.2136 Y4.7481
G01 X2.1097 Y4.7110
G01 X2.0099 Y4.6638
G01 X1.9197 Y4.6099
G01 X1.9109 Y4.6040
G01 X1.8266 Y4.5413
G01 X1.7487 Y4.4708
G01 X1.7412 Y4.4633
G01 X1.6707 Y4.3854
G01 X1.6050 Y4.2968
G01 X1.5482 Y4.2021
G01 X1.5032 Y4.1072
G01 X1.4991 Y4.0974
G01 X1.4639 Y3.9984
G01 X1.4382 Y3.8966
G01 X1.4361 Y3.8862
G01 X1.4211 Y3.7849
G01 X1.4205 Y3.7769
G01 X1.4154 Y3.6720
G01 X1.4156 Y1.6347
G01 X1.4205 Y1.5351
G01 X1.4215 Y1.5245
G01 X1.4370 Y1.4206
G01 X1.4625 Y1.3187
G01 X1.4655 Y1.3085
G01 X1.5010 Y1.2097
G01 X1.5482 Y1.1099
G01 X1.6050 Y1.0152
G01 X1.6707 Y0.9266
G01 X1.7448 Y0.8448
G01 X1.8226 Y0.7742
G01 X1.8308 Y0.7674
G01 X1.9109 Y0.7080
G01 X1.9197 Y0.7021
G01 X2.0099 Y0.6482
G01 X2.1097 Y0.6010
G01 X2.2136 Y0.5639
G01 X2.3154 Y0.5382
G01 X2.3258 Y0.5361
G01 X2.4245 Y0.5215
G01 X2.4351 Y0.5205
G01 X2.5400 Y0.5154
G01 X2.6502 Y0.5209
G01 X2.7594 Y0.5370
G01 X2.8613 Y0.5625
G01 X2.8715 Y0.5655
G01 X2.9654 Y0.5991
G01 X2.9752 Y0.6032
G01 X3.0701 Y0.6482
G01 X3.1648 Y0.7050
G01 X3.2534 Y0.7707
G01 X3.3313 Y0.8412
G01 X3.3388 Y0.8487
G01 X3.4058 Y0.9226
G01 X3.4126 Y0.9308
G01 X3.4750 Y1.0152
G01 X3.5318 Y1.1099
G01 X3.5790 Y1.2097
G01 X3.6145 Y1.3085
G01 X3.6175 Y1.3187
G01 X3.6418 Y1.4154
G01 X3.6439 Y1.4258
G01 X3.6591 Y1.5298
G01 X3.6646 Y1.6400
G00 Z3.0000
G00 X3.9554 Y3.6720
G01 F60.00
G01 Z-0.0300
G01 F120.00
G01 X3.9554 Y1.6400
G01 X3.9605 Y1.5351
G01 X3.9615 Y1.5245
G01 X3.9770 Y1.4206
G01 X4.0039 Y1.3136
G01 X4.0410 Y1.2097
G01 X4.0882 Y1.1099
G01 X4.1450 Y1.0152
G01 X4.2107 Y0.9266
G01 X4.2848 Y0.8448
G01 X4.3666 Y0.7707
G01 X4.4552 Y0.7050
G01 X4.5499 Y0.6482
G01 X4.6497 Y0.6010
G01 X4.7536 Y0.5639
G01 X4.8606 Y0.5370
G01 X4.9698 Y0.5209
G01 X5.0800 Y0.5154
G01 X5.1902 Y0.5209
G01 X5.2994 Y0.5370
G01 X5.4064 Y0.5639
G01 X5.5103 Y0.6010
G01 X5.6101 Y0.6482
G01 X5.7048 Y0.7050
G01 X5.7892 Y0.7674
G01 X5.7974 Y0.7742
G01 X5.8752 Y0.8448
G01 X5.9458 Y0.9226
G01 X5.9526 Y0.9308
G01 X6.0150 Y1.0152
G01 X6.0718 Y1.1099
G01 X6.1168 Y1.2048
G01 X6.1209 Y1.2146
G01 X6.1561 Y1.3136
G01 X6.1818 Y1.4154
G01 X6.1839 Y1.4258
G01 X6.1989 Y1.5271
G01 X6.1995 Y1.5351
G01 X6.2046 Y1.6400
G01 X6.2044 Y3.6773
G01 X6.1995 Y3.7769
G01 X6.1985 Y3.7875
G01 X6.1830 Y3.8914
G01 X6.1575 Y3.9933
G01 X6.1545 Y4.0035
G01 X6.1190 Y4.1023
G01 X6.0718 Y4.2021
G01 X6.0150 Y4.2968
G01 X5.9493 Y4.3854
G01 X5.8752 Y4.4672
G01 X5.7974 Y4.5378
G01 X5.7892 Y4.5446
G01 X5.7091 Y4.6040
G01 X5.7003 Y4.6099
G01 X5.6101 Y4.6638
G01 X5.5103 Y4.7110
G01 X5.4064 Y4.7481
G01 X5.3046 Y4.7738
G01 X5.2942 Y4.7759
G01 X5.1955 Y4.7905
G01 X5.1849 Y4.7915
G01 X5.0800 Y4.7966
G01 X4.9698 Y4.7911
G01 X4.8606 Y4.7750
G01 X4.7587 Y4.7495
G01 X4.7485 Y4.7465
G01 X4.6546 Y4.7129
G01 X4.6448 Y4.7088
G01 X4.5499 Y4.6638
G01 X4.4552 Y4.6070
G01 X4.3666 Y4.5413
G01 X4.2887 Y4.4708
G01 X4.2812 Y4.4633
G01 X4.2142 Y4.3894
G01 X4.2074 Y4.3812
G01 X4.1450 Y4.2968
G01 X4.0882 Y4.2021
G01 X4.0410 Y4.1023
G01 X4.0055 Y4.0035
G01 X4.0025 Y3.9933
G01 X3.9782 Y3.8966
G01 X3.9761 Y3.8862
G01 X3.9609 Y3.7822
G01 X3.9554 Y3.6720
G00 Z3.0000
G00 X9.0354 Y3.6720
G01 F60.00
G01 Z-0.0300
G01 F120.00
G01 X9.0354 Y1.6400
G01 X9.0405 Y1.5351
G01 X9.0415 Y1.5245
G01 X9.0570 Y1.4206
G01 X9.0839 Y1.3136
G01 X9.1210 Y1.2097
G01 X9.1682 Y1.1099
G01 X9.2250 Y1.0152
G01 X9.2907 Y0.9266
G01 X9.3648 Y0.8448
G01 X9.4466 Y0.7707
G01 X9.5352 Y0.7050
G01 X9.6299 Y0.6482
G01 X9.7297 Y0.6010
G01 X9.8336 Y0.5639
G01 X9.9406 Y0.5370
G01 X10.0498 Y0.5209
G01 X10.1600 Y0.5154
G01 X10.2702 Y0.5209
G01 X10.3794 Y0.5370
G01 X10.4864 Y0.5639
G01 X10.5903 Y0.6010
G01 X10.6901 Y0.6482
G01 X10.7803 Y0.7021
G01 X10.7891 Y0.7080
G01 X10.8734 Y0.7707
G01 X10.9513 Y0.8412
G01 X10.9588 Y0.8487
G01 X11.0293 Y0.9266
G01 X11.0950 Y1.0152
G01 X11.1518 Y1.1099
G01 X11.1968 Y1.2048
G01 X11.2009 Y1.2146
G01 X11.2361 Y1.3136
G01 X11.2618 Y1.4154
G01 X11.2639 Y1.4258
G01 X11.2789 Y1.5271
G01 X11.2795 Y1.5351
G01 X11.2846 Y1.6400
G01 X11.2844 Y3.6773
G01 X11.2795 Y3.7769
G01 X11.2785 Y3.7875
G01 X11.2630 Y3.8914
G01 X11.2375 Y3.9933
G01 X11.2345 Y4.0035
G01 X11.1990 Y4.1023
G01 X11.1518 Y4.2021
G01 X11.0950 Y4.2968
G01 X11.0326 Y4.3812
G01 X11.0258 Y4.3894
G01 X10.9588 Y4.4633
G01 X10.9513 Y4.4708
G01 X10.8734 Y4.5413
G01 X10.7848 Y4.6070
G01 X10.6901 Y4.6638
G01 X10.5903 Y4.7110
G01 X10.4864 Y4.7481
G01 X10.3846 Y4.7738
G01 X10.3742 Y4.7759
G01 X10.2755 Y4.7905
G01 X10.2649 Y4.7915
G01 X10.1600 Y4.7966
G01 X10.0498 Y4.7911
G01 X9.9406 Y4.7750
G01 X9.8387 Y4.7495
G01 X9.8285 Y4.7465
G01 X9.7346 Y4.7129
G01 X9.7248 Y4.7088
G01 X9.6299 Y4.6638
G01 X9.5352 Y4.6070
G01 X9.4466 Y4.5413
G01 X9.3687 Y4.4708
G01 X9.3612 Y4.4633
G01 X9.2942 Y4.3894
G01 X9.2874 Y4.3812
G01 X9.2250 Y4.2968
G01 X9.1682 Y4.2021
G01 X9.1210 Y4.1023
G01 X9.0855 Y4.0035
G01 X9.0825 Y3.9933
G01 X9.0582 Y3.8966
G01 X9.0561 Y3.8862
G01 X9.0409 Y3.7822
G01 X9.0354 Y3.6720
G00 Z3.0000
G00 X8.7446 Y1.6400
G01 F60.00
G01 Z-0.0300
G01 F120.00
G01 X8.7446 Y3.6720
G01 X8.7395 Y3.7769
G01 X8.7385 Y3.7875
G01 X8.7230 Y3.8914
G01 X8.6961 Y3.9984
G01 X8.6590 Y4.1023
G01 X8.6118 Y4.2021
G01 X8.5550 Y4.2968
G01 X8.4893 Y4.3854
G01 X8.4152 Y4.4672
G01 X8.3334 Y4.5413
G01 X8.2448 Y4.6070
G01 X8.1501 Y4.6638
G01 X8.0503 Y4.7110
G01 X7.9464 Y4.7481
G01 X7.8394 Y4.7750
G01 X7.7302 Y4.7911
G01 X7.6200 Y4.7966
G01 X7.5098 Y4.7911
G01 X7.4006 Y4.7750
G01 X7.2936 Y4.7481
G01 X7.1897 Y4.7110
G01 X7.0899 Y4.6638
G01 X6.9952 Y4.6070
G01 X6.9108 Y4.5446
G01 X6.9026 Y4.5378
G01 X6.8248 Y4.4672
G01 X6.7542 Y4.3894
G01 X6.7474 Y4.3812
G01 X6.6850 Y4.2968
G01 X6.6282 Y4.2021
G01 X6.5832 Y4.1072
G01 X6.5791 Y4.0974
G01 X6.5439 Y3.9984
G01 X6.5182 Y3.8966
G01 X6.5161 Y3.8862
G01 X6.5011 Y3.7849
G01 X6.5005 Y3.7769
G01 X6.4954 Y3.6720
G01 X6.4956 Y1.6347
G01 X6.5005 Y1.5351
G01 X6.5015 Y1.5245
G01 X6.5170 Y1.4206
G01 X6.5425 Y1.3187
G01 X6.5455 Y1.3085
G01 X6.5810 Y1.2097
G01 X6.6282 Y1.1099
G01 X6.6850 Y1.0152
G01 X6.7507 Y0.9266
G01 X6.8248 Y0.8448
G01 X6.9026 Y0.7742
G01 X6.9108 Y0.7674
G01 X6.9909 Y0.7080
G01 X6.9997 Y0.7021
G01 X7.0899 Y0.6482
G01 X7.1897 Y0.6010
G01 X7.2936 Y0.5639
G01 X7.3954 Y0.5382
G01 X7.4058 Y0.5361
G01 X7.5045 Y0.5215
G01 X7.5151 Y0.5205
G01 X7.6200 Y0.5154
G01 X7.7302 Y0.5209
G01 X7.8394 Y0.5370
G01 X7.9413 Y0.5625
G01 X7.9515 Y0.5655
G01 X8.0454 Y0.5991
G01 X8.0552 Y0.6032
G01 X8.1501 Y0.6482
G01 X8.2448 Y0.7050
G01 X8.3334 Y0.7707
G01 X8.4113 Y0.8412
G01 X8.4188 Y0.8487
G01 X8.4858 Y0.9226
G01 X8.4926 Y0.9308
G01 X8.5550 Y1.0152
G01 X8.6118 Y1.1099
G01 X8.6590 Y1.2097
G01 X8.6945 Y1.3085
G01 X8.6975 Y1.3187
G01 X8.7218 Y1.4154
G01 X8.7239 Y1.4258
G01 X8.7391 Y1.5298
G01 X8.7446 Y1.6400
G00 Z3.0000
G00 X13.8246 Y1.6400
G01 F60.00
G01 Z-0.0300
G01 F120.00
G01 X13.8246 Y3.6720
G01 X13.8195 Y3.7769
G01 X13.8185 Y3.7875
G01 X13.8030 Y3.8914
G01 X13.7761 Y3.9984
G01 X13.7390 Y4.1023
G01 X13.6918 Y4.2021
G01 X13.6350 Y4.2968
G01 X13.5693 Y4.3854
G01 X13.4952 Y4.4672
G01 X13.4134 Y4.5413
G01 X13.3248 Y4.6070
G01 X13.2301 Y4.6638
G01 X13.1303 Y4.7110
G01 X13.0264 Y4.7481
G01 X12.9194 Y4.7750
G01 X12.8102 Y4.7911
G01 X12.7000 Y4.7966
G01 X12.5898 Y4.7911
G01 X12.4806 Y4.7750
G01 X12.3736 Y4.7481
G01 X12.2697 Y4.7110
G01 X12.1699 Y4.6638
G01 X12.0797 Y4.6099
G01 X12.0709 Y4.6040
G01 X11.9866 Y4.5413
G01 X11.9087 Y4.4708
G01 X11.9012 Y4.4633
G01 X11.8307 Y4.3854
G01 X11.7650 Y4.2968
G01 X11.7082 Y4.2021
G01 X11.6632 Y4.1072
G01 X11.6591 Y4.0974
G01 X11.6239 Y3.9984
G01 X11.5982 Y3.8966
G01 X11.5961 Y3.8862
G01 X11.5811 Y3.7849
G01 X11.5805 Y3.7769
G01 X11.5754 Y3.6720
G01 X11.5756 Y1.6347
G01 X11.5805 Y1.5351
G01 X11.5815 Y1.5245
G01 X11.5970 Y1.4206
G01 X11.6225 Y1.3187
G01 X11.6255 Y1.3085
G01 X11.6610 Y1.2097
G01 X11.7082 Y1.1099
G01 X11.7650 Y1.0152
G01 X11.8307 Y0.9266
G01 X11.9048 Y0.8448
G01 X11.9826 Y0.7742
G01 X11.9908 Y0.7674
G01 X12.0709 Y0.7080
G01 X12.0797 Y0.7021
G01 X12.1699 Y0.6482
G01 X12.2697 Y0.6010
G01 X12.3736 Y0.5639
G01 X12.4754 Y0.5382
G01 X12.4858 Y0.5361
G01 X12.5845 Y0.5215
G01 X12.5951 Y0.5205
G01 X12.7000 Y0.5154
G01 X12.8102 Y0.5209
G01 X12.9194 Y0.5370
G01 X13.0213 Y0.5625
G01 X13.0315 Y0.5655
G01 X13.1254 Y0.5991
G01 X13.1352 Y0.6032
G01 X13.2301 Y0.6482
G01 X13.3248 Y0.7050
G01 X13.4134 Y0.7707
G01 X13.4913 Y0.8412
G01 X13.4988 Y0.8487
G01 X13.5658 Y0.9226
G01 X13.5726 Y0.9308
G01 X13.6350 Y1.0152
G01 X13.6918 Y1.1099
G01 X13.7390 Y1.2097
G01 X13.7745 Y1.3085
G01 X13.7775 Y1.3187
G01 X13.8018 Y1.4154
G01 X13.8039 Y1.4258
G01 X13.8191 Y1.5298
G01 X13.8246 Y1.6400
G00 Z3.0000
G00 X14.1154 Y3.6720
G01 F60.00
G01 Z-0.0300
G01 F120.00
G01 X14.1154 Y1.6400
G01 X14.1205 Y1.5351
G01 X14.1215 Y1.5245
G01 X14.1370 Y1.4206
G01 X14.1639 Y1.3136
G01 X14.2010 Y1.2097
G01 X14.2482 Y1.1099
G01 X14.3050 Y1.0152
G01 X14.3707 Y0.9266
G01 X14.4448 Y0.8448
G01 X14.5266 Y0.7707
G01 X14.6152 Y0.7050
G01 X14.7099 Y0.6482
G01 X14.8097 Y0.6010
G01 X14.9136 Y0.5639
G01 X15.0206 Y0.5370
G01 X15.1298 Y0.5209
G01 X15.2400 Y0.5154
G01 X15.3502 Y0.5209
G01 X15.4594 Y0.5370
G01 X15.5664 Y0.5639
G01 X15.6703 Y0.6010
G01 X15.7701 Y0.6482
G01 X15.8603 Y0.7021
G01 X15.8691 Y0.7080
G01 X15.9534 Y0.7707
G01 X16.0313 Y0.8412
G01 X16.0388 Y0.8487
G01 X16.1093 Y0.9266
G01 X16.1750 Y1.0152
G01 X16.2318 Y1.1099
G01 X16.2768 Y1.2048
G01 X16.2809 Y1.2146
G01 X16.3161 Y1.3136
G01 X16.3418 Y1.4154
G01 X16.3439 Y1.4258
G01 X16.3589 Y1.5271
G01 X16.3595 Y1.5351
G01 X16.3646 Y1.6400
G01 X16.3644 Y3.6773
G01 X16.3595 Y3.7769
G01 X16.3585 Y3.7875
G01 X16.3430 Y3.8914
G01 X16.3175 Y3.9933
G01 X16.3145 Y4.0035
G01 X16.2790 Y4.1023
G01 X16.2318 Y4.2021
G01 X16.1750 Y4.2968
G01 X16.1093 Y4.3854
G01 X16.0352 Y4.4672
G01 X15.9574 Y4.5378
G01 X15.9492 Y4.5446
G01 X15.8691 Y4.6040
G01 X15.8603 Y4.6099
G01 X15.7701 Y4.6638
G01 X15.6703 Y4.7110
G01 X15.5664 Y4.7481
G01 X15.4646 Y4.7738
G01 X15.4542 Y4.7759
G01 X15.3555 Y4.7905
G01 X15.3449 Y4.7915
G01 X15.2400 Y4.7966
G01 X15.1298 Y4.7911
G01 X15.0206 Y4.7750
G01 X14.9187 Y4.7495
G01 X14.9085 Y4.7465
G01 X14.8146 Y4.7129
G01 X14.8048 Y4.7088
G01 X14.7099 Y4.6638
G01 X14.6152 Y4.6070
G01 X14.5266 Y4.5413
G01 X14.4487 Y4.4708
G01 X14.4412 Y4.4633
G01 X14.3742 Y4.3894
G01 X14.3674 Y4.3812
G01 X14.3050 Y4.2968
G01 X14.2482 Y4.2021
G01 X14.2010 Y4.1023
G01 X14.1655 Y4.0035
G01 X14.1625 Y3.9933
G01 X14.1382 Y3.8966
G01 X14.1361 Y3.8862
G01 X14.1209 Y3.7822
G01 X14.1154 Y3.6720
G00 Z3.0000
G00 X19.1954 Y3.6720
G01 F60.00
G01 Z-0.0300
G01 F120.00
G01 X19.1954 Y1.6400
G01 X19.2005 Y1.5351
G01 X19.2015 Y1.5245
G01 X19.2170 Y1.4206
G01 X19.2439 Y1.3136
G01 X19.2810 Y1.2097
G01 X19.3282 Y1.1099
G01 X19.3850 Y1.0152
G01 X19.4507 Y0.9266
G01 X19.5248 Y0.8448
G01 X19.6066 Y0.7707
G01 X19.6952 Y0.7050
G01 X19.7899 Y0.6482
G01 X19.8897 Y0.6010
G01 X19.9936 Y0.5639
G01 X20.1006 Y0.5370
G01 X20.2098 Y0.5209
G01 X20.3200 Y0.5154
G01 X20.4302 Y0.5209
G01 X20.5394 Y0.5370
G01 X20.6464 Y0.5639
G01 X20.7503 Y0.6010
G01 X20.8501 Y0.6482
G01 X20.9403 Y0.7021
G01 X20.9491 Y0.7080
G01 X21.0334 Y0.7707
G01 X21.1113 Y0.8412
G01 X21.1188 Y0.8487
G01 X21.1893 Y0.9266
G01 X21.2550 Y1.0152
G01 X21.3118 Y1.1099
G01 X21.3568 Y1.2048
G01 X21.3609 Y1.2146
G01 X21.3961 Y1.3136
G01 X21.4218 Y1.4154
G01 X21.4239 Y1.4258
G01 X21.4389 Y1.5271
G01 X21.4395 Y1.5351
G01 X21.4446 Y1.6400
G01 X21.4444 Y3.6773
G01 X21.4395 Y3.7769
G01 X21.4385 Y3.7875
G01 X21.4230 Y3.8914
G01 X21.3975 Y3.9933
G01 X21.3945 Y4.0035
G01 X21.3590 Y4.1023
G01 X21.3118 Y4.2021
G01 X21.2550 Y4.2968
G01 X21.1926 Y4.3812
G01 X21.1858 Y4.3894
G01 X21.1188 Y4.4633
G01 X21.1113 Y4.4708
G01 X21.0334 Y4.5413
G01 X20.9448 Y4.6070
G01 X20.8501 Y4.6638
G01 X20.7503 Y4.7110
G01 X20.6464 Y4.7481
G01 X20.5446 Y4.7738
G01 X20.5342 Y4.7759
G01 X20.4355 Y4.7905
G01 X20.4249 Y4.7915
G01 X20.3200 Y4.7966
G01 X20.2098 Y4.7911
G01 X20.1006 Y4.7750
G01 X19.9987 Y4.7495
G01 X19.9885 Y4.7465
G01 X19.8946 Y4.7129
G01 X19.8848 Y4.7088
G01 X19.7899 Y4.6638
G01 X19.6952 Y4.6070
G01 X19.6066 Y4.5413
G01 X19.5287 Y4.4708
G01 X19.5212 Y4.4633
G01 X19.4542 Y4.3894
G01 X19.4474 Y4.3812
G01 X19.3850 Y4.2968
G01 X19.3282 Y4.2021
G01 X19.2810 Y4.1023
G01 X19.2455 Y4.0035
G01 X19.2425 Y3.9933
G01 X19.2182 Y3.8966
G01 X19.2161 Y3.8862
G01 X19.2009 Y3.7822
G01 X19.1954 Y3.6720
G00 Z3.0000
G00 X18.9046 Y1.6400
G01 F60.00
G01 Z-0.0300
G01 F120.00
G01 X18.9046 Y3.6720
G01 X18.8995 Y3.7769
G01 X18.8985 Y3.7875
G01 X18.8830 Y3.8914
G01 X18.8561 Y3.9984
G01 X18.8190 Y4.1023
G01 X18.7718 Y4.2021
G01 X18.7150 Y4.2968
G01 X18.6493 Y4.3854
G01 X18.5752 Y4.4672
G01 X18.4934 Y4.5413
G01 X18.4048 Y4.6070
G01 X18.3101 Y4.6638
G01 X18.2103 Y4.7110
G01 X18.1064 Y4.7481
G01 X17.9994 Y4.7750
G01 X17.8902 Y4.7911
G01 X17.7800 Y4.7966
G01 X17.6698 Y4.7911
G01 X17.5606 Y4.7750
G01 X17.4536 Y4.7481
G01 X17.3497 Y4.7110
G01 X17.2499 Y4.6638
G01 X17.1597 Y4.6099
G01 X17.1509 Y4.6040
G01 X17.0666 Y4.5413
G01 X16.9887 Y4.4708
G01 X16.9812 Y4.4633
G01 X16.9107 Y4.3854
G01 X16.8450 Y4.2968
G01 X16.7882 Y4.2021
G01 X16.7432 Y4.1072
G01 X16.7391 Y4.0974
G01 X16.7039 Y3.9984
G01 X16.6782 Y3.8966
G01 X16.6761 Y3.8862
G01 X16.6611 Y3.7849
G01 X16.6605 Y3.7769
G01 X16.6554 Y3.6720
G01 X16.6556 Y1.6347
G01 X16.6605 Y1.5351
G01 X16.6615 Y1.5245
G01 X16.6770 Y1.4206
G01 X16.7025 Y1.3187
G01 X16.7055 Y1.3085
G01 X16.7410 Y1.2097
G01 X16.7882 Y1.1099
G01 X16.8450 Y1.0152
G01 X16.9074 Y0.9308
G01 X16.9142 Y0.9226
G01 X16.9812 Y0.8487
G01 X16.9887 Y0.8412
G01 X17.0666 Y0.7707
G01 X17.1552 Y0.7050
G01 X17.2499 Y0.6482
G01 X17.3497 Y0.6010
G01 X17.4536 Y0.5639
G01 X17.5554 Y0.5382
G01 X17.5658 Y0.5361
G01 X17.6645 Y0.5215
G01 X17.6751 Y0.5205
G01 X17.7800 Y0.5154
G01 X17.8902 Y0.5209
G01 X17.9994 Y0.5370
G01 X18.1013 Y0.5625
G01 X18.1115 Y0.5655
G01 X18.2054 Y0.5991
G01 X18.2152 Y0.6032
G01 X18.3101 Y0.6482
G01 X18.4048 Y0.7050
G01 X18.4934 Y0.7707
G01 X18.5713 Y0.8412
G01 X18.5788 Y0.8487
G01 X18.6458 Y0.9226
G01 X18.6526 Y0.9308
G01 X18.7150 Y1.0152
G01 X18.7718 Y1.1099
G01 X18.8190 Y1.2097
G01 X18.8545 Y1.3085
G01 X18.8575 Y1.3187
G01 X18.8818 Y1.4154
G01 X18.8839 Y1.4258
G01 X18.8991 Y1.5298
G01 X18.9046 Y1.6400
G00 Z3.0000
G00 X20.6658 Y7.4634
G01 F60.00
G01 Z-0.0300
G01 F120.00
G01 X20.6133 Y7.5107
G01 X20.5327 Y7.5705
G01 X20.4466 Y7.6221
G01 X20.3583 Y7.6640
G01 X20.3509 Y7.6670
G01 X20.2664 Y7.6972
G01 X20.2562 Y7.7003
G01 X20.1640 Y7.7233
G01 X20.0699 Y7.7373
G01 X20.0620 Y7.7382
G01 X19.9644 Y7.7429
G01 X18.1329 Y7.7429
G01 X18.0353 Y7.7380
G01 X17.9413 Y7.7242
G01 X17.9309 Y7.7221
G01 X17.8387 Y7.6989
G01 X17.7442 Y7.6650
G01 X17.6534 Y7.6221
G01 X17.5673 Y7.5705
G01 X17.4867 Y7.5107
G01 X17.4123 Y7.4433
G01 X17.3449 Y7.3689
G01 X17.2851 Y7.2883
G01 X17.2335 Y7.2022
G01 X17.1906 Y7.1114
G01 X17.1567 Y7.0169
G01 X17.1323 Y6.9196
G01 X17.1176 Y6.8203
G01 X17.1127 Y6.7200
G01 X17.1176 Y6.6197
G01 X17.1323 Y6.5204
G01 X17.1567 Y6.4231
G01 X17.1906 Y6.3286
G01 X17.2311 Y6.2425
G01 X17.2361 Y6.2332
G01 X17.2851 Y6.1517
G01 X17.3416 Y6.0753
G01 X17.3483 Y6.0671
G01 X17.4123 Y5.9967
G01 X17.4867 Y5.9293
G01 X17.5630 Y5.8725
G01 X17.5718 Y5.8666
G01 X17.6534 Y5.8179
G01 X17.7442 Y5.7750
G01 X17.8336 Y5.7428
G01 X17.8438 Y5.7397
G01 X17.9360 Y5.7167
G01 X18.0353 Y5.7020
G01 X18.1356 Y5.6971
G01 X19.9644 Y5.6971
G01 X20.0620 Y5.7018
G01 X20.0699 Y5.7027
G01 X20.1640 Y5.7167
G01 X20.2562 Y5.7397
G01 X20.2664 Y5.7428
G01 X20.3509 Y5.7730
G01 X20.3583 Y5.7760
G01 X20.4466 Y5.8179
G01 X20.5327 Y5.8695
G01 X20.6133 Y5.9293
G01 X20.6658 Y5.9766
G01 X22.1166 Y5.9766
G01 X22.1166 Y4.5143
G01 X22.0687 Y4.4708
G01 X22.0630 Y4.4653
G01 X21.9942 Y4.3894
G01 X21.9890 Y4.3833
G01 X21.9250 Y4.2968
G01 X21.8708 Y4.2067
G01 X21.8670 Y4.1998
G01 X21.8210 Y4.1023
G01 X21.7839 Y3.9984
G01 X21.7570 Y3.8914
G01 X21.7415 Y3.7875
G01 X21.7406 Y3.7796
G01 X21.7354 Y3.6720
G01 X21.7354 Y1.6400
G01 X21.7409 Y1.5298
G01 X21.7561 Y1.4258
G01 X21.7576 Y1.4180
G01 X21.7839 Y1.3136
G01 X21.8191 Y1.2146
G01 X21.8232 Y1.2048
G01 X21.8658 Y1.1146
G01 X21.8708 Y1.1053
G01 X21.9250 Y1.0152
G01 X21.9874 Y0.9308
G01 X21.9942 Y0.9226
G01 X22.0648 Y0.8448
G01 X22.1466 Y0.7707
G01 X22.2352 Y0.7050
G01 X22.3299 Y0.6482
G01 X22.4297 Y0.6010
G01 X22.5336 Y0.5639
G01 X22.6406 Y0.5370
G01 X22.7445 Y0.5215
G01 X22.7551 Y0.5205
G01 X22.8547 Y0.5156
G01 X22.8653 Y0.5156
G01 X22.9702 Y0.5209
G01 X23.0742 Y0.5361
G01 X23.0846 Y0.5382
G01 X23.1864 Y0.5639
G01 X23.2879 Y0.6001
G01 X23.2952 Y0.6032
G01 X23.3854 Y0.6458
G01 X23.3947 Y0.6508
G01 X23.4848 Y0.7050
G01 X23.5734 Y0.7707
G01 X23.6552 Y0.8448
G01 X23.7258 Y0.9226
G01 X23.7326 Y0.9308
G01 X23.7950 Y1.0152
G01 X23.8518 Y1.1099
G01 X23.8968 Y1.2048
G01 X23.9009 Y1.2146
G01 X23.9361 Y1.3136
G01 X23.9618 Y1.4154
G01 X23.9639 Y1.4258
G01 X23.9791 Y1.5298
G01 X23.9844 Y1.6347
G01 X23.9846 Y3.6720
G01 X23.9794 Y3.7796
G01 X23.9785 Y3.7875
G01 X23.9630 Y3.8914
G01 X23.9361 Y3.9984
G01 X23.8990 Y4.1023
G01 X23.8530 Y4.1998
G01 X23.8492 Y4.2067
G01 X23.7950 Y4.2968
G01 X23.7310 Y4.3833
G01 X23.7258 Y4.3894
G01 X23.6570 Y4.4653
G01 X23.6513 Y4.4708
G01 X23.6034 Y4.5143
G01 X23.6033 Y6.7227
G01 X23.5998 Y6.7929
G01 X23.5891 Y6.8650
G01 X23.5714 Y6.9358
G01 X23.5478 Y7.0020
G01 X23.5446 Y7.0093
G01 X23.5156 Y7.0704
G01 X23.4809 Y7.1285
G01 X23.4750 Y7.1373
G01 X23.4346 Y7.1916
G01 X23.3893 Y7.2418
G01 X23.3818 Y7.2493
G01 X23.3316 Y7.2946
G01 X23.2773 Y7.3350
G01 X23.2685 Y7.3409
G01 X23.2104 Y7.3756
G01 X23.1493 Y7.4046
G01 X23.1395 Y7.4087
G01 X23.0758 Y7.4314
G01 X23.0102 Y7.4479
G01 X22.9998 Y7.4500
G01 X22.9329 Y7.4598
G01 X22.8600 Y7.4634
G01 X20.6658 Y7.4634
G00 Z3.0000
G00 X20.6658 Y10.0034
G01 F60.00
G01 Z-0.0300
G01 F120.00
G01 X20.6133 Y10.0507
G01 X20.5327 Y10.1105
G01 X20.4466 Y10.1621
G01 X20.3583 Y10.2040
G01 X20.3509 Y10.2070
G01 X20.2664 Y10.2372
G01 X20.2562 Y10.2403
G01 X20.1640 Y10.2633
G01 X20.0699 Y10.2773
G01 X20.0620 Y10.2782
G01 X19.9644 Y10.2829
G01 X18.1329 Y10.2829
G01 X18.0353 Y10.2780
G01 X17.9413 Y10.2642
G01 X17.9309 Y10.2621
G01 X17.8387 Y10.2389
G01 X17.7442 Y10.2050
G01 X17.6534 Y10.1621
G01 X17.5673 Y10.1105
G01 X17.4867 Y10.0507
G01 X17.4123 Y9.9833
G01 X17.3449 Y9.9089
G01 X17.2851 Y9.8283
G01 X17.2335 Y9.7422
G01 X17.1906 Y9.6514
G01 X17.1567 Y9.5569
G01 X17.1323 Y9.4596
G01 X17.1176 Y9.3603
G01 X17.1127 Y9.2600
G01 X17.1176 Y9.1597
G01 X17.1323 Y9.0604
G01 X17.1567 Y8.9631
G01 X17.1906 Y8.8686
G01 X17.2311 Y8.7825
G01 X17.2361 Y8.7732
G01 X17.2851 Y8.6917
G01 X17.3416 Y8.6153
G01 X17.3483 Y8.6071
G01 X17.4123 Y8.5367
G01 X17.4867 Y8.4693
G01 X17.5630 Y8.4125
G01 X17.5718 Y8.4066
G01 X17.6534 Y8.3579
G01 X17.7442 Y8.3150
G01 X17.8387 Y8.2811
G01 X17.9309 Y8.2579
G01 X17.9413 Y8.2558
G01 X18.0301 Y8.2427
G01 X18.0406 Y8.2416
G01 X18.1356 Y8.2371
G01 X19.9644 Y8.2371
G01 X20.0647 Y8.2420
G01 X20.1640 Y8.2567
G01 X20.2562 Y8.2797
G01 X20.2664 Y8.2828
G01 X20.3509 Y8.3130
G01 X20.3583 Y8.3160
G01 X20.4466 Y8.3579
G01 X20.5327 Y8.4095
G01 X20.6133 Y8.4693
G01 X20.6658 Y8.5166
G01 X24.6566 Y8.5166
G01 X24.6566 Y4.5143
G01 X24.6087 Y4.4708
G01 X24.6030 Y4.4653
G01 X24.5342 Y4.3894
G01 X24.5290 Y4.3833
G01 X24.4650 Y4.2968
G01 X24.4108 Y4.2067
G01 X24.4070 Y4.1998
G01 X24.3610 Y4.1023
G01 X24.3239 Y3.9984
G01 X24.2970 Y3.8914
G01 X24.2811 Y3.7849
G01 X24.2805 Y3.7769
G01 X24.2754 Y3.6720
G01 X24.2754 Y1.6400
G01 X24.2809 Y1.5298
G01 X24.2966 Y1.4232
G01 X24.2982 Y1.4154
G01 X24.3239 Y1.3136
G01 X24.3591 Y1.2146
G01 X24.3632 Y1.2048
G01 X24.4058 Y1.1146
G01 X24.4108 Y1.1053
G01 X24.4650 Y1.0152
G01 X24.5274 Y0.9308
G01 X24.5342 Y0.9226
G01 X24.6048 Y0.8448
G01 X24.6866 Y0.7707
G01 X24.7752 Y0.7050
G01 X24.8653 Y0.6508
G01 X24.8746 Y0.6458
G01 X24.9697 Y0.6010
G01 X25.0685 Y0.5655
G01 X25.0787 Y0.5625
G01 X25.1754 Y0.5382
G01 X25.1858 Y0.5361
G01 X25.2898 Y0.5209
G01 X25.4000 Y0.5154
G01 X25.5049 Y0.5205
G01 X25.5155 Y0.5215
G01 X25.6194 Y0.5370
G01 X25.7213 Y0.5625
G01 X25.7315 Y0.5655
G01 X25.8303 Y0.6010
G01 X25.9254 Y0.6458
G01 X25.9324 Y0.6495
G01 X26.0248 Y0.7050
G01 X26.1092 Y0.7674
G01 X26.1174 Y0.7742
G01 X26.1952 Y0.8448
G01 X26.2658 Y0.9226
G01 X26.2726 Y0.9308
G01 X26.3350 Y1.0152
G01 X26.3892 Y1.1053
G01 X26.3942 Y1.1146
G01 X26.4390 Y1.2097
G01 X26.4745 Y1.3085
G01 X26.4775 Y1.3187
G01 X26.5030 Y1.4206
G01 X26.5185 Y1.5245
G01 X26.5195 Y1.5351
G01 X26.5245 Y1.6373
G01 X26.5246 Y3.6720
G01 X26.5195 Y3.7769
G01 X26.5189 Y3.7849
G01 X26.5030 Y3.8914
G01 X26.4761 Y3.9984
G01 X26.4390 Y4.1023
G01 X26.3930 Y4.1998
G01 X26.3892 Y4.2067
G01 X26.3350 Y4.2968
G01 X26.2710 Y4.3833
G01 X26.2658 Y4.3894
G01 X26.1970 Y4.4653
G01 X26.1913 Y4.4708
G01 X26.1434 Y4.5143
G01 X26.1433 Y9.2627
G01 X26.1402 Y9.3276
G01 X26.1391 Y9.3381
G01 X26.1291 Y9.4050
G01 X26.1128 Y9.4707
G01 X26.1097 Y9.4808
G01 X26.0868 Y9.5445
G01 X26.0580 Y9.6057
G01 X26.0543 Y9.6127
G01 X26.0209 Y9.6685
G01 X26.0150 Y9.6773
G01 X25.9746 Y9.7316
G01 X25.9293 Y9.7818
G01 X25.9218 Y9.7893
G01 X25.8716 Y9.8346
G01 X25.8130 Y9.8781
G01 X25.7550 Y9.9130
G01 X25.7457 Y9.9180
G01 X25.6845 Y9.9468
G01 X25.6208 Y9.9697
G01 X25.6107 Y9.9728
G01 X25.5450 Y9.9891
G01 X25.4781 Y9.9991
G01 X25.4702 Y10.0000
G01 X25.4000 Y10.0034
G01 X20.6658 Y10.0034
G00 Z3.0000
G00 X20.6658 Y12.5434
G01 F60.00
G01 Z-0.0300
G01 F120.00
G01 X20.6133 Y12.5907
G01 X20.5327 Y12.6505
G01 X20.4466 Y12.7021
G01 X20.3583 Y12.7440
G01 X20.3509 Y12.7470
G01 X20.2664 Y12.7772
G01 X20.2562 Y12.7803
G01 X20.1640 Y12.8033
G01 X20.0699 Y12.8173
G01 X20.0620 Y12.8182
G01 X19.9644 Y12.8229
G01 X18.1329 Y12.8229
G01 X18.0353 Y12.8180
G01 X17.9413 Y12.8042
G01 X17.9309 Y12.8021
G01 X17.8387 Y12.7789
G01 X17.7442 Y12.7450
G01 X17.6534 Y12.7021
G01 X17.5673 Y12.6505
G01 X17.4867 Y12.5907
G01 X17.4123 Y12.5233
G01 X17.3449 Y12.4489
G01 X17.2851 Y12.3683
G01 X17.2335 Y12.2822
G01 X17.1906 Y12.1914
G01 X17.1567 Y12.0969
G01 X17.1323 Y11.9996
G01 X17.1176 Y11.9003
G01 X17.1127 Y11.8000
G01 X17.1176 Y11.6997
G01 X17.1323 Y11.6004
G01 X17.1567 Y11.5031
G01 X17.1906 Y11.4086
G01 X17.2311 Y11.3225
G01 X17.2361 Y11.3132
G01 X17.2851 Y11.2317
G01 X17.3449 Y11.1511
G01 X17.4086 Y11.0805
G01 X17.4161 Y11.0730
G01 X17.4827 Y11.0127
G01 X17.4909 Y11.0060
G01 X17.5673 Y10.9495
G01 X17.6534 Y10.8979
G01 X17.7442 Y10.8550
G01 X17.8336 Y10.8228
G01 X17.8438 Y10.8197
G01 X17.9309 Y10.7979
G01 X17.9413 Y10.7958
G01 X18.0353 Y10.7820
G01 X18.1303 Y10.7772
G01 X19.9644 Y10.7771
G01 X20.0647 Y10.7820
G01 X20.1640 Y10.7967
G01 X20.2562 Y10.8197
G01 X20.2664 Y10.8228
G01 X20.3509 Y10.8530
G01 X20.3583 Y10.8560
G01 X20.4466 Y10.8979
G01 X20.5327 Y10.9495
G01 X20.6133 Y11.0093
G01 X20.6658 Y11.0566
G01 X27.1966 Y11.0566
G01 X27.1966 Y4.5143
G01 X27.1487 Y4.4708
G01 X27.1430 Y4.4653
G01 X27.0742 Y4.3894
G01 X27.0690 Y4.3833
G01 X27.0050 Y4.2968
G01 X26.9508 Y4.2067
G01 X26.9470 Y4.1998
G01 X26.9010 Y4.1023
G01 X26.8639 Y3.9984
G01 X26.8370 Y3.8914
G01 X26.8211 Y3.7849
G01 X26.8205 Y3.7769
G01 X26.8154 Y3.6720
G01 X26.8154 Y1.6400
G01 X26.8205 Y1.5351
G01 X26.8211 Y1.5271
G01 X26.8361 Y1.4258
G01 X26.8382 Y1.4154
G01 X26.8639 Y1.3136
G01 X26.8991 Y1.2146
G01 X26.9032 Y1.2048
G01 X26.9482 Y1.1099
G01 X27.0021 Y1.0197
G01 X27.0080 Y1.0109
G01 X27.0707 Y0.9266
G01 X27.1412 Y0.8487
G01 X27.1487 Y0.8412
G01 X27.2266 Y0.7707
G01 X27.3109 Y0.7080
G01 X27.3197 Y0.7021
G01 X27.4099 Y0.6482
G01 X27.5048 Y0.6032
G01 X27.5146 Y0.5991
G01 X27.6136 Y0.5639
G01 X27.7154 Y0.5382
G01 X27.7258 Y0.5361
G01 X27.8298 Y0.5209
G01 X27.9347 Y0.5156
G01 X27.9453 Y0.5156
G01 X28.0502 Y0.5209
G01 X28.1594 Y0.5370
G01 X28.2613 Y0.5625
G01 X28.2715 Y0.5655
G01 X28.3703 Y0.6010
G01 X28.4654 Y0.6458
G01 X28.4747 Y0.6508
G01 X28.5648 Y0.7050
G01 X28.6534 Y0.7707
G01 X28.7352 Y0.8448
G01 X28.8093 Y0.9266
G01 X28.8750 Y1.0152
G01 X28.9318 Y1.1099
G01 X28.9790 Y1.2097
G01 X29.0161 Y1.3136
G01 X29.0418 Y1.4154
G01 X29.0434 Y1.4232
G01 X29.0591 Y1.5298
G01 X29.0646 Y1.6400
G01 X29.0646 Y3.6720
G01 X29.0591 Y3.7822
G01 X29.0430 Y3.8914
G01 X29.0161 Y3.9984
G01 X28.9809 Y4.0974
G01 X28.9779 Y4.1048
G01 X28.9318 Y4.2021
G01 X28.8779 Y4.2923
G01 X28.8735 Y4.2990
G01 X28.8126 Y4.3812
G01 X28.8076 Y4.3874
G01 X28.7352 Y4.4672
G01 X28.6834 Y4.5143
G01 X28.6833 Y11.8027
G01 X28.6798 Y11.8729
G01 X28.6700 Y11.9398
G01 X28.6679 Y11.9502
G01 X28.6514 Y12.0158
G01 X28.6268 Y12.0845
G01 X28.5980 Y12.1457
G01 X28.5930 Y12.1550
G01 X28.5581 Y12.2130
G01 X28.5146 Y12.2716
G01 X28.4693 Y12.3218
G01 X28.4618 Y12.3293
G01 X28.4116 Y12.3746
G01 X28.3573 Y12.4150
G01 X28.3485 Y12.4209
G01 X28.2904 Y12.4556
G01 X28.2245 Y12.4868
G01 X28.1608 Y12.5097
G01 X28.1507 Y12.5128
G01 X28.0850 Y12.5291
G01 X28.0181 Y12.5391
G01 X28.0076 Y12.5402
G01 X27.9453 Y12.5432
G01 X20.6658 Y12.5434
G00 Z3.0000
G00 X20.6658 Y15.0834
G01 F60.00
G01 Z-0.0300
G01 F120.00
G01 X20.6133 Y15.1307
G01 X20.5327 Y15.1905
G01 X20.4466 Y15.2421
G01 X20.3583 Y15.2840
G01 X20.3509 Y15.2870
G01 X20.2664 Y15.3172
G01 X20.2562 Y15.3203
G01 X20.1640 Y15.3433
G01 X20.0699 Y15.3573
G01 X20.0620 Y15.3582
G01 X19.9644 Y15.3629
G01 X18.1329 Y15.3629
G01 X18.0353 Y15.3580
G01 X17.9413 Y15.3442
G01 X17.9309 Y15.3421
G01 X17.8387 Y15.3189
G01 X17.7442 Y15.2850
G01 X17.6534 Y15.2421
G01 X17.5673 Y15.1905
G01 X17.4867 Y15.1307
G01 X17.4123 Y15.0633
G01 X17.3449 Y14.9889
G01 X17.2851 Y14.9083
G01 X17.2335 Y14.8222
G01 X17.1906 Y14.7314
G01 X17.1567 Y14.6369
G01 X17.1323 Y14.5396
G01 X17.1176 Y14.4403
G01 X17.1127 Y14.3400
G01 X17.1176 Y14.2397
G01 X17.1323 Y14.1404
G01 X17.1567 Y14.0431
G01 X17.1906 Y13.9486
G01 X17.2311 Y13.8625
G01 X17.2361 Y13.8532
G01 X17.2851 Y13.7717
G01 X17.3449 Y13.6911
G01 X17.4086 Y13.6205
G01 X17.4161 Y13.6130
G01 X17.4827 Y13.5527
G01 X17.4909 Y13.5460
G01 X17.5673 Y13.4895
G01 X17.6534 Y13.4379
G01 X17.7442 Y13.3950
G01 X17.8336 Y13.3628
G01 X17.8438 Y13.3597
G01 X17.9309 Y13.3379
G01 X17.9413 Y13.3358
G01 X18.0353 Y13.3220
G01 X18.1329 Y13.3171
G01 X19.9644 Y13.3171
G01 X20.0647 Y13.3220
G01 X20.1640 Y13.3367
G01 X20.2562 Y13.3597
G01 X20.2664 Y13.3628
G01 X20.3509 Y13.3930
G01 X20.3583 Y13.3960
G01 X20.4466 Y13.4379
G01 X20.5327 Y13.4895
G01 X20.6133 Y13.5493
G01 X20.6658 Y13.5966
G01 X29.7366 Y13.5966
G01 X29.7366 Y4.5143
G01 X29.6887 Y4.4708
G01 X29.6830 Y4.4653
G01 X29.6142 Y4.3894
G01 X29.6090 Y4.3833
G01 X29.5450 Y4.2968
G01 X29.4908 Y4.2067
G01 X29.4870 Y4.1998
G01 X29.4410 Y4.1023
G01 X29.4039 Y3.9984
G01 X29.3770 Y3.8914
G01 X29.3611 Y3.7849
G01 X29.3605 Y3.7769
G01 X29.3554 Y3.6720
G01 X29.3554 Y1.6400
G01 X29.3609 Y1.5298
G01 X29.3761 Y1.4258
G01 X29.3782 Y1.4154
G01 X29.4039 Y1.3136
G01 X29.4391 Y1.2146
G01 X29.4432 Y1.2048
G01 X29.4882 Y1.1099
G01 X29.5421 Y1.0197
G01 X29.5480 Y1.0109
G01 X29.6107 Y0.9266
G01 X29.6812 Y0.8487
G01 X29.6887 Y0.8412
G01 X29.7666 Y0.7707
G01 X29.8509 Y0.7080
G01 X29.8597 Y0.7021
G01 X29.9499 Y0.6482
G01 X30.0448 Y0.6032
G01 X30.0546 Y0.5991
G01 X30.1536 Y0.5639
G01 X30.2554 Y0.5382
G01 X30.2658 Y0.5361
G01 X30.3698 Y0.5209
G01 X30.4747 Y0.5156
G01 X30.4853 Y0.5156
G01 X30.5902 Y0.5209
G01 X30.6942 Y0.5361
G01 X30.7046 Y0.5382
G01 X30.8064 Y0.5639
G01 X30.9054 Y0.5991
G01 X30.9152 Y0.6032
G01 X31.0101 Y0.6482
G01 X31.1003 Y0.7021
G01 X31.1091 Y0.7080
G01 X31.1934 Y0.7707
G01 X31.2752 Y0.8448
G01 X31.3493 Y0.9266
G01 X31.4150 Y1.0152
G01 X31.4718 Y1.1099
G01 X31.5190 Y1.2097
G01 X31.5561 Y1.3136
G01 X31.5818 Y1.4154
G01 X31.5834 Y1.4232
G01 X31.5991 Y1.5298
G01 X31.6046 Y1.6400
G01 X31.6046 Y3.6720
G01 X31.5991 Y3.7822
G01 X31.5830 Y3.8914
G01 X31.5561 Y3.9984
G01 X31.5209 Y4.0974
G01 X31.5179 Y4.1048
G01 X31.4718 Y4.2021
G01 X31.4179 Y4.2923
G01 X31.4135 Y4.2990
G01 X31.3526 Y4.3812
G01 X31.3476 Y4.3874
G01 X31.2752 Y4.4672
G01 X31.2234 Y4.5143
G01 X31.2233 Y14.3427
G01 X31.2198 Y14.4129
G01 X31.2100 Y14.4798
G01 X31.2079 Y14.4902
G01 X31.1914 Y14.5558
G01 X31.1668 Y14.6245
G01 X31.1380 Y14.6857
G01 X31.1330 Y14.6950
G01 X31.1009 Y14.7485
G01 X31.0950 Y14.7573
G01 X31.0579 Y14.8074
G01 X31.0512 Y14.8156
G01 X31.0056 Y14.8656
G01 X30.9556 Y14.9112
G01 X30.9474 Y14.9179
G01 X30.8930 Y14.9581
G01 X30.8304 Y14.9956
G01 X30.7645 Y15.0268
G01 X30.7008 Y15.0497
G01 X30.6907 Y15.0528
G01 X30.6250 Y15.0691
G01 X30.5581 Y15.0791
G01 X30.5476 Y15.0802
G01 X30.4827 Y15.0833
G01 X20.6658 Y15.0834
G00 Z3.0000
G00 X20.6658 Y17.6234
G01 F60.00
G01 Z-0.0300
G01 F120.00
G01 X20.6133 Y17.6707
G01 X20.5327 Y17.7305
G01 X20.4466 Y17.7821
G01 X20.3583 Y17.8240
G01 X20.3509 Y17.8270
G01 X20.2664 Y17.8572
G01 X20.2562 Y17.8603
G01 X20.1640 Y17.8833
G01 X20.0699 Y17.8973
G01 X20.0620 Y17.8982
G01 X19.9644 Y17.9029
G01 X18.1329 Y17.9029
G01 X18.0353 Y17.8980
G01 X17.9413 Y17.8842
G01 X17.9309 Y17.8821
G01 X17.8387 Y17.8589
G01 X17.7442 Y17.8250
G01 X17.6534 Y17.7821
G01 X17.5673 Y17.7305
G01 X17.4867 Y17.6707
G01 X17.4123 Y17.6033
G01 X17.3449 Y17.5289
G01 X17.2851 Y17.4483
G01 X17.2335 Y17.3622
G01 X17.1906 Y17.2714
G01 X17.1567 Y17.1769
G01 X17.1323 Y17.0796
G01 X17.1176 Y16.9803
G01 X17.1127 Y16.8800
G01 X17.1176 Y16.7797
G01 X17.1323 Y16.6804
G01 X17.1567 Y16.5831
G01 X17.1906 Y16.4886
G01 X17.2311 Y16.4025
G01 X17.2361 Y16.3932
G01 X17.2851 Y16.3117
G01 X17.3449 Y16.2311
G01 X17.4086 Y16.1605
G01 X17.4161 Y16.1530
G01 X17.4827 Y16.0927
G01 X17.4909 Y16.0860
G01 X17.5673 Y16.0295
G01 X17.6534 Y15.9779
G01 X17.7442 Y15.9350
G01 X17.8336 Y15.9028
G01 X17.8438 Y15.8997
G01 X17.9309 Y15.8779
G01 X17.9413 Y15.8758
G01 X18.0353 Y15.8620
G01 X18.1329 Y15.8571
G01 X19.9644 Y15.8571
G01 X20.0647 Y15.8620
G01 X20.1640 Y15.8767
G01 X20.2562 Y15.8997
G01 X20.2664 Y15.9028
G01 X20.3509 Y15.9330
G01 X20.3583 Y15.9360
G01 X20.4466 Y15.9779
G01 X20.5327 Y16.0295
G01 X20.6133 Y16.0893
G01 X20.6658 Y16.1366
G01 X32.2766 Y16.1366
G01 X32.2766 Y4.5143
G01 X32.2287 Y4.4708
G01 X32.2230 Y4.4653
G01 X32.1542 Y4.3894
G01 X32.1490 Y4.3833
G01 X32.0850 Y4.2968
G01 X32.0308 Y4.2067
G01 X32.0270 Y4.1998
G01 X31.9810 Y4.1023
G01 X31.9439 Y3.9984
G01 X31.9170 Y3.8914
G01 X31.9011 Y3.7849
G01 X31.9005 Y3.7769
G01 X31.8954 Y3.6720
G01 X31.8954 Y1.6400
G01 X31.9009 Y1.5298
G01 X31.9161 Y1.4258
G01 X31.9182 Y1.4154
G01 X31.9439 Y1.3136
G01 X31.9810 Y1.2097
G01 X32.0258 Y1.1146
G01 X32.0308 Y1.1053
G01 X32.0850 Y1.0152
G01 X32.1474 Y0.9308
G01 X32.1542 Y0.9226
G01 X32.2248 Y0.8448
G01 X32.3026 Y0.7742
G01 X32.3108 Y0.7674
G01 X32.3952 Y0.7050
G01 X32.4853 Y0.6508
G01 X32.4946 Y0.6458
G01 X32.5897 Y0.6010
G01 X32.6885 Y0.5655
G01 X32.6987 Y0.5625
G01 X32.8006 Y0.5370
G01 X32.9045 Y0.5215
G01 X32.9151 Y0.5205
G01 X33.0200 Y0.5154
G01 X33.1249 Y0.5205
G01 X33.1355 Y0.5215
G01 X33.2394 Y0.5370
G01 X33.3413 Y0.5625
G01 X33.3515 Y0.5655
G01 X33.4503 Y0.6010
G01 X33.5454 Y0.6458
G01 X33.5547 Y0.6508
G01 X33.6448 Y0.7050
G01 X33.7313 Y0.7690
G01 X33.7374 Y0.7742
G01 X33.8152 Y0.8448
G01 X33.8893 Y0.9266
G01 X33.9550 Y1.0152
G01 X34.0118 Y1.1099
G01 X34.0590 Y1.2097
G01 X34.0961 Y1.3136
G01 X34.1230 Y1.4206
G01 X34.1385 Y1.5245
G01 X34.1395 Y1.5351
G01 X34.1446 Y1.6400
G01 X34.1446 Y3.6720
G01 X34.1391 Y3.7822
G01 X34.1230 Y3.8914
G01 X34.0961 Y3.9984
G01 X34.0609 Y4.0974
G01 X34.0579 Y4.1048
G01 X34.0118 Y4.2021
G01 X33.9579 Y4.2923
G01 X33.9535 Y4.2990
G01 X33.8926 Y4.3812
G01 X33.8876 Y4.3874
G01 X33.8152 Y4.4672
G01 X33.7634 Y4.5143
G01 X33.7633 Y16.8827
G01 X33.7598 Y16.9529
G01 X33.7500 Y17.0198
G01 X33.7479 Y17.0302
G01 X33.7328 Y17.0907
G01 X33.7297 Y17.1008
G01 X33.7068 Y17.1645
G01 X33.6756 Y17.2304
G01 X33.6381 Y17.2930
G01 X33.5963 Y17.3495
G01 X33.5912 Y17.3556
G01 X33.5456 Y17.4056
G01 X33.4916 Y17.4546
G01 X33.4330 Y17.4981
G01 X33.3750 Y17.5330
G01 X33.3657 Y17.5380
G01 X33.3045 Y17.5668
G01 X33.2408 Y17.5897
G01 X33.2307 Y17.5928
G01 X33.1702 Y17.6079
G01 X33.1598 Y17.6100
G01 X33.0929 Y17.6198
G01 X33.0227 Y17.6233
G01 X20.6658 Y17.6234
G00 Z3.0000
G00 X23.3866 Y25.3875
G01 F60.00
G01 Z-0.0300
G01 F120.00
G01 X23.3111 Y25.3189
G01 X23.2348 Y25.2347
G01 X23.1671 Y25.1434
G01 X23.1087 Y25.0459
G01 X23.0601 Y24.9432
G01 X23.0218 Y24.8362
G01 X22.9942 Y24.7259
G01 X22.9775 Y24.6135
G01 X22.9720 Y24.5000
G01 X22.9775 Y24.3865
G01 X22.9942 Y24.2741
G01 X23.0218 Y24.1638
G01 X23.0601 Y24.0568
G01 X23.1087 Y23.9541
G01 X23.1671 Y23.8566
G01 X23.2348 Y23.7653
G01 X23.3111 Y23.6811
G01 X23.3953 Y23.6048
G01 X23.4866 Y23.5371
G01 X23.5841 Y23.4787
G01 X23.6868 Y23.4301
G01 X23.7938 Y23.3918
G01 X23.9041 Y23.3642
G01 X24.0165 Y23.3475
G01 X24.1300 Y23.3420
G01 X24.2435 Y23.3475
G01 X24.3559 Y23.3642
G01 X24.4662 Y23.3918
G01 X24.5732 Y23.4301
G01 X24.6759 Y23.4787
G01 X24.7734 Y23.5371
G01 X24.8647 Y23.6048
G01 X24.9489 Y23.6811
G01 X25.0252 Y23.7653
G01 X25.0929 Y23.8566
G01 X25.1487 Y23.9495
G01 X25.1537 Y23.9588
G01 X25.1977 Y24.0520
G01 X25.2018 Y24.0618
G01 X25.2382 Y24.1638
G01 X25.2646 Y24.2689
G01 X25.2667 Y24.2793
G01 X25.2825 Y24.3865
G01 X25.2880 Y24.4973
G01 X25.2879 Y24.5053
G01 X25.2825 Y24.6135
G01 X25.2658 Y24.7259
G01 X25.2382 Y24.8362
G01 X25.2018 Y24.9382
G01 X25.1977 Y24.9480
G01 X25.1513 Y25.0459
G01 X25.0957 Y25.1389
G01 X25.0898 Y25.1477
G01 X25.0284 Y25.2305
G01 X25.0217 Y25.2387
G01 X24.9489 Y25.3189
G01 X24.8734 Y25.3875
G01 X24.8734 Y30.5042
G01 X24.9207 Y30.5567
G01 X24.9805 Y30.6373
G01 X25.0321 Y30.7234
G01 X25.0740 Y30.8117
G01 X25.0770 Y30.8191
G01 X25.1072 Y30.9036
G01 X25.1103 Y30.9138
G01 X25.1333 Y31.0060
G01 X25.1480 Y31.1053
G01 X25.1529 Y31.2056
G01 X25.1529 Y33.0344
G01 X25.1484 Y33.1294
G01 X25.1473 Y33.1399
G01 X25.1342 Y33.2287
G01 X25.1321 Y33.2391
G01 X25.1089 Y33.3313
G01 X25.0770 Y33.4209
G01 X25.0729 Y33.4307
G01 X25.0321 Y33.5166
G01 X24.9805 Y33.6027
G01 X24.9207 Y33.6833
G01 X24.8533 Y33.7577
G01 X24.7789 Y33.8251
G01 X24.6983 Y33.8849
G01 X24.6122 Y33.9365
G01 X24.5263 Y33.9773
G01 X24.5165 Y33.9814
G01 X24.4320 Y34.0116
G01 X24.4218 Y34.0147
G01 X24.3296 Y34.0377
G01 X24.2303 Y34.0524
G01 X24.1300 Y34.0573
G01 X24.0297 Y34.0524
G01 X23.9304 Y34.0377
G01 X23.8331 Y34.0133
G01 X23.7386 Y33.9794
G01 X23.6478 Y33.9365
G01 X23.5617 Y33.8849
G01 X23.4811 Y33.8251
G01 X23.4067 Y33.7577
G01 X23.3393 Y33.6833
G01 X23.2795 Y33.6027
G01 X23.2279 Y33.5166
G01 X23.1850 Y33.4258
G01 X23.1511 Y33.3313
G01 X23.1267 Y33.2340
G01 X23.1120 Y33.1347
G01 X23.1071 Y33.0344
G01 X23.1071 Y31.2056
G01 X23.1120 Y31.1053
G01 X23.1267 Y31.0060
G01 X23.1497 Y30.9138
G01 X23.1528 Y30.9036
G01 X23.1830 Y30.8191
G01 X23.1860 Y30.8117
G01 X23.2279 Y30.7234
G01 X23.2795 Y30.6373
G01 X23.3393 Y30.5567
G01 X23.3866 Y30.5042
G01 X23.3866 Y25.3875
G00 Z3.0000
G00 X28.4666 Y26.6575
G01 F60.00
G01 Z-0.0300
G01 F120.00
G01 X28.3911 Y26.5889
G01 X28.3148 Y26.5047
G01 X28.2471 Y26.4134
G01 X28.1887 Y26.3159
G01 X28.1401 Y26.2132
G01 X28.1018 Y26.1062
G01 X28.0742 Y25.9959
G01 X28.0575 Y25.8835
G01 X28.0520 Y25.7700
G01 X28.0575 Y25.6565
G01 X28.0742 Y25.5441
G01 X28.1018 Y25.4338
G01 X28.1401 Y25.3268
G01 X28.1887 Y25.2241
G01 X28.2471 Y25.1266
G01 X28.3148 Y25.0353
G01 X28.3911 Y24.9511
G01 X28.4753 Y24.8748
G01 X28.5666 Y24.8071
G01 X28.6641 Y24.7487
G01 X28.7668 Y24.7001
G01 X28.8738 Y24.6618
G01 X28.9841 Y24.6342
G01 X29.0965 Y24.6175
G01 X29.2100 Y24.6120
G01 X29.3235 Y24.6175
G01 X29.4359 Y24.6342
G01 X29.5462 Y24.6618
G01 X29.6532 Y24.7001
G01 X29.7559 Y24.7487
G01 X29.8534 Y24.8071
G01 X29.9447 Y24.8748
G01 X30.0289 Y24.9511
G01 X30.1052 Y25.0353
G01 X30.1729 Y25.1266
G01 X30.2287 Y25.2195
G01 X30.2337 Y25.2288
G01 X30.2777 Y25.3220
G01 X30.2818 Y25.3318
G01 X30.3182 Y25.4338
G01 X30.3446 Y25.5389
G01 X30.3467 Y25.5493
G01 X30.3625 Y25.6565
G01 X30.3680 Y25.7673
G01 X30.3679 Y25.7753
G01 X30.3625 Y25.8835
G01 X30.3458 Y25.9959
G01 X30.3182 Y26.1062
G01 X30.2818 Y26.2082
G01 X30.2777 Y26.2180
G01 X30.2313 Y26.3159
G01 X30.1757 Y26.4089
G01 X30.1698 Y26.4177
G01 X30.1084 Y26.5005
G01 X30.1017 Y26.5087
G01 X30.0289 Y26.5889
G01 X29.9534 Y26.6575
G01 X29.9534 Y30.5042
G01 X30.0007 Y30.5567
G01 X30.0605 Y30.6373
G01 X30.1121 Y30.7234
G01 X30.1540 Y30.8117
G01 X30.1570 Y30.8191
G01 X30.1872 Y30.9036
G01 X30.1903 Y30.9138
G01 X30.2133 Y31.0060
G01 X30.2280 Y31.1053
G01 X30.2329 Y31.2056
G01 X30.2329 Y33.0344
G01 X30.2282 Y33.1320
G01 X30.2273 Y33.1399
G01 X30.2133 Y33.2340
G01 X30.1903 Y33.3262
G01 X30.1872 Y33.3364
G01 X30.1570 Y33.4209
G01 X30.1529 Y33.4307
G01 X30.1121 Y33.5166
G01 X30.0605 Y33.6027
G01 X30.0007 Y33.6833
G01 X29.9333 Y33.7577
G01 X29.8589 Y33.8251
G01 X29.7826 Y33.8819
G01 X29.7738 Y33.8878
G01 X29.6968 Y33.9339
G01 X29.6875 Y33.9389
G01 X29.6014 Y33.9794
G01 X29.5069 Y34.0133
G01 X29.4096 Y34.0377
G01 X29.3129 Y34.0521
G01 X29.3050 Y34.0528
G01 X29.2100 Y34.0573
G01 X29.1097 Y34.0524
G01 X29.0104 Y34.0377
G01 X28.9131 Y34.0133
G01 X28.8186 Y33.9794
G01 X28.7278 Y33.9365
G01 X28.6417 Y33.8849
G01 X28.5611 Y33.8251
G01 X28.4867 Y33.7577
G01 X28.4193 Y33.6833
G01 X28.3595 Y33.6027
G01 X28.3079 Y33.5166
G01 X28.2650 Y33.4258
G01 X28.2311 Y33.3313
G01 X28.2067 Y33.2340
G01 X28.1923 Y33.1373
G01 X28.1916 Y33.1294
G01 X28.1871 Y33.0344
G01 X28.1871 Y31.2056
G01 X28.1920 Y31.1053
G01 X28.2067 Y31.0060
G01 X28.2297 Y30.9138
G01 X28.2328 Y30.9036
G01 X28.2630 Y30.8191
G01 X28.2660 Y30.8117
G01 X28.3079 Y30.7234
G01 X28.3595 Y30.6373
G01 X28.4193 Y30.5567
G01 X28.4666 Y30.5042
G01 X28.4666 Y26.6575
G00 Z3.0000
G00 X30.7271 Y33.0344
G01 F60.00
G01 Z-0.0300
G01 F120.00
G01 X30.7271 Y31.2056
G01 X30.7320 Y31.1053
G01 X30.7467 Y31.0060
G01 X30.7697 Y30.9138
G01 X30.7728 Y30.9036
G01 X30.8030 Y30.8191
G01 X30.8060 Y30.8117
G01 X30.8479 Y30.7234
G01 X30.8995 Y30.6373
G01 X30.9593 Y30.5567
G01 X31.0066 Y30.5042
G01 X31.0066 Y24.1175
G01 X30.9311 Y24.0489
G01 X30.8583 Y23.9687
G01 X30.8516 Y23.9605
G01 X30.7902 Y23.8777
G01 X30.7843 Y23.8689
G01 X30.7287 Y23.7759
G01 X30.6801 Y23.6732
G01 X30.6418 Y23.5662
G01 X30.6154 Y23.4611
G01 X30.6133 Y23.4507
G01 X30.5975 Y23.3435
G01 X30.5921 Y23.2353
G01 X30.5921 Y23.2247
G01 X30.5975 Y23.1165
G01 X30.6142 Y23.0041
G01 X30.6418 Y22.8938
G01 X30.6801 Y22.7868
G01 X30.7287 Y22.6841
G01 X30.7871 Y22.5866
G01 X30.8548 Y22.4953
G01 X30.9311 Y22.4111
G01 X31.0153 Y22.3348
G01 X31.1066 Y22.2671
G01 X31.2041 Y22.2087
G01 X31.3068 Y22.1601
G01 X31.4138 Y22.1218
G01 X31.5241 Y22.0942
G01 X31.6365 Y22.0775
G01 X31.7500 Y22.0720
G01 X31.8635 Y22.0775
G01 X31.9759 Y22.0942
G01 X32.0862 Y22.1218
G01 X32.1932 Y22.1601
G01 X32.2912 Y22.2063
G01 X32.3005 Y22.2113
G01 X32.3889 Y22.2643
G01 X32.3977 Y22.2702
G01 X32.4847 Y22.3348
G01 X32.5689 Y22.4111
G01 X32.6452 Y22.4953
G01 X32.7129 Y22.5866
G01 X32.7713 Y22.6841
G01 X32.8177 Y22.7820
G01 X32.8218 Y22.7918
G01 X32.8565 Y22.8888
G01 X32.8596 Y22.8989
G01 X32.8858 Y23.0041
G01 X32.9018 Y23.1112
G01 X32.9027 Y23.1191
G01 X32.9079 Y23.2247
G01 X32.9079 Y23.2353
G01 X32.9025 Y23.3435
G01 X32.8867 Y23.4507
G01 X32.8846 Y23.4611
G01 X32.8582 Y23.5662
G01 X32.8199 Y23.6732
G01 X32.7713 Y23.7759
G01 X32.7157 Y23.8689
G01 X32.7098 Y23.8777
G01 X32.6484 Y23.9605
G01 X32.6417 Y23.9687
G01 X32.5689 Y24.0489
G01 X32.4934 Y24.1175
G01 X32.4934 Y30.5042
G01 X32.5407 Y30.5567
G01 X32.6005 Y30.6373
G01 X32.6521 Y30.7234
G01 X32.6940 Y30.8117
G01 X32.6970 Y30.8191
G01 X32.7272 Y30.9036
G01 X32.7303 Y30.9138
G01 X32.7533 Y31.0060
G01 X32.7680 Y31.1053
G01 X32.7729 Y31.2056
G01 X32.7729 Y33.0344
G01 X32.7680 Y33.1347
G01 X32.7533 Y33.2340
G01 X32.7289 Y33.3313
G01 X32.6950 Y33.4258
G01 X32.6521 Y33.5166
G01 X32.6005 Y33.6027
G01 X32.5407 Y33.6833
G01 X32.4733 Y33.7577
G01 X32.3989 Y33.8251
G01 X32.3183 Y33.8849
G01 X32.2322 Y33.9365
G01 X32.1414 Y33.9794
G01 X32.0469 Y34.0133
G01 X31.9496 Y34.0377
G01 X31.8503 Y34.0524
G01 X31.7500 Y34.0573
G01 X31.6550 Y34.0528
G01 X31.6445 Y34.0517
G01 X31.5504 Y34.0377
G01 X31.4531 Y34.0133
G01 X31.3586 Y33.9794
G01 X31.2725 Y33.9389
G01 X31.2632 Y33.9339
G01 X31.1862 Y33.8878
G01 X31.1774 Y33.8819
G01 X31.1011 Y33.8251
G01 X31.0305 Y33.7614
G01 X31.0230 Y33.7539
G01 X30.9593 Y33.6833
G01 X30.8995 Y33.6027
G01 X30.8479 Y33.5166
G01 X30.8050 Y33.4258
G01 X30.7711 Y33.3313
G01 X30.7467 Y33.2340
G01 X30.7320 Y33.1347
G01 X30.7271 Y33.0344
G00 Z3.0000
G00 X35.8071 Y33.0344
G01 F60.00
G01 Z-0.0300
G01 F120.00
G01 X35.8071 Y31.2056
G01 X35.8120 Y31.1053
G01 X35.8267 Y31.0060
G01 X35.8497 Y30.9138
G01 X35.8528 Y30.9036
G01 X35.8830 Y30.8191
G01 X35.8860 Y30.8117
G01 X35.9279 Y30.7234
G01 X35.9795 Y30.6373
G01 X36.0393 Y30.5567
G01 X36.0866 Y30.5042
G01 X36.0866 Y30.4675
G01 X36.0111 Y30.3989
G01 X35.9383 Y30.3187
G01 X35.9316 Y30.3105
G01 X35.8671 Y30.2234
G01 X35.8087 Y30.1259
G01 X35.7623 Y30.0280
G01 X35.7582 Y30.0182
G01 X35.7218 Y29.9162
G01 X35.6942 Y29.8059
G01 X35.6782 Y29.6988
G01 X35.6771 Y29.6882
G01 X35.6720 Y29.5800
G01 X35.6775 Y29.4665
G01 X35.6933 Y29.3593
G01 X35.6954 Y29.3489
G01 X35.7218 Y29.2438
G01 X35.7601 Y29.1368
G01 X35.8087 Y29.0341
G01 X35.8671 Y28.9366
G01 X35.9348 Y28.8453
G01 X36.0111 Y28.7611
G01 X36.0953 Y28.6848
G01 X36.1866 Y28.6171
G01 X36.2841 Y28.5587
G01 X36.3868 Y28.5101
G01 X36.4938 Y28.4718
G01 X36.6041 Y28.4442
G01 X36.7165 Y28.4275
G01 X36.8300 Y28.4220
G01 X36.9435 Y28.4275
G01 X37.0559 Y28.4442
G01 X37.1662 Y28.4718
G01 X37.2732 Y28.5101
G01 X37.3712 Y28.5563
G01 X37.3805 Y28.5613
G01 X37.4734 Y28.6171
G01 X37.5647 Y28.6848
G01 X37.6450 Y28.7575
G01 X37.6525 Y28.7650
G01 X37.7252 Y28.8453
G01 X37.7929 Y28.9366
G01 X37.8487 Y29.0295
G01 X37.8537 Y29.0388
G01 X37.8999 Y29.1368
G01 X37.9365 Y29.2388
G01 X37.9396 Y29.2489
G01 X37.9658 Y29.3541
G01 X37.9822 Y29.4639
G01 X37.9829 Y29.4718
G01 X37.9880 Y29.5800
G01 X37.9829 Y29.6882
G01 X37.9818 Y29.6988
G01 X37.9658 Y29.8059
G01 X37.9396 Y29.9111
G01 X37.9365 Y29.9212
G01 X37.8999 Y30.0232
G01 X37.8513 Y30.1259
G01 X37.7957 Y30.2189
G01 X37.7898 Y30.2277
G01 X37.7284 Y30.3105
G01 X37.7217 Y30.3187
G01 X37.6489 Y30.3989
G01 X37.5734 Y30.4675
G01 X37.5734 Y30.5042
G01 X37.6207 Y30.5567
G01 X37.6805 Y30.6373
G01 X37.7321 Y30.7234
G01 X37.7740 Y30.8117
G01 X37.7770 Y30.8191
G01 X37.8072 Y30.9036
G01 X37.8103 Y30.9138
G01 X37.8333 Y31.0060
G01 X37.8473 Y31.1001
G01 X37.8482 Y31.1080
G01 X37.8529 Y31.2056
G01 X37.8529 Y33.0371
G01 X37.8480 Y33.1347
G01 X37.8342 Y33.2287
G01 X37.8321 Y33.2391
G01 X37.8089 Y33.3313
G01 X37.7750 Y33.4258
G01 X37.7321 Y33.5166
G01 X37.6805 Y33.6027
G01 X37.6240 Y33.6791
G01 X37.6173 Y33.6873
G01 X37.5570 Y33.7539
G01 X37.5495 Y33.7614
G01 X37.4789 Y33.8251
G01 X37.4026 Y33.8819
G01 X37.3938 Y33.8878
G01 X37.3122 Y33.9365
G01 X37.2214 Y33.9794
G01 X37.1269 Y34.0133
G01 X37.0296 Y34.0377
G01 X36.9303 Y34.0524
G01 X36.8300 Y34.0573
G01 X36.7297 Y34.0524
G01 X36.6357 Y34.0386
G01 X36.6253 Y34.0365
G01 X36.5382 Y34.0147
G01 X36.5280 Y34.0116
G01 X36.4386 Y33.9794
G01 X36.3525 Y33.9389
G01 X36.3432 Y33.9339
G01 X36.2617 Y33.8849
G01 X36.1811 Y33.8251
G01 X36.1067 Y33.7577
G01 X36.0393 Y33.6833
G01 X35.9795 Y33.6027
G01 X35.9279 Y33.5166
G01 X35.8850 Y33.4258
G01 X35.8528 Y33.3364
G01 X35.8497 Y33.3262
G01 X35.8279 Y33.2391
G01 X35.8258 Y33.2287
G01 X35.8120 Y33.1347
G01 X35.8071 Y33.0344
G00 Z3.0000
G00 X40.3929 Y31.2056
G01 F60.00
G01 Z-0.0300
G01 F120.00
G01 X40.3929 Y33.0344
G01 X40.3884 Y33.1294
G01 X40.3873 Y33.1399
G01 X40.3733 Y33.2340
G01 X40.3489 Y33.3313
G01 X40.3150 Y33.4258
G01 X40.2745 Y33.5119
G01 X40.2708 Y33.5189
G01 X40.2205 Y33.6027
G01 X40.1607 Y33.6833
G01 X40.0933 Y33.7577
G01 X40.0189 Y33.8251
G01 X39.9383 Y33.8849
G01 X39.8522 Y33.9365
G01 X39.7614 Y33.9794
G01 X39.6669 Y34.0133
G01 X39.5696 Y34.0377
G01 X39.4703 Y34.0524
G01 X39.3700 Y34.0573
G01 X39.2697 Y34.0524
G01 X39.1704 Y34.0377
G01 X39.0731 Y34.0133
G01 X38.9786 Y33.9794
G01 X38.8925 Y33.9389
G01 X38.8855 Y33.9352
G01 X38.8062 Y33.8878
G01 X38.7974 Y33.8819
G01 X38.7211 Y33.8251
G01 X38.6505 Y33.7614
G01 X38.6430 Y33.7539
G01 X38.5793 Y33.6833
G01 X38.5195 Y33.6027
G01 X38.4679 Y33.5166
G01 X38.4271 Y33.4307
G01 X38.4230 Y33.4209
G01 X38.3911 Y33.3313
G01 X38.3679 Y33.2391
G01 X38.3658 Y33.2287
G01 X38.3523 Y33.1373
G01 X38.3516 Y33.1294
G01 X38.3471 Y33.0344
G01 X38.3472 Y31.2003
G01 X38.3516 Y31.1106
G01 X38.3527 Y31.1001
G01 X38.3667 Y31.0060
G01 X38.3897 Y30.9138
G01 X38.3928 Y30.9036
G01 X38.4250 Y30.8142
G01 X38.4655 Y30.7281
G01 X38.4692 Y30.7211
G01 X38.5195 Y30.6373
G01 X38.5793 Y30.5567
G01 X38.6467 Y30.4823
G01 X38.7171 Y30.4183
G01 X38.7253 Y30.4116
G01 X38.7974 Y30.3581
G01 X38.8062 Y30.3522
G01 X38.8878 Y30.3035
G01 X38.9786 Y30.2606
G01 X39.0731 Y30.2267
G01 X39.1653 Y30.2035
G01 X39.1757 Y30.2014
G01 X39.2645 Y30.1883
G01 X39.2750 Y30.1872
G01 X39.3700 Y30.1827
G01 X39.4703 Y30.1876
G01 X39.5696 Y30.2023
G01 X39.6618 Y30.2253
G01 X39.6720 Y30.2284
G01 X39.7565 Y30.2586
G01 X39.7663 Y30.2627
G01 X39.8522 Y30.3035
G01 X39.9383 Y30.3551
G01 X40.0189 Y30.4149
G01 X40.0895 Y30.4786
G01 X40.0970 Y30.4861
G01 X40.1573 Y30.5527
G01 X40.1640 Y30.5609
G01 X40.2205 Y30.6373
G01 X40.2721 Y30.7234
G01 X40.3150 Y30.8142
G01 X40.3472 Y30.9036
G01 X40.3503 Y30.9138
G01 X40.3721 Y31.0009
G01 X40.3742 Y31.0113
G01 X40.3880 Y31.1053
G01 X40.3929 Y31.2056
G00 Z3.0000
G00 X48.2600 Y26.2966
G01 F60.00
G01 Z-0.0300
G01 F120.00
G01 X52.5966 Y26.2966
G01 X52.5966 Y24.1175
G01 X52.5211 Y24.0489
G01 X52.4483 Y23.9687
G01 X52.4416 Y23.9605
G01 X52.3802 Y23.8777
G01 X52.3743 Y23.8689
G01 X52.3187 Y23.7759
G01 X52.2723 Y23.6780
G01 X52.2682 Y23.6682
G01 X52.2318 Y23.5662
G01 X52.2042 Y23.4559
G01 X52.1875 Y23.3435
G01 X52.1820 Y23.2327
G01 X52.1821 Y23.2247
G01 X52.1875 Y23.1165
G01 X52.2042 Y23.0041
G01 X52.2318 Y22.8938
G01 X52.2682 Y22.7918
G01 X52.2723 Y22.7820
G01 X52.3187 Y22.6841
G01 X52.3743 Y22.5911
G01 X52.3802 Y22.5823
G01 X52.4416 Y22.4995
G01 X52.4483 Y22.4913
G01 X52.5211 Y22.4111
G01 X52.5966 Y22.3425
G01 X52.5966 Y4.5143
G01 X52.5487 Y4.4708
G01 X52.5430 Y4.4653
G01 X52.4742 Y4.3894
G01 X52.4690 Y4.3833
G01 X52.4050 Y4.2968
G01 X52.3508 Y4.2067
G01 X52.3470 Y4.1998
G01 X52.3010 Y4.1023
G01 X52.2639 Y3.9984
G01 X52.2370 Y3.8914
G01 X52.2211 Y3.7849
G01 X52.2205 Y3.7769
G01 X52.2154 Y3.6720
G01 X52.2156 Y1.6347
G01 X52.2209 Y1.5298
G01 X52.2361 Y1.4258
G01 X52.2382 Y1.4154
G01 X52.2625 Y1.3187
G01 X52.2655 Y1.3085
G01 X52.3010 Y1.2097
G01 X52.3458 Y1.1146
G01 X52.3508 Y1.1053
G01 X52.4050 Y1.0152
G01 X52.4707 Y0.9266
G01 X52.5448 Y0.8448
G01 X52.6266 Y0.7707
G01 X52.7152 Y0.7050
G01 X52.8099 Y0.6482
G01 X52.9097 Y0.6010
G01 X53.0085 Y0.5655
G01 X53.0187 Y0.5625
G01 X53.1154 Y0.5382
G01 X53.1258 Y0.5361
G01 X53.2298 Y0.5209
G01 X53.3347 Y0.5156
G01 X53.3453 Y0.5156
G01 X53.4502 Y0.5209
G01 X53.5594 Y0.5370
G01 X53.6664 Y0.5639
G01 X53.7654 Y0.5991
G01 X53.7752 Y0.6032
G01 X53.8654 Y0.6458
G01 X53.8747 Y0.6508
G01 X53.9648 Y0.7050
G01 X54.0534 Y0.7707
G01 X54.1352 Y0.8448
G01 X54.2093 Y0.9266
G01 X54.2750 Y1.0152
G01 X54.3292 Y1.1053
G01 X54.3342 Y1.1146
G01 X54.3768 Y1.2048
G01 X54.3809 Y1.2146
G01 X54.4161 Y1.3136
G01 X54.4430 Y1.4206
G01 X54.4591 Y1.5298
G01 X54.4645 Y1.6373
G01 X54.4646 Y3.6720
G01 X54.4595 Y3.7769
G01 X54.4589 Y3.7849
G01 X54.4430 Y3.8914
G01 X54.4161 Y3.9984
G01 X54.3790 Y4.1023
G01 X54.3330 Y4.1998
G01 X54.3292 Y4.2067
G01 X54.2750 Y4.2968
G01 X54.2110 Y4.3833
G01 X54.2058 Y4.3894
G01 X54.1370 Y4.4653
G01 X54.1313 Y4.4708
G01 X54.0834 Y4.5143
G01 X54.0834 Y22.3425
G01 X54.1589 Y22.4111
G01 X54.2317 Y22.4913
G01 X54.2384 Y22.4995
G01 X54.2998 Y22.5823
G01 X54.3057 Y22.5911
G01 X54.3613 Y22.6841
G01 X54.4077 Y22.7820
G01 X54.4118 Y22.7918
G01 X54.4482 Y22.8938
G01 X54.4758 Y23.0041
G01 X54.4925 Y23.1165
G01 X54.4979 Y23.2247
G01 X54.4980 Y23.2327
G01 X54.4925 Y23.3435
G01 X54.4758 Y23.4559
G01 X54.4482 Y23.5662
G01 X54.4118 Y23.6682
G01 X54.4077 Y23.6780
G01 X54.3613 Y23.7759
G01 X54.3057 Y23.8689
G01 X54.2998 Y23.8777
G01 X54.2384 Y23.9605
G01 X54.2317 Y23.9687
G01 X54.1589 Y24.0489
G01 X54.0834 Y24.1175
G01 X54.0834 Y27.0400
G01 X54.0802 Y27.1076
G01 X54.0791 Y27.1181
G01 X54.0691 Y27.1850
G01 X54.0514 Y27.2558
G01 X54.0268 Y27.3245
G01 X53.9980 Y27.3857
G01 X53.9930 Y27.3950
G01 X53.9609 Y27.4485
G01 X53.9550 Y27.4573
G01 X53.9146 Y27.5116
G01 X53.8656 Y27.5656
G01 X53.8116 Y27.6146
G01 X53.7573 Y27.6550
G01 X53.7485 Y27.6609
G01 X53.6950 Y27.6930
G01 X53.6857 Y27.6980
G01 X53.6245 Y27.7268
G01 X53.5558 Y27.7514
G01 X53.4850 Y27.7691
G01 X53.4155 Y27.7795
G01 X53.4076 Y27.7802
G01 X53.3400 Y27.7834
G01 X49.0034 Y27.7834
G01 X49.0034 Y31.3766
G01 X53.3400 Y31.3766
G01 X53.4129 Y31.3802
G01 X53.4798 Y31.3900
G01 X53.4902 Y31.3921
G01 X53.5558 Y31.4086
G01 X53.6195 Y31.4313
G01 X53.6293 Y31.4354
G01 X53.6904 Y31.4644
G01 X53.7485 Y31.4991
G01 X53.7573 Y31.5050
G01 X53.8116 Y31.5454
G01 X53.8618 Y31.5907
G01 X53.8693 Y31.5982
G01 X53.9146 Y31.6484
G01 X53.9550 Y31.7027
G01 X53.9609 Y31.7115
G01 X53.9956 Y31.7696
G01 X54.0257 Y31.8331
G01 X54.0287 Y31.8405
G01 X54.0514 Y31.9042
G01 X54.0691 Y31.9750
G01 X54.0798 Y32.0471
G01 X54.0834 Y32.1200
G01 X54.0834 Y40.1225
G01 X54.1589 Y40.1911
G01 X54.2317 Y40.2713
G01 X54.2384 Y40.2795
G01 X54.2998 Y40.3623
G01 X54.3057 Y40.3711
G01 X54.3613 Y40.4641
G01 X54.4077 Y40.5620
G01 X54.4118 Y40.5718
G01 X54.4482 Y40.6738
G01 X54.4758 Y40.7841
G01 X54.4925 Y40.8965
G01 X54.4979 Y41.0047
G01 X54.4980 Y41.0127
G01 X54.4925 Y41.1235
G01 X54.4767 Y41.2307
G01 X54.4746 Y41.2411
G01 X54.4482 Y41.3462
G01 X54.4099 Y41.4532
G01 X54.3637 Y41.5512
G01 X54.3587 Y41.5605
G01 X54.3057 Y41.6489
G01 X54.2998 Y41.6577
G01 X54.2352 Y41.7447
G01 X54.1589 Y41.8289
G01 X54.0747 Y41.9052
G01 X53.9877 Y41.9698
G01 X53.9789 Y41.9757
G01 X53.8905 Y42.0287
G01 X53.8812 Y42.0337
G01 X53.7832 Y42.0799
G01 X53.6787 Y42.1174
G01 X53.6711 Y42.1196
G01 X53.5659 Y42.1458
G01 X53.4535 Y42.1625
G01 X53.3400 Y42.1680
G01 X53.2318 Y42.1629
G01 X53.2212 Y42.1618
G01 X53.1193 Y42.1467
G01 X53.1089 Y42.1446
G01 X53.0038 Y42.1182
G01 X52.9018 Y42.0818
G01 X52.8920 Y42.0777
G01 X52.7941 Y42.0313
G01 X52.6966 Y41.9729
G01 X52.6053 Y41.9052
G01 X52.5211 Y41.8289
G01 X52.4448 Y41.7447
G01 X52.3802 Y41.6577
G01 X52.3743 Y41.6489
G01 X52.3187 Y41.5559
G01 X52.2723 Y41.4580
G01 X52.2682 Y41.4482
G01 X52.2335 Y41.3512
G01 X52.2304 Y41.3411
G01 X52.2042 Y41.2359
G01 X52.1878 Y41.1261
G01 X52.1871 Y41.1182
G01 X52.1820 Y41.0100
G01 X52.1871 Y40.9018
G01 X52.1882 Y40.8912
G01 X52.2042 Y40.7841
G01 X52.2304 Y40.6789
G01 X52.2335 Y40.6688
G01 X52.2701 Y40.5668
G01 X52.3187 Y40.4641
G01 X52.3743 Y40.3711
G01 X52.3802 Y40.3623
G01 X52.4416 Y40.2795
G01 X52.4483 Y40.2713
G01 X52.5211 Y40.1911
G01 X52.5966 Y40.1225
G01 X52.5966 Y32.8634
G01 X48.2600 Y32.8634
G01 X48.1871 Y32.8598
G01 X48.1202 Y32.8500
G01 X48.1098 Y32.8479
G01 X48.0442 Y32.8314
G01 X47.9755 Y32.8068
G01 X47.9096 Y32.7756
G01 X47.8515 Y32.7409
G01 X47.8427 Y32.7350
G01 X47.7884 Y32.6946
G01 X47.7382 Y32.6493
G01 X47.7307 Y32.6418
G01 X47.6854 Y32.5916
G01 X47.6419 Y32.5330
G01 X47.6070 Y32.4750
G01 X47.6020 Y32.4657
G01 X47.5732 Y32.4045
G01 X47.5494 Y32.3383
G01 X47.5472 Y32.3307
G01 X47.5321 Y32.2702
G01 X47.5300 Y32.2598
G01 X47.5202 Y32.1929
G01 X47.5166 Y32.1200
G01 X47.5166 Y27.0400
G01 X47.5198 Y26.9724
G01 X47.5205 Y26.9645
G01 X47.5309 Y26.8950
G01 X47.5486 Y26.8242
G01 X47.5732 Y26.7555
G01 X47.6044 Y26.6896
G01 X47.6419 Y26.6270
G01 X47.6854 Y26.5684
G01 X47.7344 Y26.5144
G01 X47.7844 Y26.4688
G01 X47.7926 Y26.4621
G01 X47.8470 Y26.4219
G01 X47.9050 Y26.3870
G01 X47.9143 Y26.3820
G01 X47.9707 Y26.3554
G01 X47.9805 Y26.3513
G01 X48.0442 Y26.3286
G01 X48.1150 Y26.3109
G01 X48.1871 Y26.3002
G01 X48.2600 Y26.2966
G00 Z3.0000
G00 X51.6875 Y30.3234
G01 F60.00
G01 Z-0.0300
G01 F120.00
G01 X51.6189 Y30.3989
G01 X51.5347 Y30.4752
G01 X51.4434 Y30.5429
G01 X51.3459 Y30.6013
G01 X51.2432 Y30.6499
G01 X51.1362 Y30.6882
G01 X51.0259 Y30.7158
G01 X50.9135 Y30.7325
G01 X50.8000 Y30.7380
G01 X50.6865 Y30.7325
G01 X50.5741 Y30.7158
G01 X50.4638 Y30.6882
G01 X50.3568 Y30.6499
G01 X50.2541 Y30.6013
G01 X50.1566 Y30.5429
G01 X50.0653 Y30.4752
G01 X49.9811 Y30.3989
G01 X49.9048 Y30.3147
G01 X49.8371 Y30.2234
G01 X49.7787 Y30.1259
G01 X49.7301 Y30.0232
G01 X49.6918 Y29.9162
G01 X49.6642 Y29.8059
G01 X49.6475 Y29.6935
G01 X49.6420 Y29.5800
G01 X49.6475 Y29.4665
G01 X49.6642 Y29.3541
G01 X49.6918 Y29.2438
G01 X49.7301 Y29.1368
G01 X49.7787 Y29.0341
G01 X49.8371 Y28.9366
G01 X49.9048 Y28.8453
G01 X49.9811 Y28.7611
G01 X50.0613 Y28.6883
G01 X50.0695 Y28.6816
G01 X50.1566 Y28.6171
G01 X50.2495 Y28.5613
G01 X50.2588 Y28.5563
G01 X50.3520 Y28.5123
G01 X50.3618 Y28.5082
G01 X50.4638 Y28.4718
G01 X50.5741 Y28.4442
G01 X50.6865 Y28.4275
G01 X50.7947 Y28.4221
G01 X50.8027 Y28.4220
G01 X50.9135 Y28.4275
G01 X51.0259 Y28.4442
G01 X51.1362 Y28.4718
G01 X51.2382 Y28.5082
G01 X51.2480 Y28.5123
G01 X51.3459 Y28.5587
G01 X51.4389 Y28.6143
G01 X51.4477 Y28.6202
G01 X51.5305 Y28.6816
G01 X51.5387 Y28.6883
G01 X51.6189 Y28.7611
G01 X51.6875 Y28.8366
G01 X58.4253 Y28.8368
G01 X58.4876 Y28.8398
G01 X58.4981 Y28.8409
G01 X58.5650 Y28.8509
G01 X58.6307 Y28.8672
G01 X58.6408 Y28.8703
G01 X58.7045 Y28.8932
G01 X58.7704 Y28.9244
G01 X58.8285 Y28.9591
G01 X58.8373 Y28.9650
G01 X58.8916 Y29.0054
G01 X58.9418 Y29.0507
G01 X58.9493 Y29.0582
G01 X58.9946 Y29.1084
G01 X59.0350 Y29.1627
G01 X59.0395 Y29.1692
G01 X59.0756 Y29.2296
G01 X59.1046 Y29.2907
G01 X59.1087 Y29.3005
G01 X59.1314 Y29.3642
G01 X59.1479 Y29.4298
G01 X59.1500 Y29.4402
G01 X59.1598 Y29.5071
G01 X59.1633 Y29.5773
G01 X59.1634 Y36.3125
G01 X59.2389 Y36.3811
G01 X59.3117 Y36.4613
G01 X59.3184 Y36.4695
G01 X59.3798 Y36.5523
G01 X59.3857 Y36.5611
G01 X59.4413 Y36.6541
G01 X59.4877 Y36.7520
G01 X59.4918 Y36.7618
G01 X59.5282 Y36.8638
G01 X59.5558 Y36.9741
G01 X59.5725 Y37.0865
G01 X59.5780 Y37.2000
G01 X59.5725 Y37.3135
G01 X59.5558 Y37.4259
G01 X59.5282 Y37.5362
G01 X59.4918 Y37.6382
G01 X59.4877 Y37.6480
G01 X59.4413 Y37.7459
G01 X59.3857 Y37.8389
G01 X59.3798 Y37.8477
G01 X59.3184 Y37.9305
G01 X59.3117 Y37.9387
G01 X59.2389 Y38.0189
G01 X59.1634 Y38.0875
G01 X59.1634 Y40.1225
G01 X59.2389 Y40.1911
G01 X59.3117 Y40.2713
G01 X59.3184 Y40.2795
G01 X59.3798 Y40.3623
G01 X59.3857 Y40.3711
G01 X59.4413 Y40.4641
G01 X59.4899 Y40.5668
G01 X59.5265 Y40.6688
G01 X59.5296 Y40.6789
G01 X59.5558 Y40.7841
G01 X59.5718 Y40.8912
G01 X59.5729 Y40.9018
G01 X59.5780 Y41.0100
G01 X59.5725 Y41.1235
G01 X59.5558 Y41.2359
G01 X59.5296 Y41.3411
G01 X59.5265 Y41.3512
G01 X59.4899 Y41.4532
G01 X59.4437 Y41.5512
G01 X59.4387 Y41.5605
G01 X59.3857 Y41.6489
G01 X59.3798 Y41.6577
G01 X59.3152 Y41.7447
G01 X59.2389 Y41.8289
G01 X59.1547 Y41.9052
G01 X59.0677 Y41.9698
G01 X59.0612 Y41.9743
G01 X58.9705 Y42.0287
G01 X58.9612 Y42.0337
G01 X58.8632 Y42.0799
G01 X58.7612 Y42.1165
G01 X58.7511 Y42.1196
G01 X58.6459 Y42.1458
G01 X58.5335 Y42.1625
G01 X58.4253 Y42.1679
G01 X58.4147 Y42.1679
G01 X58.3065 Y42.1625
G01 X58.1993 Y42.1467
G01 X58.1889 Y42.1446
G01 X58.0838 Y42.1182
G01 X57.9818 Y42.0818
G01 X57.9720 Y42.0777
G01 X57.8741 Y42.0313
G01 X57.7811 Y41.9757
G01 X57.7723 Y41.9698
G01 X57.6853 Y41.9052
G01 X57.6050 Y41.8325
G01 X57.5975 Y41.8250
G01 X57.5248 Y41.7447
G01 X57.4602 Y41.6577
G01 X57.4543 Y41.6489
G01 X57.3987 Y41.5559
G01 X57.3523 Y41.4580
G01 X57.3482 Y41.4482
G01 X57.3118 Y41.3462
G01 X57.2854 Y41.2411
G01 X57.2833 Y41.2307
G01 X57.2678 Y41.1261
G01 X57.2671 Y41.1182
G01 X57.2620 Y41.0100
G01 X57.2671 Y40.9018
G01 X57.2682 Y40.8912
G01 X57.2842 Y40.7841
G01 X57.3104 Y40.6789
G01 X57.3135 Y40.6688
G01 X57.3501 Y40.5668
G01 X57.3987 Y40.4641
G01 X57.4543 Y40.3711
G01 X57.4602 Y40.3623
G01 X57.5216 Y40.2795
G01 X57.5283 Y40.2713
G01 X57.6011 Y40.1911
G01 X57.6766 Y40.1225
G01 X57.6766 Y38.0875
G01 X57.6011 Y38.0189
G01 X57.5283 Y37.9387
G01 X57.5216 Y37.9305
G01 X57.4602 Y37.8477
G01 X57.4543 Y37.8389
G01 X57.3987 Y37.7459
G01 X57.3523 Y37.6480
G01 X57.3482 Y37.6382
G01 X57.3118 Y37.5362
G01 X57.2842 Y37.4259
G01 X57.2675 Y37.3135
G01 X57.2620 Y37.2000
G01 X57.2675 Y37.0865
G01 X57.2842 Y36.9741
G01 X57.3118 Y36.8638
G01 X57.3482 Y36.7618
G01 X57.3523 Y36.7520
G01 X57.3987 Y36.6541
G01 X57.4543 Y36.5611
G01 X57.4602 Y36.5523
G01 X57.5216 Y36.4695
G01 X57.5283 Y36.4613
G01 X57.6011 Y36.3811
G01 X57.6766 Y36.3125
G01 X57.6766 Y30.3234
G01 X51.6875 Y30.3234
G00 Z3.0000
G00 X58.3079 Y27.0453
G01 F60.00
G01 Z-0.0300
G01 F120.00
G01 X58.3025 Y27.1535
G01 X58.2858 Y27.2659
G01 X58.2582 Y27.3762
G01 X58.2199 Y27.4832
G01 X58.1713 Y27.5859
G01 X58.1129 Y27.6834
G01 X58.0452 Y27.7747
G01 X57.9689 Y27.8589
G01 X57.8847 Y27.9352
G01 X57.7934 Y28.0029
G01 X57.6959 Y28.0613
G01 X57.5932 Y28.1099
G01 X57.4862 Y28.1482
G01 X57.3759 Y28.1758
G01 X57.2635 Y28.1925
G01 X57.1500 Y28.1980
G01 X57.0365 Y28.1925
G01 X56.9241 Y28.1758
G01 X56.8138 Y28.1482
G01 X56.7068 Y28.1099
G01 X56.6041 Y28.0613
G01 X56.5066 Y28.0029
G01 X56.4153 Y27.9352
G01 X56.3311 Y27.8589
G01 X56.2548 Y27.7747
G01 X56.1871 Y27.6834
G01 X56.1287 Y27.5859
G01 X56.0801 Y27.4832
G01 X56.0418 Y27.3762
G01 X56.0142 Y27.2659
G01 X55.9975 Y27.1535
G01 X55.9920 Y27.0400
G01 X55.9975 Y26.9265
G01 X56.0142 Y26.8141
G01 X56.0418 Y26.7038
G01 X56.0801 Y26.5968
G01 X56.1287 Y26.4941
G01 X56.1871 Y26.3966
G01 X56.2548 Y26.3053
G01 X56.3311 Y26.2211
G01 X56.4153 Y26.1448
G01 X56.5066 Y26.0771
G01 X56.6041 Y26.0187
G01 X56.7068 Y25.9701
G01 X56.8138 Y25.9318
G01 X56.9241 Y25.9042
G01 X57.0365 Y25.8875
G01 X57.1500 Y25.8820
G01 X57.2635 Y25.8875
G01 X57.3759 Y25.9042
G01 X57.4862 Y25.9318
G01 X57.5932 Y25.9701
G01 X57.6959 Y26.0187
G01 X57.7934 Y26.0771
G01 X57.8847 Y26.1448
G01 X57.9689 Y26.2211
G01 X58.0452 Y26.3053
G01 X58.1129 Y26.3966
G01 X58.1713 Y26.4941
G01 X58.2199 Y26.5968
G01 X58.2582 Y26.7038
G01 X58.2858 Y26.8141
G01 X58.3025 Y26.9265
G01 X58.3079 Y27.0347
G01 X58.3079 Y27.0453
G00 Z3.0000
G00 X48.7866 Y40.1225
G01 F60.00
G01 Z-0.0300
G01 F120.00
G01 X48.7866 Y36.6734
G01 X45.7200 Y36.6734
G01 X45.6524 Y36.6702
G01 X45.6419 Y36.6691
G01 X45.5750 Y36.6591
G01 X45.5093 Y36.6428
G01 X45.4992 Y36.6397
G01 X45.4355 Y36.6168
G01 X45.3696 Y36.5856
G01 X45.3115 Y36.5509
G01 X45.3027 Y36.5450
G01 X45.2484 Y36.5046
G01 X45.1982 Y36.4593
G01 X45.1907 Y36.4518
G01 X45.1454 Y36.4016
G01 X45.1019 Y36.3430
G01 X45.0644 Y36.2804
G01 X45.0354 Y36.2193
G01 X45.0313 Y36.2095
G01 X45.0103 Y36.1508
G01 X45.0079 Y36.1432
G01 X44.9909 Y36.0750
G01 X44.9809 Y36.0081
G01 X44.9798 Y35.9976
G01 X44.9766 Y35.9300
G01 X44.9766 Y25.7700
G01 X44.9798 Y25.7024
G01 X44.9809 Y25.6919
G01 X44.9900 Y25.6302
G01 X44.9921 Y25.6198
G01 X45.0086 Y25.5542
G01 X45.0313 Y25.4905
G01 X45.0354 Y25.4807
G01 X45.0644 Y25.4196
G01 X45.1019 Y25.3570
G01 X45.1454 Y25.2984
G01 X45.1907 Y25.2482
G01 X47.7344 Y22.7044
G01 X47.7884 Y22.6554
G01 X47.8427 Y22.6150
G01 X47.8492 Y22.6105
G01 X47.9050 Y22.5770
G01 X47.9143 Y22.5720
G01 X47.9755 Y22.5432
G01 X48.0392 Y22.5203
G01 X48.0493 Y22.5172
G01 X48.1150 Y22.5009
G01 X48.1819 Y22.4909
G01 X48.1924 Y22.4898
G01 X48.2600 Y22.4866
G01 X50.0566 Y22.4866
G01 X50.0566 Y7.6075
G01 X49.9811 Y7.5389
G01 X49.9083 Y7.4587
G01 X49.9016 Y7.4505
G01 X49.8402 Y7.3677
G01 X49.8343 Y7.3589
G01 X49.7787 Y7.2659
G01 X49.7301 Y7.1632
G01 X49.6918 Y7.0562
G01 X49.6654 Y6.9511
G01 X49.6633 Y6.9407
G01 X49.6482 Y6.8388
G01 X49.6471 Y6.8282
G01 X49.6420 Y6.7200
G01 X49.6471 Y6.6118
G01 X49.6482 Y6.6012
G01 X49.6642 Y6.4941
G01 X49.6918 Y6.3838
G01 X49.7301 Y6.2768
G01 X49.7787 Y6.1741
G01 X49.8371 Y6.0766
G01 X49.9048 Y5.9853
G01 X49.9811 Y5.9011
G01 X50.0653 Y5.8248
G01 X50.1566 Y5.7571
G01 X50.2541 Y5.6987
G01 X50.3568 Y5.6501
G01 X50.4638 Y5.6118
G01 X50.5741 Y5.5842
G01 X50.6865 Y5.5675
G01 X50.8000 Y5.5620
G01 X50.9082 Y5.5671
G01 X50.9188 Y5.5682
G01 X51.0259 Y5.5842
G01 X51.1362 Y5.6118
G01 X51.2432 Y5.6501
G01 X51.3412 Y5.6963
G01 X51.3505 Y5.7013
G01 X51.4389 Y5.7543
G01 X51.4477 Y5.7602
G01 X51.5347 Y5.8248
G01 X51.6150 Y5.8975
G01 X51.6225 Y5.9050
G01 X51.6952 Y5.9853
G01 X51.7629 Y6.0766
G01 X51.8213 Y6.1741
G01 X51.8699 Y6.2768
G01 X51.9082 Y6.3838
G01 X51.9358 Y6.4941
G01 X51.9525 Y6.6065
G01 X51.9580 Y6.7173
G01 X51.9579 Y6.7253
G01 X51.9525 Y6.8335
G01 X51.9358 Y6.9459
G01 X51.9082 Y7.0562
G01 X51.8718 Y7.1582
G01 X51.8677 Y7.1680
G01 X51.8213 Y7.2659
G01 X51.7657 Y7.3589
G01 X51.7598 Y7.3677
G01 X51.6984 Y7.4505
G01 X51.6917 Y7.4587
G01 X51.6189 Y7.5389
G01 X51.5434 Y7.6075
G01 X51.5434 Y23.2300
G01 X51.5398 Y23.3029
G01 X51.5300 Y23.3698
G01 X51.5285 Y23.3776
G01 X51.5114 Y23.4458
G01 X51.4887 Y23.5095
G01 X51.4846 Y23.5193
G01 X51.4556 Y23.5804
G01 X51.4181 Y23.6430
G01 X51.3779 Y23.6974
G01 X51.3712 Y23.7056
G01 X51.3256 Y23.7556
G01 X51.2716 Y23.8046
G01 X51.2173 Y23.8450
G01 X51.2085 Y23.8509
G01 X51.1504 Y23.8856
G01 X51.0845 Y23.9168
G01 X51.0208 Y23.9397
G01 X51.0107 Y23.9428
G01 X50.9450 Y23.9591
G01 X50.8729 Y23.9698
G01 X50.8000 Y23.9734
G01 X48.5679 Y23.9734
G01 X46.4634 Y26.0779
G01 X46.4634 Y35.1866
G01 X49.5300 Y35.1866
G01 X49.6029 Y35.1902
G01 X49.6698 Y35.2000
G01 X49.6802 Y35.2021
G01 X49.7458 Y35.2186
G01 X49.8095 Y35.2413
G01 X49.8193 Y35.2454
G01 X49.8804 Y35.2744
G01 X49.9430 Y35.3119
G01 X50.0016 Y35.3554
G01 X50.0518 Y35.4007
G01 X50.0593 Y35.4082
G01 X50.1046 Y35.4584
G01 X50.1450 Y35.5127
G01 X50.1509 Y35.5215
G01 X50.1843 Y35.5773
G01 X50.1880 Y35.5843
G01 X50.2168 Y35.6455
G01 X50.2397 Y35.7092
G01 X50.2428 Y35.7193
G01 X50.2591 Y35.7850
G01 X50.2691 Y35.8519
G01 X50.2702 Y35.8624
G01 X50.2733 Y35.9273
G01 X50.2734 Y40.1225
G01 X50.3489 Y40.1911
G01 X50.4217 Y40.2713
G01 X50.4284 Y40.2795
G01 X50.4898 Y40.3623
G01 X50.4957 Y40.3711
G01 X50.5513 Y40.4641
G01 X50.5977 Y40.5620
G01 X50.6018 Y40.5718
G01 X50.6382 Y40.6738
G01 X50.6658 Y40.7841
G01 X50.6825 Y40.8965
G01 X50.6880 Y41.0073
G01 X50.6879 Y41.0153
G01 X50.6825 Y41.1235
G01 X50.6658 Y41.2359
G01 X50.6382 Y41.3462
G01 X50.6018 Y41.4482
G01 X50.5977 Y41.4580
G01 X50.5513 Y41.5559
G01 X50.4957 Y41.6489
G01 X50.4898 Y41.6577
G01 X50.4284 Y41.7405
G01 X50.4217 Y41.7487
G01 X50.3489 Y41.8289
G01 X50.2647 Y41.9052
G01 X50.1734 Y41.9729
G01 X50.0759 Y42.0313
G01 X49.9732 Y42.0799
G01 X49.8662 Y42.1182
G01 X49.7559 Y42.1458
G01 X49.6435 Y42.1625
G01 X49.5300 Y42.1680
G01 X49.4165 Y42.1625
G01 X49.3041 Y42.1458
G01 X49.1938 Y42.1182
G01 X49.0868 Y42.0799
G01 X48.9841 Y42.0313
G01 X48.8866 Y41.9729
G01 X48.7953 Y41.9052
G01 X48.7111 Y41.8289
G01 X48.6348 Y41.7447
G01 X48.5671 Y41.6534
G01 X48.5087 Y41.5559
G01 X48.4601 Y41.4532
G01 X48.4218 Y41.3462
G01 X48.3942 Y41.2359
G01 X48.3775 Y41.1235
G01 X48.3720 Y41.0100
G01 X48.3775 Y40.8965
G01 X48.3942 Y40.7841
G01 X48.4218 Y40.6738
G01 X48.4601 Y40.5668
G01 X48.5087 Y40.4641
G01 X48.5671 Y40.3666
G01 X48.6348 Y40.2753
G01 X48.7111 Y40.1911
G01 X48.7866 Y40.1225
G00 Z3.0000
G00 X38.3471 Y40.6544
G01 F60.00
G01 Z-0.0300
G01 F120.00
G01 X38.3471 Y38.8256
G01 X38.3520 Y38.7253
G01 X38.3658 Y38.6313
G01 X38.3673 Y38.6234
G01 X38.3897 Y38.5338
G01 X38.3928 Y38.5236
G01 X38.4250 Y38.4342
G01 X38.4655 Y38.3481
G01 X38.4705 Y38.3388
G01 X38.5195 Y38.2573
G01 X38.5793 Y38.1767
G01 X38.6467 Y38.1023
G01 X38.7171 Y38.0383
G01 X38.7253 Y38.0316
G01 X38.8017 Y37.9751
G01 X38.8832 Y37.9261
G01 X38.8925 Y37.9211
G01 X38.9761 Y37.8816
G01 X38.9835 Y37.8786
G01 X39.0680 Y37.8484
G01 X39.0782 Y37.8453
G01 X39.1704 Y37.8223
G01 X39.2645 Y37.8083
G01 X39.2750 Y37.8072
G01 X39.3700 Y37.8027
G01 X39.4650 Y37.8072
G01 X39.4755 Y37.8083
G01 X39.5696 Y37.8223
G01 X39.6618 Y37.8453
G01 X39.6720 Y37.8484
G01 X39.7614 Y37.8806
G01 X39.8475 Y37.9211
G01 X39.8568 Y37.9261
G01 X39.9383 Y37.9751
G01 X40.0169 Y38.0332
G01 X40.0229 Y38.0383
G01 X40.0933 Y38.1023
G01 X40.1573 Y38.1727
G01 X40.1640 Y38.1809
G01 X40.2205 Y38.2573
G01 X40.2695 Y38.3388
G01 X40.2745 Y38.3481
G01 X40.3129 Y38.4293
G01 X40.3160 Y38.4366
G01 X40.3472 Y38.5236
G01 X40.3503 Y38.5338
G01 X40.3733 Y38.6260
G01 X40.3873 Y38.7201
G01 X40.3884 Y38.7306
G01 X40.3929 Y38.8229
G01 X40.3929 Y38.9966
G01 X42.2925 Y38.9966
G01 X42.3611 Y38.9211
G01 X42.4366 Y38.8525
G01 X42.4366 Y17.7675
G01 X42.3611 Y17.6989
G01 X42.2883 Y17.6187
G01 X42.2816 Y17.6105
G01 X42.2202 Y17.5277
G01 X42.2143 Y17.5189
G01 X42.1587 Y17.4259
G01 X42.1123 Y17.3280
G01 X42.1082 Y17.3182
G01 X42.0718 Y17.2162
G01 X42.0442 Y17.1059
G01 X42.0275 Y16.9935
G01 X42.0220 Y16.8800
G01 X42.0275 Y16.7665
G01 X42.0442 Y16.6541
G01 X42.0718 Y16.5438
G01 X42.1082 Y16.4418
G01 X42.1123 Y16.4320
G01 X42.1587 Y16.3341
G01 X42.2143 Y16.2411
G01 X42.2202 Y16.2323
G01 X42.2816 Y16.1495
G01 X42.2883 Y16.1413
G01 X42.3611 Y16.0611
G01 X42.4366 Y15.9925
G01 X42.4366 Y11.4175
G01 X42.3611 Y11.3489
G01 X42.2883 Y11.2687
G01 X42.2816 Y11.2605
G01 X42.2202 Y11.1777
G01 X42.2143 Y11.1689
G01 X42.1587 Y11.0759
G01 X42.1123 Y10.9780
G01 X42.1082 Y10.9682
G01 X42.0718 Y10.8662
G01 X42.0442 Y10.7559
G01 X42.0275 Y10.6435
G01 X42.0220 Y10.5300
G01 X42.0275 Y10.4165
G01 X42.0442 Y10.3041
G01 X42.0718 Y10.1938
G01 X42.1082 Y10.0918
G01 X42.1123 Y10.0820
G01 X42.1587 Y9.9841
G01 X42.2143 Y9.8911
G01 X42.2202 Y9.8823
G01 X42.2816 Y9.7995
G01 X42.2883 Y9.7913
G01 X42.3611 Y9.7111
G01 X42.4366 Y9.6425
G01 X42.4366 Y4.5143
G01 X42.3887 Y4.4708
G01 X42.3830 Y4.4653
G01 X42.3142 Y4.3894
G01 X42.3090 Y4.3833
G01 X42.2450 Y4.2968
G01 X42.1908 Y4.2067
G01 X42.1870 Y4.1998
G01 X42.1410 Y4.1023
G01 X42.1039 Y3.9984
G01 X42.0770 Y3.8914
G01 X42.0611 Y3.7849
G01 X42.0605 Y3.7769
G01 X42.0554 Y3.6720
G01 X42.0555 Y1.6373
G01 X42.0609 Y1.5298
G01 X42.0770 Y1.4206
G01 X42.1039 Y1.3136
G01 X42.1391 Y1.2146
G01 X42.1432 Y1.2048
G01 X42.1858 Y1.1146
G01 X42.1908 Y1.1053
G01 X42.2450 Y1.0152
G01 X42.3074 Y0.9308
G01 X42.3142 Y0.9226
G01 X42.3848 Y0.8448
G01 X42.4626 Y0.7742
G01 X42.4708 Y0.7674
G01 X42.5552 Y0.7050
G01 X42.6499 Y0.6482
G01 X42.7497 Y0.6010
G01 X42.8536 Y0.5639
G01 X42.9606 Y0.5370
G01 X43.0698 Y0.5209
G01 X43.1800 Y0.5154
G01 X43.2849 Y0.5205
G01 X43.2929 Y0.5211
G01 X43.3994 Y0.5370
G01 X43.5064 Y0.5639
G01 X43.6103 Y0.6010
G01 X43.7101 Y0.6482
G01 X43.8048 Y0.7050
G01 X43.8934 Y0.7707
G01 X43.9752 Y0.8448
G01 X44.0458 Y0.9226
G01 X44.0526 Y0.9308
G01 X44.1120 Y1.0109
G01 X44.1179 Y1.0197
G01 X44.1718 Y1.1099
G01 X44.2168 Y1.2048
G01 X44.2209 Y1.2146
G01 X44.2561 Y1.3136
G01 X44.2830 Y1.4206
G01 X44.2991 Y1.5298
G01 X44.3045 Y1.6373
G01 X44.3046 Y3.6720
G01 X44.2995 Y3.7769
G01 X44.2989 Y3.7849
G01 X44.2830 Y3.8914
G01 X44.2561 Y3.9984
G01 X44.2190 Y4.1023
G01 X44.1730 Y4.1998
G01 X44.1692 Y4.2067
G01 X44.1150 Y4.2968
G01 X44.0510 Y4.3833
G01 X44.0458 Y4.3894
G01 X43.9770 Y4.4653
G01 X43.9713 Y4.4708
G01 X43.9234 Y4.5143
G01 X43.9234 Y9.6425
G01 X43.9989 Y9.7111
G01 X44.0717 Y9.7913
G01 X44.0784 Y9.7995
G01 X44.1398 Y9.8823
G01 X44.1457 Y9.8911
G01 X44.2013 Y9.9841
G01 X44.2477 Y10.0820
G01 X44.2518 Y10.0918
G01 X44.2882 Y10.1938
G01 X44.3158 Y10.3041
G01 X44.3325 Y10.4165
G01 X44.3380 Y10.5300
G01 X44.3325 Y10.6435
G01 X44.3158 Y10.7559
G01 X44.2882 Y10.8662
G01 X44.2518 Y10.9682
G01 X44.2477 Y10.9780
G01 X44.2013 Y11.0759
G01 X44.1457 Y11.1689
G01 X44.1398 Y11.1777
G01 X44.0784 Y11.2605
G01 X44.0717 Y11.2687
G01 X43.9989 Y11.3489
G01 X43.9234 Y11.4175
G01 X43.9234 Y15.9925
G01 X43.9989 Y16.0611
G01 X44.0717 Y16.1413
G01 X44.0784 Y16.1495
G01 X44.1398 Y16.2323
G01 X44.1457 Y16.2411
G01 X44.2013 Y16.3341
G01 X44.2477 Y16.4320
G01 X44.2518 Y16.4418
G01 X44.2882 Y16.5438
G01 X44.3158 Y16.6541
G01 X44.3325 Y16.7665
G01 X44.3380 Y16.8800
G01 X44.3325 Y16.9935
G01 X44.3158 Y17.1059
G01 X44.2882 Y17.2162
G01 X44.2518 Y17.3182
G01 X44.2477 Y17.3280
G01 X44.2013 Y17.4259
G01 X44.1457 Y17.5189
G01 X44.1398 Y17.5277
G01 X44.0784 Y17.6105
G01 X44.0717 Y17.6187
G01 X43.9989 Y17.6989
G01 X43.9234 Y17.7675
G01 X43.9234 Y38.8525
G01 X43.9989 Y38.9211
G01 X44.0717 Y39.0013
G01 X44.0784 Y39.0095
G01 X44.1398 Y39.0923
G01 X44.1457 Y39.1011
G01 X44.2013 Y39.1941
G01 X44.2499 Y39.2968
G01 X44.2865 Y39.3988
G01 X44.2896 Y39.4089
G01 X44.3158 Y39.5141
G01 X44.3318 Y39.6212
G01 X44.3329 Y39.6318
G01 X44.3380 Y39.7400
G01 X44.3329 Y39.8482
G01 X44.3322 Y39.8561
G01 X44.3158 Y39.9659
G01 X44.2896 Y40.0711
G01 X44.2865 Y40.0812
G01 X44.2518 Y40.1782
G01 X44.2477 Y40.1880
G01 X44.2013 Y40.2859
G01 X44.1429 Y40.3834
G01 X44.0752 Y40.4747
G01 X44.0025 Y40.5550
G01 X43.9950 Y40.5625
G01 X43.9187 Y40.6317
G01 X43.9105 Y40.6384
G01 X43.8234 Y40.7029
G01 X43.7259 Y40.7613
G01 X43.6232 Y40.8099
G01 X43.5212 Y40.8465
G01 X43.5111 Y40.8496
G01 X43.4111 Y40.8746
G01 X43.4007 Y40.8767
G01 X43.2988 Y40.8918
G01 X43.2882 Y40.8929
G01 X43.1800 Y40.8980
G01 X43.0718 Y40.8929
G01 X43.0612 Y40.8918
G01 X42.9541 Y40.8758
G01 X42.8489 Y40.8496
G01 X42.8388 Y40.8465
G01 X42.7368 Y40.8099
G01 X42.6388 Y40.7637
G01 X42.6295 Y40.7587
G01 X42.5366 Y40.7029
G01 X42.4495 Y40.6384
G01 X42.4413 Y40.6317
G01 X42.3611 Y40.5589
G01 X42.2925 Y40.4834
G01 X40.3929 Y40.4834
G01 X40.3929 Y40.6571
G01 X40.3880 Y40.7547
G01 X40.3733 Y40.8540
G01 X40.3496 Y40.9488
G01 X40.3472 Y40.9564
G01 X40.3150 Y41.0458
G01 X40.2721 Y41.1366
G01 X40.2205 Y41.2227
G01 X40.1624 Y41.3013
G01 X40.1573 Y41.3073
G01 X40.0933 Y41.3777
G01 X40.0189 Y41.4451
G01 X39.9383 Y41.5049
G01 X39.8522 Y41.5565
G01 X39.7614 Y41.5994
G01 X39.6669 Y41.6333
G01 X39.5696 Y41.6577
G01 X39.4729 Y41.6721
G01 X39.4650 Y41.6728
G01 X39.3700 Y41.6773
G01 X39.2697 Y41.6724
G01 X39.1704 Y41.6577
G01 X39.0731 Y41.6333
G01 X38.9786 Y41.5994
G01 X38.8878 Y41.5565
G01 X38.8017 Y41.5049
G01 X38.7253 Y41.4484
G01 X38.7171 Y41.4417
G01 X38.6467 Y41.3777
G01 X38.5827 Y41.3073
G01 X38.5760 Y41.2991
G01 X38.5195 Y41.2227
G01 X38.4705 Y41.1412
G01 X38.4655 Y41.1319
G01 X38.4271 Y41.0507
G01 X38.4230 Y41.0409
G01 X38.3911 Y40.9513
G01 X38.3667 Y40.8540
G01 X38.3520 Y40.7547
G01 X38.3471 Y40.6544
G00 Z3.0000
G00 X36.0866 Y41.3558
G01 F60.00
G01 Z-0.0300
G01 F120.00
G01 X36.0393 Y41.3033
G01 X35.9795 Y41.2227
G01 X35.9279 Y41.1366
G01 X35.8860 Y41.0483
G01 X35.8830 Y41.0409
G01 X35.8528 Y40.9564
G01 X35.8497 Y40.9462
G01 X35.8267 Y40.8540
G01 X35.8120 Y40.7547
G01 X35.8071 Y40.6544
G01 X35.8071 Y38.8256
G01 X35.8120 Y38.7253
G01 X35.8267 Y38.6260
G01 X35.8511 Y38.5287
G01 X35.8850 Y38.4342
G01 X35.9279 Y38.3434
G01 X35.9766 Y38.2618
G01 X35.9825 Y38.2530
G01 X36.0360 Y38.1809
G01 X36.0427 Y38.1727
G01 X36.1067 Y38.1023
G01 X36.1811 Y38.0349
G01 X36.2617 Y37.9751
G01 X36.3478 Y37.9235
G01 X36.4386 Y37.8806
G01 X36.5280 Y37.8484
G01 X36.5382 Y37.8453
G01 X36.6304 Y37.8223
G01 X36.7245 Y37.8083
G01 X36.7350 Y37.8072
G01 X36.8247 Y37.8028
G01 X36.8353 Y37.8028
G01 X36.9303 Y37.8076
G01 X37.0296 Y37.8223
G01 X37.1269 Y37.8467
G01 X37.2165 Y37.8786
G01 X37.2263 Y37.8827
G01 X37.3122 Y37.9235
G01 X37.3938 Y37.9722
G01 X37.4026 Y37.9781
G01 X37.4747 Y38.0316
G01 X37.4829 Y38.0383
G01 X37.5533 Y38.1023
G01 X37.6207 Y38.1767
G01 X37.6805 Y38.2573
G01 X37.7321 Y38.3434
G01 X37.7750 Y38.4342
G01 X37.8089 Y38.5287
G01 X37.8333 Y38.6260
G01 X37.8473 Y38.7201
G01 X37.8484 Y38.7306
G01 X37.8529 Y38.8256
G01 X37.8529 Y40.6544
G01 X37.8482 Y40.7520
G01 X37.8473 Y40.7599
G01 X37.8333 Y40.8540
G01 X37.8103 Y40.9462
G01 X37.8072 Y40.9564
G01 X37.7770 Y41.0409
G01 X37.7740 Y41.0483
G01 X37.7321 Y41.1366
G01 X37.6805 Y41.2227
G01 X37.6207 Y41.3033
G01 X37.5734 Y41.3558
G01 X37.5734 Y42.8066
G01 X67.6925 Y42.8066
G01 X67.7611 Y42.7311
G01 X67.8366 Y42.6625
G01 X67.8366 Y4.5143
G01 X67.7887 Y4.4708
G01 X67.7830 Y4.4653
G01 X67.7142 Y4.3894
G01 X67.7090 Y4.3833
G01 X67.6450 Y4.2968
G01 X67.5908 Y4.2067
G01 X67.5870 Y4.1998
G01 X67.5410 Y4.1023
G01 X67.5039 Y3.9984
G01 X67.4770 Y3.8914
G01 X67.4611 Y3.7849
G01 X67.4605 Y3.7769
G01 X67.4554 Y3.6720
G01 X67.4555 Y1.6373
G01 X67.4609 Y1.5298
G01 X67.4761 Y1.4258
G01 X67.4782 Y1.4154
G01 X67.5039 Y1.3136
G01 X67.5410 Y1.2097
G01 X67.5858 Y1.1146
G01 X67.5908 Y1.1053
G01 X67.6450 Y1.0152
G01 X67.7107 Y0.9266
G01 X67.7812 Y0.8487
G01 X67.7887 Y0.8412
G01 X67.8666 Y0.7707
G01 X67.9509 Y0.7080
G01 X67.9597 Y0.7021
G01 X68.0499 Y0.6482
G01 X68.1448 Y0.6032
G01 X68.1546 Y0.5991
G01 X68.2485 Y0.5655
G01 X68.2587 Y0.5625
G01 X68.3606 Y0.5370
G01 X68.4645 Y0.5215
G01 X68.4751 Y0.5205
G01 X68.5800 Y0.5154
G01 X68.6849 Y0.5205
G01 X68.6955 Y0.5215
G01 X68.7994 Y0.5370
G01 X68.9013 Y0.5625
G01 X68.9115 Y0.5655
G01 X69.0103 Y0.6010
G01 X69.1054 Y0.6458
G01 X69.1147 Y0.6508
G01 X69.2048 Y0.7050
G01 X69.2934 Y0.7707
G01 X69.3752 Y0.8448
G01 X69.4458 Y0.9226
G01 X69.4526 Y0.9308
G01 X69.5150 Y1.0152
G01 X69.5692 Y1.1053
G01 X69.5742 Y1.1146
G01 X69.6168 Y1.2048
G01 X69.6209 Y1.2146
G01 X69.6561 Y1.3136
G01 X69.6830 Y1.4206
G01 X69.6991 Y1.5298
G01 X69.7046 Y1.6400
G01 X69.7046 Y3.6720
G01 X69.6995 Y3.7769
G01 X69.6989 Y3.7849
G01 X69.6830 Y3.8914
G01 X69.6561 Y3.9984
G01 X69.6190 Y4.1023
G01 X69.5730 Y4.1998
G01 X69.5692 Y4.2067
G01 X69.5150 Y4.2968
G01 X69.4510 Y4.3833
G01 X69.4458 Y4.3894
G01 X69.3770 Y4.4653
G01 X69.3713 Y4.4708
G01 X69.3234 Y4.5143
G01 X69.3234 Y42.6625
G01 X69.3989 Y42.7311
G01 X69.4717 Y42.8113
G01 X69.4784 Y42.8195
G01 X69.5398 Y42.9023
G01 X69.5457 Y42.9111
G01 X69.6013 Y43.0041
G01 X69.6477 Y43.1020
G01 X69.6518 Y43.1118
G01 X69.6882 Y43.2138
G01 X69.7158 Y43.3241
G01 X69.7325 Y43.4365
G01 X69.7380 Y43.5500
G01 X69.7325 Y43.6635
G01 X69.7167 Y43.7707
G01 X69.7146 Y43.7811
G01 X69.6896 Y43.8811
G01 X69.6865 Y43.8912
G01 X69.6499 Y43.9932
G01 X69.6013 Y44.0959
G01 X69.5429 Y44.1934
G01 X69.4752 Y44.2847
G01 X69.3989 Y44.3689
G01 X69.3147 Y44.4452
G01 X69.2234 Y44.5129
G01 X69.1305 Y44.5687
G01 X69.1212 Y44.5737
G01 X69.0280 Y44.6177
G01 X69.0182 Y44.6218
G01 X68.9162 Y44.6582
G01 X68.8111 Y44.6846
G01 X68.8007 Y44.6867
G01 X68.6935 Y44.7025
G01 X68.5800 Y44.7080
G01 X68.4665 Y44.7025
G01 X68.3541 Y44.6858
G01 X68.2438 Y44.6582
G01 X68.1418 Y44.6218
G01 X68.1320 Y44.6177
G01 X68.0341 Y44.5713
G01 X67.9411 Y44.5157
G01 X67.9323 Y44.5098
G01 X67.8495 Y44.4484
G01 X67.8413 Y44.4417
G01 X67.7611 Y44.3689
G01 X67.6925 Y44.2934
G01 X36.8300 Y44.2934
G01 X36.7571 Y44.2898
G01 X36.6902 Y44.2800
G01 X36.6798 Y44.2779
G01 X36.6142 Y44.2614
G01 X36.5455 Y44.2368
G01 X36.4796 Y44.2056
G01 X36.4215 Y44.1709
G01 X36.4127 Y44.1650
G01 X36.3626 Y44.1279
G01 X36.3544 Y44.1212
G01 X36.3044 Y44.0756
G01 X36.2554 Y44.0216
G01 X36.2119 Y43.9630
G01 X36.1770 Y43.9050
G01 X36.1720 Y43.8957
G01 X36.1454 Y43.8393
G01 X36.1413 Y43.8295
G01 X36.1186 Y43.7658
G01 X36.1015 Y43.6976
G01 X36.1000 Y43.6898
G01 X36.0902 Y43.6229
G01 X36.0866 Y43.5500
G01 X36.0866 Y41.3558
G00 Z3.0000
G00 X33.5466 Y41.3558
G01 F60.00
G01 Z-0.0300
G01 F120.00
G01 X33.4993 Y41.3033
G01 X33.4395 Y41.2227
G01 X33.3879 Y41.1366
G01 X33.3460 Y41.0483
G01 X33.3430 Y41.0409
G01 X33.3128 Y40.9564
G01 X33.3097 Y40.9462
G01 X33.2867 Y40.8540
G01 X33.2727 Y40.7599
G01 X33.2718 Y40.7520
G01 X33.2671 Y40.6544
G01 X33.2671 Y38.8229
G01 X33.2720 Y38.7253
G01 X33.2858 Y38.6313
G01 X33.2879 Y38.6209
G01 X33.3111 Y38.5287
G01 X33.3450 Y38.4342
G01 X33.3879 Y38.3434
G01 X33.4395 Y38.2573
G01 X33.4993 Y38.1767
G01 X33.5667 Y38.1023
G01 X33.6411 Y38.0349
G01 X33.7217 Y37.9751
G01 X33.8078 Y37.9235
G01 X33.8986 Y37.8806
G01 X33.9931 Y37.8467
G01 X34.0904 Y37.8223
G01 X34.1897 Y37.8076
G01 X34.2900 Y37.8027
G01 X34.3903 Y37.8076
G01 X34.4896 Y37.8223
G01 X34.5869 Y37.8467
G01 X34.6765 Y37.8786
G01 X34.6863 Y37.8827
G01 X34.7722 Y37.9235
G01 X34.8583 Y37.9751
G01 X34.9389 Y38.0349
G01 X35.0095 Y38.0986
G01 X35.0170 Y38.1061
G01 X35.0807 Y38.1767
G01 X35.1405 Y38.2573
G01 X35.1895 Y38.3388
G01 X35.1945 Y38.3481
G01 X35.2350 Y38.4342
G01 X35.2689 Y38.5287
G01 X35.2921 Y38.6209
G01 X35.2942 Y38.6313
G01 X35.3073 Y38.7201
G01 X35.3084 Y38.7306
G01 X35.3129 Y38.8256
G01 X35.3129 Y40.6544
G01 X35.3080 Y40.7547
G01 X35.2933 Y40.8540
G01 X35.2703 Y40.9462
G01 X35.2672 Y40.9564
G01 X35.2370 Y41.0409
G01 X35.2340 Y41.0483
G01 X35.1921 Y41.1366
G01 X35.1405 Y41.2227
G01 X35.0807 Y41.3033
G01 X35.0334 Y41.3558
G01 X35.0334 Y45.3466
G01 X70.2325 Y45.3466
G01 X70.3011 Y45.2711
G01 X70.3766 Y45.2025
G01 X70.3766 Y4.5143
G01 X70.3287 Y4.4708
G01 X70.3230 Y4.4653
G01 X70.2542 Y4.3894
G01 X70.2490 Y4.3833
G01 X70.1850 Y4.2968
G01 X70.1308 Y4.2067
G01 X70.1270 Y4.1998
G01 X70.0810 Y4.1023
G01 X70.0439 Y3.9984
G01 X70.0170 Y3.8914
G01 X70.0011 Y3.7849
G01 X70.0005 Y3.7769
G01 X69.9954 Y3.6720
G01 X69.9955 Y1.6373
G01 X70.0009 Y1.5298
G01 X70.0161 Y1.4258
G01 X70.0182 Y1.4154
G01 X70.0439 Y1.3136
G01 X70.0810 Y1.2097
G01 X70.1258 Y1.1146
G01 X70.1308 Y1.1053
G01 X70.1850 Y1.0152
G01 X70.2507 Y0.9266
G01 X70.3212 Y0.8487
G01 X70.3287 Y0.8412
G01 X70.4066 Y0.7707
G01 X70.4952 Y0.7050
G01 X70.5853 Y0.6508
G01 X70.5946 Y0.6458
G01 X70.6897 Y0.6010
G01 X70.7885 Y0.5655
G01 X70.7987 Y0.5625
G01 X70.9006 Y0.5370
G01 X71.0098 Y0.5209
G01 X71.1147 Y0.5156
G01 X71.1253 Y0.5156
G01 X71.2302 Y0.5209
G01 X71.3394 Y0.5370
G01 X71.4413 Y0.5625
G01 X71.4515 Y0.5655
G01 X71.5503 Y0.6010
G01 X71.6501 Y0.6482
G01 X71.7403 Y0.7021
G01 X71.7491 Y0.7080
G01 X71.8334 Y0.7707
G01 X71.9133 Y0.8430
G01 X71.9188 Y0.8487
G01 X71.9893 Y0.9266
G01 X72.0520 Y1.0109
G01 X72.0579 Y1.0197
G01 X72.1092 Y1.1053
G01 X72.1142 Y1.1146
G01 X72.1590 Y1.2097
G01 X72.1961 Y1.3136
G01 X72.2230 Y1.4206
G01 X72.2389 Y1.5271
G01 X72.2395 Y1.5351
G01 X72.2446 Y1.6400
G01 X72.2446 Y3.6720
G01 X72.2391 Y3.7822
G01 X72.2230 Y3.8914
G01 X72.1961 Y3.9984
G01 X72.1609 Y4.0974
G01 X72.1579 Y4.1048
G01 X72.1118 Y4.2021
G01 X72.0579 Y4.2923
G01 X72.0535 Y4.2990
G01 X71.9926 Y4.3812
G01 X71.9876 Y4.3874
G01 X71.9152 Y4.4672
G01 X71.8634 Y4.5143
G01 X71.8634 Y45.2025
G01 X71.9389 Y45.2711
G01 X72.0117 Y45.3513
G01 X72.0184 Y45.3595
G01 X72.0798 Y45.4423
G01 X72.0857 Y45.4511
G01 X72.1413 Y45.5441
G01 X72.1877 Y45.6420
G01 X72.1918 Y45.6518
G01 X72.2282 Y45.7538
G01 X72.2558 Y45.8641
G01 X72.2725 Y45.9765
G01 X72.2780 Y46.0900
G01 X72.2725 Y46.2035
G01 X72.2558 Y46.3159
G01 X72.2282 Y46.4262
G01 X72.1899 Y46.5332
G01 X72.1413 Y46.6359
G01 X72.0829 Y46.7334
G01 X72.0152 Y46.8247
G01 X71.9407 Y46.9070
G01 X71.9350 Y46.9125
G01 X71.8547 Y46.9852
G01 X71.7634 Y47.0529
G01 X71.6659 Y47.1113
G01 X71.5632 Y47.1599
G01 X71.4562 Y47.1982
G01 X71.3459 Y47.2258
G01 X71.2335 Y47.2425
G01 X71.1200 Y47.2480
G01 X71.0065 Y47.2425
G01 X70.8941 Y47.2258
G01 X70.7838 Y47.1982
G01 X70.6818 Y47.1618
G01 X70.6720 Y47.1577
G01 X70.5741 Y47.1113
G01 X70.4811 Y47.0557
G01 X70.4723 Y47.0498
G01 X70.3895 Y46.9884
G01 X70.3813 Y46.9817
G01 X70.3011 Y46.9089
G01 X70.2325 Y46.8334
G01 X34.2900 Y46.8334
G01 X34.2224 Y46.8302
G01 X34.2119 Y46.8291
G01 X34.1450 Y46.8191
G01 X34.0742 Y46.8014
G01 X34.0055 Y46.7768
G01 X33.9443 Y46.7480
G01 X33.9350 Y46.7430
G01 X33.8815 Y46.7109
G01 X33.8727 Y46.7050
G01 X33.8184 Y46.6646
G01 X33.7644 Y46.6156
G01 X33.7154 Y46.5616
G01 X33.6750 Y46.5073
G01 X33.6691 Y46.4985
G01 X33.6370 Y46.4450
G01 X33.6320 Y46.4357
G01 X33.6032 Y46.3745
G01 X33.5786 Y46.3058
G01 X33.5609 Y46.2350
G01 X33.5505 Y46.1655
G01 X33.5498 Y46.1576
G01 X33.5466 Y46.0900
G01 X33.5466 Y41.3558
G00 Z3.0000
G00 X30.7271 Y40.6544
G01 F60.00
G01 Z-0.0300
G01 F120.00
G01 X30.7271 Y38.8256
G01 X30.7316 Y38.7306
G01 X30.7327 Y38.7201
G01 X30.7467 Y38.6260
G01 X30.7711 Y38.5287
G01 X30.8050 Y38.4342
G01 X30.8455 Y38.3481
G01 X30.8492 Y38.3411
G01 X30.8995 Y38.2573
G01 X30.9593 Y38.1767
G01 X31.0267 Y38.1023
G01 X31.1011 Y38.0349
G01 X31.1817 Y37.9751
G01 X31.2678 Y37.9235
G01 X31.3586 Y37.8806
G01 X31.4531 Y37.8467
G01 X31.5504 Y37.8223
G01 X31.6497 Y37.8076
G01 X31.7500 Y37.8027
G01 X31.8503 Y37.8076
G01 X31.9496 Y37.8223
G01 X32.0469 Y37.8467
G01 X32.1414 Y37.8806
G01 X32.2275 Y37.9211
G01 X32.2345 Y37.9248
G01 X32.3183 Y37.9751
G01 X32.3947 Y38.0316
G01 X32.4029 Y38.0383
G01 X32.4733 Y38.1023
G01 X32.5373 Y38.1727
G01 X32.5440 Y38.1809
G01 X32.6005 Y38.2573
G01 X32.6495 Y38.3388
G01 X32.6545 Y38.3481
G01 X32.6950 Y38.4342
G01 X32.7272 Y38.5236
G01 X32.7303 Y38.5338
G01 X32.7533 Y38.6260
G01 X32.7673 Y38.7201
G01 X32.7684 Y38.7306
G01 X32.7729 Y38.8229
G01 X32.7729 Y40.6544
G01 X32.7680 Y40.7547
G01 X32.7533 Y40.8540
G01 X32.7303 Y40.9462
G01 X32.7272 Y40.9564
G01 X32.6970 Y41.0409
G01 X32.6940 Y41.0483
G01 X32.6521 Y41.1366
G01 X32.6005 Y41.2227
G01 X32.5407 Y41.3033
G01 X32.4934 Y41.3558
G01 X32.4934 Y47.8866
G01 X72.7725 Y47.8866
G01 X72.8411 Y47.8111
G01 X72.9166 Y47.7425
G01 X72.9166 Y4.5143
G01 X72.8687 Y4.4708
G01 X72.8630 Y4.4653
G01 X72.7942 Y4.3894
G01 X72.7890 Y4.3833
G01 X72.7250 Y4.2968
G01 X72.6708 Y4.2067
G01 X72.6670 Y4.1998
G01 X72.6210 Y4.1023
G01 X72.5839 Y3.9984
G01 X72.5570 Y3.8914
G01 X72.5411 Y3.7849
G01 X72.5405 Y3.7769
G01 X72.5354 Y3.6720
G01 X72.5355 Y1.6373
G01 X72.5409 Y1.5298
G01 X72.5561 Y1.4258
G01 X72.5582 Y1.4154
G01 X72.5839 Y1.3136
G01 X72.6210 Y1.2097
G01 X72.6658 Y1.1146
G01 X72.6708 Y1.1053
G01 X72.7250 Y1.0152
G01 X72.7907 Y0.9266
G01 X72.8612 Y0.8487
G01 X72.8687 Y0.8412
G01 X72.9466 Y0.7707
G01 X73.0352 Y0.7050
G01 X73.1253 Y0.6508
G01 X73.1346 Y0.6458
G01 X73.2297 Y0.6010
G01 X73.3285 Y0.5655
G01 X73.3387 Y0.5625
G01 X73.4406 Y0.5370
G01 X73.5498 Y0.5209
G01 X73.6547 Y0.5156
G01 X73.6653 Y0.5156
G01 X73.7702 Y0.5209
G01 X73.8794 Y0.5370
G01 X73.9813 Y0.5625
G01 X73.9915 Y0.5655
G01 X74.0903 Y0.6010
G01 X74.1901 Y0.6482
G01 X74.2848 Y0.7050
G01 X74.3692 Y0.7674
G01 X74.3774 Y0.7742
G01 X74.4513 Y0.8412
G01 X74.4588 Y0.8487
G01 X74.5293 Y0.9266
G01 X74.5950 Y1.0152
G01 X74.6518 Y1.1099
G01 X74.6968 Y1.2048
G01 X74.7009 Y1.2146
G01 X74.7345 Y1.3085
G01 X74.7375 Y1.3187
G01 X74.7630 Y1.4206
G01 X74.7789 Y1.5271
G01 X74.7795 Y1.5351
G01 X74.7846 Y1.6400
G01 X74.7846 Y3.6720
G01 X74.7791 Y3.7822
G01 X74.7630 Y3.8914
G01 X74.7361 Y3.9984
G01 X74.7009 Y4.0974
G01 X74.6979 Y4.1048
G01 X74.6518 Y4.2021
G01 X74.5979 Y4.2923
G01 X74.5935 Y4.2990
G01 X74.5326 Y4.3812
G01 X74.5276 Y4.3874
G01 X74.4552 Y4.4672
G01 X74.4034 Y4.5143
G01 X74.4034 Y47.7425
G01 X74.4789 Y47.8111
G01 X74.5517 Y47.8913
G01 X74.5584 Y47.8995
G01 X74.6198 Y47.9823
G01 X74.6257 Y47.9911
G01 X74.6813 Y48.0841
G01 X74.7277 Y48.1820
G01 X74.7318 Y48.1918
G01 X74.7682 Y48.2938
G01 X74.7958 Y48.4041
G01 X74.8125 Y48.5165
G01 X74.8180 Y48.6300
G01 X74.8125 Y48.7435
G01 X74.7958 Y48.8559
G01 X74.7682 Y48.9662
G01 X74.7299 Y49.0732
G01 X74.6813 Y49.1759
G01 X74.6229 Y49.2734
G01 X74.5552 Y49.3647
G01 X74.4825 Y49.4450
G01 X74.4750 Y49.4525
G01 X74.3947 Y49.5252
G01 X74.3034 Y49.5929
G01 X74.2059 Y49.6513
G01 X74.1032 Y49.6999
G01 X73.9962 Y49.7382
G01 X73.8859 Y49.7658
G01 X73.7735 Y49.7825
G01 X73.6600 Y49.7880
G01 X73.5465 Y49.7825
G01 X73.4341 Y49.7658
G01 X73.3238 Y49.7382
G01 X73.2218 Y49.7018
G01 X73.2120 Y49.6977
G01 X73.1141 Y49.6513
G01 X73.0211 Y49.5957
G01 X73.0123 Y49.5898
G01 X72.9295 Y49.5284
G01 X72.9213 Y49.5217
G01 X72.8411 Y49.4489
G01 X72.7725 Y49.3734
G01 X31.7500 Y49.3734
G01 X31.6771 Y49.3698
G01 X31.6050 Y49.3591
G01 X31.5368 Y49.3421
G01 X31.5187 Y49.3359
G01 X31.4655 Y49.3168
G01 X31.3996 Y49.2856
G01 X31.3370 Y49.2481
G01 X31.2826 Y49.2079
G01 X31.2744 Y49.2012
G01 X31.2282 Y49.1593
G01 X31.2207 Y49.1518
G01 X31.1754 Y49.1016
G01 X31.1319 Y49.0430
G01 X31.0944 Y48.9804
G01 X31.0654 Y48.9193
G01 X31.0613 Y48.9095
G01 X31.0403 Y48.8508
G01 X31.0372 Y48.8407
G01 X31.0209 Y48.7750
G01 X31.0102 Y48.7029
G01 X31.0066 Y48.6300
G01 X31.0066 Y41.3558
G01 X30.9593 Y41.3033
G01 X30.9025 Y41.2270
G01 X30.8980 Y41.2205
G01 X30.8479 Y41.1366
G01 X30.8071 Y41.0507
G01 X30.8040 Y41.0434
G01 X30.7711 Y40.9513
G01 X30.7467 Y40.8540
G01 X30.7320 Y40.7547
G01 X30.7271 Y40.6544
G00 Z3.0000
G00 X28.1871 Y40.6544
G01 F60.00
G01 Z-0.0300
G01 F120.00
G01 X28.1871 Y38.8256
G01 X28.1916 Y38.7306
G01 X28.1927 Y38.7201
G01 X28.2067 Y38.6260
G01 X28.2311 Y38.5287
G01 X28.2650 Y38.4342
G01 X28.3055 Y38.3481
G01 X28.3092 Y38.3411
G01 X28.3595 Y38.2573
G01 X28.4193 Y38.1767
G01 X28.4867 Y38.1023
G01 X28.5611 Y38.0349
G01 X28.6417 Y37.9751
G01 X28.7278 Y37.9235
G01 X28.8186 Y37.8806
G01 X28.9131 Y37.8467
G01 X29.0104 Y37.8223
G01 X29.1097 Y37.8076
G01 X29.2100 Y37.8027
G01 X29.3103 Y37.8076
G01 X29.4096 Y37.8223
G01 X29.5069 Y37.8467
G01 X29.6014 Y37.8806
G01 X29.6875 Y37.9211
G01 X29.6945 Y37.9248
G01 X29.7783 Y37.9751
G01 X29.8547 Y38.0316
G01 X29.8629 Y38.0383
G01 X29.9333 Y38.1023
G01 X29.9973 Y38.1727
G01 X30.0040 Y38.1809
G01 X30.0605 Y38.2573
G01 X30.1095 Y38.3388
G01 X30.1145 Y38.3481
G01 X30.1550 Y38.4342
G01 X30.1872 Y38.5236
G01 X30.1903 Y38.5338
G01 X30.2133 Y38.6260
G01 X30.2273 Y38.7201
G01 X30.2284 Y38.7306
G01 X30.2329 Y38.8229
G01 X30.2329 Y40.6544
G01 X30.2280 Y40.7547
G01 X30.2133 Y40.8540
G01 X30.1903 Y40.9462
G01 X30.1872 Y40.9564
G01 X30.1570 Y41.0409
G01 X30.1540 Y41.0483
G01 X30.1121 Y41.1366
G01 X30.0605 Y41.2227
G01 X30.0007 Y41.3033
G01 X29.9534 Y41.3558
G01 X29.9534 Y50.4266
G01 X75.3125 Y50.4266
G01 X75.3811 Y50.3511
G01 X75.4566 Y50.2825
G01 X75.4566 Y4.5143
G01 X75.4087 Y4.4708
G01 X75.4030 Y4.4653
G01 X75.3342 Y4.3894
G01 X75.3290 Y4.3833
G01 X75.2650 Y4.2968
G01 X75.2108 Y4.2067
G01 X75.2070 Y4.1998
G01 X75.1610 Y4.1023
G01 X75.1239 Y3.9984
G01 X75.0970 Y3.8914
G01 X75.0811 Y3.7849
G01 X75.0805 Y3.7769
G01 X75.0754 Y3.6720
G01 X75.0755 Y1.6373
G01 X75.0809 Y1.5298
G01 X75.0961 Y1.4258
G01 X75.0982 Y1.4154
G01 X75.1239 Y1.3136
G01 X75.1610 Y1.2097
G01 X75.2058 Y1.1146
G01 X75.2108 Y1.1053
G01 X75.2621 Y1.0197
G01 X75.2680 Y1.0109
G01 X75.3307 Y0.9266
G01 X75.4048 Y0.8448
G01 X75.4866 Y0.7707
G01 X75.5709 Y0.7080
G01 X75.5797 Y0.7021
G01 X75.6653 Y0.6508
G01 X75.6746 Y0.6458
G01 X75.7697 Y0.6010
G01 X75.8685 Y0.5655
G01 X75.8787 Y0.5625
G01 X75.9754 Y0.5382
G01 X75.9858 Y0.5361
G01 X76.0898 Y0.5209
G01 X76.2000 Y0.5154
G01 X76.3049 Y0.5205
G01 X76.3155 Y0.5215
G01 X76.4194 Y0.5370
G01 X76.5264 Y0.5639
G01 X76.6303 Y0.6010
G01 X76.7254 Y0.6458
G01 X76.7347 Y0.6508
G01 X76.8248 Y0.7050
G01 X76.9134 Y0.7707
G01 X76.9913 Y0.8412
G01 X76.9988 Y0.8487
G01 X77.0693 Y0.9266
G01 X77.1350 Y1.0152
G01 X77.1892 Y1.1053
G01 X77.1942 Y1.1146
G01 X77.2390 Y1.2097
G01 X77.2745 Y1.3085
G01 X77.2775 Y1.3187
G01 X77.3030 Y1.4206
G01 X77.3191 Y1.5298
G01 X77.3246 Y1.6400
G01 X77.3246 Y3.6720
G01 X77.3191 Y3.7822
G01 X77.3030 Y3.8914
G01 X77.2761 Y3.9984
G01 X77.2409 Y4.0974
G01 X77.2379 Y4.1048
G01 X77.1918 Y4.2021
G01 X77.1379 Y4.2923
G01 X77.1335 Y4.2990
G01 X77.0726 Y4.3812
G01 X77.0676 Y4.3874
G01 X76.9952 Y4.4672
G01 X76.9434 Y4.5143
G01 X76.9434 Y50.2825
G01 X77.0189 Y50.3511
G01 X77.0917 Y50.4313
G01 X77.0984 Y50.4395
G01 X77.1598 Y50.5223
G01 X77.1657 Y50.5311
G01 X77.2213 Y50.6241
G01 X77.2677 Y50.7220
G01 X77.2718 Y50.7318
G01 X77.3082 Y50.8338
G01 X77.3358 Y50.9441
G01 X77.3525 Y51.0565
G01 X77.3580 Y51.1700
G01 X77.3525 Y51.2835
G01 X77.3358 Y51.3959
G01 X77.3082 Y51.5062
G01 X77.2718 Y51.6082
G01 X77.2677 Y51.6180
G01 X77.2237 Y51.7112
G01 X77.2187 Y51.7205
G01 X77.1629 Y51.8134
G01 X77.0984 Y51.9005
G01 X77.0917 Y51.9087
G01 X77.0189 Y51.9889
G01 X76.9347 Y52.0652
G01 X76.8434 Y52.1329
G01 X76.7505 Y52.1887
G01 X76.7412 Y52.1937
G01 X76.6480 Y52.2377
G01 X76.6382 Y52.2418
G01 X76.5362 Y52.2782
G01 X76.4259 Y52.3058
G01 X76.3135 Y52.3225
G01 X76.2000 Y52.3280
G01 X76.0865 Y52.3225
G01 X75.9741 Y52.3058
G01 X75.8638 Y52.2782
G01 X75.7618 Y52.2418
G01 X75.7520 Y52.2377
G01 X75.6541 Y52.1913
G01 X75.5611 Y52.1357
G01 X75.5523 Y52.1298
G01 X75.4695 Y52.0684
G01 X75.4613 Y52.0617
G01 X75.3811 Y51.9889
G01 X75.3125 Y51.9134
G01 X29.2100 Y51.9134
G01 X29.1371 Y51.9098
G01 X29.0702 Y51.9000
G01 X29.0624 Y51.8985
G01 X28.9942 Y51.8814
G01 X28.9305 Y51.8587
G01 X28.9207 Y51.8546
G01 X28.8643 Y51.8280
G01 X28.8550 Y51.8230
G01 X28.7970 Y51.7881
G01 X28.7384 Y51.7446
G01 X28.6844 Y51.6956
G01 X28.6388 Y51.6456
G01 X28.6321 Y51.6374
G01 X28.5950 Y51.5873
G01 X28.5891 Y51.5785
G01 X28.5544 Y51.5204
G01 X28.5232 Y51.4545
G01 X28.4986 Y51.3858
G01 X28.4821 Y51.3202
G01 X28.4800 Y51.3098
G01 X28.4709 Y51.2481
G01 X28.4700 Y51.2402
G01 X28.4666 Y51.1700
G01 X28.4666 Y41.3558
G01 X28.4193 Y41.3033
G01 X28.3625 Y41.2270
G01 X28.3580 Y41.2205
G01 X28.3079 Y41.1366
G01 X28.2671 Y41.0507
G01 X28.2640 Y41.0434
G01 X28.2311 Y40.9513
G01 X28.2067 Y40.8540
G01 X28.1920 Y40.7547
G01 X28.1871 Y40.6544
G00 Z3.0000
G00 X25.9266 Y41.3558
G01 F60.00
G01 Z-0.0300
G01 F120.00
G01 X25.8793 Y41.3033
G01 X25.8195 Y41.2227
G01 X25.7679 Y41.1366
G01 X25.7260 Y41.0483
G01 X25.7230 Y41.0409
G01 X25.6928 Y40.9564
G01 X25.6897 Y40.9462
G01 X25.6667 Y40.8540
G01 X25.6527 Y40.7599
G01 X25.6518 Y40.7520
G01 X25.6471 Y40.6544
G01 X25.6471 Y38.8229
G01 X25.6520 Y38.7253
G01 X25.6658 Y38.6313
G01 X25.6679 Y38.6209
G01 X25.6911 Y38.5287
G01 X25.7250 Y38.4342
G01 X25.7679 Y38.3434
G01 X25.8195 Y38.2573
G01 X25.8793 Y38.1767
G01 X25.9467 Y38.1023
G01 X26.0211 Y38.0349
G01 X26.1017 Y37.9751
G01 X26.1878 Y37.9235
G01 X26.2786 Y37.8806
G01 X26.3731 Y37.8467
G01 X26.4704 Y37.8223
G01 X26.5697 Y37.8076
G01 X26.6700 Y37.8027
G01 X26.7703 Y37.8076
G01 X26.8696 Y37.8223
G01 X26.9669 Y37.8467
G01 X27.0614 Y37.8806
G01 X27.1475 Y37.9211
G01 X27.1568 Y37.9261
G01 X27.2383 Y37.9751
G01 X27.3189 Y38.0349
G01 X27.3895 Y38.0986
G01 X27.3970 Y38.1061
G01 X27.4573 Y38.1727
G01 X27.4640 Y38.1809
G01 X27.5205 Y38.2573
G01 X27.5721 Y38.3434
G01 X27.6150 Y38.4342
G01 X27.6472 Y38.5236
G01 X27.6503 Y38.5338
G01 X27.6721 Y38.6209
G01 X27.6742 Y38.6313
G01 X27.6880 Y38.7253
G01 X27.6929 Y38.8229
G01 X27.6929 Y40.6544
G01 X27.6880 Y40.7547
G01 X27.6733 Y40.8540
G01 X27.6503 Y40.9462
G01 X27.6472 Y40.9564
G01 X27.6170 Y41.0409
G01 X27.6140 Y41.0483
G01 X27.5721 Y41.1366
G01 X27.5205 Y41.2227
G01 X27.4607 Y41.3033
G01 X27.4134 Y41.3558
G01 X27.4134 Y52.9666
G01 X77.8525 Y52.9666
G01 X77.9211 Y52.8911
G01 X77.9966 Y52.8225
G01 X77.9966 Y4.5143
G01 X77.9487 Y4.4708
G01 X77.9430 Y4.4653
G01 X77.8742 Y4.3894
G01 X77.8690 Y4.3833
G01 X77.8050 Y4.2968
G01 X77.7508 Y4.2067
G01 X77.7470 Y4.1998
G01 X77.7010 Y4.1023
G01 X77.6639 Y3.9984
G01 X77.6370 Y3.8914
G01 X77.6211 Y3.7849
G01 X77.6205 Y3.7769
G01 X77.6154 Y3.6720
G01 X77.6155 Y1.6373
G01 X77.6209 Y1.5298
G01 X77.6361 Y1.4258
G01 X77.6382 Y1.4154
G01 X77.6639 Y1.3136
G01 X77.7010 Y1.2097
G01 X77.7458 Y1.1146
G01 X77.7508 Y1.1053
G01 X77.8021 Y1.0197
G01 X77.8080 Y1.0109
G01 X77.8707 Y0.9266
G01 X77.9448 Y0.8448
G01 X78.0266 Y0.7707
G01 X78.1109 Y0.7080
G01 X78.1197 Y0.7021
G01 X78.2053 Y0.6508
G01 X78.2146 Y0.6458
G01 X78.3097 Y0.6010
G01 X78.4085 Y0.5655
G01 X78.4187 Y0.5625
G01 X78.5154 Y0.5382
G01 X78.5258 Y0.5361
G01 X78.6298 Y0.5209
G01 X78.7400 Y0.5154
G01 X78.8449 Y0.5205
G01 X78.8555 Y0.5215
G01 X78.9594 Y0.5370
G01 X79.0664 Y0.5639
G01 X79.1703 Y0.6010
G01 X79.2654 Y0.6458
G01 X79.2747 Y0.6508
G01 X79.3648 Y0.7050
G01 X79.4534 Y0.7707
G01 X79.5313 Y0.8412
G01 X79.5388 Y0.8487
G01 X79.6058 Y0.9226
G01 X79.6126 Y0.9308
G01 X79.6750 Y1.0152
G01 X79.7292 Y1.1053
G01 X79.7342 Y1.1146
G01 X79.7790 Y1.2097
G01 X79.8145 Y1.3085
G01 X79.8175 Y1.3187
G01 X79.8430 Y1.4206
G01 X79.8591 Y1.5298
G01 X79.8646 Y1.6400
G01 X79.8646 Y3.6720
G01 X79.8591 Y3.7822
G01 X79.8430 Y3.8914
G01 X79.8161 Y3.9984
G01 X79.7809 Y4.0974
G01 X79.7779 Y4.1048
G01 X79.7318 Y4.2021
G01 X79.6779 Y4.2923
G01 X79.6735 Y4.2990
G01 X79.6126 Y4.3812
G01 X79.6076 Y4.3874
G01 X79.5352 Y4.4672
G01 X79.4834 Y4.5143
G01 X79.4834 Y52.8225
G01 X79.5589 Y52.8911
G01 X79.6317 Y52.9713
G01 X79.6384 Y52.9795
G01 X79.6998 Y53.0623
G01 X79.7057 Y53.0711
G01 X79.7613 Y53.1641
G01 X79.8077 Y53.2620
G01 X79.8118 Y53.2718
G01 X79.8482 Y53.3738
G01 X79.8758 Y53.4841
G01 X79.8925 Y53.5965
G01 X79.8980 Y53.7100
G01 X79.8925 Y53.8235
G01 X79.8767 Y53.9307
G01 X79.8746 Y53.9411
G01 X79.8496 Y54.0411
G01 X79.8465 Y54.0512
G01 X79.8099 Y54.1532
G01 X79.7637 Y54.2512
G01 X79.7587 Y54.2605
G01 X79.7029 Y54.3534
G01 X79.6352 Y54.4447
G01 X79.5589 Y54.5289
G01 X79.4787 Y54.6017
G01 X79.4705 Y54.6084
G01 X79.3834 Y54.6729
G01 X79.2859 Y54.7313
G01 X79.1832 Y54.7799
G01 X79.0812 Y54.8165
G01 X79.0711 Y54.8196
G01 X78.9711 Y54.8446
G01 X78.9607 Y54.8467
G01 X78.8535 Y54.8625
G01 X78.7400 Y54.8680
G01 X78.6265 Y54.8625
G01 X78.5141 Y54.8458
G01 X78.4038 Y54.8182
G01 X78.3018 Y54.7818
G01 X78.2920 Y54.7777
G01 X78.1941 Y54.7313
G01 X78.1011 Y54.6757
G01 X78.0923 Y54.6698
G01 X78.0095 Y54.6084
G01 X78.0013 Y54.6017
G01 X77.9211 Y54.5289
G01 X77.8525 Y54.4534
G01 X26.6700 Y54.4534
G01 X26.5971 Y54.4498
G01 X26.5302 Y54.4400
G01 X26.5198 Y54.4379
G01 X26.4542 Y54.4214
G01 X26.3855 Y54.3968
G01 X26.3196 Y54.3656
G01 X26.2615 Y54.3309
G01 X26.2527 Y54.3250
G01 X26.2026 Y54.2879
G01 X26.1944 Y54.2812
G01 X26.1444 Y54.2356
G01 X26.0954 Y54.1816
G01 X26.0519 Y54.1230
G01 X26.0170 Y54.0650
G01 X26.0120 Y54.0557
G01 X25.9854 Y53.9993
G01 X25.9813 Y53.9895
G01 X25.9586 Y53.9258
G01 X25.9409 Y53.8550
G01 X25.9302 Y53.7829
G01 X25.9268 Y53.7153
G01 X25.9266 Y41.3558
G00 Z3.0000
G00 X23.1071 Y40.6544
G01 F60.00
G01 Z-0.0300
G01 F120.00
G01 X23.1071 Y38.8256
G01 X23.1116 Y38.7306
G01 X23.1127 Y38.7201
G01 X23.1267 Y38.6260
G01 X23.1511 Y38.5287
G01 X23.1850 Y38.4342
G01 X23.2255 Y38.3481
G01 X23.2292 Y38.3411
G01 X23.2795 Y38.2573
G01 X23.3393 Y38.1767
G01 X23.4067 Y38.1023
G01 X23.4811 Y38.0349
G01 X23.5617 Y37.9751
G01 X23.6478 Y37.9235
G01 X23.7386 Y37.8806
G01 X23.8331 Y37.8467
G01 X23.9304 Y37.8223
G01 X24.0297 Y37.8076
G01 X24.1300 Y37.8027
G01 X24.2303 Y37.8076
G01 X24.3296 Y37.8223
G01 X24.4269 Y37.8467
G01 X24.5214 Y37.8806
G01 X24.6075 Y37.9211
G01 X24.6145 Y37.9248
G01 X24.6983 Y37.9751
G01 X24.7747 Y38.0316
G01 X24.7829 Y38.0383
G01 X24.8533 Y38.1023
G01 X24.9173 Y38.1727
G01 X24.9240 Y38.1809
G01 X24.9805 Y38.2573
G01 X25.0295 Y38.3388
G01 X25.0345 Y38.3481
G01 X25.0750 Y38.4342
G01 X25.1072 Y38.5236
G01 X25.1103 Y38.5338
G01 X25.1333 Y38.6260
G01 X25.1473 Y38.7201
G01 X25.1484 Y38.7306
G01 X25.1529 Y38.8229
G01 X25.1529 Y40.6544
G01 X25.1480 Y40.7547
G01 X25.1333 Y40.8540
G01 X25.1103 Y40.9462
G01 X25.1072 Y40.9564
G01 X25.0770 Y41.0409
G01 X25.0740 Y41.0483
G01 X25.0321 Y41.1366
G01 X24.9805 Y41.2227
G01 X24.9207 Y41.3033
G01 X24.8734 Y41.3558
G01 X24.8734 Y55.5066
G01 X80.3925 Y55.5066
G01 X80.4611 Y55.4311
G01 X80.5366 Y55.3625
G01 X80.5366 Y4.5143
G01 X80.4887 Y4.4708
G01 X80.4830 Y4.4653
G01 X80.4142 Y4.3894
G01 X80.4090 Y4.3833
G01 X80.3450 Y4.2968
G01 X80.2908 Y4.2067
G01 X80.2870 Y4.1998
G01 X80.2410 Y4.1023
G01 X80.2039 Y3.9984
G01 X80.1770 Y3.8914
G01 X80.1611 Y3.7849
G01 X80.1605 Y3.7769
G01 X80.1554 Y3.6720
G01 X80.1555 Y1.6373
G01 X80.1609 Y1.5298
G01 X80.1761 Y1.4258
G01 X80.1782 Y1.4154
G01 X80.2025 Y1.3187
G01 X80.2055 Y1.3085
G01 X80.2410 Y1.2097
G01 X80.2882 Y1.1099
G01 X80.3450 Y1.0152
G01 X80.4074 Y0.9308
G01 X80.4142 Y0.9226
G01 X80.4812 Y0.8487
G01 X80.4887 Y0.8412
G01 X80.5666 Y0.7707
G01 X80.6552 Y0.7050
G01 X80.7453 Y0.6508
G01 X80.7546 Y0.6458
G01 X80.8497 Y0.6010
G01 X80.9536 Y0.5639
G01 X81.0554 Y0.5382
G01 X81.0658 Y0.5361
G01 X81.1698 Y0.5209
G01 X81.2800 Y0.5154
G01 X81.3902 Y0.5209
G01 X81.4942 Y0.5361
G01 X81.5046 Y0.5382
G01 X81.6013 Y0.5625
G01 X81.6115 Y0.5655
G01 X81.7103 Y0.6010
G01 X81.8101 Y0.6482
G01 X81.9048 Y0.7050
G01 X81.9892 Y0.7674
G01 X81.9974 Y0.7742
G01 X82.0713 Y0.8412
G01 X82.0788 Y0.8487
G01 X82.1493 Y0.9266
G01 X82.2150 Y1.0152
G01 X82.2692 Y1.1053
G01 X82.2742 Y1.1146
G01 X82.3190 Y1.2097
G01 X82.3545 Y1.3085
G01 X82.3575 Y1.3187
G01 X82.3830 Y1.4206
G01 X82.3985 Y1.5245
G01 X82.3994 Y1.5324
G01 X82.4046 Y1.6400
G01 X82.4046 Y3.6720
G01 X82.3991 Y3.7822
G01 X82.3830 Y3.8914
G01 X82.3561 Y3.9984
G01 X82.3209 Y4.0974
G01 X82.3179 Y4.1048
G01 X82.2718 Y4.2021
G01 X82.2179 Y4.2923
G01 X82.2135 Y4.2990
G01 X82.1526 Y4.3812
G01 X82.1476 Y4.3874
G01 X82.0752 Y4.4672
G01 X82.0234 Y4.5143
G01 X82.0234 Y55.3625
G01 X82.0989 Y55.4311
G01 X82.1717 Y55.5113
G01 X82.1784 Y55.5195
G01 X82.2398 Y55.6023
G01 X82.2457 Y55.6111
G01 X82.3013 Y55.7041
G01 X82.3477 Y55.8020
G01 X82.3518 Y55.8118
G01 X82.3882 Y55.9138
G01 X82.4158 Y56.0241
G01 X82.4325 Y56.1365
G01 X82.4380 Y56.2500
G01 X82.4325 Y56.3635
G01 X82.4167 Y56.4707
G01 X82.4146 Y56.4811
G01 X82.3882 Y56.5862
G01 X82.3518 Y56.6882
G01 X82.3477 Y56.6980
G01 X82.3013 Y56.7959
G01 X82.2457 Y56.8889
G01 X82.2398 Y56.8977
G01 X82.1752 Y56.9847
G01 X82.1025 Y57.0650
G01 X82.0950 Y57.0725
G01 X82.0147 Y57.1452
G01 X81.9234 Y57.2129
G01 X81.8259 Y57.2713
G01 X81.7232 Y57.3199
G01 X81.6162 Y57.3582
G01 X81.5111 Y57.3846
G01 X81.5007 Y57.3867
G01 X81.3935 Y57.4025
G01 X81.2853 Y57.4079
G01 X81.2747 Y57.4079
G01 X81.1718 Y57.4029
G01 X81.1612 Y57.4018
G01 X81.0541 Y57.3858
G01 X80.9438 Y57.3582
G01 X80.8368 Y57.3199
G01 X80.7341 Y57.2713
G01 X80.6366 Y57.2129
G01 X80.5453 Y57.1452
G01 X80.4611 Y57.0689
G01 X80.3925 Y56.9934
G01 X24.1300 Y56.9934
G01 X24.0624 Y56.9902
G01 X24.0519 Y56.9891
G01 X23.9850 Y56.9791
G01 X23.9168 Y56.9621
G01 X23.9092 Y56.9597
G01 X23.8505 Y56.9387
G01 X23.8407 Y56.9346
G01 X23.7796 Y56.9056
G01 X23.7170 Y56.8681
G01 X23.6626 Y56.8279
G01 X23.6544 Y56.8212
G01 X23.6044 Y56.7756
G01 X23.5554 Y56.7216
G01 X23.5119 Y56.6630
G01 X23.4770 Y56.6050
G01 X23.4720 Y56.5957
G01 X23.4432 Y56.5345
G01 X23.4186 Y56.4658
G01 X23.4021 Y56.4002
G01 X23.4000 Y56.3898
G01 X23.3909 Y56.3281
G01 X23.3898 Y56.3176
G01 X23.3866 Y56.2500
G01 X23.3866 Y41.3558
G01 X23.3393 Y41.3033
G01 X23.2825 Y41.2270
G01 X23.2780 Y41.2205
G01 X23.2279 Y41.1366
G01 X23.1871 Y41.0507
G01 X23.1840 Y41.0434
G01 X23.1511 Y40.9513
G01 X23.1267 Y40.8540
G01 X23.1120 Y40.7547
G01 X23.1071 Y40.6544
G00 Z3.0000
G00 X20.8466 Y41.3558
G01 F60.00
G01 Z-0.0300
G01 F120.00
G01 X20.7993 Y41.3033
G01 X20.7395 Y41.2227
G01 X20.6879 Y41.1366
G01 X20.6460 Y41.0483
G01 X20.6430 Y41.0409
G01 X20.6128 Y40.9564
G01 X20.6097 Y40.9462
G01 X20.5867 Y40.8540
G01 X20.5727 Y40.7599
G01 X20.5718 Y40.7520
G01 X20.5671 Y40.6544
G01 X20.5671 Y38.8229
G01 X20.5720 Y38.7253
G01 X20.5858 Y38.6313
G01 X20.5879 Y38.6209
G01 X20.6111 Y38.5287
G01 X20.6450 Y38.4342
G01 X20.6879 Y38.3434
G01 X20.7395 Y38.2573
G01 X20.7993 Y38.1767
G01 X20.8667 Y38.1023
G01 X20.9411 Y38.0349
G01 X21.0217 Y37.9751
G01 X21.1078 Y37.9235
G01 X21.1986 Y37.8806
G01 X21.2931 Y37.8467
G01 X21.3904 Y37.8223
G01 X21.4897 Y37.8076
G01 X21.5900 Y37.8027
G01 X21.6903 Y37.8076
G01 X21.7896 Y37.8223
G01 X21.8869 Y37.8467
G01 X21.9814 Y37.8806
G01 X22.0675 Y37.9211
G01 X22.0768 Y37.9261
G01 X22.1583 Y37.9751
G01 X22.2389 Y38.0349
G01 X22.3095 Y38.0986
G01 X22.3170 Y38.1061
G01 X22.3773 Y38.1727
G01 X22.3840 Y38.1809
G01 X22.4405 Y38.2573
G01 X22.4921 Y38.3434
G01 X22.5350 Y38.4342
G01 X22.5672 Y38.5236
G01 X22.5703 Y38.5338
G01 X22.5921 Y38.6209
G01 X22.5942 Y38.6313
G01 X22.6080 Y38.7253
G01 X22.6129 Y38.8229
G01 X22.6129 Y40.6544
G01 X22.6080 Y40.7547
G01 X22.5933 Y40.8540
G01 X22.5703 Y40.9462
G01 X22.5672 Y40.9564
G01 X22.5370 Y41.0409
G01 X22.5340 Y41.0483
G01 X22.4921 Y41.1366
G01 X22.4405 Y41.2227
G01 X22.3807 Y41.3033
G01 X22.3334 Y41.3558
G01 X22.3334 Y58.0466
G01 X82.9325 Y58.0466
G01 X83.0011 Y57.9711
G01 X83.0766 Y57.9025
G01 X83.0766 Y4.5143
G01 X83.0287 Y4.4708
G01 X83.0230 Y4.4653
G01 X82.9542 Y4.3894
G01 X82.9490 Y4.3833
G01 X82.8850 Y4.2968
G01 X82.8308 Y4.2067
G01 X82.8270 Y4.1998
G01 X82.7810 Y4.1023
G01 X82.7439 Y3.9984
G01 X82.7170 Y3.8914
G01 X82.7011 Y3.7849
G01 X82.7005 Y3.7769
G01 X82.6954 Y3.6720
G01 X82.6955 Y1.6373
G01 X82.7009 Y1.5298
G01 X82.7161 Y1.4258
G01 X82.7182 Y1.4154
G01 X82.7425 Y1.3187
G01 X82.7455 Y1.3085
G01 X82.7810 Y1.2097
G01 X82.8282 Y1.1099
G01 X82.8850 Y1.0152
G01 X82.9474 Y0.9308
G01 X82.9542 Y0.9226
G01 X83.0212 Y0.8487
G01 X83.0287 Y0.8412
G01 X83.1066 Y0.7707
G01 X83.1952 Y0.7050
G01 X83.2853 Y0.6508
G01 X83.2946 Y0.6458
G01 X83.3897 Y0.6010
G01 X83.4936 Y0.5639
G01 X83.6006 Y0.5370
G01 X83.7045 Y0.5215
G01 X83.7151 Y0.5205
G01 X83.8147 Y0.5156
G01 X83.8253 Y0.5156
G01 X83.9302 Y0.5209
G01 X84.0394 Y0.5370
G01 X84.1464 Y0.5639
G01 X84.2454 Y0.5991
G01 X84.2552 Y0.6032
G01 X84.3454 Y0.6458
G01 X84.3547 Y0.6508
G01 X84.4448 Y0.7050
G01 X84.5334 Y0.7707
G01 X84.6152 Y0.8448
G01 X84.6858 Y0.9226
G01 X84.6926 Y0.9308
G01 X84.7520 Y1.0109
G01 X84.7565 Y1.0175
G01 X84.8092 Y1.1053
G01 X84.8142 Y1.1146
G01 X84.8590 Y1.2097
G01 X84.8945 Y1.3085
G01 X84.8975 Y1.3187
