(G-CODE GENERATED BY FLATCAM v8.994 - www.flatcam.org - Version Date: 2020/11/7)

(Name: drill_1_16.xln_cnc)
(Type: G-code from Geometry)
(Units: MM)

(Created on sexta, 18 março 2022 at 14:51)

(This preprocessor is the default preprocessor used by FlatCAM.)
(It is made to work with MACH3 compatible motion controllers.)


(TOOLS DIAMETER: )
(Tool: 1 -> Dia: 0.813)
(Tool: 2 -> Dia: 0.9)
(Tool: 3 -> Dia: 1.016)

(FEEDRATE Z: )
(Tool: 1 -> Feedrate: 300)
(Tool: 2 -> Feedrate: 300)
(Tool: 3 -> Feedrate: 300)

(FEEDRATE RAPIDS: )
(Tool: 1 -> Feedrate Rapids: 1500)
(Tool: 2 -> Feedrate Rapids: 1500)
(Tool: 3 -> Feedrate Rapids: 1500)

(Z_CUT: )
(Tool: 1 -> Z_Cut: -1.7)
(Tool: 2 -> Z_Cut: -1.7)
(Tool: 3 -> Z_Cut: -1.7)

(Tools Offset: )
(Tool: 1 -> Offset Z: 0.0)
(Tool: 2 -> Offset Z: 0.0)
(Tool: 3 -> Offset Z: 0.0)

(Z_MOVE: )
(Tool: 1 -> Z_Move: 2)
(Tool: 2 -> Z_Move: 2)
(Tool: 3 -> Z_Move: 2)

(Z Toolchange: 15 mm)
(X,Y Toolchange: 0.0000, 0.0000 mm)
(Z Start: None mm)
(Z End: 0.5 mm)
(X,Y End: None mm)
(Steps per circle: 64)
(Preprocessor Excellon: default)

(X range:    2.0320 ...  136.2965  mm)
(Y range:    1.1320 ...   85.9100  mm)

(Spindle Speed: 0 RPM)
G21
G90
G94

G01 F300.00

M5
G00 Z15.0000
T1
G00 X0.0000 Y0.0000                
M6
(MSG, Change to Tool Dia = 0.8130 ||| Total drills for tool T1 = 255)
M0
G00 Z15.0000

G01 F300.00
M03
G00 X128.2700 Y68.9500
G01 Z-1.7000
G01 Z0
G00 Z2.0000
G00 X120.6500 Y68.9500
G01 Z-1.7000
G01 Z0
G00 Z2.0000
G00 X119.3800 Y65.1400
G01 Z-1.7000
G01 Z0
G00 Z2.0000
G00 X114.3000 Y65.1400
G01 Z-1.7000
G01 Z0
G00 Z2.0000
G00 X109.2200 Y65.1400
G01 Z-1.7000
G01 Z0
G00 Z2.0000
G00 X106.6800 Y62.6000
G01 Z-1.7000
G01 Z0
G00 Z2.0000
G00 X109.2200 Y58.7900
G01 Z-1.7000
G01 Z0
G00 Z2.0000
G00 X114.3000 Y58.7900
G01 Z-1.7000
G01 Z0
G00 Z2.0000
G00 X119.3800 Y58.7900
G01 Z-1.7000
G01 Z0
G00 Z2.0000
G00 X119.3800 Y54.9800
G01 Z-1.7000
G01 Z0
G00 Z2.0000
G00 X116.8400 Y54.9800
G01 Z-1.7000
G01 Z0
G00 Z2.0000
G00 X116.8400 Y52.4400
G01 Z-1.7000
G01 Z0
G00 Z2.0000
G00 X119.3800 Y52.4400
G01 Z-1.7000
G01 Z0
G00 Z2.0000
G00 X121.9200 Y52.4400
G01 Z-1.7000
G01 Z0
G00 Z2.0000
G00 X121.9200 Y54.9800
G01 Z-1.7000
G01 Z0
G00 Z2.0000
G00 X124.4600 Y54.9800
G01 Z-1.7000
G01 Z0
G00 Z2.0000
G00 X124.4600 Y52.4400
G01 Z-1.7000
G01 Z0
G00 Z2.0000
G00 X124.4600 Y44.8200
G01 Z-1.7000
G01 Z0
G00 Z2.0000
G00 X127.0000 Y44.8200
G01 Z-1.7000
G01 Z0
G00 Z2.0000
G00 X130.8100 Y44.8200
G01 Z-1.7000
G01 Z0
G00 Z2.0000
G00 X135.8900 Y44.8200
G01 Z-1.7000
G01 Z0
G00 Z2.0000
G00 X133.3500 Y25.7700
G01 Z-1.7000
G01 Z0
G00 Z2.0000
G00 X127.0000 Y37.2000
G01 Z-1.7000
G01 Z0
G00 Z2.0000
G00 X124.4600 Y37.2000
G01 Z-1.7000
G01 Z0
G00 Z2.0000
G00 X121.9200 Y37.2000
G01 Z-1.7000
G01 Z0
G00 Z2.0000
G00 X119.3800 Y37.2000
G01 Z-1.7000
G01 Z0
G00 Z2.0000
G00 X116.8400 Y37.2000
G01 Z-1.7000
G01 Z0
G00 Z2.0000
G00 X114.3000 Y37.2000
G01 Z-1.7000
G01 Z0
G00 Z2.0000
G00 X111.7600 Y37.2000
G01 Z-1.7000
G01 Z0
G00 Z2.0000
G00 X109.2200 Y37.2000
G01 Z-1.7000
G01 Z0
G00 Z2.0000
G00 X101.6000 Y37.2000
G01 Z-1.7000
G01 Z0
G00 Z2.0000
G00 X99.0600 Y41.0100
G01 Z-1.7000
G01 Z0
G00 Z2.0000
G00 X109.2200 Y44.8200
G01 Z-1.7000
G01 Z0
G00 Z2.0000
G00 X111.7600 Y44.8200
G01 Z-1.7000
G01 Z0
G00 Z2.0000
G00 X114.3000 Y44.8200
G01 Z-1.7000
G01 Z0
G00 Z2.0000
G00 X116.8400 Y44.8200
G01 Z-1.7000
G01 Z0
G00 Z2.0000
G00 X119.3800 Y44.8200
G01 Z-1.7000
G01 Z0
G00 Z2.0000
G00 X121.9200 Y44.8200
G01 Z-1.7000
G01 Z0
G00 Z2.0000
G00 X114.3000 Y52.4400
G01 Z-1.7000
G01 Z0
G00 Z2.0000
G00 X114.3000 Y54.9800
G01 Z-1.7000
G01 Z0
G00 Z2.0000
G00 X111.7600 Y54.9800
G01 Z-1.7000
G01 Z0
G00 Z2.0000
G00 X109.2200 Y54.9800
G01 Z-1.7000
G01 Z0
G00 Z2.0000
G00 X111.7600 Y52.4400
G01 Z-1.7000
G01 Z0
G00 Z2.0000
G00 X109.2200 Y52.4400
G01 Z-1.7000
G01 Z0
G00 Z2.0000
G00 X106.6800 Y52.4400
G01 Z-1.7000
G01 Z0
G00 Z2.0000
G00 X106.6800 Y54.9800
G01 Z-1.7000
G01 Z0
G00 Z2.0000
G00 X93.9800 Y58.7900
G01 Z-1.7000
G01 Z0
G00 Z2.0000
G00 X91.4400 Y56.2500
G01 Z-1.7000
G01 Z0
G00 Z2.0000
G00 X83.8200 Y65.1400
G01 Z-1.7000
G01 Z0
G00 Z2.0000
G00 X83.8200 Y68.9500
G01 Z-1.7000
G01 Z0
G00 Z2.0000
G00 X81.2800 Y68.9500
G01 Z-1.7000
G01 Z0
G00 Z2.0000
G00 X78.7400 Y68.9500
G01 Z-1.7000
G01 Z0
G00 Z2.0000
G00 X76.2000 Y68.9500
G01 Z-1.7000
G01 Z0
G00 Z2.0000
G00 X73.6600 Y68.9500
G01 Z-1.7000
G01 Z0
G00 Z2.0000
G00 X71.1200 Y68.9500
G01 Z-1.7000
G01 Z0
G00 Z2.0000
G00 X68.5800 Y68.9500
G01 Z-1.7000
G01 Z0
G00 Z2.0000
G00 X66.0400 Y68.9500
G01 Z-1.7000
G01 Z0
G00 Z2.0000
G00 X68.5800 Y65.1400
G01 Z-1.7000
G01 Z0
G00 Z2.0000
G00 X71.1200 Y65.1400
G01 Z-1.7000
G01 Z0
G00 Z2.0000
G00 X73.6600 Y65.1400
G01 Z-1.7000
G01 Z0
G00 Z2.0000
G00 X76.2000 Y65.1400
G01 Z-1.7000
G01 Z0
G00 Z2.0000
G00 X78.7400 Y65.1400
G01 Z-1.7000
G01 Z0
G00 Z2.0000
G00 X81.2800 Y65.1400
G01 Z-1.7000
G01 Z0
G00 Z2.0000
G00 X83.8200 Y58.7900
G01 Z-1.7000
G01 Z0
G00 Z2.0000
G00 X81.2800 Y56.2500
G01 Z-1.7000
G01 Z0
G00 Z2.0000
G00 X78.7400 Y53.7100
G01 Z-1.7000
G01 Z0
G00 Z2.0000
G00 X76.2000 Y51.1700
G01 Z-1.7000
G01 Z0
G00 Z2.0000
G00 X73.6600 Y48.6300
G01 Z-1.7000
G01 Z0
G00 Z2.0000
G00 X71.1200 Y46.0900
G01 Z-1.7000
G01 Z0
G00 Z2.0000
G00 X68.5800 Y43.5500
G01 Z-1.7000
G01 Z0
G00 Z2.0000
G00 X63.5000 Y41.0100
G01 Z-1.7000
G01 Z0
G00 Z2.0000
G00 X58.4200 Y41.0100
G01 Z-1.7000
G01 Z0
G00 Z2.0000
G00 X58.4200 Y37.2000
G01 Z-1.7000
G01 Z0
G00 Z2.0000
G00 X53.3400 Y41.0100
G01 Z-1.7000
G01 Z0
G00 Z2.0000
G00 X49.5300 Y41.0100
G01 Z-1.7000
G01 Z0
G00 Z2.0000
G00 X43.1800 Y39.7400
G01 Z-1.7000
G01 Z0
G00 Z2.0000
G00 X39.3700 Y39.7400
G01 Z-1.7000
G01 Z0
G00 Z2.0000
G00 X36.8300 Y39.7400
G01 Z-1.7000
G01 Z0
G00 Z2.0000
G00 X34.2900 Y39.7400
G01 Z-1.7000
G01 Z0
G00 Z2.0000
G00 X31.7500 Y39.7400
G01 Z-1.7000
G01 Z0
G00 Z2.0000
G00 X29.2100 Y39.7400
G01 Z-1.7000
G01 Z0
G00 Z2.0000
G00 X26.6700 Y39.7400
G01 Z-1.7000
G01 Z0
G00 Z2.0000
G00 X24.1300 Y39.7400
G01 Z-1.7000
G01 Z0
G00 Z2.0000
G00 X21.5900 Y39.7400
G01 Z-1.7000
G01 Z0
G00 Z2.0000
G00 X21.5900 Y32.1200
G01 Z-1.7000
G01 Z0
G00 Z2.0000
G00 X24.1300 Y32.1200
G01 Z-1.7000
G01 Z0
G00 Z2.0000
G00 X26.6700 Y32.1200
G01 Z-1.7000
G01 Z0
G00 Z2.0000
G00 X29.2100 Y32.1200
G01 Z-1.7000
G01 Z0
G00 Z2.0000
G00 X31.7500 Y32.1200
G01 Z-1.7000
G01 Z0
G00 Z2.0000
G00 X34.2900 Y32.1200
G01 Z-1.7000
G01 Z0
G00 Z2.0000
G00 X36.8300 Y32.1200
G01 Z-1.7000
G01 Z0
G00 Z2.0000
G00 X36.8300 Y29.5800
G01 Z-1.7000
G01 Z0
G00 Z2.0000
G00 X39.3700 Y32.1200
G01 Z-1.7000
G01 Z0
G00 Z2.0000
G00 X50.8000 Y29.5800
G01 Z-1.7000
G01 Z0
G00 Z2.0000
G00 X57.1500 Y27.0400
G01 Z-1.7000
G01 Z0
G00 Z2.0000
G00 X53.3400 Y23.2300
G01 Z-1.7000
G01 Z0
G00 Z2.0000
G00 X45.7200 Y21.9600
G01 Z-1.7000
G01 Z0
G00 Z2.0000
G00 X45.7200 Y19.4200
G01 Z-1.7000
G01 Z0
G00 Z2.0000
G00 X43.1800 Y16.8800
G01 Z-1.7000
G01 Z0
G00 Z2.0000
G00 X40.6400 Y13.0700
G01 Z-1.7000
G01 Z0
G00 Z2.0000
G00 X43.1800 Y10.5300
G01 Z-1.7000
G01 Z0
G00 Z2.0000
G00 X48.2600 Y9.2600
G01 Z-1.7000
G01 Z0
G00 Z2.0000
G00 X50.8000 Y6.7200
G01 Z-1.7000
G01 Z0
G00 Z2.0000
G00 X55.8800 Y6.7200
G01 Z-1.7000
G01 Z0
G00 Z2.0000
G00 X60.9600 Y11.8000
G01 Z-1.7000
G01 Z0
G00 Z2.0000
G00 X66.0400 Y6.7200
G01 Z-1.7000
G01 Z0
G00 Z2.0000
G00 X86.3600 Y24.5000
G01 Z-1.7000
G01 Z0
G00 Z2.0000
G00 X91.4400 Y19.4200
G01 Z-1.7000
G01 Z0
G00 Z2.0000
G00 X95.2500 Y16.8800
G01 Z-1.7000
G01 Z0
G00 Z2.0000
G00 X104.1400 Y11.8000
G01 Z-1.7000
G01 Z0
G00 Z2.0000
G00 X116.8400 Y20.6900
G01 Z-1.7000
G01 Z0
G00 Z2.0000
G00 X121.9200 Y18.1500
G01 Z-1.7000
G01 Z0
G00 Z2.0000
G00 X124.4600 Y15.6100
G01 Z-1.7000
G01 Z0
G00 Z2.0000
G00 X127.0000 Y13.0700
G01 Z-1.7000
G01 Z0
G00 Z2.0000
G00 X130.8100 Y7.9900
G01 Z-1.7000
G01 Z0
G00 Z2.0000
G00 X119.3800 Y6.7200
G01 Z-1.7000
G01 Z0
G00 Z2.0000
G00 X114.3000 Y9.2600
G01 Z-1.7000
G01 Z0
G00 Z2.0000
G00 X101.6000 Y1.6400
G01 Z-1.7000
G01 Z0
G00 Z2.0000
G00 X99.0600 Y1.6400
G01 Z-1.7000
G01 Z0
G00 Z2.0000
G00 X96.5200 Y1.6400
G01 Z-1.7000
G01 Z0
G00 Z2.0000
G00 X93.9800 Y1.6400
G01 Z-1.7000
G01 Z0
G00 Z2.0000
G00 X91.4400 Y7.9900
G01 Z-1.7000
G01 Z0
G00 Z2.0000
G00 X91.4400 Y1.6400
G01 Z-1.7000
G01 Z0
G00 Z2.0000
G00 X88.9000 Y1.6400
G01 Z-1.7000
G01 Z0
G00 Z2.0000
G00 X86.3600 Y1.6400
G01 Z-1.7000
G01 Z0
G00 Z2.0000
G00 X83.8200 Y1.6400
G01 Z-1.7000
G01 Z0
G00 Z2.0000
G00 X81.2800 Y1.6400
G01 Z-1.7000
G01 Z0
G00 Z2.0000
G00 X78.7400 Y1.6400
G01 Z-1.7000
G01 Z0
G00 Z2.0000
G00 X76.2000 Y1.6400
G01 Z-1.7000
G01 Z0
G00 Z2.0000
G00 X73.6600 Y1.6400
G01 Z-1.7000
G01 Z0
G00 Z2.0000
G00 X71.1200 Y1.6400
G01 Z-1.7000
G01 Z0
G00 Z2.0000
G00 X68.5800 Y1.6400
G01 Z-1.7000
G01 Z0
G00 Z2.0000
G00 X66.0400 Y1.6400
G01 Z-1.7000
G01 Z0
G00 Z2.0000
G00 X63.5000 Y1.6400
G01 Z-1.7000
G01 Z0
G00 Z2.0000
G00 X60.9600 Y1.6400
G01 Z-1.7000
G01 Z0
G00 Z2.0000
G00 X58.4200 Y1.6400
G01 Z-1.7000
G01 Z0
G00 Z2.0000
G00 X55.8800 Y1.6400
G01 Z-1.7000
G01 Z0
G00 Z2.0000
G00 X53.3400 Y1.6400
G01 Z-1.7000
G01 Z0
G00 Z2.0000
G00 X50.8000 Y1.6400
G01 Z-1.7000
G01 Z0
G00 Z2.0000
G00 X48.2600 Y1.6400
G01 Z-1.7000
G01 Z0
G00 Z2.0000
G00 X45.7200 Y1.6400
G01 Z-1.7000
G01 Z0
G00 Z2.0000
G00 X43.1800 Y1.6400
G01 Z-1.7000
G01 Z0
G00 Z2.0000
G00 X40.6400 Y1.6400
G01 Z-1.7000
G01 Z0
G00 Z2.0000
G00 X38.1000 Y1.6400
G01 Z-1.7000
G01 Z0
G00 Z2.0000
G00 X35.5600 Y1.6400
G01 Z-1.7000
G01 Z0
G00 Z2.0000
G00 X33.0200 Y1.6400
G01 Z-1.7000
G01 Z0
G00 Z2.0000
G00 X30.4800 Y1.6400
G01 Z-1.7000
G01 Z0
G00 Z2.0000
G00 X27.9400 Y1.6400
G01 Z-1.7000
G01 Z0
G00 Z2.0000
G00 X25.4000 Y1.6400
G01 Z-1.7000
G01 Z0
G00 Z2.0000
G00 X38.1000 Y15.6100
G01 Z-1.7000
G01 Z0
G00 Z2.0000
G00 X35.5600 Y18.1500
G01 Z-1.7000
G01 Z0
G00 Z2.0000
G00 X31.7500 Y23.2300
G01 Z-1.7000
G01 Z0
G00 Z2.0000
G00 X29.2100 Y25.7700
G01 Z-1.7000
G01 Z0
G00 Z2.0000
G00 X26.6700 Y27.0400
G01 Z-1.7000
G01 Z0
G00 Z2.0000
G00 X24.1300 Y24.5000
G01 Z-1.7000
G01 Z0
G00 Z2.0000
G00 X21.5900 Y21.9600
G01 Z-1.7000
G01 Z0
G00 Z2.0000
G00 X19.0500 Y16.8800
G01 Z-1.7000
G01 Z0
G00 Z2.0000
G00 X19.0500 Y14.3400
G01 Z-1.7000
G01 Z0
G00 Z2.0000
G00 X19.0500 Y11.8000
G01 Z-1.7000
G01 Z0
G00 Z2.0000
G00 X19.0500 Y9.2600
G01 Z-1.7000
G01 Z0
G00 Z2.0000
G00 X19.0500 Y6.7200
G01 Z-1.7000
G01 Z0
G00 Z2.0000
G00 X22.8600 Y1.6400
G01 Z-1.7000
G01 Z0
G00 Z2.0000
G00 X20.3200 Y1.6400
G01 Z-1.7000
G01 Z0
G00 Z2.0000
G00 X17.7800 Y1.6400
G01 Z-1.7000
G01 Z0
G00 Z2.0000
G00 X15.2400 Y1.6400
G01 Z-1.7000
G01 Z0
G00 Z2.0000
G00 X12.7000 Y1.6400
G01 Z-1.7000
G01 Z0
G00 Z2.0000
G00 X10.1600 Y1.6400
G01 Z-1.7000
G01 Z0
G00 Z2.0000
G00 X7.6200 Y1.6400
G01 Z-1.7000
G01 Z0
G00 Z2.0000
G00 X5.0800 Y1.6400
G01 Z-1.7000
G01 Z0
G00 Z2.0000
G00 X2.5400 Y1.6400
G01 Z-1.7000
G01 Z0
G00 Z2.0000
G00 X3.8100 Y10.5300
G01 Z-1.7000
G01 Z0
G00 Z2.0000
G00 X11.4300 Y6.7200
G01 Z-1.7000
G01 Z0
G00 Z2.0000
G00 X11.4300 Y9.2600
G01 Z-1.7000
G01 Z0
G00 Z2.0000
G00 X11.4300 Y11.8000
G01 Z-1.7000
G01 Z0
G00 Z2.0000
G00 X11.4300 Y14.3400
G01 Z-1.7000
G01 Z0
G00 Z2.0000
G00 X11.4300 Y16.8800
G01 Z-1.7000
G01 Z0
G00 Z2.0000
G00 X11.4300 Y20.6900
G01 Z-1.7000
G01 Z0
G00 Z2.0000
G00 X6.3500 Y23.2300
G01 Z-1.7000
G01 Z0
G00 Z2.0000
G00 X13.9700 Y23.2300
G01 Z-1.7000
G01 Z0
G00 Z2.0000
G00 X17.7800 Y27.0400
G01 Z-1.7000
G01 Z0
G00 Z2.0000
G00 X17.7800 Y32.1200
G01 Z-1.7000
G01 Z0
G00 Z2.0000
G00 X11.4300 Y32.1200
G01 Z-1.7000
G01 Z0
G00 Z2.0000
G00 X5.0800 Y30.8500
G01 Z-1.7000
G01 Z0
G00 Z2.0000
G00 X5.0800 Y35.9300
G01 Z-1.7000
G01 Z0
G00 Z2.0000
G00 X5.0800 Y42.2800
G01 Z-1.7000
G01 Z0
G00 Z2.0000
G00 X8.8900 Y42.2800
G01 Z-1.7000
G01 Z0
G00 Z2.0000
G00 X8.8900 Y49.9000
G01 Z-1.7000
G01 Z0
G00 Z2.0000
G00 X5.0800 Y49.9000
G01 Z-1.7000
G01 Z0
G00 Z2.0000
G00 X2.5400 Y72.7600
G01 Z-1.7000
G01 Z0
G00 Z2.0000
G00 X2.5400 Y75.3000
G01 Z-1.7000
G01 Z0
G00 Z2.0000
G00 X2.5400 Y77.8400
G01 Z-1.7000
G01 Z0
G00 Z2.0000
G00 X2.5400 Y80.3800
G01 Z-1.7000
G01 Z0
G00 Z2.0000
G00 X8.8900 Y82.9200
G01 Z-1.7000
G01 Z0
G00 Z2.0000
G00 X12.7000 Y85.4600
G01 Z-1.7000
G01 Z0
G00 Z2.0000
G00 X15.2400 Y85.4600
G01 Z-1.7000
G01 Z0
G00 Z2.0000
G00 X20.3200 Y82.9200
G01 Z-1.7000
G01 Z0
G00 Z2.0000
G00 X19.0500 Y77.8400
G01 Z-1.7000
G01 Z0
G00 Z2.0000
G00 X12.7000 Y77.8400
G01 Z-1.7000
G01 Z0
G00 Z2.0000
G00 X8.8900 Y75.3000
G01 Z-1.7000
G01 Z0
G00 Z2.0000
G00 X11.4300 Y72.7600
G01 Z-1.7000
G01 Z0
G00 Z2.0000
G00 X15.2400 Y72.7600
G01 Z-1.7000
G01 Z0
G00 Z2.0000
G00 X19.0500 Y72.7600
G01 Z-1.7000
G01 Z0
G00 Z2.0000
G00 X24.1300 Y72.7600
G01 Z-1.7000
G01 Z0
G00 Z2.0000
G00 X26.6700 Y72.7600
G01 Z-1.7000
G01 Z0
G00 Z2.0000
G00 X29.2100 Y72.7600
G01 Z-1.7000
G01 Z0
G00 Z2.0000
G00 X34.2900 Y68.9500
G01 Z-1.7000
G01 Z0
G00 Z2.0000
G00 X41.9100 Y68.9500
G01 Z-1.7000
G01 Z0
G00 Z2.0000
G00 X49.5300 Y68.9500
G01 Z-1.7000
G01 Z0
G00 Z2.0000
G00 X58.4200 Y66.4100
G01 Z-1.7000
G01 Z0
G00 Z2.0000
G00 X57.1500 Y63.8700
G01 Z-1.7000
G01 Z0
G00 Z2.0000
G00 X49.5300 Y63.8700
G01 Z-1.7000
G01 Z0
G00 Z2.0000
G00 X49.5300 Y66.4100
G01 Z-1.7000
G01 Z0
G00 Z2.0000
G00 X39.3700 Y72.7600
G01 Z-1.7000
G01 Z0
G00 Z2.0000
G00 X36.8300 Y72.7600
G01 Z-1.7000
G01 Z0
G00 Z2.0000
G00 X34.2900 Y72.7600
G01 Z-1.7000
G01 Z0
G00 Z2.0000
G00 X31.7500 Y72.7600
G01 Z-1.7000
G01 Z0
G00 Z2.0000
G00 X24.1300 Y80.3800
G01 Z-1.7000
G01 Z0
G00 Z2.0000
G00 X26.6700 Y80.3800
G01 Z-1.7000
G01 Z0
G00 Z2.0000
G00 X29.2100 Y80.3800
G01 Z-1.7000
G01 Z0
G00 Z2.0000
G00 X31.7500 Y80.3800
G01 Z-1.7000
G01 Z0
G00 Z2.0000
G00 X34.2900 Y80.3800
G01 Z-1.7000
G01 Z0
G00 Z2.0000
G00 X34.2900 Y82.9200
G01 Z-1.7000
G01 Z0
G00 Z2.0000
G00 X36.8300 Y80.3800
G01 Z-1.7000
G01 Z0
G00 Z2.0000
G00 X39.3700 Y80.3800
G01 Z-1.7000
G01 Z0
G00 Z2.0000
G00 X43.1800 Y80.3800
G01 Z-1.7000
G01 Z0
G00 Z2.0000
G00 X53.3400 Y76.5700
G01 Z-1.7000
G01 Z0
G00 Z2.0000
G00 X55.8800 Y80.3800
G01 Z-1.7000
G01 Z0
G00 Z2.0000
G00 X66.0400 Y76.5700
G01 Z-1.7000
G01 Z0
G00 Z2.0000
G00 X68.5800 Y76.5700
G01 Z-1.7000
G01 Z0
G00 Z2.0000
G00 X71.1200 Y76.5700
G01 Z-1.7000
G01 Z0
G00 Z2.0000
G00 X73.6600 Y76.5700
G01 Z-1.7000
G01 Z0
G00 Z2.0000
G00 X76.2000 Y76.5700
G01 Z-1.7000
G01 Z0
G00 Z2.0000
G00 X78.7400 Y80.3800
G01 Z-1.7000
G01 Z0
G00 Z2.0000
G00 X78.7400 Y76.5700
G01 Z-1.7000
G01 Z0
G00 Z2.0000
G00 X81.2800 Y76.5700
G01 Z-1.7000
G01 Z0
G00 Z2.0000
G00 X83.8200 Y76.5700
G01 Z-1.7000
G01 Z0
G00 Z2.0000
G00 X87.6300 Y71.4900
G01 Z-1.7000
G01 Z0
G00 Z2.0000
G00 X87.6300 Y76.5700
G01 Z-1.7000
G01 Z0
G00 Z2.0000
G00 X91.4400 Y76.5700
G01 Z-1.7000
G01 Z0
G00 Z2.0000
G00 X93.9800 Y76.5700
G01 Z-1.7000
G01 Z0
G00 Z2.0000
G00 X106.6800 Y79.1100
G01 Z-1.7000
G01 Z0
G00 Z2.0000
G00 X120.6500 Y71.4900
G01 Z-1.7000
G01 Z0
G00 Z2.0000
G00 X120.6500 Y74.0300
G01 Z-1.7000
G01 Z0
G00 Z2.0000
G00 X120.6500 Y76.5700
G01 Z-1.7000
G01 Z0
G00 Z2.0000
G00 X120.6500 Y79.1100
G01 Z-1.7000
G01 Z0
G00 Z2.0000
G00 X120.6500 Y81.6500
G01 Z-1.7000
G01 Z0
G00 Z2.0000
G00 X120.6500 Y84.1900
G01 Z-1.7000
G01 Z0
G00 Z2.0000
G00 X128.2700 Y84.1900
G01 Z-1.7000
G01 Z0
G00 Z2.0000
G00 X128.2700 Y81.6500
G01 Z-1.7000
G01 Z0
G00 Z2.0000
G00 X128.2700 Y79.1100
G01 Z-1.7000
G01 Z0
G00 Z2.0000
G00 X128.2700 Y76.5700
G01 Z-1.7000
G01 Z0
G00 Z2.0000
G00 X128.2700 Y74.0300
G01 Z-1.7000
G01 Z0
G00 Z2.0000
G00 X128.2700 Y71.4900
G01 Z-1.7000
G01 Z0
G00 Z2.0000
G00 X135.8900 Y66.4100
G01 Z-1.7000
G01 Z0
G00 Z2.0000
G00 X130.8100 Y66.4100
G01 Z-1.7000
G01 Z0
G00 Z2.0000
M05
G00 Z0.50


