(G-CODE GENERATED BY FLATCAM v8.994 - www.flatcam.org - Version Date: 2020/11/7)

(Name: copper_bottom.gbr_iso_combined_cnc)
(Type: G-code from Geometry)
(Units: MM)

(Created on terça, 22 fevereiro 2022 at 11:29)

(This preprocessor is the default preprocessor used by FlatCAM.)
(It is made to work with MACH3 compatible motion controllers.)

(TOOL DIAMETER: 0.2161 mm)
(Feedrate_XY: 90.0 mm/min)
(Feedrate_Z: 60.0 mm/min)
(Feedrate rapids 1500.0 mm/min)

(Z_Cut: -0.03 mm)
(Z_Move: 3.0 mm)
(Z Start: None mm)
(Z End: 15.0 mm)
(X,Y End: None mm)
(Steps per circle: 64)
(Preprocessor Geometry: default)

(X range:    0.4160 ...  101.7240  mm)
(Y range:    0.2460 ...   86.2980  mm)

(Spindle Speed: 1000.0 RPM)
G21
G90
G94

G01 F90.00

M5
G00 Z15.0000
G00 X0.0000 Y0.0000
T1
M6    
(MSG, Change to Tool Dia = 0.2161)
M0
G00 Z15.0000

M03 S1000.0
G01 F90.00
G00 X0.7966 Y2.2116
G01 F60.00
G01 Z-0.0300
G01 F90.00
G01 X0.7490 Y2.1685
G01 X0.7433 Y2.1629
G01 X0.6746 Y2.0871
G01 X0.6694 Y2.0810
G01 X0.6054 Y1.9945
G01 X0.5513 Y1.9045
G01 X0.5475 Y1.8975
G01 X0.5015 Y1.8002
G01 X0.4644 Y1.6963
G01 X0.4375 Y1.5893
G01 X0.4220 Y1.4854
G01 X0.4211 Y1.4775
G01 X0.4160 Y1.3700
G01 X0.4214 Y1.2598
G01 X0.4375 Y1.1507
G01 X0.4644 Y1.0437
G01 X0.5015 Y0.9398
G01 X0.5487 Y0.8401
G01 X0.6054 Y0.7455
G01 X0.6678 Y0.6611
G01 X0.6728 Y0.6549
G01 X0.7452 Y0.5752
G01 X0.8269 Y0.5011
G01 X0.9155 Y0.4354
G01 X1.0101 Y0.3787
G01 X1.1098 Y0.3315
G01 X1.2137 Y0.2944
G01 X1.3207 Y0.2675
G01 X1.4298 Y0.2514
G01 X1.5400 Y0.2460
G01 X1.6502 Y0.2514
G01 X1.7593 Y0.2675
G01 X1.8663 Y0.2944
G01 X1.9702 Y0.3315
G01 X2.0699 Y0.3787
G01 X2.1645 Y0.4354
G01 X2.2489 Y0.4978
G01 X2.2551 Y0.5028
G01 X2.3348 Y0.5752
G01 X2.4054 Y0.6529
G01 X2.4122 Y0.6611
G01 X2.4746 Y0.7455
G01 X2.5287 Y0.8355
G01 X2.5337 Y0.8449
G01 X2.5763 Y0.9350
G01 X2.5804 Y0.9448
G01 X2.6156 Y1.0437
G01 X2.6425 Y1.1507
G01 X2.6586 Y1.2598
G01 X2.6640 Y1.3700
G01 X2.6586 Y1.4802
G01 X2.6425 Y1.5893
G01 X2.6156 Y1.6963
G01 X2.5804 Y1.7952
G01 X2.5774 Y1.8026
G01 X2.5313 Y1.8999
G01 X2.4775 Y1.9900
G01 X2.4731 Y1.9967
G01 X2.4122 Y2.0789
G01 X2.4072 Y2.0851
G01 X2.3348 Y2.1648
G01 X2.2834 Y2.2116
G01 X2.2834 Y79.3666
G01 X83.3466 Y79.3666
G01 X83.3466 Y50.3734
G01 X77.2134 Y50.3734
G01 X77.2134 Y54.3642
G01 X77.2607 Y54.4167
G01 X77.3205 Y54.4973
G01 X77.3721 Y54.5834
G01 X77.4140 Y54.6717
G01 X77.4170 Y54.6791
G01 X77.4472 Y54.7636
G01 X77.4503 Y54.7738
G01 X77.4733 Y54.8660
G01 X77.4880 Y54.9653
G01 X77.4929 Y55.0656
G01 X77.4929 Y56.8971
G01 X77.4884 Y56.9894
G01 X77.4873 Y56.9999
G01 X77.4733 Y57.0940
G01 X77.4503 Y57.1862
G01 X77.4472 Y57.1964
G01 X77.4150 Y57.2858
G01 X77.3745 Y57.3719
G01 X77.3695 Y57.3812
G01 X77.3205 Y57.4627
G01 X77.2640 Y57.5391
G01 X77.2573 Y57.5473
G01 X77.1933 Y57.6177
G01 X77.1229 Y57.6817
G01 X77.1147 Y57.6884
G01 X77.0383 Y57.7449
G01 X76.9545 Y57.7952
G01 X76.9475 Y57.7989
G01 X76.8614 Y57.8394
G01 X76.7669 Y57.8733
G01 X76.6696 Y57.8977
G01 X76.5703 Y57.9124
G01 X76.4700 Y57.9173
G01 X76.3697 Y57.9124
G01 X76.2704 Y57.8977
G01 X76.1731 Y57.8733
G01 X76.0786 Y57.8394
G01 X75.9878 Y57.7965
G01 X75.9017 Y57.7449
G01 X75.8211 Y57.6851
G01 X75.7467 Y57.6177
G01 X75.6793 Y57.5433
G01 X75.6195 Y57.4627
G01 X75.5692 Y57.3789
G01 X75.5655 Y57.3719
G01 X75.5250 Y57.2858
G01 X75.4911 Y57.1913
G01 X75.4667 Y57.0940
G01 X75.4527 Y56.9999
G01 X75.4516 Y56.9894
G01 X75.4471 Y56.8944
G01 X75.4471 Y55.0629
G01 X75.4520 Y54.9653
G01 X75.4667 Y54.8660
G01 X75.4911 Y54.7687
G01 X75.5250 Y54.6742
G01 X75.5679 Y54.5834
G01 X75.6195 Y54.4973
G01 X75.6793 Y54.4167
G01 X75.7266 Y54.3642
G01 X75.7266 Y49.6300
G01 X75.7302 Y49.5571
G01 X75.7409 Y49.4850
G01 X75.7586 Y49.4142
G01 X75.7832 Y49.3455
G01 X75.8120 Y49.2843
G01 X75.8170 Y49.2750
G01 X75.8491 Y49.2215
G01 X75.8550 Y49.2127
G01 X75.8954 Y49.1584
G01 X75.9407 Y49.1082
G01 X75.9482 Y49.1007
G01 X75.9984 Y49.0554
G01 X76.0548 Y49.0134
G01 X76.0615 Y49.0091
G01 X76.1150 Y48.9770
G01 X76.1243 Y48.9720
G01 X76.1855 Y48.9432
G01 X76.2542 Y48.9186
G01 X76.3198 Y48.9021
G01 X76.3302 Y48.9000
G01 X76.3971 Y48.8902
G01 X76.4673 Y48.8867
G01 X84.0927 Y48.8867
G01 X84.1629 Y48.8902
G01 X84.2350 Y48.9009
G01 X84.3058 Y48.9186
G01 X84.3745 Y48.9432
G01 X84.4404 Y48.9744
G01 X84.5030 Y49.0119
G01 X84.5616 Y49.0554
G01 X84.6156 Y49.1044
G01 X84.6646 Y49.1584
G01 X84.7081 Y49.2170
G01 X84.7456 Y49.2796
G01 X84.7768 Y49.3455
G01 X84.8014 Y49.4142
G01 X84.8191 Y49.4850
G01 X84.8298 Y49.5571
G01 X84.8333 Y49.6273
G01 X84.8334 Y80.1100
G01 X84.8298 Y80.1829
G01 X84.8191 Y80.2550
G01 X84.8014 Y80.3258
G01 X84.7768 Y80.3945
G01 X84.7456 Y80.4604
G01 X84.7081 Y80.5230
G01 X84.6646 Y80.5816
G01 X84.6175 Y80.6337
G01 X84.6118 Y80.6393
G01 X84.5616 Y80.6846
G01 X84.5030 Y80.7281
G01 X84.4404 Y80.7656
G01 X84.3745 Y80.7968
G01 X84.3058 Y80.8214
G01 X84.2350 Y80.8391
G01 X84.1629 Y80.8498
G01 X84.0900 Y80.8534
G01 X1.5400 Y80.8534
G01 X1.4671 Y80.8498
G01 X1.3950 Y80.8391
G01 X1.3242 Y80.8214
G01 X1.2555 Y80.7968
G01 X1.1896 Y80.7656
G01 X1.1270 Y80.7281
G01 X1.0684 Y80.6846
G01 X1.0163 Y80.6375
G01 X1.0107 Y80.6318
G01 X0.9654 Y80.5816
G01 X0.9219 Y80.5230
G01 X0.8844 Y80.4604
G01 X0.8532 Y80.3945
G01 X0.8286 Y80.3258
G01 X0.8109 Y80.2550
G01 X0.8002 Y80.1829
G01 X0.7966 Y80.1100
G01 X0.7966 Y2.2116
G00 Z3.0000
G00 X3.3366 Y2.2116
G01 F60.00
G01 Z-0.0300
G01 F90.00
G01 X3.2890 Y2.1685
G01 X3.2833 Y2.1629
G01 X3.2146 Y2.0871
G01 X3.2094 Y2.0810
G01 X3.1454 Y1.9945
G01 X3.0913 Y1.9045
G01 X3.0875 Y1.8975
G01 X3.0415 Y1.8002
G01 X3.0044 Y1.6963
G01 X2.9775 Y1.5893
G01 X2.9620 Y1.4854
G01 X2.9611 Y1.4775
G01 X2.9560 Y1.3700
G01 X2.9614 Y1.2598
G01 X2.9775 Y1.1507
G01 X3.0044 Y1.0437
G01 X3.0415 Y0.9398
G01 X3.0887 Y0.8401
G01 X3.1454 Y0.7455
G01 X3.2078 Y0.6611
G01 X3.2128 Y0.6549
G01 X3.2852 Y0.5752
G01 X3.3669 Y0.5011
G01 X3.4555 Y0.4354
G01 X3.5501 Y0.3787
G01 X3.6498 Y0.3315
G01 X3.7537 Y0.2944
G01 X3.8607 Y0.2675
G01 X3.9698 Y0.2514
G01 X4.0800 Y0.2460
G01 X4.1902 Y0.2514
G01 X4.2993 Y0.2675
G01 X4.4063 Y0.2944
G01 X4.5102 Y0.3315
G01 X4.6099 Y0.3787
G01 X4.7045 Y0.4354
G01 X4.7889 Y0.4978
G01 X4.7951 Y0.5028
G01 X4.8748 Y0.5752
G01 X4.9454 Y0.6529
G01 X4.9522 Y0.6611
G01 X5.0116 Y0.7412
G01 X5.0175 Y0.7500
G01 X5.0713 Y0.8401
G01 X5.1163 Y0.9350
G01 X5.1204 Y0.9448
G01 X5.1556 Y1.0437
G01 X5.1825 Y1.1507
G01 X5.1986 Y1.2598
G01 X5.2040 Y1.3700
G01 X5.1986 Y1.4802
G01 X5.1825 Y1.5893
G01 X5.1556 Y1.6963
G01 X5.1204 Y1.7952
G01 X5.1174 Y1.8026
G01 X5.0713 Y1.8999
G01 X5.0175 Y1.9900
G01 X5.0131 Y1.9967
G01 X4.9522 Y2.0789
G01 X4.9472 Y2.0851
G01 X4.8748 Y2.1648
G01 X4.8234 Y2.2116
G01 X4.8234 Y76.8266
G01 X75.7266 Y76.8266
G01 X75.7266 Y65.2158
G01 X75.6793 Y65.1633
G01 X75.6195 Y65.0827
G01 X75.5679 Y64.9966
G01 X75.5260 Y64.9083
G01 X75.5230 Y64.9009
G01 X75.4928 Y64.8164
G01 X75.4897 Y64.8062
G01 X75.4667 Y64.7140
G01 X75.4520 Y64.6147
G01 X75.4471 Y64.5144
G01 X75.4471 Y62.6856
G01 X75.4516 Y62.5906
G01 X75.4527 Y62.5801
G01 X75.4667 Y62.4860
G01 X75.4911 Y62.3887
G01 X75.5250 Y62.2942
G01 X75.5655 Y62.2081
G01 X75.5705 Y62.1988
G01 X75.6166 Y62.1218
G01 X75.6225 Y62.1130
G01 X75.6793 Y62.0367
G01 X75.7430 Y61.9661
G01 X75.7505 Y61.9586
G01 X75.8211 Y61.8949
G01 X75.9017 Y61.8351
G01 X75.9878 Y61.7835
G01 X76.0786 Y61.7406
G01 X76.1731 Y61.7067
G01 X76.2704 Y61.6823
G01 X76.3697 Y61.6676
G01 X76.4647 Y61.6628
G01 X76.4727 Y61.6627
G01 X76.5703 Y61.6676
G01 X76.6696 Y61.6823
G01 X76.7669 Y61.7067
G01 X76.8614 Y61.7406
G01 X76.9522 Y61.7835
G01 X77.0383 Y61.8351
G01 X77.1189 Y61.8949
G01 X77.1933 Y61.9623
G01 X77.2607 Y62.0367
G01 X77.3205 Y62.1173
G01 X77.3721 Y62.2034
G01 X77.4150 Y62.2942
G01 X77.4489 Y62.3887
G01 X77.4733 Y62.4860
G01 X77.4880 Y62.5853
G01 X77.4929 Y62.6829
G01 X77.4929 Y64.5144
G01 X77.4880 Y64.6147
G01 X77.4733 Y64.7140
G01 X77.4503 Y64.8062
G01 X77.4472 Y64.8164
G01 X77.4170 Y64.9009
G01 X77.4140 Y64.9083
G01 X77.3721 Y64.9966
G01 X77.3205 Y65.0827
G01 X77.2607 Y65.1633
G01 X77.2134 Y65.2158
G01 X77.2133 Y77.5727
G01 X77.2098 Y77.6429
G01 X77.1991 Y77.7150
G01 X77.1814 Y77.7858
G01 X77.1568 Y77.8545
G01 X77.1256 Y77.9204
G01 X77.0881 Y77.9830
G01 X77.0446 Y78.0416
G01 X76.9993 Y78.0918
G01 X76.9937 Y78.0975
G01 X76.9416 Y78.1446
G01 X76.8830 Y78.1881
G01 X76.8204 Y78.2256
G01 X76.7545 Y78.2568
G01 X76.6858 Y78.2814
G01 X76.6150 Y78.2991
G01 X76.5429 Y78.3098
G01 X76.4700 Y78.3134
G01 X4.0800 Y78.3134
G01 X4.0071 Y78.3098
G01 X3.9350 Y78.2991
G01 X3.8642 Y78.2814
G01 X3.7955 Y78.2568
G01 X3.7296 Y78.2256
G01 X3.6670 Y78.1881
G01 X3.6084 Y78.1446
G01 X3.5582 Y78.0993
G01 X3.5525 Y78.0937
G01 X3.5054 Y78.0416
G01 X3.4619 Y77.9830
G01 X3.4244 Y77.9204
G01 X3.3932 Y77.8545
G01 X3.3686 Y77.7858
G01 X3.3509 Y77.7150
G01 X3.3402 Y77.6429
G01 X3.3366 Y77.5700
G01 X3.3366 Y2.2116
G00 Z3.0000
G00 X5.8766 Y2.2116
G01 F60.00
G01 Z-0.0300
G01 F90.00
G01 X5.8290 Y2.1685
G01 X5.8233 Y2.1629
G01 X5.7546 Y2.0871
G01 X5.7494 Y2.0810
G01 X5.6854 Y1.9945
G01 X5.6313 Y1.9045
G01 X5.6275 Y1.8975
G01 X5.5815 Y1.8002
G01 X5.5444 Y1.6963
G01 X5.5175 Y1.5893
G01 X5.5020 Y1.4854
G01 X5.5011 Y1.4775
G01 X5.4960 Y1.3700
G01 X5.5014 Y1.2598
G01 X5.5175 Y1.1507
G01 X5.5444 Y1.0437
G01 X5.5815 Y0.9398
G01 X5.6287 Y0.8401
G01 X5.6854 Y0.7455
G01 X5.7478 Y0.6611
G01 X5.7528 Y0.6549
G01 X5.8252 Y0.5752
G01 X5.9069 Y0.5011
G01 X5.9955 Y0.4354
G01 X6.0901 Y0.3787
G01 X6.1898 Y0.3315
G01 X6.2937 Y0.2944
G01 X6.4007 Y0.2675
G01 X6.5098 Y0.2514
G01 X6.6200 Y0.2460
G01 X6.7302 Y0.2514
G01 X6.8393 Y0.2675
G01 X6.9463 Y0.2944
G01 X7.0502 Y0.3315
G01 X7.1499 Y0.3787
G01 X7.2445 Y0.4354
G01 X7.3289 Y0.4978
G01 X7.3351 Y0.5028
G01 X7.4148 Y0.5752
G01 X7.4854 Y0.6529
G01 X7.4922 Y0.6611
G01 X7.5546 Y0.7455
G01 X7.6087 Y0.8355
G01 X7.6137 Y0.8449
G01 X7.6563 Y0.9350
G01 X7.6604 Y0.9448
G01 X7.6956 Y1.0437
G01 X7.7225 Y1.1507
G01 X7.7386 Y1.2598
G01 X7.7440 Y1.3700
G01 X7.7386 Y1.4802
G01 X7.7225 Y1.5893
G01 X7.6956 Y1.6963
G01 X7.6604 Y1.7952
G01 X7.6574 Y1.8026
G01 X7.6113 Y1.8999
G01 X7.5575 Y1.9900
G01 X7.5531 Y1.9967
G01 X7.4922 Y2.0789
G01 X7.4872 Y2.0851
G01 X7.4148 Y2.1648
G01 X7.3634 Y2.2116
G01 X7.3634 Y74.2866
G01 X73.1866 Y74.2866
G01 X73.1866 Y65.2158
G01 X73.1393 Y65.1633
G01 X73.0795 Y65.0827
G01 X73.0279 Y64.9966
G01 X72.9860 Y64.9083
G01 X72.9830 Y64.9009
G01 X72.9528 Y64.8164
G01 X72.9497 Y64.8062
G01 X72.9267 Y64.7140
G01 X72.9120 Y64.6147
G01 X72.9071 Y64.5144
G01 X72.9071 Y62.6856
G01 X72.9116 Y62.5906
G01 X72.9127 Y62.5801
G01 X72.9267 Y62.4860
G01 X72.9511 Y62.3887
G01 X72.9850 Y62.2942
G01 X73.0255 Y62.2081
G01 X73.0305 Y62.1988
G01 X73.0766 Y62.1218
G01 X73.0825 Y62.1130
G01 X73.1393 Y62.0367
G01 X73.2030 Y61.9661
G01 X73.2105 Y61.9586
G01 X73.2811 Y61.8949
G01 X73.3617 Y61.8351
G01 X73.4478 Y61.7835
G01 X73.5386 Y61.7406
G01 X73.6331 Y61.7067
G01 X73.7304 Y61.6823
G01 X73.8297 Y61.6676
G01 X73.9247 Y61.6628
G01 X73.9327 Y61.6627
G01 X74.0303 Y61.6676
G01 X74.1296 Y61.6823
G01 X74.2269 Y61.7067
G01 X74.3214 Y61.7406
G01 X74.4122 Y61.7835
G01 X74.4983 Y61.8351
G01 X74.5789 Y61.8949
G01 X74.6533 Y61.9623
G01 X74.7207 Y62.0367
G01 X74.7805 Y62.1173
G01 X74.8321 Y62.2034
G01 X74.8750 Y62.2942
G01 X74.9089 Y62.3887
G01 X74.9333 Y62.4860
G01 X74.9480 Y62.5853
G01 X74.9528 Y62.6803
G01 X74.9529 Y64.5144
G01 X74.9480 Y64.6147
G01 X74.9333 Y64.7140
G01 X74.9103 Y64.8062
G01 X74.9072 Y64.8164
G01 X74.8770 Y64.9009
G01 X74.8740 Y64.9083
G01 X74.8321 Y64.9966
G01 X74.7805 Y65.0827
G01 X74.7207 Y65.1633
G01 X74.6734 Y65.2158
G01 X74.6732 Y75.0353
G01 X74.6698 Y75.1029
G01 X74.6591 Y75.1750
G01 X74.6414 Y75.2458
G01 X74.6168 Y75.3145
G01 X74.5856 Y75.3804
G01 X74.5481 Y75.4430
G01 X74.5046 Y75.5016
G01 X74.4593 Y75.5518
G01 X74.4537 Y75.5575
G01 X74.4016 Y75.6046
G01 X74.3430 Y75.6481
G01 X74.2804 Y75.6856
G01 X74.2145 Y75.7168
G01 X74.1458 Y75.7414
G01 X74.0750 Y75.7591
G01 X74.0029 Y75.7698
G01 X73.9300 Y75.7734
G01 X6.6200 Y75.7734
G01 X6.5471 Y75.7698
G01 X6.4750 Y75.7591
G01 X6.4042 Y75.7414
G01 X6.3355 Y75.7168
G01 X6.2696 Y75.6856
G01 X6.2070 Y75.6481
G01 X6.1484 Y75.6046
G01 X6.0982 Y75.5593
G01 X6.0925 Y75.5537
G01 X6.0454 Y75.5016
G01 X6.0019 Y75.4430
G01 X5.9644 Y75.3804
G01 X5.9332 Y75.3145
G01 X5.9086 Y75.2458
G01 X5.8909 Y75.1750
G01 X5.8802 Y75.1029
G01 X5.8766 Y75.0300
G01 X5.8766 Y2.2116
G00 Z3.0000
G00 X8.4166 Y2.2116
G01 F60.00
G01 Z-0.0300
G01 F90.00
G01 X8.3690 Y2.1685
G01 X8.3633 Y2.1629
G01 X8.2946 Y2.0871
G01 X8.2894 Y2.0810
G01 X8.2254 Y1.9945
G01 X8.1713 Y1.9045
G01 X8.1675 Y1.8975
G01 X8.1215 Y1.8002
G01 X8.0844 Y1.6963
G01 X8.0575 Y1.5893
G01 X8.0420 Y1.4854
G01 X8.0411 Y1.4775
G01 X8.0360 Y1.3700
G01 X8.0414 Y1.2598
G01 X8.0575 Y1.1507
G01 X8.0844 Y1.0437
G01 X8.1215 Y0.9398
G01 X8.1687 Y0.8401
G01 X8.2254 Y0.7455
G01 X8.2878 Y0.6611
G01 X8.2928 Y0.6549
G01 X8.3652 Y0.5752
G01 X8.4469 Y0.5011
G01 X8.5355 Y0.4354
G01 X8.6301 Y0.3787
G01 X8.7298 Y0.3315
G01 X8.8337 Y0.2944
G01 X8.9407 Y0.2675
G01 X9.0498 Y0.2514
G01 X9.1600 Y0.2460
G01 X9.2702 Y0.2514
G01 X9.3793 Y0.2675
G01 X9.4863 Y0.2944
G01 X9.5902 Y0.3315
G01 X9.6899 Y0.3787
G01 X9.7845 Y0.4354
G01 X9.8689 Y0.4978
G01 X9.8751 Y0.5028
G01 X9.9548 Y0.5752
G01 X10.0254 Y0.6529
G01 X10.0322 Y0.6611
G01 X10.0946 Y0.7455
G01 X10.1487 Y0.8355
G01 X10.1537 Y0.8449
G01 X10.1963 Y0.9350
G01 X10.2004 Y0.9448
G01 X10.2356 Y1.0437
G01 X10.2625 Y1.1507
G01 X10.2786 Y1.2598
G01 X10.2840 Y1.3700
G01 X10.2786 Y1.4802
G01 X10.2625 Y1.5893
G01 X10.2356 Y1.6963
G01 X10.2004 Y1.7952
G01 X10.1974 Y1.8026
G01 X10.1513 Y1.8999
G01 X10.0975 Y1.9900
G01 X10.0931 Y1.9967
G01 X10.0322 Y2.0789
G01 X10.0272 Y2.0851
G01 X9.9548 Y2.1648
G01 X9.9034 Y2.2116
G01 X9.9034 Y71.7466
G01 X52.7899 Y71.7466
G01 X52.8228 Y71.7103
G01 X52.8284 Y71.7046
G01 X52.9050 Y71.6352
G01 X52.9112 Y71.6302
G01 X52.9922 Y71.5702
G01 X52.9989 Y71.5659
G01 X53.0877 Y71.5128
G01 X53.1835 Y71.4673
G01 X53.1909 Y71.4644
G01 X53.2884 Y71.4297
G01 X53.3938 Y71.4032
G01 X53.5014 Y71.3873
G01 X53.6047 Y71.3821
G01 X53.6153 Y71.3821
G01 X53.7186 Y71.3873
G01 X53.8262 Y71.4032
G01 X53.9316 Y71.4297
G01 X54.0291 Y71.4644
G01 X54.0389 Y71.4684
G01 X54.1276 Y71.5104
G01 X54.1369 Y71.5154
G01 X54.2256 Y71.5687
G01 X54.3088 Y71.6302
G01 X54.3170 Y71.6369
G01 X54.3897 Y71.7028
G01 X54.3972 Y71.7103
G01 X54.4665 Y71.7871
G01 X54.5313 Y71.8744
G01 X54.5872 Y71.9677
G01 X54.6316 Y72.0611
G01 X54.6356 Y72.0709
G01 X54.6703 Y72.1684
G01 X54.6968 Y72.2738
G01 X54.7121 Y72.3761
G01 X54.7131 Y72.3867
G01 X54.7179 Y72.4847
G01 X54.7179 Y72.4953
G01 X54.7127 Y72.5986
G01 X54.6968 Y72.7062
G01 X54.6703 Y72.8116
G01 X54.6356 Y72.9091
G01 X54.6316 Y72.9189
G01 X54.5896 Y73.0076
G01 X54.5846 Y73.0169
G01 X54.5313 Y73.1056
G01 X54.4665 Y73.1929
G01 X54.3935 Y73.2735
G01 X54.3170 Y73.3431
G01 X54.3088 Y73.3498
G01 X54.2299 Y73.4083
G01 X54.2234 Y73.4128
G01 X54.1323 Y73.4672
G01 X54.0389 Y73.5116
G01 X54.0291 Y73.5156
G01 X53.9316 Y73.5503
G01 X53.8262 Y73.5768
G01 X53.7239 Y73.5921
G01 X53.7133 Y73.5931
G01 X53.6100 Y73.5980
G01 X53.5014 Y73.5927
G01 X53.3938 Y73.5768
G01 X53.2884 Y73.5503
G01 X53.1909 Y73.5156
G01 X53.1835 Y73.5127
G01 X53.0877 Y73.4672
G01 X52.9989 Y73.4141
G01 X52.9922 Y73.4098
G01 X52.9112 Y73.3498
G01 X52.9050 Y73.3448
G01 X52.8284 Y73.2754
G01 X52.8228 Y73.2697
G01 X52.7899 Y73.2334
G01 X9.1600 Y73.2334
G01 X9.0871 Y73.2298
G01 X9.0202 Y73.2200
G01 X9.0098 Y73.2179
G01 X8.9442 Y73.2014
G01 X8.8805 Y73.1787
G01 X8.8707 Y73.1746
G01 X8.8096 Y73.1456
G01 X8.7515 Y73.1109
G01 X8.7427 Y73.1050
G01 X8.6884 Y73.0646
G01 X8.6382 Y73.0193
G01 X8.6307 Y73.0118
G01 X8.5854 Y72.9616
G01 X8.5450 Y72.9073
G01 X8.5405 Y72.9008
G01 X8.5044 Y72.8404
G01 X8.4754 Y72.7793
G01 X8.4713 Y72.7695
G01 X8.4486 Y72.7058
G01 X8.4309 Y72.6350
G01 X8.4209 Y72.5681
G01 X8.4198 Y72.5576
G01 X8.4166 Y72.4900
G01 X8.4166 Y2.2116
G00 Z3.0000
G00 X10.9566 Y2.2116
G01 F60.00
G01 Z-0.0300
G01 F90.00
G01 X10.9090 Y2.1685
G01 X10.9033 Y2.1629
G01 X10.8346 Y2.0871
G01 X10.8294 Y2.0810
G01 X10.7654 Y1.9945
G01 X10.7113 Y1.9045
G01 X10.7075 Y1.8975
G01 X10.6615 Y1.8002
G01 X10.6244 Y1.6963
G01 X10.5975 Y1.5893
G01 X10.5820 Y1.4854
G01 X10.5811 Y1.4775
G01 X10.5760 Y1.3700
G01 X10.5814 Y1.2598
G01 X10.5975 Y1.1507
G01 X10.6244 Y1.0437
G01 X10.6615 Y0.9398
G01 X10.7087 Y0.8401
G01 X10.7654 Y0.7455
G01 X10.8278 Y0.6611
G01 X10.8328 Y0.6549
G01 X10.9052 Y0.5752
G01 X10.9869 Y0.5011
G01 X11.0755 Y0.4354
G01 X11.1701 Y0.3787
G01 X11.2698 Y0.3315
G01 X11.3737 Y0.2944
G01 X11.4807 Y0.2675
G01 X11.5898 Y0.2514
G01 X11.7000 Y0.2460
G01 X11.8102 Y0.2514
G01 X11.9193 Y0.2675
G01 X12.0263 Y0.2944
G01 X12.1302 Y0.3315
G01 X12.2299 Y0.3787
G01 X12.3245 Y0.4354
G01 X12.4089 Y0.4978
G01 X12.4151 Y0.5028
G01 X12.4948 Y0.5752
G01 X12.5654 Y0.6529
G01 X12.5722 Y0.6611
G01 X12.6346 Y0.7455
G01 X12.6887 Y0.8355
G01 X12.6937 Y0.8449
G01 X12.7363 Y0.9350
G01 X12.7404 Y0.9448
G01 X12.7756 Y1.0437
G01 X12.8025 Y1.1507
G01 X12.8186 Y1.2598
G01 X12.8240 Y1.3700
G01 X12.8186 Y1.4802
G01 X12.8025 Y1.5893
G01 X12.7756 Y1.6963
G01 X12.7404 Y1.7952
G01 X12.7374 Y1.8026
G01 X12.6913 Y1.8999
G01 X12.6375 Y1.9900
G01 X12.6331 Y1.9967
G01 X12.5722 Y2.0789
G01 X12.5672 Y2.0851
G01 X12.4948 Y2.1648
G01 X12.4434 Y2.2116
G01 X12.4434 Y50.1566
G01 X29.1342 Y50.1566
G01 X29.1867 Y50.1093
G01 X29.2673 Y50.0495
G01 X29.3534 Y49.9979
G01 X29.4417 Y49.9560
G01 X29.4491 Y49.9530
G01 X29.5336 Y49.9228
G01 X29.5438 Y49.9197
G01 X29.6360 Y49.8967
G01 X29.7353 Y49.8820
G01 X29.8356 Y49.8771
G01 X31.6644 Y49.8771
G01 X31.7620 Y49.8818
G01 X31.7699 Y49.8827
G01 X31.8640 Y49.8967
G01 X31.9562 Y49.9197
G01 X31.9664 Y49.9228
G01 X32.0509 Y49.9530
G01 X32.0607 Y49.9571
G01 X32.1466 Y49.9979
G01 X32.2327 Y50.0495
G01 X32.3133 Y50.1093
G01 X32.3839 Y50.1730
G01 X32.3914 Y50.1805
G01 X32.4517 Y50.2471
G01 X32.4584 Y50.2553
G01 X32.5149 Y50.3317
G01 X32.5665 Y50.4178
G01 X32.6094 Y50.5086
G01 X32.6416 Y50.5980
G01 X32.6447 Y50.6082
G01 X32.6665 Y50.6953
G01 X32.6686 Y50.7057
G01 X32.6824 Y50.7997
G01 X32.6873 Y50.9000
G01 X32.6824 Y51.0003
G01 X32.6686 Y51.0943
G01 X32.6665 Y51.1047
G01 X32.6447 Y51.1918
G01 X32.6416 Y51.2020
G01 X32.6094 Y51.2914
G01 X32.5665 Y51.3822
G01 X32.5149 Y51.4683
G01 X32.4584 Y51.5447
G01 X32.4517 Y51.5529
G01 X32.3914 Y51.6195
G01 X32.3839 Y51.6270
G01 X32.3133 Y51.6907
G01 X32.2327 Y51.7505
G01 X32.1466 Y51.8021
G01 X32.0558 Y51.8450
G01 X31.9613 Y51.8789
G01 X31.8640 Y51.9033
G01 X31.7647 Y51.9180
G01 X31.6671 Y51.9229
G01 X29.8356 Y51.9229
G01 X29.7380 Y51.9182
G01 X29.7301 Y51.9173
G01 X29.6413 Y51.9042
G01 X29.6309 Y51.9021
G01 X29.5387 Y51.8789
G01 X29.4491 Y51.8470
G01 X29.4417 Y51.8440
G01 X29.3534 Y51.8021
G01 X29.2673 Y51.7505
G01 X29.1867 Y51.6907
G01 X29.1342 Y51.6434
G01 X11.6973 Y51.6433
G01 X11.6271 Y51.6398
G01 X11.5602 Y51.6300
G01 X11.5498 Y51.6279
G01 X11.4842 Y51.6114
G01 X11.4155 Y51.5868
G01 X11.3543 Y51.5580
G01 X11.3450 Y51.5530
G01 X11.2870 Y51.5181
G01 X11.2284 Y51.4746
G01 X11.1782 Y51.4293
G01 X11.1707 Y51.4218
G01 X11.1254 Y51.3716
G01 X11.0850 Y51.3173
G01 X11.0791 Y51.3085
G01 X11.0444 Y51.2504
G01 X11.0132 Y51.1845
G01 X10.9886 Y51.1158
G01 X10.9709 Y51.0450
G01 X10.9602 Y50.9729
G01 X10.9566 Y50.9000
G01 X10.9566 Y2.2116
G00 Z3.0000
G00 X13.4966 Y2.2116
G01 F60.00
G01 Z-0.0300
G01 F90.00
G01 X13.4490 Y2.1685
G01 X13.4433 Y2.1629
G01 X13.3746 Y2.0871
G01 X13.3694 Y2.0810
G01 X13.3054 Y1.9945
G01 X13.2513 Y1.9045
G01 X13.2475 Y1.8975
G01 X13.2015 Y1.8002
G01 X13.1644 Y1.6963
G01 X13.1375 Y1.5893
G01 X13.1220 Y1.4854
G01 X13.1211 Y1.4775
G01 X13.1160 Y1.3700
G01 X13.1214 Y1.2598
G01 X13.1375 Y1.1507
G01 X13.1644 Y1.0437
G01 X13.2015 Y0.9398
G01 X13.2487 Y0.8401
G01 X13.3054 Y0.7455
G01 X13.3678 Y0.6611
G01 X13.3728 Y0.6549
G01 X13.4452 Y0.5752
G01 X13.5269 Y0.5011
G01 X13.6155 Y0.4354
G01 X13.7101 Y0.3787
G01 X13.8098 Y0.3315
G01 X13.9137 Y0.2944
G01 X14.0207 Y0.2675
G01 X14.1298 Y0.2514
G01 X14.2400 Y0.2460
G01 X14.3502 Y0.2514
G01 X14.4593 Y0.2675
G01 X14.5663 Y0.2944
G01 X14.6702 Y0.3315
G01 X14.7699 Y0.3787
G01 X14.8645 Y0.4354
G01 X14.9489 Y0.4978
G01 X14.9551 Y0.5028
G01 X15.0348 Y0.5752
G01 X15.1054 Y0.6529
G01 X15.1122 Y0.6611
G01 X15.1746 Y0.7455
G01 X15.2287 Y0.8355
G01 X15.2337 Y0.8449
G01 X15.2763 Y0.9350
G01 X15.2804 Y0.9448
G01 X15.3156 Y1.0437
G01 X15.3425 Y1.1507
G01 X15.3586 Y1.2598
G01 X15.3640 Y1.3700
G01 X15.3586 Y1.4802
G01 X15.3425 Y1.5893
G01 X15.3156 Y1.6963
G01 X15.2804 Y1.7952
G01 X15.2774 Y1.8026
G01 X15.2313 Y1.8999
G01 X15.1775 Y1.9900
G01 X15.1731 Y1.9967
G01 X15.1122 Y2.0789
G01 X15.1072 Y2.0851
G01 X15.0348 Y2.1648
G01 X14.9834 Y2.2116
G01 X14.9834 Y45.0766
G01 X29.1342 Y45.0766
G01 X29.1867 Y45.0293
G01 X29.2673 Y44.9695
G01 X29.3534 Y44.9179
G01 X29.4417 Y44.8760
G01 X29.4491 Y44.8730
G01 X29.5336 Y44.8428
G01 X29.5438 Y44.8397
G01 X29.6360 Y44.8167
G01 X29.7353 Y44.8020
G01 X29.8356 Y44.7971
G01 X31.6644 Y44.7971
G01 X31.7647 Y44.8020
G01 X31.8640 Y44.8167
G01 X31.9562 Y44.8397
G01 X31.9664 Y44.8428
G01 X32.0509 Y44.8730
G01 X32.0607 Y44.8771
G01 X32.1466 Y44.9179
G01 X32.2327 Y44.9695
G01 X32.3133 Y45.0293
G01 X32.3877 Y45.0967
G01 X32.4551 Y45.1711
G01 X32.5119 Y45.2474
G01 X32.5178 Y45.2562
G01 X32.5639 Y45.3332
G01 X32.5689 Y45.3425
G01 X32.6094 Y45.4286
G01 X32.6433 Y45.5231
G01 X32.6677 Y45.6204
G01 X32.6817 Y45.7145
G01 X32.6828 Y45.7250
G01 X32.6872 Y45.8147
G01 X32.6872 Y45.8253
G01 X32.6824 Y45.9203
G01 X32.6677 Y46.0196
G01 X32.6433 Y46.1169
G01 X32.6114 Y46.2065
G01 X32.6073 Y46.2163
G01 X32.5689 Y46.2975
G01 X32.5639 Y46.3068
G01 X32.5149 Y46.3883
G01 X32.4551 Y46.4689
G01 X32.3877 Y46.5433
G01 X32.3173 Y46.6073
G01 X32.3091 Y46.6140
G01 X32.2370 Y46.6675
G01 X32.2282 Y46.6734
G01 X32.1466 Y46.7221
G01 X32.0558 Y46.7650
G01 X31.9613 Y46.7989
G01 X31.8640 Y46.8233
G01 X31.7647 Y46.8380
G01 X31.6671 Y46.8429
G01 X29.8356 Y46.8429
G01 X29.7380 Y46.8382
G01 X29.7301 Y46.8373
G01 X29.6413 Y46.8242
G01 X29.6309 Y46.8221
G01 X29.5387 Y46.7989
G01 X29.4491 Y46.7670
G01 X29.4417 Y46.7640
G01 X29.3534 Y46.7221
G01 X29.2673 Y46.6705
G01 X29.1867 Y46.6107
G01 X29.1342 Y46.5634
G01 X14.2373 Y46.5633
G01 X14.1671 Y46.5598
G01 X14.1002 Y46.5500
G01 X14.0898 Y46.5479
G01 X14.0242 Y46.5314
G01 X13.9555 Y46.5068
G01 X13.9010 Y46.4811
G01 X13.8873 Y46.4743
G01 X13.8270 Y46.4381
G01 X13.7726 Y46.3979
G01 X13.7644 Y46.3912
G01 X13.7144 Y46.3456
G01 X13.6654 Y46.2916
G01 X13.6250 Y46.2373
G01 X13.6191 Y46.2285
G01 X13.5844 Y46.1704
G01 X13.5532 Y46.1045
G01 X13.5286 Y46.0358
G01 X13.5109 Y45.9650
G01 X13.5002 Y45.8929
G01 X13.4966 Y45.8200
G01 X13.4966 Y2.2116
G00 Z3.0000
G00 X16.0366 Y2.2116
G01 F60.00
G01 Z-0.0300
G01 F90.00
G01 X15.9890 Y2.1685
G01 X15.9833 Y2.1629
G01 X15.9146 Y2.0871
G01 X15.9094 Y2.0810
G01 X15.8454 Y1.9945
G01 X15.7913 Y1.9045
G01 X15.7875 Y1.8975
G01 X15.7415 Y1.8002
G01 X15.7044 Y1.6963
G01 X15.6775 Y1.5893
G01 X15.6620 Y1.4854
G01 X15.6611 Y1.4775
G01 X15.6560 Y1.3700
G01 X15.6614 Y1.2598
G01 X15.6775 Y1.1507
G01 X15.7044 Y1.0437
G01 X15.7415 Y0.9398
G01 X15.7887 Y0.8401
G01 X15.8454 Y0.7455
G01 X15.9078 Y0.6611
G01 X15.9128 Y0.6549
G01 X15.9852 Y0.5752
G01 X16.0669 Y0.5011
G01 X16.1555 Y0.4354
G01 X16.2501 Y0.3787
G01 X16.3498 Y0.3315
G01 X16.4537 Y0.2944
G01 X16.5607 Y0.2675
G01 X16.6698 Y0.2514
G01 X16.7800 Y0.2460
G01 X16.8902 Y0.2514
G01 X16.9993 Y0.2675
G01 X17.1063 Y0.2944
G01 X17.2102 Y0.3315
G01 X17.3099 Y0.3787
G01 X17.4045 Y0.4354
G01 X17.4889 Y0.4978
G01 X17.4951 Y0.5028
G01 X17.5748 Y0.5752
G01 X17.6454 Y0.6529
G01 X17.6522 Y0.6611
G01 X17.7146 Y0.7455
G01 X17.7687 Y0.8355
G01 X17.7737 Y0.8449
G01 X17.8163 Y0.9350
G01 X17.8204 Y0.9448
G01 X17.8556 Y1.0437
G01 X17.8825 Y1.1507
G01 X17.8986 Y1.2598
G01 X17.9040 Y1.3700
G01 X17.8986 Y1.4802
G01 X17.8825 Y1.5893
G01 X17.8556 Y1.6963
G01 X17.8204 Y1.7952
G01 X17.8174 Y1.8026
G01 X17.7713 Y1.8999
G01 X17.7175 Y1.9900
G01 X17.7131 Y1.9967
G01 X17.6522 Y2.0789
G01 X17.6472 Y2.0851
G01 X17.5748 Y2.1648
G01 X17.5234 Y2.2116
G01 X17.5234 Y42.4599
G01 X17.5597 Y42.4928
G01 X17.5654 Y42.4984
G01 X17.6348 Y42.5750
G01 X17.6398 Y42.5812
G01 X17.6998 Y42.6622
G01 X17.7041 Y42.6689
G01 X17.7572 Y42.7577
G01 X17.8027 Y42.8535
G01 X17.8056 Y42.8609
G01 X17.8403 Y42.9584
G01 X17.8668 Y43.0638
G01 X17.8827 Y43.1714
G01 X17.8879 Y43.2747
G01 X17.8880 Y43.2827
G01 X17.8827 Y43.3886
G01 X17.8668 Y43.4962
G01 X17.8403 Y43.6016
G01 X17.8037 Y43.7040
G01 X17.7572 Y43.8023
G01 X17.7013 Y43.8956
G01 X17.6365 Y43.9829
G01 X17.5635 Y44.0635
G01 X17.4829 Y44.1365
G01 X17.3956 Y44.2013
G01 X17.3023 Y44.2572
G01 X17.2040 Y44.3037
G01 X17.1016 Y44.3403
G01 X16.9962 Y44.3668
G01 X16.8886 Y44.3827
G01 X16.7827 Y44.3880
G01 X16.7747 Y44.3879
G01 X16.6714 Y44.3827
G01 X16.5638 Y44.3668
G01 X16.4584 Y44.3403
G01 X16.3560 Y44.3037
G01 X16.2577 Y44.2572
G01 X16.1644 Y44.2013
G01 X16.0771 Y44.1365
G01 X15.9965 Y44.0635
G01 X15.9235 Y43.9829
G01 X15.8587 Y43.8956
G01 X15.8028 Y43.8023
G01 X15.7563 Y43.7040
G01 X15.7197 Y43.6016
G01 X15.6932 Y43.4962
G01 X15.6773 Y43.3886
G01 X15.6720 Y43.2827
G01 X15.6721 Y43.2747
G01 X15.6773 Y43.1714
G01 X15.6932 Y43.0638
G01 X15.7197 Y42.9584
G01 X15.7544 Y42.8609
G01 X15.7573 Y42.8535
G01 X15.8028 Y42.7577
G01 X15.8559 Y42.6689
G01 X15.8602 Y42.6622
G01 X15.9202 Y42.5812
G01 X15.9252 Y42.5750
G01 X15.9946 Y42.4984
G01 X16.0003 Y42.4928
G01 X16.0366 Y42.4599
G01 X16.0366 Y2.2116
G00 Z3.0000
G00 X18.5766 Y2.2116
G01 F60.00
G01 Z-0.0300
G01 F90.00
G01 X18.5290 Y2.1685
G01 X18.5233 Y2.1629
G01 X18.4546 Y2.0871
G01 X18.4494 Y2.0810
G01 X18.3854 Y1.9945
G01 X18.3313 Y1.9045
G01 X18.3275 Y1.8975
G01 X18.2815 Y1.8002
G01 X18.2444 Y1.6963
G01 X18.2175 Y1.5893
G01 X18.2020 Y1.4854
G01 X18.2011 Y1.4775
G01 X18.1960 Y1.3700
G01 X18.2014 Y1.2598
G01 X18.2175 Y1.1507
G01 X18.2444 Y1.0437
G01 X18.2815 Y0.9398
G01 X18.3287 Y0.8401
G01 X18.3854 Y0.7455
G01 X18.4478 Y0.6611
G01 X18.4528 Y0.6549
G01 X18.5252 Y0.5752
G01 X18.6069 Y0.5011
G01 X18.6955 Y0.4354
G01 X18.7901 Y0.3787
G01 X18.8898 Y0.3315
G01 X18.9937 Y0.2944
G01 X19.1007 Y0.2675
G01 X19.2098 Y0.2514
G01 X19.3200 Y0.2460
G01 X19.4302 Y0.2514
G01 X19.5393 Y0.2675
G01 X19.6463 Y0.2944
G01 X19.7502 Y0.3315
G01 X19.8499 Y0.3787
G01 X19.9445 Y0.4354
G01 X20.0289 Y0.4978
G01 X20.0351 Y0.5028
G01 X20.1148 Y0.5752
G01 X20.1854 Y0.6529
G01 X20.1922 Y0.6611
G01 X20.2546 Y0.7455
G01 X20.3087 Y0.8355
G01 X20.3137 Y0.8449
G01 X20.3563 Y0.9350
G01 X20.3604 Y0.9448
G01 X20.3956 Y1.0437
G01 X20.4225 Y1.1507
G01 X20.4386 Y1.2598
G01 X20.4440 Y1.3700
G01 X20.4386 Y1.4802
G01 X20.4225 Y1.5893
G01 X20.3956 Y1.6963
G01 X20.3604 Y1.7952
G01 X20.3574 Y1.8026
G01 X20.3113 Y1.8999
G01 X20.2575 Y1.9900
G01 X20.2531 Y1.9967
G01 X20.1922 Y2.0789
G01 X20.1872 Y2.0851
G01 X20.1148 Y2.1648
G01 X20.0634 Y2.2116
G01 X20.0634 Y42.4599
G01 X20.0997 Y42.4928
G01 X20.1054 Y42.4984
G01 X20.1748 Y42.5750
G01 X20.1798 Y42.5812
G01 X20.2398 Y42.6622
G01 X20.2441 Y42.6689
G01 X20.2972 Y42.7577
G01 X20.3427 Y42.8535
G01 X20.3456 Y42.8609
G01 X20.3803 Y42.9584
G01 X20.4068 Y43.0638
G01 X20.4227 Y43.1714
G01 X20.4279 Y43.2747
G01 X20.4280 Y43.2827
G01 X20.4227 Y43.3886
G01 X20.4068 Y43.4962
G01 X20.3803 Y43.6016
G01 X20.3437 Y43.7040
G01 X20.2972 Y43.8023
G01 X20.2413 Y43.8956
G01 X20.1765 Y43.9829
G01 X20.1035 Y44.0635
G01 X20.0229 Y44.1365
G01 X19.9356 Y44.2013
G01 X19.8423 Y44.2572
G01 X19.7440 Y44.3037
G01 X19.6416 Y44.3403
G01 X19.5362 Y44.3668
G01 X19.4286 Y44.3827
G01 X19.3227 Y44.3880
G01 X19.3147 Y44.3879
G01 X19.2114 Y44.3827
G01 X19.1038 Y44.3668
G01 X18.9984 Y44.3403
G01 X18.8960 Y44.3037
G01 X18.7977 Y44.2572
G01 X18.7044 Y44.2013
G01 X18.6171 Y44.1365
G01 X18.5365 Y44.0635
G01 X18.4635 Y43.9829
G01 X18.3987 Y43.8956
G01 X18.3428 Y43.8023
G01 X18.2963 Y43.7040
G01 X18.2597 Y43.6016
G01 X18.2332 Y43.4962
G01 X18.2173 Y43.3886
G01 X18.2120 Y43.2827
G01 X18.2121 Y43.2747
G01 X18.2173 Y43.1714
G01 X18.2332 Y43.0638
G01 X18.2597 Y42.9584
G01 X18.2944 Y42.8609
G01 X18.2973 Y42.8535
G01 X18.3428 Y42.7577
G01 X18.3959 Y42.6689
G01 X18.4002 Y42.6622
G01 X18.4602 Y42.5812
G01 X18.4652 Y42.5750
G01 X18.5346 Y42.4984
G01 X18.5403 Y42.4928
G01 X18.5766 Y42.4599
G01 X18.5766 Y2.2116
G00 Z3.0000
G00 X21.2076 Y2.2841
G01 F60.00
G01 Z-0.0300
G01 F90.00
G01 X21.1469 Y2.2389
G01 X21.0690 Y2.1685
G01 X21.0633 Y2.1629
G01 X20.9911 Y2.0831
G01 X20.9284 Y1.9988
G01 X20.9239 Y1.9923
G01 X20.8687 Y1.8999
G01 X20.8215 Y1.8002
G01 X20.7844 Y1.6963
G01 X20.7587 Y1.5945
G01 X20.7571 Y1.5867
G01 X20.7414 Y1.4802
G01 X20.7360 Y1.3700
G01 X20.7414 Y1.2598
G01 X20.7575 Y1.1507
G01 X20.7844 Y1.0437
G01 X20.8215 Y0.9398
G01 X20.8687 Y0.8401
G01 X20.9225 Y0.7500
G01 X20.9269 Y0.7433
G01 X20.9911 Y0.6569
G01 X21.0652 Y0.5752
G01 X21.1469 Y0.5011
G01 X21.2355 Y0.4354
G01 X21.3301 Y0.3787
G01 X21.4298 Y0.3315
G01 X21.5337 Y0.2944
G01 X21.6407 Y0.2675
G01 X21.7498 Y0.2514
G01 X21.8600 Y0.2460
G01 X21.9702 Y0.2514
G01 X22.0793 Y0.2675
G01 X22.1863 Y0.2944
G01 X22.2902 Y0.3315
G01 X22.3899 Y0.3787
G01 X22.4800 Y0.4325
G01 X22.4867 Y0.4369
G01 X22.5689 Y0.4978
G01 X22.5771 Y0.5046
G01 X22.6548 Y0.5752
G01 X22.7254 Y0.6529
G01 X22.7322 Y0.6611
G01 X22.7946 Y0.7455
G01 X22.8513 Y0.8401
G01 X22.8985 Y0.9398
G01 X22.9340 Y1.0387
G01 X22.9371 Y1.0488
G01 X22.9625 Y1.1507
G01 X22.9780 Y1.2546
G01 X22.9790 Y1.2651
G01 X22.9840 Y1.3700
G01 X22.9786 Y1.4802
G01 X22.9634 Y1.5841
G01 X22.9613 Y1.5945
G01 X22.9356 Y1.6963
G01 X22.9004 Y1.7952
G01 X22.8963 Y1.8050
G01 X22.8525 Y1.8975
G01 X22.8487 Y1.9045
G01 X22.7946 Y1.9945
G01 X22.7322 Y2.0789
G01 X22.7272 Y2.0851
G01 X22.6585 Y2.1610
G01 X22.6510 Y2.1685
G01 X22.5731 Y2.2389
G01 X22.5124 Y2.2841
G01 X22.5180 Y2.2943
G01 X22.5468 Y2.3555
G01 X22.5697 Y2.4192
G01 X22.5728 Y2.4293
G01 X22.5891 Y2.4950
G01 X22.5991 Y2.5619
G01 X22.6002 Y2.5724
G01 X22.6034 Y2.6400
G01 X22.6034 Y26.0266
G01 X34.5653 Y26.0268
G01 X34.6329 Y26.0302
G01 X34.6998 Y26.0400
G01 X34.7102 Y26.0421
G01 X34.7707 Y26.0572
G01 X34.7808 Y26.0603
G01 X34.8445 Y26.0832
G01 X34.9104 Y26.1144
G01 X34.9730 Y26.1519
G01 X35.0274 Y26.1921
G01 X35.0356 Y26.1988
G01 X35.0818 Y26.2407
G01 X35.0893 Y26.2482
G01 X35.1346 Y26.2984
G01 X35.1781 Y26.3570
G01 X35.2156 Y26.4196
G01 X35.2446 Y26.4807
G01 X35.2487 Y26.4905
G01 X35.2697 Y26.5492
G01 X35.2728 Y26.5593
G01 X35.2891 Y26.6250
G01 X35.2991 Y26.6919
G01 X35.3002 Y26.7024
G01 X35.3034 Y26.7700
G01 X35.3034 Y57.7766
G01 X44.3742 Y57.7766
G01 X44.4267 Y57.7293
G01 X44.5073 Y57.6695
G01 X44.5934 Y57.6179
G01 X44.6817 Y57.5760
G01 X44.6891 Y57.5730
G01 X44.7736 Y57.5428
G01 X44.7838 Y57.5397
G01 X44.8760 Y57.5167
G01 X44.9753 Y57.5020
G01 X45.0756 Y57.4971
G01 X46.9044 Y57.4971
G01 X46.9994 Y57.5016
G01 X47.0099 Y57.5027
G01 X47.1040 Y57.5167
G01 X47.2013 Y57.5411
G01 X47.2958 Y57.5750
G01 X47.3819 Y57.6155
G01 X47.3912 Y57.6205
G01 X47.4682 Y57.6666
G01 X47.4770 Y57.6725
G01 X47.5533 Y57.7293
G01 X47.6277 Y57.7967
G01 X47.6951 Y57.8711
G01 X47.7519 Y57.9474
G01 X47.7578 Y57.9562
G01 X47.8039 Y58.0332
G01 X47.8089 Y58.0425
G01 X47.8494 Y58.1286
G01 X47.8833 Y58.2231
G01 X47.9077 Y58.3204
G01 X47.9217 Y58.4145
G01 X47.9228 Y58.4250
G01 X47.9272 Y58.5147
G01 X47.9272 Y58.5253
G01 X47.9224 Y58.6203
G01 X47.9077 Y58.7196
G01 X47.8833 Y58.8169
G01 X47.8514 Y58.9065
G01 X47.8473 Y58.9163
G01 X47.8089 Y58.9975
G01 X47.8039 Y59.0068
G01 X47.7549 Y59.0883
G01 X47.6951 Y59.1689
G01 X47.6277 Y59.2433
G01 X47.5573 Y59.3073
G01 X47.5491 Y59.3140
G01 X47.4770 Y59.3675
G01 X47.4682 Y59.3734
G01 X47.3866 Y59.4221
G01 X47.2983 Y59.4640
G01 X47.2909 Y59.4670
G01 X47.2013 Y59.4989
G01 X47.1040 Y59.5233
G01 X47.0047 Y59.5380
G01 X46.9071 Y59.5429
G01 X45.0756 Y59.5429
G01 X44.9780 Y59.5382
G01 X44.9701 Y59.5373
G01 X44.8813 Y59.5242
G01 X44.8709 Y59.5221
G01 X44.7787 Y59.4989
G01 X44.6891 Y59.4670
G01 X44.6817 Y59.4640
G01 X44.5934 Y59.4221
G01 X44.5073 Y59.3705
G01 X44.4267 Y59.3107
G01 X44.3742 Y59.2634
G01 X34.5547 Y59.2632
G01 X34.4871 Y59.2598
G01 X34.4202 Y59.2500
G01 X34.4098 Y59.2479
G01 X34.3442 Y59.2314
G01 X34.2755 Y59.2068
G01 X34.2143 Y59.1780
G01 X34.2050 Y59.1730
G01 X34.1470 Y59.1381
G01 X34.0884 Y59.0946
G01 X34.0382 Y59.0493
G01 X34.0307 Y59.0418
G01 X33.9854 Y58.9916
G01 X33.9450 Y58.9373
G01 X33.9391 Y58.9285
G01 X33.9044 Y58.8704
G01 X33.8743 Y58.8069
G01 X33.8713 Y58.7995
G01 X33.8486 Y58.7358
G01 X33.8309 Y58.6650
G01 X33.8202 Y58.5929
G01 X33.8166 Y58.5200
G01 X33.8166 Y27.5134
G01 X21.8573 Y27.5133
G01 X21.7871 Y27.5098
G01 X21.7202 Y27.5000
G01 X21.7098 Y27.4979
G01 X21.6442 Y27.4814
G01 X21.5805 Y27.4587
G01 X21.5707 Y27.4546
G01 X21.5096 Y27.4256
G01 X21.4515 Y27.3909
G01 X21.4427 Y27.3850
G01 X21.3884 Y27.3446
G01 X21.3382 Y27.2993
G01 X21.3307 Y27.2918
G01 X21.2854 Y27.2416
G01 X21.2450 Y27.1873
G01 X21.2391 Y27.1785
G01 X21.2070 Y27.1250
G01 X21.2032 Y27.1181
G01 X21.1754 Y27.0593
G01 X21.1713 Y27.0495
G01 X21.1486 Y26.9858
G01 X21.1321 Y26.9202
G01 X21.1300 Y26.9098
G01 X21.1202 Y26.8429
G01 X21.1166 Y26.7700
G01 X21.1166 Y2.6400
G01 X21.1198 Y2.5724
G01 X21.1209 Y2.5619
G01 X21.1309 Y2.4950
G01 X21.1472 Y2.4293
G01 X21.1503 Y2.4192
G01 X21.1732 Y2.3555
G01 X21.2020 Y2.2943
G01 X21.2076 Y2.2841
G00 Z3.0000
G00 X23.6566 Y2.2116
G01 F60.00
G01 Z-0.0300
G01 F90.00
G01 X23.6090 Y2.1685
G01 X23.6033 Y2.1629
G01 X23.5346 Y2.0871
G01 X23.5294 Y2.0810
G01 X23.4654 Y1.9945
G01 X23.4113 Y1.9045
G01 X23.4075 Y1.8975
G01 X23.3615 Y1.8002
G01 X23.3244 Y1.6963
G01 X23.2975 Y1.5893
G01 X23.2820 Y1.4854
G01 X23.2811 Y1.4775
G01 X23.2760 Y1.3700
G01 X23.2814 Y1.2598
G01 X23.2975 Y1.1507
G01 X23.3244 Y1.0437
G01 X23.3615 Y0.9398
G01 X23.4087 Y0.8401
G01 X23.4654 Y0.7455
G01 X23.5278 Y0.6611
G01 X23.5328 Y0.6549
G01 X23.6052 Y0.5752
G01 X23.6869 Y0.5011
G01 X23.7755 Y0.4354
G01 X23.8701 Y0.3787
G01 X23.9698 Y0.3315
G01 X24.0737 Y0.2944
G01 X24.1807 Y0.2675
G01 X24.2898 Y0.2514
G01 X24.4000 Y0.2460
G01 X24.5102 Y0.2514
G01 X24.6193 Y0.2675
G01 X24.7263 Y0.2944
G01 X24.8302 Y0.3315
G01 X24.9299 Y0.3787
G01 X25.0245 Y0.4354
G01 X25.1089 Y0.4978
G01 X25.1151 Y0.5028
G01 X25.1948 Y0.5752
G01 X25.2654 Y0.6529
G01 X25.2722 Y0.6611
G01 X25.3346 Y0.7455
G01 X25.3887 Y0.8355
G01 X25.3937 Y0.8449
G01 X25.4363 Y0.9350
G01 X25.4404 Y0.9448
G01 X25.4756 Y1.0437
G01 X25.5025 Y1.1507
G01 X25.5186 Y1.2598
G01 X25.5240 Y1.3700
G01 X25.5186 Y1.4802
G01 X25.5025 Y1.5893
G01 X25.4756 Y1.6963
G01 X25.4404 Y1.7952
G01 X25.4374 Y1.8026
G01 X25.3913 Y1.8999
G01 X25.3375 Y1.9900
G01 X25.3331 Y1.9967
G01 X25.2722 Y2.0789
G01 X25.2672 Y2.0851
G01 X25.1948 Y2.1648
G01 X25.1434 Y2.2116
G01 X25.1434 Y23.4866
G01 X37.1053 Y23.4868
G01 X37.1729 Y23.4902
G01 X37.2398 Y23.5000
G01 X37.2502 Y23.5021
G01 X37.3107 Y23.5172
G01 X37.3208 Y23.5203
G01 X37.3845 Y23.5432
G01 X37.4504 Y23.5744
G01 X37.5130 Y23.6119
G01 X37.5674 Y23.6521
G01 X37.5756 Y23.6588
G01 X37.6218 Y23.7007
G01 X37.6293 Y23.7082
G01 X37.6746 Y23.7584
G01 X37.7181 Y23.8170
G01 X37.7556 Y23.8796
G01 X37.7846 Y23.9407
G01 X37.7887 Y23.9505
G01 X37.8097 Y24.0092
G01 X37.8121 Y24.0168
G01 X37.8291 Y24.0850
G01 X37.8391 Y24.1519
G01 X37.8402 Y24.1624
G01 X37.8434 Y24.2300
G01 X37.8434 Y55.2366
G01 X44.3742 Y55.2366
G01 X44.4267 Y55.1893
G01 X44.5073 Y55.1295
G01 X44.5934 Y55.0779
G01 X44.6817 Y55.0360
G01 X44.6891 Y55.0330
G01 X44.7736 Y55.0028
G01 X44.7838 Y54.9997
G01 X44.8760 Y54.9767
G01 X44.9753 Y54.9620
G01 X45.0756 Y54.9571
G01 X46.9044 Y54.9571
G01 X47.0047 Y54.9620
G01 X47.1014 Y54.9763
G01 X47.1091 Y54.9779
G01 X47.1962 Y54.9997
G01 X47.2064 Y55.0028
G01 X47.2958 Y55.0350
G01 X47.3866 Y55.0779
G01 X47.4727 Y55.1295
G01 X47.5491 Y55.1860
G01 X47.5573 Y55.1927
G01 X47.6239 Y55.2530
G01 X47.6314 Y55.2605
G01 X47.6951 Y55.3311
G01 X47.7549 Y55.4117
G01 X47.8065 Y55.4978
G01 X47.8473 Y55.5837
G01 X47.8514 Y55.5935
G01 X47.8816 Y55.6780
G01 X47.8847 Y55.6882
G01 X47.9077 Y55.7804
G01 X47.9224 Y55.8797
G01 X47.9273 Y55.9800
G01 X47.9228 Y56.0750
G01 X47.9217 Y56.0855
G01 X47.9077 Y56.1796
G01 X47.8833 Y56.2769
G01 X47.8514 Y56.3665
G01 X47.8473 Y56.3763
G01 X47.8089 Y56.4575
G01 X47.8039 Y56.4668
G01 X47.7549 Y56.5483
G01 X47.6951 Y56.6289
G01 X47.6277 Y56.7033
G01 X47.5573 Y56.7673
G01 X47.5491 Y56.7740
G01 X47.4770 Y56.8275
G01 X47.4682 Y56.8334
G01 X47.3866 Y56.8821
G01 X47.2983 Y56.9240
G01 X47.2909 Y56.9270
G01 X47.2013 Y56.9589
G01 X47.1040 Y56.9833
G01 X47.0047 Y56.9980
G01 X46.9071 Y57.0029
G01 X45.0756 Y57.0029
G01 X44.9780 Y56.9982
G01 X44.9701 Y56.9973
G01 X44.8760 Y56.9833
G01 X44.7838 Y56.9603
G01 X44.7736 Y56.9572
G01 X44.6891 Y56.9270
G01 X44.6817 Y56.9240
G01 X44.5934 Y56.8821
G01 X44.5073 Y56.8305
G01 X44.4267 Y56.7707
G01 X44.3742 Y56.7234
G01 X37.1000 Y56.7234
G01 X37.0324 Y56.7202
G01 X37.0219 Y56.7191
G01 X36.9602 Y56.7100
G01 X36.9498 Y56.7079
G01 X36.8842 Y56.6914
G01 X36.8205 Y56.6687
G01 X36.8107 Y56.6646
G01 X36.7496 Y56.6356
G01 X36.6915 Y56.6009
G01 X36.6827 Y56.5950
G01 X36.6284 Y56.5546
G01 X36.5782 Y56.5093
G01 X36.5707 Y56.5018
G01 X36.5254 Y56.4516
G01 X36.4850 Y56.3973
G01 X36.4791 Y56.3885
G01 X36.4444 Y56.3304
G01 X36.4143 Y56.2669
G01 X36.4113 Y56.2595
G01 X36.3886 Y56.1958
G01 X36.3709 Y56.1250
G01 X36.3602 Y56.0529
G01 X36.3566 Y55.9800
G01 X36.3566 Y24.9734
G01 X24.3973 Y24.9733
G01 X24.3324 Y24.9702
G01 X24.3219 Y24.9691
G01 X24.2550 Y24.9591
G01 X24.1893 Y24.9428
G01 X24.1792 Y24.9397
G01 X24.1155 Y24.9168
G01 X24.0543 Y24.8880
G01 X24.0450 Y24.8830
G01 X23.9870 Y24.8481
G01 X23.9326 Y24.8079
G01 X23.9244 Y24.8012
G01 X23.8744 Y24.7556
G01 X23.8288 Y24.7056
G01 X23.8221 Y24.6974
G01 X23.7819 Y24.6430
G01 X23.7457 Y24.5827
G01 X23.7420 Y24.5757
G01 X23.7132 Y24.5145
G01 X23.6903 Y24.4508
G01 X23.6872 Y24.4407
G01 X23.6709 Y24.3750
G01 X23.6609 Y24.3081
G01 X23.6598 Y24.2976
G01 X23.6566 Y24.2300
G01 X23.6566 Y2.2116
G00 Z3.0000
G00 X26.1966 Y2.2116
G01 F60.00
G01 Z-0.0300
G01 F90.00
G01 X26.1490 Y2.1685
G01 X26.1433 Y2.1629
G01 X26.0746 Y2.0871
G01 X26.0694 Y2.0810
G01 X26.0054 Y1.9945
G01 X25.9513 Y1.9045
G01 X25.9475 Y1.8975
G01 X25.9015 Y1.8002
G01 X25.8644 Y1.6963
G01 X25.8375 Y1.5893
G01 X25.8220 Y1.4854
G01 X25.8211 Y1.4775
G01 X25.8160 Y1.3700
G01 X25.8214 Y1.2598
G01 X25.8375 Y1.1507
G01 X25.8644 Y1.0437
G01 X25.9015 Y0.9398
G01 X25.9487 Y0.8401
G01 X26.0054 Y0.7455
G01 X26.0678 Y0.6611
G01 X26.0728 Y0.6549
G01 X26.1452 Y0.5752
G01 X26.2269 Y0.5011
G01 X26.3155 Y0.4354
G01 X26.4101 Y0.3787
G01 X26.5098 Y0.3315
G01 X26.6137 Y0.2944
G01 X26.7207 Y0.2675
G01 X26.8298 Y0.2514
G01 X26.9400 Y0.2460
G01 X27.0502 Y0.2514
G01 X27.1593 Y0.2675
G01 X27.2663 Y0.2944
G01 X27.3702 Y0.3315
G01 X27.4699 Y0.3787
G01 X27.5645 Y0.4354
G01 X27.6489 Y0.4978
G01 X27.6551 Y0.5028
G01 X27.7348 Y0.5752
G01 X27.8054 Y0.6529
G01 X27.8122 Y0.6611
G01 X27.8746 Y0.7455
G01 X27.9287 Y0.8355
G01 X27.9337 Y0.8449
G01 X27.9763 Y0.9350
G01 X27.9804 Y0.9448
G01 X28.0156 Y1.0437
G01 X28.0425 Y1.1507
G01 X28.0586 Y1.2598
G01 X28.0640 Y1.3700
G01 X28.0586 Y1.4802
G01 X28.0425 Y1.5893
G01 X28.0156 Y1.6963
G01 X27.9804 Y1.7952
G01 X27.9774 Y1.8026
G01 X27.9313 Y1.8999
G01 X27.8775 Y1.9900
G01 X27.8731 Y1.9967
G01 X27.8122 Y2.0789
G01 X27.8072 Y2.0851
G01 X27.7348 Y2.1648
G01 X27.6834 Y2.2116
G01 X27.6834 Y20.9466
G01 X39.6427 Y20.9467
G01 X39.7129 Y20.9502
G01 X39.7798 Y20.9600
G01 X39.7902 Y20.9621
G01 X39.8558 Y20.9786
G01 X39.9245 Y21.0032
G01 X39.9857 Y21.0320
G01 X39.9950 Y21.0370
G01 X40.0530 Y21.0719
G01 X40.1116 Y21.1154
G01 X40.1618 Y21.1607
G01 X40.1693 Y21.1682
G01 X40.2146 Y21.2184
G01 X40.2550 Y21.2727
G01 X40.2609 Y21.2815
G01 X40.2956 Y21.3396
G01 X40.3268 Y21.4055
G01 X40.3514 Y21.4742
G01 X40.3691 Y21.5450
G01 X40.3798 Y21.6171
G01 X40.3834 Y21.6900
G01 X40.3834 Y52.6966
G01 X44.3742 Y52.6966
G01 X44.4267 Y52.6493
G01 X44.5073 Y52.5895
G01 X44.5934 Y52.5379
G01 X44.6817 Y52.4960
G01 X44.6891 Y52.4930
G01 X44.7736 Y52.4628
G01 X44.7838 Y52.4597
G01 X44.8760 Y52.4367
G01 X44.9753 Y52.4220
G01 X45.0756 Y52.4171
G01 X46.9044 Y52.4171
G01 X47.0047 Y52.4220
G01 X47.0987 Y52.4358
G01 X47.1091 Y52.4379
G01 X47.2013 Y52.4611
G01 X47.2909 Y52.4930
G01 X47.3007 Y52.4971
G01 X47.3819 Y52.5355
G01 X47.3912 Y52.5405
G01 X47.4727 Y52.5895
G01 X47.5533 Y52.6493
G01 X47.6277 Y52.7167
G01 X47.6917 Y52.7871
G01 X47.6984 Y52.7953
G01 X47.7519 Y52.8674
G01 X47.7578 Y52.8762
G01 X47.8065 Y52.9578
G01 X47.8494 Y53.0486
G01 X47.8833 Y53.1431
G01 X47.9065 Y53.2353
G01 X47.9086 Y53.2457
G01 X47.9224 Y53.3397
G01 X47.9273 Y53.4400
G01 X47.9228 Y53.5350
G01 X47.9217 Y53.5455
G01 X47.9077 Y53.6396
G01 X47.8833 Y53.7369
G01 X47.8514 Y53.8265
G01 X47.8473 Y53.8363
G01 X47.8089 Y53.9175
G01 X47.8039 Y53.9268
G01 X47.7549 Y54.0083
G01 X47.6951 Y54.0889
G01 X47.6277 Y54.1633
G01 X47.5573 Y54.2273
G01 X47.5491 Y54.2340
G01 X47.4770 Y54.2875
G01 X47.4682 Y54.2934
G01 X47.3866 Y54.3421
G01 X47.2958 Y54.3850
G01 X47.2013 Y54.4189
G01 X47.1040 Y54.4433
G01 X47.0047 Y54.4580
G01 X46.9071 Y54.4629
G01 X45.0729 Y54.4629
G01 X44.9753 Y54.4580
G01 X44.8760 Y54.4433
G01 X44.7787 Y54.4189
G01 X44.6842 Y54.3850
G01 X44.5934 Y54.3421
G01 X44.5073 Y54.2905
G01 X44.4267 Y54.2307
G01 X44.3742 Y54.1834
G01 X39.6400 Y54.1834
G01 X39.5698 Y54.1800
G01 X39.5619 Y54.1791
G01 X39.5002 Y54.1700
G01 X39.4898 Y54.1679
G01 X39.4242 Y54.1514
G01 X39.3605 Y54.1287
G01 X39.3507 Y54.1246
G01 X39.2896 Y54.0956
G01 X39.2315 Y54.0609
G01 X39.2227 Y54.0550
G01 X39.1684 Y54.0146
G01 X39.1182 Y53.9693
G01 X39.1107 Y53.9618
G01 X39.0654 Y53.9116
G01 X39.0250 Y53.8573
G01 X39.0191 Y53.8485
G01 X38.9844 Y53.7904
G01 X38.9532 Y53.7245
G01 X38.9286 Y53.6558
G01 X38.9109 Y53.5850
G01 X38.9002 Y53.5129
G01 X38.8966 Y53.4400
G01 X38.8966 Y22.4334
G01 X26.9373 Y22.4333
G01 X26.8724 Y22.4302
G01 X26.8619 Y22.4291
G01 X26.7950 Y22.4191
G01 X26.7293 Y22.4028
G01 X26.7192 Y22.3997
G01 X26.6555 Y22.3768
G01 X26.5896 Y22.3456
G01 X26.5315 Y22.3109
G01 X26.5227 Y22.3050
G01 X26.4684 Y22.2646
G01 X26.4182 Y22.2193
G01 X26.4107 Y22.2118
G01 X26.3654 Y22.1616
G01 X26.3250 Y22.1073
G01 X26.3205 Y22.1008
G01 X26.2844 Y22.0404
G01 X26.2554 Y21.9793
G01 X26.2513 Y21.9695
G01 X26.2286 Y21.9058
G01 X26.2109 Y21.8350
G01 X26.2009 Y21.7681
G01 X26.1998 Y21.7576
G01 X26.1966 Y21.6900
G01 X26.1966 Y2.2116
G00 Z3.0000
G00 X28.7366 Y2.2116
G01 F60.00
G01 Z-0.0300
G01 F90.00
G01 X28.6890 Y2.1685
G01 X28.6833 Y2.1629
G01 X28.6146 Y2.0871
G01 X28.6094 Y2.0810
G01 X28.5454 Y1.9945
G01 X28.4913 Y1.9045
G01 X28.4875 Y1.8975
G01 X28.4415 Y1.8002
G01 X28.4044 Y1.6963
G01 X28.3775 Y1.5893
G01 X28.3620 Y1.4854
G01 X28.3611 Y1.4775
G01 X28.3560 Y1.3700
G01 X28.3614 Y1.2598
G01 X28.3775 Y1.1507
G01 X28.4044 Y1.0437
G01 X28.4415 Y0.9398
G01 X28.4887 Y0.8401
G01 X28.5454 Y0.7455
G01 X28.6078 Y0.6611
G01 X28.6128 Y0.6549
G01 X28.6852 Y0.5752
G01 X28.7669 Y0.5011
G01 X28.8555 Y0.4354
G01 X28.9501 Y0.3787
G01 X29.0498 Y0.3315
G01 X29.1537 Y0.2944
G01 X29.2607 Y0.2675
G01 X29.3698 Y0.2514
G01 X29.4800 Y0.2460
G01 X29.5902 Y0.2514
G01 X29.6993 Y0.2675
G01 X29.8063 Y0.2944
G01 X29.9102 Y0.3315
G01 X30.0099 Y0.3787
G01 X30.1045 Y0.4354
G01 X30.1889 Y0.4978
G01 X30.1951 Y0.5028
G01 X30.2748 Y0.5752
G01 X30.3454 Y0.6529
G01 X30.3522 Y0.6611
G01 X30.4146 Y0.7455
G01 X30.4687 Y0.8355
G01 X30.4737 Y0.8449
G01 X30.5163 Y0.9350
G01 X30.5204 Y0.9448
G01 X30.5556 Y1.0437
G01 X30.5825 Y1.1507
G01 X30.5986 Y1.2598
G01 X30.6040 Y1.3700
G01 X30.5986 Y1.4802
G01 X30.5825 Y1.5893
G01 X30.5556 Y1.6963
G01 X30.5204 Y1.7952
G01 X30.5174 Y1.8026
G01 X30.4713 Y1.8999
G01 X30.4175 Y1.9900
G01 X30.4131 Y1.9967
G01 X30.3522 Y2.0789
G01 X30.3472 Y2.0851
G01 X30.2748 Y2.1648
G01 X30.2234 Y2.2116
G01 X30.2234 Y18.4066
G01 X42.1827 Y18.4067
G01 X42.2529 Y18.4102
G01 X42.3198 Y18.4200
G01 X42.3302 Y18.4221
G01 X42.3958 Y18.4386
G01 X42.4645 Y18.4632
G01 X42.5257 Y18.4920
G01 X42.5350 Y18.4970
G01 X42.5930 Y18.5319
G01 X42.6516 Y18.5754
G01 X42.7018 Y18.6207
G01 X42.7093 Y18.6282
G01 X42.7546 Y18.6784
G01 X42.7981 Y18.7370
G01 X42.8330 Y18.7950
G01 X42.8380 Y18.8043
G01 X42.8646 Y18.8607
G01 X42.8678 Y18.8680
G01 X42.8914 Y18.9342
G01 X42.9091 Y19.0050
G01 X42.9198 Y19.0771
G01 X42.9234 Y19.1500
G01 X42.9234 Y50.1566
G01 X44.3742 Y50.1566
G01 X44.4267 Y50.1093
G01 X44.5073 Y50.0495
G01 X44.5934 Y49.9979
G01 X44.6842 Y49.9550
G01 X44.7787 Y49.9211
G01 X44.8760 Y49.8967
G01 X44.9753 Y49.8820
G01 X45.0703 Y49.8772
G01 X46.9071 Y49.8771
G01 X47.0047 Y49.8820
G01 X47.1040 Y49.8967
G01 X47.2013 Y49.9211
G01 X47.2934 Y49.9540
G01 X47.3007 Y49.9571
G01 X47.3819 Y49.9955
G01 X47.3912 Y50.0005
G01 X47.4727 Y50.0495
G01 X47.5533 Y50.1093
G01 X47.6277 Y50.1767
G01 X47.6917 Y50.2471
G01 X47.6984 Y50.2553
G01 X47.7549 Y50.3317
G01 X47.8065 Y50.4178
G01 X47.8473 Y50.5037
G01 X47.8514 Y50.5135
G01 X47.8833 Y50.6031
G01 X47.9077 Y50.7004
G01 X47.9217 Y50.7945
G01 X47.9228 Y50.8050
G01 X47.9273 Y50.9000
G01 X47.9224 Y51.0003
G01 X47.9086 Y51.0943
G01 X47.9065 Y51.1047
G01 X47.8833 Y51.1969
G01 X47.8514 Y51.2865
G01 X47.8473 Y51.2963
G01 X47.8065 Y51.3822
G01 X47.7549 Y51.4683
G01 X47.6951 Y51.5489
G01 X47.6314 Y51.6195
G01 X47.6239 Y51.6270
G01 X47.5533 Y51.6907
G01 X47.4727 Y51.7505
G01 X47.3912 Y51.7995
G01 X47.3819 Y51.8045
G01 X47.3007 Y51.8429
G01 X47.2934 Y51.8460
G01 X47.2013 Y51.8789
G01 X47.1040 Y51.9033
G01 X47.0047 Y51.9180
G01 X46.9071 Y51.9229
G01 X45.0703 Y51.9228
G01 X44.9753 Y51.9180
G01 X44.8760 Y51.9033
G01 X44.7787 Y51.8789
G01 X44.6842 Y51.8450
G01 X44.5934 Y51.8021
G01 X44.5073 Y51.7505
G01 X44.4267 Y51.6907
G01 X44.3742 Y51.6434
G01 X42.1800 Y51.6434
G01 X42.1124 Y51.6402
G01 X42.1019 Y51.6391
G01 X42.0350 Y51.6291
G01 X41.9693 Y51.6128
G01 X41.9592 Y51.6097
G01 X41.9005 Y51.5887
G01 X41.8907 Y51.5846
G01 X41.8296 Y51.5556
G01 X41.7670 Y51.5181
G01 X41.7084 Y51.4746
G01 X41.6582 Y51.4293
G01 X41.6507 Y51.4218
G01 X41.6088 Y51.3756
G01 X41.6021 Y51.3674
G01 X41.5619 Y51.3130
G01 X41.5244 Y51.2504
G01 X41.4932 Y51.1845
G01 X41.4703 Y51.1208
G01 X41.4672 Y51.1107
G01 X41.4521 Y51.0502
G01 X41.4504 Y51.0424
G01 X41.4402 Y50.9729
G01 X41.4366 Y50.9000
G01 X41.4366 Y19.8934
G01 X29.4773 Y19.8933
G01 X29.4071 Y19.8898
G01 X29.3402 Y19.8800
G01 X29.3298 Y19.8779
G01 X29.2642 Y19.8614
G01 X29.1955 Y19.8368
G01 X29.1343 Y19.8080
G01 X29.1250 Y19.8030
G01 X29.0670 Y19.7681
G01 X29.0084 Y19.7246
G01 X28.9582 Y19.6793
G01 X28.9507 Y19.6718
G01 X28.9054 Y19.6216
G01 X28.8619 Y19.5630
G01 X28.8270 Y19.5050
G01 X28.8220 Y19.4957
G01 X28.7954 Y19.4393
G01 X28.7922 Y19.4320
G01 X28.7686 Y19.3658
G01 X28.7509 Y19.2950
G01 X28.7402 Y19.2229
G01 X28.7366 Y19.1500
G01 X28.7366 Y2.2116
G00 Z3.0000
G00 X31.2766 Y2.2116
G01 F60.00
G01 Z-0.0300
G01 F90.00
G01 X31.2290 Y2.1685
G01 X31.2233 Y2.1629
G01 X31.1546 Y2.0871
G01 X31.1494 Y2.0810
G01 X31.0854 Y1.9945
G01 X31.0313 Y1.9045
G01 X31.0275 Y1.8975
G01 X30.9815 Y1.8002
G01 X30.9444 Y1.6963
G01 X30.9175 Y1.5893
G01 X30.9020 Y1.4854
G01 X30.9011 Y1.4775
G01 X30.8960 Y1.3700
G01 X30.9014 Y1.2598
G01 X30.9175 Y1.1507
G01 X30.9444 Y1.0437
G01 X30.9815 Y0.9398
G01 X31.0287 Y0.8401
G01 X31.0854 Y0.7455
G01 X31.1478 Y0.6611
G01 X31.1528 Y0.6549
G01 X31.2252 Y0.5752
G01 X31.3069 Y0.5011
G01 X31.3955 Y0.4354
G01 X31.4901 Y0.3787
G01 X31.5898 Y0.3315
G01 X31.6937 Y0.2944
G01 X31.8007 Y0.2675
G01 X31.9098 Y0.2514
G01 X32.0200 Y0.2460
G01 X32.1302 Y0.2514
G01 X32.2393 Y0.2675
G01 X32.3463 Y0.2944
G01 X32.4502 Y0.3315
G01 X32.5499 Y0.3787
G01 X32.6445 Y0.4354
G01 X32.7289 Y0.4978
G01 X32.7351 Y0.5028
G01 X32.8148 Y0.5752
G01 X32.8889 Y0.6569
G01 X32.9546 Y0.7455
G01 X33.0087 Y0.8355
G01 X33.0137 Y0.8449
G01 X33.0585 Y0.9398
G01 X33.0940 Y1.0387
G01 X33.0971 Y1.0488
G01 X33.1213 Y1.1455
G01 X33.1234 Y1.1559
G01 X33.1386 Y1.2598
G01 X33.1439 Y1.3647
G01 X33.1439 Y1.3753
G01 X33.1386 Y1.4802
G01 X33.1225 Y1.5893
G01 X33.0956 Y1.6963
G01 X33.0604 Y1.7952
G01 X33.0574 Y1.8026
G01 X33.0113 Y1.8999
G01 X32.9575 Y1.9900
G01 X32.9531 Y1.9967
G01 X32.8922 Y2.0789
G01 X32.8872 Y2.0851
G01 X32.8148 Y2.1648
G01 X32.7634 Y2.2116
G01 X32.7634 Y8.1699
G01 X32.7997 Y8.2028
G01 X32.8054 Y8.2084
G01 X32.8748 Y8.2850
G01 X32.8798 Y8.2912
G01 X32.9398 Y8.3722
G01 X32.9441 Y8.3789
G01 X32.9972 Y8.4677
G01 X33.0416 Y8.5611
G01 X33.0447 Y8.5684
G01 X33.0787 Y8.6633
G01 X33.0818 Y8.6735
G01 X33.1068 Y8.7738
G01 X33.1221 Y8.8761
G01 X33.1231 Y8.8867
G01 X33.1280 Y8.9900
G01 X33.1229 Y9.0960
G01 X33.1221 Y9.1039
G01 X33.1068 Y9.2062
G01 X33.0818 Y9.3065
G01 X33.0787 Y9.3167
G01 X33.0456 Y9.4091
G01 X33.0416 Y9.4189
G01 X32.9972 Y9.5123
G01 X32.9413 Y9.6056
G01 X32.8765 Y9.6929
G01 X32.8035 Y9.7735
G01 X32.7229 Y9.8465
G01 X32.6356 Y9.9113
G01 X32.5423 Y9.9672
G01 X32.4489 Y10.0116
G01 X32.4391 Y10.0156
G01 X32.3467 Y10.0487
G01 X32.3365 Y10.0518
G01 X32.2362 Y10.0768
G01 X32.1286 Y10.0927
G01 X32.0200 Y10.0980
G01 X31.9114 Y10.0927
G01 X31.8038 Y10.0768
G01 X31.6984 Y10.0503
G01 X31.5960 Y10.0137
G01 X31.4977 Y9.9672
G01 X31.4044 Y9.9113
G01 X31.3171 Y9.8465
G01 X31.2365 Y9.7735
G01 X31.1635 Y9.6929
G01 X31.0987 Y9.6056
G01 X31.0428 Y9.5123
G01 X30.9963 Y9.4140
G01 X30.9597 Y9.3116
G01 X30.9332 Y9.2062
G01 X30.9173 Y9.0986
G01 X30.9120 Y8.9900
G01 X30.9169 Y8.8867
G01 X30.9179 Y8.8761
G01 X30.9332 Y8.7738
G01 X30.9582 Y8.6735
G01 X30.9613 Y8.6633
G01 X30.9953 Y8.5684
G01 X30.9984 Y8.5611
G01 X31.0428 Y8.4677
G01 X31.0959 Y8.3789
G01 X31.1002 Y8.3722
G01 X31.1602 Y8.2912
G01 X31.1652 Y8.2850
G01 X31.2346 Y8.2084
G01 X31.2403 Y8.2028
G01 X31.2766 Y8.1699
G01 X31.2766 Y2.2116
G00 Z3.0000
G00 X33.8166 Y2.2116
G01 F60.00
G01 Z-0.0300
G01 F90.00
G01 X33.7690 Y2.1685
G01 X33.7633 Y2.1629
G01 X33.6946 Y2.0871
G01 X33.6894 Y2.0810
G01 X33.6254 Y1.9945
G01 X33.5713 Y1.9045
G01 X33.5675 Y1.8975
G01 X33.5215 Y1.8002
G01 X33.4844 Y1.6963
G01 X33.4575 Y1.5893
G01 X33.4420 Y1.4854
G01 X33.4411 Y1.4775
G01 X33.4360 Y1.3700
G01 X33.4414 Y1.2598
G01 X33.4575 Y1.1507
G01 X33.4844 Y1.0437
G01 X33.5215 Y0.9398
G01 X33.5687 Y0.8401
G01 X33.6254 Y0.7455
G01 X33.6878 Y0.6611
G01 X33.6928 Y0.6549
G01 X33.7652 Y0.5752
G01 X33.8469 Y0.5011
G01 X33.9355 Y0.4354
G01 X34.0301 Y0.3787
G01 X34.1298 Y0.3315
G01 X34.2337 Y0.2944
G01 X34.3407 Y0.2675
G01 X34.4498 Y0.2514
G01 X34.5600 Y0.2460
G01 X34.6702 Y0.2514
G01 X34.7793 Y0.2675
G01 X34.8863 Y0.2944
G01 X34.9902 Y0.3315
G01 X35.0899 Y0.3787
G01 X35.1845 Y0.4354
G01 X35.2689 Y0.4978
G01 X35.2751 Y0.5028
G01 X35.3548 Y0.5752
G01 X35.4289 Y0.6569
G01 X35.4946 Y0.7455
G01 X35.5487 Y0.8355
G01 X35.5537 Y0.8449
G01 X35.5963 Y0.9350
G01 X35.6004 Y0.9448
G01 X35.6356 Y1.0437
G01 X35.6613 Y1.1455
G01 X35.6634 Y1.1559
G01 X35.6786 Y1.2598
G01 X35.6840 Y1.3673
G01 X35.6839 Y1.3753
G01 X35.6786 Y1.4802
G01 X35.6625 Y1.5893
G01 X35.6356 Y1.6963
G01 X35.6004 Y1.7952
G01 X35.5974 Y1.8026
G01 X35.5513 Y1.8999
G01 X35.4975 Y1.9900
G01 X35.4931 Y1.9967
G01 X35.4322 Y2.0789
G01 X35.4272 Y2.0851
G01 X35.3548 Y2.1648
G01 X35.3034 Y2.2116
G01 X35.3034 Y10.7099
G01 X35.3397 Y10.7428
G01 X35.3454 Y10.7484
G01 X35.4148 Y10.8250
G01 X35.4198 Y10.8312
G01 X35.4798 Y10.9122
G01 X35.4841 Y10.9189
G01 X35.5372 Y11.0077
G01 X35.5816 Y11.1011
G01 X35.5847 Y11.1084
G01 X35.6203 Y11.2084
G01 X35.6456 Y11.3087
G01 X35.6477 Y11.3191
G01 X35.6627 Y11.4214
G01 X35.6679 Y11.5247
G01 X35.6679 Y11.5353
G01 X35.6631 Y11.6333
G01 X35.6621 Y11.6439
G01 X35.6477 Y11.7409
G01 X35.6456 Y11.7513
G01 X35.6203 Y11.8516
G01 X35.5856 Y11.9491
G01 X35.5816 Y11.9589
G01 X35.5372 Y12.0523
G01 X35.4813 Y12.1456
G01 X35.4165 Y12.2329
G01 X35.3435 Y12.3135
G01 X35.2629 Y12.3865
G01 X35.1756 Y12.4513
G01 X35.0823 Y12.5072
G01 X34.9889 Y12.5516
G01 X34.9791 Y12.5556
G01 X34.8867 Y12.5887
G01 X34.8765 Y12.5918
G01 X34.7762 Y12.6168
G01 X34.6739 Y12.6321
G01 X34.6660 Y12.6329
G01 X34.5600 Y12.6380
G01 X34.4514 Y12.6327
G01 X34.3438 Y12.6168
G01 X34.2384 Y12.5903
G01 X34.1360 Y12.5537
G01 X34.0377 Y12.5072
G01 X33.9444 Y12.4513
G01 X33.8571 Y12.3865
G01 X33.7765 Y12.3135
G01 X33.7035 Y12.2329
G01 X33.6387 Y12.1456
G01 X33.5828 Y12.0523
G01 X33.5363 Y11.9540
G01 X33.4997 Y11.8516
G01 X33.4732 Y11.7462
G01 X33.4579 Y11.6439
G01 X33.4571 Y11.6360
G01 X33.4521 Y11.5353
G01 X33.4521 Y11.5247
G01 X33.4573 Y11.4214
G01 X33.4723 Y11.3191
G01 X33.4744 Y11.3087
G01 X33.4997 Y11.2084
G01 X33.5353 Y11.1084
G01 X33.5384 Y11.1011
G01 X33.5828 Y11.0077
G01 X33.6359 Y10.9189
G01 X33.6402 Y10.9122
G01 X33.7002 Y10.8312
G01 X33.7052 Y10.8250
G01 X33.7746 Y10.7484
G01 X33.7803 Y10.7428
G01 X33.8166 Y10.7099
G01 X33.8166 Y2.2116
G00 Z3.0000
G00 X36.3566 Y2.2116
G01 F60.00
G01 Z-0.0300
G01 F90.00
G01 X36.3090 Y2.1685
G01 X36.3033 Y2.1629
G01 X36.2346 Y2.0871
G01 X36.2294 Y2.0810
G01 X36.1654 Y1.9945
G01 X36.1113 Y1.9045
G01 X36.1075 Y1.8975
G01 X36.0615 Y1.8002
G01 X36.0244 Y1.6963
G01 X35.9975 Y1.5893
G01 X35.9820 Y1.4854
G01 X35.9811 Y1.4775
G01 X35.9760 Y1.3700
G01 X35.9814 Y1.2598
G01 X35.9975 Y1.1507
G01 X36.0244 Y1.0437
G01 X36.0615 Y0.9398
G01 X36.1087 Y0.8401
G01 X36.1654 Y0.7455
G01 X36.2278 Y0.6611
G01 X36.2328 Y0.6549
G01 X36.3052 Y0.5752
G01 X36.3869 Y0.5011
G01 X36.4755 Y0.4354
G01 X36.5701 Y0.3787
G01 X36.6698 Y0.3315
G01 X36.7737 Y0.2944
G01 X36.8807 Y0.2675
G01 X36.9898 Y0.2514
G01 X37.1000 Y0.2460
G01 X37.2102 Y0.2514
G01 X37.3193 Y0.2675
G01 X37.4263 Y0.2944
G01 X37.5302 Y0.3315
G01 X37.6299 Y0.3787
G01 X37.7245 Y0.4354
G01 X37.8089 Y0.4978
G01 X37.8151 Y0.5028
G01 X37.8948 Y0.5752
G01 X37.9689 Y0.6569
G01 X38.0346 Y0.7455
G01 X38.0887 Y0.8355
G01 X38.0937 Y0.8449
G01 X38.1363 Y0.9350
G01 X38.1404 Y0.9448
G01 X38.1756 Y1.0437
G01 X38.2013 Y1.1455
G01 X38.2034 Y1.1559
G01 X38.2186 Y1.2598
G01 X38.2240 Y1.3673
G01 X38.2239 Y1.3753
G01 X38.2186 Y1.4802
G01 X38.2025 Y1.5893
G01 X38.1756 Y1.6963
G01 X38.1404 Y1.7952
G01 X38.1374 Y1.8026
G01 X38.0913 Y1.8999
G01 X38.0375 Y1.9900
G01 X38.0331 Y1.9967
G01 X37.9722 Y2.0789
G01 X37.9672 Y2.0851
G01 X37.8948 Y2.1648
G01 X37.8434 Y2.2116
G01 X37.8434 Y13.2499
G01 X37.8797 Y13.2828
G01 X37.8854 Y13.2884
G01 X37.9548 Y13.3650
G01 X37.9598 Y13.3712
G01 X38.0198 Y13.4522
G01 X38.0241 Y13.4589
G01 X38.0772 Y13.5477
G01 X38.1227 Y13.6435
G01 X38.1256 Y13.6509
G01 X38.1603 Y13.7484
G01 X38.1868 Y13.8538
G01 X38.2027 Y13.9614
G01 X38.2079 Y14.0647
G01 X38.2079 Y14.0753
G01 X38.2027 Y14.1786
G01 X38.1868 Y14.2862
G01 X38.1603 Y14.3916
G01 X38.1237 Y14.4940
G01 X38.0772 Y14.5923
G01 X38.0213 Y14.6856
G01 X37.9565 Y14.7729
G01 X37.8872 Y14.8497
G01 X37.8797 Y14.8572
G01 X37.8070 Y14.9231
G01 X37.7988 Y14.9298
G01 X37.7156 Y14.9913
G01 X37.6269 Y15.0446
G01 X37.6176 Y15.0496
G01 X37.5240 Y15.0937
G01 X37.4216 Y15.1303
G01 X37.3162 Y15.1568
G01 X37.2139 Y15.1721
G01 X37.2060 Y15.1729
G01 X37.1000 Y15.1780
G01 X36.9914 Y15.1727
G01 X36.8838 Y15.1568
G01 X36.7784 Y15.1303
G01 X36.6760 Y15.0937
G01 X36.5777 Y15.0472
G01 X36.4844 Y14.9913
G01 X36.3971 Y14.9265
G01 X36.3165 Y14.8535
G01 X36.2435 Y14.7729
G01 X36.1787 Y14.6856
G01 X36.1228 Y14.5923
G01 X36.0763 Y14.4940
G01 X36.0397 Y14.3916
G01 X36.0132 Y14.2862
G01 X35.9979 Y14.1839
G01 X35.9971 Y14.1760
G01 X35.9921 Y14.0753
G01 X35.9921 Y14.0647
G01 X35.9973 Y13.9614
G01 X36.0123 Y13.8591
G01 X36.0144 Y13.8487
G01 X36.0397 Y13.7484
G01 X36.0753 Y13.6484
G01 X36.0784 Y13.6411
G01 X36.1228 Y13.5477
G01 X36.1759 Y13.4589
G01 X36.1802 Y13.4522
G01 X36.2402 Y13.3712
G01 X36.2452 Y13.3650
G01 X36.3146 Y13.2884
G01 X36.3203 Y13.2828
G01 X36.3566 Y13.2499
G01 X36.3566 Y2.2116
G00 Z3.0000
G00 X38.8966 Y2.2116
G01 F60.00
G01 Z-0.0300
G01 F90.00
G01 X38.8490 Y2.1685
G01 X38.8433 Y2.1629
G01 X38.7746 Y2.0871
G01 X38.7694 Y2.0810
G01 X38.7054 Y1.9945
G01 X38.6513 Y1.9045
G01 X38.6475 Y1.8975
G01 X38.6015 Y1.8002
G01 X38.5644 Y1.6963
G01 X38.5375 Y1.5893
G01 X38.5220 Y1.4854
G01 X38.5211 Y1.4775
G01 X38.5160 Y1.3700
G01 X38.5214 Y1.2598
G01 X38.5375 Y1.1507
G01 X38.5644 Y1.0437
G01 X38.6015 Y0.9398
G01 X38.6487 Y0.8401
G01 X38.7054 Y0.7455
G01 X38.7678 Y0.6611
G01 X38.7728 Y0.6549
G01 X38.8452 Y0.5752
G01 X38.9269 Y0.5011
G01 X39.0155 Y0.4354
G01 X39.1101 Y0.3787
G01 X39.2098 Y0.3315
G01 X39.3137 Y0.2944
G01 X39.4207 Y0.2675
G01 X39.5298 Y0.2514
G01 X39.6400 Y0.2460
G01 X39.7502 Y0.2514
G01 X39.8593 Y0.2675
G01 X39.9663 Y0.2944
G01 X40.0702 Y0.3315
G01 X40.1699 Y0.3787
G01 X40.2645 Y0.4354
G01 X40.3489 Y0.4978
G01 X40.3551 Y0.5028
G01 X40.4348 Y0.5752
G01 X40.5089 Y0.6569
G01 X40.5746 Y0.7455
G01 X40.6287 Y0.8355
G01 X40.6337 Y0.8449
G01 X40.6763 Y0.9350
G01 X40.6804 Y0.9448
G01 X40.7156 Y1.0437
G01 X40.7413 Y1.1455
G01 X40.7434 Y1.1559
G01 X40.7586 Y1.2598
G01 X40.7640 Y1.3673
G01 X40.7639 Y1.3753
G01 X40.7586 Y1.4802
G01 X40.7425 Y1.5893
G01 X40.7156 Y1.6963
G01 X40.6804 Y1.7952
G01 X40.6774 Y1.8026
G01 X40.6313 Y1.8999
G01 X40.5775 Y1.9900
G01 X40.5731 Y1.9967
G01 X40.5122 Y2.0789
G01 X40.5072 Y2.0851
G01 X40.4348 Y2.1648
G01 X40.3834 Y2.2116
G01 X40.3834 Y15.7899
G01 X40.4197 Y15.8228
G01 X40.4254 Y15.8284
G01 X40.4948 Y15.9050
G01 X40.4998 Y15.9112
G01 X40.5598 Y15.9922
G01 X40.5641 Y15.9989
G01 X40.6172 Y16.0877
G01 X40.6627 Y16.1835
G01 X40.6656 Y16.1909
G01 X40.7003 Y16.2884
G01 X40.7268 Y16.3938
G01 X40.7427 Y16.5014
G01 X40.7479 Y16.6047
G01 X40.7480 Y16.6127
G01 X40.7427 Y16.7186
G01 X40.7268 Y16.8262
G01 X40.7003 Y16.9316
G01 X40.6637 Y17.0340
G01 X40.6172 Y17.1323
G01 X40.5613 Y17.2256
G01 X40.4965 Y17.3129
G01 X40.4272 Y17.3897
G01 X40.4197 Y17.3972
G01 X40.3429 Y17.4665
G01 X40.2556 Y17.5313
G01 X40.1623 Y17.5872
G01 X40.0689 Y17.6316
G01 X40.0591 Y17.6356
G01 X39.9667 Y17.6687
G01 X39.9565 Y17.6718
G01 X39.8562 Y17.6968
G01 X39.7539 Y17.7121
G01 X39.7433 Y17.7131
G01 X39.6400 Y17.7180
G01 X39.5314 Y17.7127
G01 X39.4238 Y17.6968
G01 X39.3184 Y17.6703
G01 X39.2160 Y17.6337
G01 X39.1177 Y17.5872
G01 X39.0244 Y17.5313
G01 X38.9371 Y17.4665
G01 X38.8565 Y17.3935
G01 X38.7835 Y17.3129
G01 X38.7187 Y17.2256
G01 X38.6628 Y17.1323
G01 X38.6163 Y17.0340
G01 X38.5797 Y16.9316
G01 X38.5532 Y16.8262
G01 X38.5379 Y16.7239
G01 X38.5369 Y16.7133
G01 X38.5320 Y16.6100
G01 X38.5369 Y16.5067
G01 X38.5379 Y16.4961
G01 X38.5523 Y16.3991
G01 X38.5544 Y16.3887
G01 X38.5797 Y16.2884
G01 X38.6153 Y16.1884
G01 X38.6184 Y16.1811
G01 X38.6628 Y16.0877
G01 X38.7159 Y15.9989
G01 X38.7202 Y15.9922
G01 X38.7802 Y15.9112
G01 X38.7852 Y15.9050
G01 X38.8546 Y15.8284
G01 X38.8603 Y15.8228
G01 X38.8966 Y15.7899
G01 X38.8966 Y2.2116
G00 Z3.0000
G00 X41.4366 Y2.2116
G01 F60.00
G01 Z-0.0300
G01 F90.00
G01 X41.3890 Y2.1685
G01 X41.3833 Y2.1629
G01 X41.3146 Y2.0871
G01 X41.3094 Y2.0810
G01 X41.2454 Y1.9945
G01 X41.1913 Y1.9045
G01 X41.1875 Y1.8975
G01 X41.1415 Y1.8002
G01 X41.1044 Y1.6963
G01 X41.0775 Y1.5893
G01 X41.0620 Y1.4854
G01 X41.0611 Y1.4775
G01 X41.0560 Y1.3700
G01 X41.0614 Y1.2598
G01 X41.0775 Y1.1507
G01 X41.1044 Y1.0437
G01 X41.1415 Y0.9398
G01 X41.1887 Y0.8401
G01 X41.2454 Y0.7455
G01 X41.3078 Y0.6611
G01 X41.3128 Y0.6549
G01 X41.3852 Y0.5752
G01 X41.4669 Y0.5011
G01 X41.5555 Y0.4354
G01 X41.6501 Y0.3787
G01 X41.7498 Y0.3315
G01 X41.8537 Y0.2944
G01 X41.9607 Y0.2675
G01 X42.0698 Y0.2514
G01 X42.1800 Y0.2460
G01 X42.2902 Y0.2514
G01 X42.3993 Y0.2675
G01 X42.5063 Y0.2944
G01 X42.6102 Y0.3315
G01 X42.7099 Y0.3787
G01 X42.8045 Y0.4354
G01 X42.8889 Y0.4978
G01 X42.8951 Y0.5028
G01 X42.9748 Y0.5752
G01 X43.0454 Y0.6529
G01 X43.0522 Y0.6611
G01 X43.1116 Y0.7412
G01 X43.1175 Y0.7500
G01 X43.1713 Y0.8401
G01 X43.2163 Y0.9350
G01 X43.2204 Y0.9448
G01 X43.2556 Y1.0437
G01 X43.2825 Y1.1507
G01 X43.2986 Y1.2598
G01 X43.3040 Y1.3700
G01 X43.2986 Y1.4802
G01 X43.2825 Y1.5893
G01 X43.2556 Y1.6963
G01 X43.2204 Y1.7952
G01 X43.2174 Y1.8026
G01 X43.1713 Y1.8999
G01 X43.1175 Y1.9900
G01 X43.1131 Y1.9967
G01 X43.0522 Y2.0789
G01 X43.0472 Y2.0851
G01 X42.9748 Y2.1648
G01 X42.9234 Y2.2116
G01 X42.9234 Y15.8666
G01 X45.9900 Y15.8666
G01 X46.0576 Y15.8698
G01 X46.0655 Y15.8705
G01 X46.1350 Y15.8809
G01 X46.2007 Y15.8972
G01 X46.2108 Y15.9003
G01 X46.2745 Y15.9232
G01 X46.3357 Y15.9520
G01 X46.3450 Y15.9570
G01 X46.4030 Y15.9919
G01 X46.4574 Y16.0321
G01 X46.4656 Y16.0388
G01 X46.5118 Y16.0807
G01 X46.5193 Y16.0882
G01 X46.5646 Y16.1384
G01 X46.6050 Y16.1927
G01 X46.6109 Y16.2015
G01 X46.6456 Y16.2596
G01 X46.6746 Y16.3207
G01 X46.6787 Y16.3305
G01 X46.7014 Y16.3942
G01 X46.7191 Y16.4650
G01 X46.7298 Y16.5371
G01 X46.7334 Y16.6100
G01 X46.7334 Y29.5571
G01 X46.9071 Y29.5571
G01 X47.0047 Y29.5620
G01 X47.1040 Y29.5767
G01 X47.1988 Y29.6004
G01 X47.2064 Y29.6028
G01 X47.2958 Y29.6350
G01 X47.3819 Y29.6755
G01 X47.3889 Y29.6792
G01 X47.4682 Y29.7266
G01 X47.4770 Y29.7325
G01 X47.5533 Y29.7893
G01 X47.6058 Y29.8366
G01 X47.7099 Y29.8366
G01 X47.7428 Y29.8003
G01 X47.7484 Y29.7946
G01 X47.8250 Y29.7252
G01 X47.8312 Y29.7202
G01 X47.9122 Y29.6602
G01 X47.9189 Y29.6559
G01 X48.0077 Y29.6028
G01 X48.1011 Y29.5584
G01 X48.1084 Y29.5553
G01 X48.2033 Y29.5213
G01 X48.2135 Y29.5182
G01 X48.3138 Y29.4932
G01 X48.4161 Y29.4779
G01 X48.4267 Y29.4769
G01 X48.5300 Y29.4720
G01 X48.6386 Y29.4773
G01 X48.7462 Y29.4932
G01 X48.8516 Y29.5197
G01 X48.9540 Y29.5563
G01 X49.0476 Y29.6004
G01 X49.0569 Y29.6054
G01 X49.1411 Y29.6559
G01 X49.1499 Y29.6617
G01 X49.2329 Y29.7235
G01 X49.3097 Y29.7928
G01 X49.3154 Y29.7984
G01 X49.3865 Y29.8771
G01 X49.4483 Y29.9601
G01 X49.4541 Y29.9689
G01 X49.5072 Y30.0577
G01 X49.5516 Y30.1511
G01 X49.5556 Y30.1609
G01 X49.5903 Y30.2584
G01 X49.6156 Y30.3587
G01 X49.6177 Y30.3691
G01 X49.6327 Y30.4714
G01 X49.6379 Y30.5747
G01 X49.6379 Y30.5853
G01 X49.6327 Y30.6886
G01 X49.6177 Y30.7909
G01 X49.6156 Y30.8013
G01 X49.5903 Y30.9016
G01 X49.5556 Y30.9991
G01 X49.5516 Y31.0089
G01 X49.5072 Y31.1023
G01 X49.4541 Y31.1911
G01 X49.4483 Y31.1999
G01 X49.3865 Y31.2829
G01 X49.3172 Y31.3597
G01 X49.3097 Y31.3672
G01 X49.2329 Y31.4365
G01 X49.1499 Y31.4983
G01 X49.1411 Y31.5041
G01 X49.0523 Y31.5572
G01 X48.9589 Y31.6016
G01 X48.9491 Y31.6056
G01 X48.8516 Y31.6403
G01 X48.7513 Y31.6656
G01 X48.7409 Y31.6677
G01 X48.6386 Y31.6827
G01 X48.5353 Y31.6879
G01 X48.5247 Y31.6879
G01 X48.4214 Y31.6827
G01 X48.3191 Y31.6677
G01 X48.3087 Y31.6656
G01 X48.2135 Y31.6418
G01 X48.2058 Y31.6395
G01 X48.1060 Y31.6037
G01 X48.0124 Y31.5596
G01 X48.0031 Y31.5546
G01 X47.9166 Y31.5028
G01 X47.9101 Y31.4983
G01 X47.8312 Y31.4398
G01 X47.8250 Y31.4348
G01 X47.7484 Y31.3654
G01 X47.7428 Y31.3597
G01 X47.7099 Y31.3234
G01 X47.6058 Y31.3234
G01 X47.5533 Y31.3707
G01 X47.4727 Y31.4305
G01 X47.3866 Y31.4821
G01 X47.2983 Y31.5240
G01 X47.2909 Y31.5270
G01 X47.2064 Y31.5572
G01 X47.1962 Y31.5603
G01 X47.1040 Y31.5833
G01 X47.0047 Y31.5980
G01 X46.9044 Y31.6029
G01 X45.0756 Y31.6029
G01 X44.9753 Y31.5980
G01 X44.8760 Y31.5833
G01 X44.7838 Y31.5603
G01 X44.7736 Y31.5572
G01 X44.6842 Y31.5250
G01 X44.5934 Y31.4821
G01 X44.5118 Y31.4334
G01 X44.5030 Y31.4275
G01 X44.4267 Y31.3707
G01 X44.3523 Y31.3033
G01 X44.2883 Y31.2329
G01 X44.2816 Y31.2247
G01 X44.2251 Y31.1483
G01 X44.1735 Y31.0622
G01 X44.1327 Y30.9763
G01 X44.1286 Y30.9665
G01 X44.0967 Y30.8769
G01 X44.0735 Y30.7847
G01 X44.0714 Y30.7743
G01 X44.0576 Y30.6803
G01 X44.0528 Y30.5853
G01 X44.0528 Y30.5747
G01 X44.0576 Y30.4797
G01 X44.0714 Y30.3857
G01 X44.0735 Y30.3753
G01 X44.0967 Y30.2831
G01 X44.1306 Y30.1886
G01 X44.1711 Y30.1025
G01 X44.1761 Y30.0932
G01 X44.2251 Y30.0117
G01 X44.2816 Y29.9353
G01 X44.2883 Y29.9271
G01 X44.3504 Y29.8586
G01 X44.3561 Y29.8530
G01 X44.4267 Y29.7893
G01 X44.5030 Y29.7325
G01 X44.5118 Y29.7266
G01 X44.5934 Y29.6779
G01 X44.6793 Y29.6371
G01 X44.6891 Y29.6330
G01 X44.7761 Y29.6019
G01 X44.7838 Y29.5997
G01 X44.8760 Y29.5767
G01 X44.9753 Y29.5620
G01 X45.0729 Y29.5571
G01 X45.2466 Y29.5571
G01 X45.2466 Y17.3534
G01 X42.1800 Y17.3534
G01 X42.1124 Y17.3502
G01 X42.1019 Y17.3491
G01 X42.0350 Y17.3391
G01 X41.9693 Y17.3228
G01 X41.9592 Y17.3197
G01 X41.8955 Y17.2968
G01 X41.8296 Y17.2656
G01 X41.7715 Y17.2309
G01 X41.7627 Y17.2250
G01 X41.7084 Y17.1846
G01 X41.6582 Y17.1393
G01 X41.6507 Y17.1318
G01 X41.6054 Y17.0816
G01 X41.5619 Y17.0230
G01 X41.5244 Y16.9604
G01 X41.4954 Y16.8993
G01 X41.4913 Y16.8895
G01 X41.4703 Y16.8308
G01 X41.4672 Y16.8207
G01 X41.4509 Y16.7550
G01 X41.4409 Y16.6881
G01 X41.4398 Y16.6776
G01 X41.4366 Y16.6100
G01 X41.4366 Y2.2116
G00 Z3.0000
G00 X43.9766 Y2.2116
G01 F60.00
G01 Z-0.0300
G01 F90.00
G01 X43.9290 Y2.1685
G01 X43.9233 Y2.1629
G01 X43.8546 Y2.0871
G01 X43.8494 Y2.0810
G01 X43.7854 Y1.9945
G01 X43.7313 Y1.9045
G01 X43.7275 Y1.8975
G01 X43.6815 Y1.8002
G01 X43.6444 Y1.6963
G01 X43.6175 Y1.5893
G01 X43.6020 Y1.4854
G01 X43.6011 Y1.4775
G01 X43.5960 Y1.3700
G01 X43.6014 Y1.2598
G01 X43.6175 Y1.1507
G01 X43.6444 Y1.0437
G01 X43.6815 Y0.9398
G01 X43.7287 Y0.8401
G01 X43.7854 Y0.7455
G01 X43.8478 Y0.6611
G01 X43.8528 Y0.6549
G01 X43.9252 Y0.5752
G01 X44.0069 Y0.5011
G01 X44.0955 Y0.4354
G01 X44.1901 Y0.3787
G01 X44.2898 Y0.3315
G01 X44.3937 Y0.2944
G01 X44.5007 Y0.2675
G01 X44.6098 Y0.2514
G01 X44.7200 Y0.2460
G01 X44.8302 Y0.2514
G01 X44.9393 Y0.2675
G01 X45.0463 Y0.2944
G01 X45.1502 Y0.3315
G01 X45.2499 Y0.3787
G01 X45.3445 Y0.4354
G01 X45.4289 Y0.4978
G01 X45.4351 Y0.5028
G01 X45.5148 Y0.5752
G01 X45.5854 Y0.6529
G01 X45.5922 Y0.6611
G01 X45.6516 Y0.7412
G01 X45.6575 Y0.7500
G01 X45.7113 Y0.8401
G01 X45.7563 Y0.9350
G01 X45.7604 Y0.9448
G01 X45.7956 Y1.0437
G01 X45.8225 Y1.1507
G01 X45.8386 Y1.2598
G01 X45.8440 Y1.3700
G01 X45.8386 Y1.4802
G01 X45.8225 Y1.5893
G01 X45.7956 Y1.6963
G01 X45.7604 Y1.7952
G01 X45.7574 Y1.8026
G01 X45.7113 Y1.8999
G01 X45.6575 Y1.9900
G01 X45.6531 Y1.9967
G01 X45.5922 Y2.0789
G01 X45.5872 Y2.0851
G01 X45.5148 Y2.1648
G01 X45.4634 Y2.2116
G01 X45.4634 Y5.7066
G01 X52.7899 Y5.7066
G01 X52.8228 Y5.6703
G01 X52.8284 Y5.6646
G01 X52.9050 Y5.5952
G01 X52.9112 Y5.5902
G01 X52.9922 Y5.5302
G01 X52.9989 Y5.5259
G01 X53.0877 Y5.4728
G01 X53.1811 Y5.4284
G01 X53.1884 Y5.4253
G01 X53.2833 Y5.3913
G01 X53.2935 Y5.3882
G01 X53.3938 Y5.3632
G01 X53.4961 Y5.3479
G01 X53.5067 Y5.3469
G01 X53.6100 Y5.3420
G01 X53.7133 Y5.3469
G01 X53.7212 Y5.3476
G01 X53.8209 Y5.3623
G01 X53.8313 Y5.3644
G01 X53.9316 Y5.3897
G01 X54.0291 Y5.4244
G01 X54.0389 Y5.4284
G01 X54.1323 Y5.4728
G01 X54.2256 Y5.5287
G01 X54.3129 Y5.5935
G01 X54.3897 Y5.6628
G01 X54.3972 Y5.6703
G01 X54.4665 Y5.7471
G01 X54.5283 Y5.8301
G01 X54.5341 Y5.8389
G01 X54.5846 Y5.9231
G01 X54.5896 Y5.9324
G01 X54.6337 Y6.0260
G01 X54.6703 Y6.1284
G01 X54.6968 Y6.2338
G01 X54.7121 Y6.3361
G01 X54.7131 Y6.3467
G01 X54.7179 Y6.4447
G01 X54.7179 Y6.4553
G01 X54.7127 Y6.5586
G01 X54.6977 Y6.6609
G01 X54.6956 Y6.6713
G01 X54.6703 Y6.7716
G01 X54.6356 Y6.8691
G01 X54.6327 Y6.8765
G01 X54.5872 Y6.9723
G01 X54.5341 Y7.0611
G01 X54.5283 Y7.0699
G01 X54.4665 Y7.1529
G01 X54.3935 Y7.2335
G01 X54.3170 Y7.3031
G01 X54.3088 Y7.3098
G01 X54.2256 Y7.3713
G01 X54.1369 Y7.4246
G01 X54.1276 Y7.4296
G01 X54.0340 Y7.4737
G01 X53.9316 Y7.5103
G01 X53.8313 Y7.5356
G01 X53.8209 Y7.5377
G01 X53.7186 Y7.5527
G01 X53.6127 Y7.5580
G01 X53.6047 Y7.5579
G01 X53.5014 Y7.5527
G01 X53.3938 Y7.5368
G01 X53.2884 Y7.5103
G01 X53.1909 Y7.4756
G01 X53.1835 Y7.4727
G01 X53.0877 Y7.4272
G01 X52.9989 Y7.3741
G01 X52.9922 Y7.3698
G01 X52.9112 Y7.3098
G01 X52.9050 Y7.3048
G01 X52.8284 Y7.2354
G01 X52.8228 Y7.2297
G01 X52.7899 Y7.1934
G01 X44.7200 Y7.1934
G01 X44.6471 Y7.1898
G01 X44.5750 Y7.1791
G01 X44.5042 Y7.1614
G01 X44.4405 Y7.1387
G01 X44.4331 Y7.1357
G01 X44.3696 Y7.1056
G01 X44.3115 Y7.0709
G01 X44.3027 Y7.0650
G01 X44.2484 Y7.0246
G01 X44.1982 Y6.9793
G01 X44.1907 Y6.9718
G01 X44.1454 Y6.9216
G01 X44.1050 Y6.8673
G01 X44.0991 Y6.8585
G01 X44.0644 Y6.8004
G01 X44.0354 Y6.7393
G01 X44.0313 Y6.7295
G01 X44.0086 Y6.6658
G01 X43.9921 Y6.6002
G01 X43.9900 Y6.5898
G01 X43.9802 Y6.5229
G01 X43.9766 Y6.4500
G01 X43.9766 Y2.2116
G00 Z3.0000
G00 X48.3839 Y1.3753
G01 F60.00
G01 Z-0.0300
G01 F90.00
G01 X48.3786 Y1.4802
G01 X48.3625 Y1.5893
G01 X48.3356 Y1.6963
G01 X48.2985 Y1.8002
G01 X48.2513 Y1.8999
G01 X48.1946 Y1.9945
G01 X48.1289 Y2.0831
G01 X48.0548 Y2.1648
G01 X47.9731 Y2.2389
G01 X47.8845 Y2.3046
G01 X47.7899 Y2.3613
G01 X47.6902 Y2.4085
G01 X47.5863 Y2.4456
G01 X47.4793 Y2.4725
G01 X47.3702 Y2.4886
G01 X47.2600 Y2.4940
G01 X47.1498 Y2.4886
G01 X47.0407 Y2.4725
G01 X46.9337 Y2.4456
G01 X46.8298 Y2.4085
G01 X46.7301 Y2.3613
G01 X46.6355 Y2.3046
G01 X46.5469 Y2.2389
G01 X46.4652 Y2.1648
G01 X46.3911 Y2.0831
G01 X46.3254 Y1.9945
G01 X46.2687 Y1.8999
G01 X46.2215 Y1.8002
G01 X46.1844 Y1.6963
G01 X46.1575 Y1.5893
G01 X46.1414 Y1.4802
G01 X46.1360 Y1.3700
G01 X46.1414 Y1.2598
G01 X46.1575 Y1.1507
G01 X46.1844 Y1.0437
G01 X46.2215 Y0.9398
G01 X46.2687 Y0.8401
G01 X46.3254 Y0.7455
G01 X46.3911 Y0.6569
G01 X46.4652 Y0.5752
G01 X46.5469 Y0.5011
G01 X46.6355 Y0.4354
G01 X46.7301 Y0.3787
G01 X46.8298 Y0.3315
G01 X46.9337 Y0.2944
G01 X47.0407 Y0.2675
G01 X47.1498 Y0.2514
G01 X47.2600 Y0.2460
G01 X47.3702 Y0.2514
G01 X47.4793 Y0.2675
G01 X47.5863 Y0.2944
G01 X47.6902 Y0.3315
G01 X47.7899 Y0.3787
G01 X47.8845 Y0.4354
G01 X47.9731 Y0.5011
G01 X48.0548 Y0.5752
G01 X48.1289 Y0.6569
G01 X48.1946 Y0.7455
G01 X48.2513 Y0.8401
G01 X48.2985 Y0.9398
G01 X48.3356 Y1.0437
G01 X48.3625 Y1.1507
G01 X48.3786 Y1.2598
G01 X48.3839 Y1.3647
G01 X48.3839 Y1.3753
G00 Z3.0000
G00 X50.9239 Y1.3753
G01 F60.00
G01 Z-0.0300
G01 F90.00
G01 X50.9186 Y1.4802
G01 X50.9025 Y1.5893
G01 X50.8756 Y1.6963
G01 X50.8385 Y1.8002
G01 X50.7913 Y1.8999
G01 X50.7346 Y1.9945
G01 X50.6689 Y2.0831
G01 X50.5948 Y2.1648
G01 X50.5131 Y2.2389
G01 X50.4245 Y2.3046
G01 X50.3299 Y2.3613
G01 X50.2302 Y2.4085
G01 X50.1263 Y2.4456
G01 X50.0193 Y2.4725
G01 X49.9102 Y2.4886
G01 X49.8000 Y2.4940
G01 X49.6898 Y2.4886
G01 X49.5807 Y2.4725
G01 X49.4737 Y2.4456
G01 X49.3698 Y2.4085
G01 X49.2701 Y2.3613
G01 X49.1755 Y2.3046
G01 X49.0869 Y2.2389
G01 X49.0052 Y2.1648
G01 X48.9311 Y2.0831
G01 X48.8654 Y1.9945
G01 X48.8087 Y1.8999
G01 X48.7615 Y1.8002
G01 X48.7244 Y1.6963
G01 X48.6975 Y1.5893
G01 X48.6814 Y1.4802
G01 X48.6760 Y1.3700
G01 X48.6814 Y1.2598
G01 X48.6975 Y1.1507
G01 X48.7244 Y1.0437
G01 X48.7615 Y0.9398
G01 X48.8087 Y0.8401
G01 X48.8654 Y0.7455
G01 X48.9311 Y0.6569
G01 X49.0052 Y0.5752
G01 X49.0869 Y0.5011
G01 X49.1755 Y0.4354
G01 X49.2701 Y0.3787
G01 X49.3698 Y0.3315
G01 X49.4737 Y0.2944
G01 X49.5807 Y0.2675
G01 X49.6898 Y0.2514
G01 X49.8000 Y0.2460
G01 X49.9102 Y0.2514
G01 X50.0193 Y0.2675
G01 X50.1263 Y0.2944
G01 X50.2302 Y0.3315
G01 X50.3299 Y0.3787
G01 X50.4245 Y0.4354
G01 X50.5131 Y0.5011
G01 X50.5948 Y0.5752
G01 X50.6689 Y0.6569
G01 X50.7346 Y0.7455
G01 X50.7913 Y0.8401
G01 X50.8385 Y0.9398
G01 X50.8756 Y1.0437
G01 X50.9025 Y1.1507
G01 X50.9186 Y1.2598
G01 X50.9239 Y1.3647
G01 X50.9239 Y1.3753
G00 Z3.0000
G00 X53.4639 Y1.3753
G01 F60.00
G01 Z-0.0300
G01 F90.00
G01 X53.4586 Y1.4802
G01 X53.4425 Y1.5893
G01 X53.4156 Y1.6963
G01 X53.3785 Y1.8002
G01 X53.3313 Y1.8999
G01 X53.2746 Y1.9945
G01 X53.2089 Y2.0831
G01 X53.1348 Y2.1648
G01 X53.0531 Y2.2389
G01 X52.9645 Y2.3046
G01 X52.8699 Y2.3613
G01 X52.7702 Y2.4085
G01 X52.6663 Y2.4456
G01 X52.5593 Y2.4725
G01 X52.4502 Y2.4886
G01 X52.3400 Y2.4940
G01 X52.2298 Y2.4886
G01 X52.1207 Y2.4725
G01 X52.0137 Y2.4456
G01 X51.9098 Y2.4085
G01 X51.8101 Y2.3613
G01 X51.7155 Y2.3046
G01 X51.6269 Y2.2389
G01 X51.5452 Y2.1648
G01 X51.4711 Y2.0831
G01 X51.4054 Y1.9945
G01 X51.3487 Y1.8999
G01 X51.3015 Y1.8002
G01 X51.2644 Y1.6963
G01 X51.2375 Y1.5893
G01 X51.2214 Y1.4802
G01 X51.2160 Y1.3700
G01 X51.2214 Y1.2598
G01 X51.2375 Y1.1507
G01 X51.2644 Y1.0437
G01 X51.3015 Y0.9398
G01 X51.3487 Y0.8401
G01 X51.4054 Y0.7455
G01 X51.4711 Y0.6569
G01 X51.5452 Y0.5752
G01 X51.6269 Y0.5011
G01 X51.7155 Y0.4354
G01 X51.8101 Y0.3787
G01 X51.9098 Y0.3315
G01 X52.0137 Y0.2944
G01 X52.1207 Y0.2675
G01 X52.2298 Y0.2514
G01 X52.3400 Y0.2460
G01 X52.4502 Y0.2514
G01 X52.5593 Y0.2675
G01 X52.6663 Y0.2944
G01 X52.7702 Y0.3315
G01 X52.8699 Y0.3787
G01 X52.9645 Y0.4354
G01 X53.0531 Y0.5011
G01 X53.1348 Y0.5752
G01 X53.2089 Y0.6569
G01 X53.2746 Y0.7455
G01 X53.3313 Y0.8401
G01 X53.3785 Y0.9398
G01 X53.4156 Y1.0437
G01 X53.4425 Y1.1507
G01 X53.4586 Y1.2598
G01 X53.4639 Y1.3647
G01 X53.4639 Y1.3753
G00 Z3.0000
G00 X56.0039 Y1.3753
G01 F60.00
G01 Z-0.0300
G01 F90.00
G01 X55.9986 Y1.4802
G01 X55.9825 Y1.5893
G01 X55.9556 Y1.6963
G01 X55.9185 Y1.8002
G01 X55.8713 Y1.8999
G01 X55.8146 Y1.9945
G01 X55.7489 Y2.0831
G01 X55.6748 Y2.1648
G01 X55.5931 Y2.2389
G01 X55.5045 Y2.3046
G01 X55.4099 Y2.3613
G01 X55.3102 Y2.4085
G01 X55.2063 Y2.4456
G01 X55.0993 Y2.4725
G01 X54.9902 Y2.4886
G01 X54.8800 Y2.4940
G01 X54.7698 Y2.4886
G01 X54.6607 Y2.4725
G01 X54.5537 Y2.4456
G01 X54.4498 Y2.4085
G01 X54.3501 Y2.3613
G01 X54.2555 Y2.3046
G01 X54.1669 Y2.2389
G01 X54.0852 Y2.1648
G01 X54.0111 Y2.0831
G01 X53.9454 Y1.9945
G01 X53.8887 Y1.8999
G01 X53.8415 Y1.8002
G01 X53.8044 Y1.6963
G01 X53.7775 Y1.5893
G01 X53.7614 Y1.4802
G01 X53.7560 Y1.3700
G01 X53.7614 Y1.2598
G01 X53.7775 Y1.1507
G01 X53.8044 Y1.0437
G01 X53.8415 Y0.9398
G01 X53.8887 Y0.8401
G01 X53.9454 Y0.7455
G01 X54.0111 Y0.6569
G01 X54.0852 Y0.5752
G01 X54.1669 Y0.5011
G01 X54.2555 Y0.4354
G01 X54.3501 Y0.3787
G01 X54.4498 Y0.3315
G01 X54.5537 Y0.2944
G01 X54.6607 Y0.2675
G01 X54.7698 Y0.2514
G01 X54.8800 Y0.2460
G01 X54.9902 Y0.2514
G01 X55.0993 Y0.2675
G01 X55.2063 Y0.2944
G01 X55.3102 Y0.3315
G01 X55.4099 Y0.3787
G01 X55.5045 Y0.4354
G01 X55.5931 Y0.5011
G01 X55.6748 Y0.5752
G01 X55.7489 Y0.6569
G01 X55.8146 Y0.7455
G01 X55.8713 Y0.8401
G01 X55.9185 Y0.9398
G01 X55.9556 Y1.0437
G01 X55.9825 Y1.1507
G01 X55.9986 Y1.2598
G01 X56.0039 Y1.3647
G01 X56.0039 Y1.3753
G00 Z3.0000
G00 X56.6766 Y2.2116
G01 F60.00
G01 Z-0.0300
G01 F90.00
G01 X56.6290 Y2.1685
G01 X56.6233 Y2.1629
G01 X56.5546 Y2.0871
G01 X56.5494 Y2.0810
G01 X56.4854 Y1.9945
G01 X56.4313 Y1.9045
G01 X56.4275 Y1.8975
G01 X56.3815 Y1.8002
G01 X56.3444 Y1.6963
G01 X56.3175 Y1.5893
G01 X56.3020 Y1.4854
G01 X56.3011 Y1.4775
G01 X56.2960 Y1.3700
G01 X56.3014 Y1.2598
G01 X56.3175 Y1.1507
G01 X56.3444 Y1.0437
G01 X56.3815 Y0.9398
G01 X56.4287 Y0.8401
G01 X56.4854 Y0.7455
G01 X56.5494 Y0.6590
G01 X56.5546 Y0.6529
G01 X56.6252 Y0.5752
G01 X56.7069 Y0.5011
G01 X56.7955 Y0.4354
G01 X56.8855 Y0.3813
G01 X56.8949 Y0.3763
G01 X56.9898 Y0.3315
G01 X57.0887 Y0.2960
G01 X57.0988 Y0.2929
G01 X57.1955 Y0.2687
G01 X57.2059 Y0.2666
G01 X57.3098 Y0.2514
G01 X57.4200 Y0.2460
G01 X57.5302 Y0.2514
G01 X57.6393 Y0.2675
G01 X57.7463 Y0.2944
G01 X57.8502 Y0.3315
G01 X57.9499 Y0.3787
G01 X58.0400 Y0.4325
G01 X58.0488 Y0.4384
G01 X58.1331 Y0.5011
G01 X58.2110 Y0.5715
G01 X58.2185 Y0.5790
G01 X58.2889 Y0.6569
G01 X58.3516 Y0.7412
G01 X58.3575 Y0.7500
G01 X58.4113 Y0.8401
G01 X58.4585 Y0.9398
G01 X58.4940 Y1.0387
G01 X58.4971 Y1.0488
G01 X58.5225 Y1.1507
G01 X58.5380 Y1.2546
G01 X58.5390 Y1.2651
G01 X58.5440 Y1.3673
G01 X58.5439 Y1.3753
G01 X58.5386 Y1.4802
G01 X58.5225 Y1.5893
G01 X58.4956 Y1.6963
G01 X58.4604 Y1.7952
G01 X58.4574 Y1.8026
G01 X58.4113 Y1.8999
G01 X58.3575 Y1.9900
G01 X58.3531 Y1.9967
G01 X58.2922 Y2.0789
G01 X58.2872 Y2.0851
G01 X58.2148 Y2.1648
G01 X58.1634 Y2.2116
G01 X58.1634 Y5.7066
G01 X62.5000 Y5.7066
G01 X62.5729 Y5.7102
G01 X62.6450 Y5.7209
G01 X62.7107 Y5.7372
G01 X62.7208 Y5.7403
G01 X62.7845 Y5.7632
G01 X62.8504 Y5.7944
G01 X62.9085 Y5.8291
G01 X62.9173 Y5.8350
G01 X62.9716 Y5.8754
G01 X63.0218 Y5.9207
G01 X63.0293 Y5.9282
G01 X63.0746 Y5.9784
G01 X63.1181 Y6.0370
G01 X63.1556 Y6.0996
G01 X63.1846 Y6.1607
G01 X63.1887 Y6.1705
G01 X63.2097 Y6.2292
G01 X63.2121 Y6.2368
G01 X63.2291 Y6.3050
G01 X63.2391 Y6.3719
G01 X63.2402 Y6.3824
G01 X63.2434 Y6.4500
G01 X63.2434 Y45.0766
G01 X71.3953 Y45.0768
G01 X71.4576 Y45.0798
G01 X71.4681 Y45.0809
G01 X71.5350 Y45.0909
G01 X71.6007 Y45.1072
G01 X71.6108 Y45.1103
G01 X71.6745 Y45.1332
G01 X71.7404 Y45.1644
G01 X71.8030 Y45.2019
G01 X71.8574 Y45.2421
G01 X71.8656 Y45.2488
G01 X71.9156 Y45.2944
G01 X71.9612 Y45.3444
G01 X71.9679 Y45.3526
G01 X72.0081 Y45.4070
G01 X72.0430 Y45.4650
G01 X72.0480 Y45.4743
G01 X72.0768 Y45.5355
G01 X72.1014 Y45.6042
G01 X72.1179 Y45.6698
G01 X72.1200 Y45.6802
G01 X72.1298 Y45.7471
G01 X72.1333 Y45.8173
G01 X72.1334 Y54.3642
G01 X72.1807 Y54.4167
G01 X72.2405 Y54.4973
G01 X72.2921 Y54.5834
G01 X72.3340 Y54.6717
G01 X72.3370 Y54.6791
G01 X72.3672 Y54.7636
G01 X72.3703 Y54.7738
G01 X72.3933 Y54.8660
G01 X72.4080 Y54.9653
G01 X72.4129 Y55.0656
G01 X72.4129 Y56.8971
G01 X72.4080 Y56.9947
G01 X72.3942 Y57.0887
G01 X72.3921 Y57.0991
G01 X72.3703 Y57.1862
G01 X72.3672 Y57.1964
G01 X72.3350 Y57.2858
G01 X72.2921 Y57.3766
G01 X72.2405 Y57.4627
G01 X72.1840 Y57.5391
G01 X72.1773 Y57.5473
G01 X72.1170 Y57.6139
G01 X72.1095 Y57.6214
G01 X72.0389 Y57.6851
G01 X71.9583 Y57.7449
G01 X71.8722 Y57.7965
G01 X71.7863 Y57.8373
G01 X71.7765 Y57.8414
G01 X71.6920 Y57.8716
G01 X71.6844 Y57.8740
G01 X71.5896 Y57.8977
G01 X71.4955 Y57.9117
G01 X71.4850 Y57.9128
G01 X71.3900 Y57.9173
G01 X71.2950 Y57.9128
G01 X71.2845 Y57.9117
G01 X71.1957 Y57.8986
G01 X71.1853 Y57.8965
G01 X71.0931 Y57.8733
G01 X70.9986 Y57.8394
G01 X70.9078 Y57.7965
G01 X70.8217 Y57.7449
G01 X70.7411 Y57.6851
G01 X70.6667 Y57.6177
G01 X70.5993 Y57.5433
G01 X70.5425 Y57.4670
G01 X70.5366 Y57.4582
G01 X70.4905 Y57.3812
G01 X70.4855 Y57.3719
G01 X70.4450 Y57.2858
G01 X70.4128 Y57.1964
G01 X70.4097 Y57.1862
G01 X70.3867 Y57.0940
G01 X70.3720 Y56.9947
G01 X70.3671 Y56.8944
G01 X70.3671 Y55.0656
G01 X70.3720 Y54.9653
G01 X70.3867 Y54.8660
G01 X70.4097 Y54.7738
G01 X70.4128 Y54.7636
G01 X70.4430 Y54.6791
G01 X70.4460 Y54.6717
G01 X70.4879 Y54.5834
G01 X70.5395 Y54.4973
G01 X70.5993 Y54.4167
G01 X70.6466 Y54.3642
G01 X70.6466 Y46.5634
G01 X62.5000 Y46.5634
G01 X62.4324 Y46.5602
G01 X62.4219 Y46.5591
G01 X62.3602 Y46.5500
G01 X62.3498 Y46.5479
G01 X62.2842 Y46.5314
G01 X62.2155 Y46.5068
G01 X62.1496 Y46.4756
G01 X62.0915 Y46.4409
G01 X62.0827 Y46.4350
G01 X62.0284 Y46.3946
G01 X61.9782 Y46.3493
G01 X61.9707 Y46.3418
G01 X61.9254 Y46.2916
G01 X61.8819 Y46.2330
G01 X61.8444 Y46.1704
G01 X61.8154 Y46.1093
G01 X61.8113 Y46.0995
G01 X61.7903 Y46.0408
G01 X61.7879 Y46.0332
G01 X61.7709 Y45.9650
G01 X61.7609 Y45.8981
G01 X61.7598 Y45.8876
G01 X61.7566 Y45.8200
G01 X61.7566 Y7.1934
G01 X57.4147 Y7.1932
G01 X57.3471 Y7.1898
G01 X57.2750 Y7.1791
G01 X57.2042 Y7.1614
G01 X57.1355 Y7.1368
G01 X57.0696 Y7.1056
G01 X57.0070 Y7.0681
G01 X56.9484 Y7.0246
G01 X56.8944 Y6.9756
G01 X56.8454 Y6.9216
G01 X56.8019 Y6.8630
G01 X56.7644 Y6.8004
G01 X56.7332 Y6.7345
G01 X56.7086 Y6.6658
G01 X56.6909 Y6.5950
G01 X56.6802 Y6.5229
G01 X56.6768 Y6.4553
G01 X56.6766 Y2.2116
G00 Z3.0000
G00 X61.0839 Y1.3753
G01 F60.00
G01 Z-0.0300
G01 F90.00
G01 X61.0786 Y1.4802
G01 X61.0625 Y1.5893
G01 X61.0356 Y1.6963
G01 X60.9985 Y1.8002
G01 X60.9513 Y1.8999
G01 X60.8946 Y1.9945
G01 X60.8289 Y2.0831
G01 X60.7548 Y2.1648
G01 X60.6731 Y2.2389
G01 X60.5845 Y2.3046
G01 X60.4899 Y2.3613
G01 X60.3902 Y2.4085
G01 X60.2863 Y2.4456
G01 X60.1793 Y2.4725
G01 X60.0702 Y2.4886
G01 X59.9600 Y2.4940
G01 X59.8498 Y2.4886
G01 X59.7407 Y2.4725
G01 X59.6337 Y2.4456
G01 X59.5298 Y2.4085
G01 X59.4301 Y2.3613
G01 X59.3355 Y2.3046
G01 X59.2469 Y2.2389
G01 X59.1652 Y2.1648
G01 X59.0911 Y2.0831
G01 X59.0254 Y1.9945
G01 X58.9687 Y1.8999
G01 X58.9215 Y1.8002
G01 X58.8844 Y1.6963
G01 X58.8575 Y1.5893
G01 X58.8414 Y1.4802
G01 X58.8360 Y1.3700
G01 X58.8414 Y1.2598
G01 X58.8575 Y1.1507
G01 X58.8844 Y1.0437
G01 X58.9215 Y0.9398
G01 X58.9687 Y0.8401
G01 X59.0254 Y0.7455
G01 X59.0911 Y0.6569
G01 X59.1652 Y0.5752
G01 X59.2469 Y0.5011
G01 X59.3355 Y0.4354
G01 X59.4301 Y0.3787
G01 X59.5298 Y0.3315
G01 X59.6337 Y0.2944
G01 X59.7407 Y0.2675
G01 X59.8498 Y0.2514
G01 X59.9600 Y0.2460
G01 X60.0702 Y0.2514
G01 X60.1793 Y0.2675
G01 X60.2863 Y0.2944
G01 X60.3902 Y0.3315
G01 X60.4899 Y0.3787
G01 X60.5845 Y0.4354
G01 X60.6731 Y0.5011
G01 X60.7548 Y0.5752
G01 X60.8289 Y0.6569
G01 X60.8946 Y0.7455
G01 X60.9513 Y0.8401
G01 X60.9985 Y0.9398
G01 X61.0356 Y1.0437
G01 X61.0625 Y1.1507
G01 X61.0786 Y1.2598
G01 X61.0839 Y1.3647
G01 X61.0839 Y1.3753
G00 Z3.0000
G00 X61.7566 Y2.2116
G01 F60.00
G01 Z-0.0300
G01 F90.00
G01 X61.7090 Y2.1685
G01 X61.7033 Y2.1629
G01 X61.6346 Y2.0871
G01 X61.6294 Y2.0810
G01 X61.5654 Y1.9945
G01 X61.5113 Y1.9045
G01 X61.5075 Y1.8975
G01 X61.4615 Y1.8002
G01 X61.4244 Y1.6963
G01 X61.3975 Y1.5893
G01 X61.3817 Y1.4828
G01 X61.3810 Y1.4749
G01 X61.3760 Y1.3700
G01 X61.3810 Y1.2651
G01 X61.3820 Y1.2546
G01 X61.3966 Y1.1559
G01 X61.3987 Y1.1455
G01 X61.4244 Y1.0437
G01 X61.4615 Y0.9398
G01 X61.5087 Y0.8401
G01 X61.5639 Y0.7477
G01 X61.5684 Y0.7412
G01 X61.6311 Y0.6569
G01 X61.7015 Y0.5790
G01 X61.7090 Y0.5715
G01 X61.7829 Y0.5046
G01 X61.7911 Y0.4978
G01 X61.8755 Y0.4354
G01 X61.9701 Y0.3787
G01 X62.0698 Y0.3315
G01 X62.1737 Y0.2944
G01 X62.2807 Y0.2675
G01 X62.3846 Y0.2520
G01 X62.3951 Y0.2510
G01 X62.4947 Y0.2461
G01 X62.5053 Y0.2461
G01 X62.6102 Y0.2514
G01 X62.7193 Y0.2675
G01 X62.8263 Y0.2944
G01 X62.9277 Y0.3305
G01 X62.9350 Y0.3337
G01 X63.0251 Y0.3763
G01 X63.0345 Y0.3813
G01 X63.1245 Y0.4354
G01 X63.2089 Y0.4978
G01 X63.2171 Y0.5046
G01 X63.2948 Y0.5752
G01 X63.3654 Y0.6529
G01 X63.3722 Y0.6611
G01 X63.4346 Y0.7455
G01 X63.4887 Y0.8355
G01 X63.4937 Y0.8449
G01 X63.5385 Y0.9398
G01 X63.5740 Y1.0387
G01 X63.5771 Y1.0488
G01 X63.6025 Y1.1507
G01 X63.6183 Y1.2572
G01 X63.6190 Y1.2651
G01 X63.6240 Y1.3700
G01 X63.6190 Y1.4749
G01 X63.6180 Y1.4854
G01 X63.6025 Y1.5893
G01 X63.5771 Y1.6912
G01 X63.5740 Y1.7013
G01 X63.5395 Y1.7977
G01 X63.5363 Y1.8050
G01 X63.4913 Y1.8999
G01 X63.4375 Y1.9900
G01 X63.4331 Y1.9967
G01 X63.3722 Y2.0789
G01 X63.3672 Y2.0851
G01 X63.2948 Y2.1648
G01 X63.2434 Y2.2116
G01 X63.2434 Y3.1666
G01 X65.0400 Y3.1666
G01 X65.1129 Y3.1702
G01 X65.1798 Y3.1800
G01 X65.1902 Y3.1821
G01 X65.2558 Y3.1986
G01 X65.3195 Y3.2213
G01 X65.3293 Y3.2254
G01 X65.3904 Y3.2544
G01 X65.4485 Y3.2891
G01 X65.4573 Y3.2950
G01 X65.5116 Y3.3354
G01 X65.5656 Y3.3844
G01 X65.6146 Y3.4384
G01 X65.6550 Y3.4927
G01 X65.6609 Y3.5015
G01 X65.6956 Y3.5596
G01 X65.7268 Y3.6255
G01 X65.7497 Y3.6892
G01 X65.7528 Y3.6993
G01 X65.7679 Y3.7598
G01 X65.7696 Y3.7676
G01 X65.7798 Y3.8371
G01 X65.7834 Y3.9100
G01 X65.7834 Y42.5366
G01 X68.0299 Y42.5366
G01 X68.0628 Y42.5003
G01 X68.0684 Y42.4946
G01 X68.1430 Y42.4269
G01 X68.1491 Y42.4218
G01 X68.2344 Y42.3587
G01 X68.3231 Y42.3054
G01 X68.3300 Y42.3016
G01 X68.4260 Y42.2563
G01 X68.5284 Y42.2197
G01 X68.6338 Y42.1932
G01 X68.7361 Y42.1779
G01 X68.7440 Y42.1771
G01 X68.8500 Y42.1720
G01 X68.9533 Y42.1769
G01 X68.9639 Y42.1779
G01 X69.0662 Y42.1932
G01 X69.1716 Y42.2197
G01 X69.2691 Y42.2544
G01 X69.2789 Y42.2584
G01 X69.3676 Y42.3004
G01 X69.3747 Y42.3041
G01 X69.4656 Y42.3587
G01 X69.5488 Y42.4202
G01 X69.5570 Y42.4269
G01 X69.6335 Y42.4965
G01 X69.7065 Y42.5771
G01 X69.7683 Y42.6601
G01 X69.7741 Y42.6689
G01 X69.8246 Y42.7531
G01 X69.8296 Y42.7624
G01 X69.8737 Y42.8560
G01 X69.9103 Y42.9584
G01 X69.9368 Y43.0638
G01 X69.9521 Y43.1661
G01 X69.9531 Y43.1767
G01 X69.9579 Y43.2747
G01 X69.9579 Y43.2853
G01 X69.9527 Y43.3886
G01 X69.9377 Y43.4909
G01 X69.9356 Y43.5013
G01 X69.9118 Y43.5965
G01 X69.9087 Y43.6067
G01 X69.8737 Y43.7040
G01 X69.8272 Y43.8023
G01 X69.7741 Y43.8911
G01 X69.7683 Y43.8999
G01 X69.7065 Y43.9829
G01 X69.6335 Y44.0635
G01 X69.5529 Y44.1365
G01 X69.4699 Y44.1983
G01 X69.4611 Y44.2041
G01 X69.3723 Y44.2572
G01 X69.2740 Y44.3037
G01 X69.1767 Y44.3387
G01 X69.1665 Y44.3418
G01 X69.0713 Y44.3656
G01 X69.0636 Y44.3672
G01 X68.9639 Y44.3821
G01 X68.9533 Y44.3831
G01 X68.8500 Y44.3880
G01 X68.7467 Y44.3831
G01 X68.7361 Y44.3821
G01 X68.6338 Y44.3668
G01 X68.5335 Y44.3418
G01 X68.5258 Y44.3395
G01 X68.4260 Y44.3037
G01 X68.3324 Y44.2596
G01 X68.3231 Y44.2546
G01 X68.2366 Y44.2028
G01 X68.2301 Y44.1983
G01 X68.1512 Y44.1398
G01 X68.1450 Y44.1348
G01 X68.0684 Y44.0654
G01 X68.0628 Y44.0597
G01 X68.0299 Y44.0234
G01 X65.0400 Y44.0234
G01 X64.9671 Y44.0198
G01 X64.8950 Y44.0091
G01 X64.8242 Y43.9914
G01 X64.7605 Y43.9687
G01 X64.7507 Y43.9646
G01 X64.6896 Y43.9356
G01 X64.6270 Y43.8981
G01 X64.5726 Y43.8579
G01 X64.5644 Y43.8512
G01 X64.5144 Y43.8056
G01 X64.4654 Y43.7516
G01 X64.4250 Y43.6973
G01 X64.4191 Y43.6885
G01 X64.3844 Y43.6304
G01 X64.3532 Y43.5645
G01 X64.3303 Y43.5008
G01 X64.3272 Y43.4907
G01 X64.3121 Y43.4302
G01 X64.3104 Y43.4224
G01 X64.3002 Y43.3529
G01 X64.2966 Y43.2800
G01 X64.2966 Y4.6534
G01 X62.5000 Y4.6534
G01 X62.4271 Y4.6498
G01 X62.3550 Y4.6391
G01 X62.2893 Y4.6228
G01 X62.2792 Y4.6197
G01 X62.2205 Y4.5987
G01 X62.2107 Y4.5946
G01 X62.1496 Y4.5656
G01 X62.0870 Y4.5281
G01 X62.0284 Y4.4846
G01 X61.9763 Y4.4375
G01 X61.9707 Y4.4318
G01 X61.9254 Y4.3816
G01 X61.8850 Y4.3273
G01 X61.8791 Y4.3185
G01 X61.8470 Y4.2650
G01 X61.8420 Y4.2557
G01 X61.8132 Y4.1945
G01 X61.7886 Y4.1258
G01 X61.7709 Y4.0550
G01 X61.7602 Y3.9829
G01 X61.7566 Y3.9100
G01 X61.7566 Y2.2116
G00 Z3.0000
G00 X66.1639 Y1.3753
G01 F60.00
G01 Z-0.0300
G01 F90.00
G01 X66.1586 Y1.4802
G01 X66.1425 Y1.5893
G01 X66.1156 Y1.6963
G01 X66.0785 Y1.8002
G01 X66.0313 Y1.8999
G01 X65.9746 Y1.9945
G01 X65.9089 Y2.0831
G01 X65.8348 Y2.1648
G01 X65.7531 Y2.2389
G01 X65.6645 Y2.3046
G01 X65.5699 Y2.3613
G01 X65.4702 Y2.4085
G01 X65.3663 Y2.4456
G01 X65.2593 Y2.4725
G01 X65.1502 Y2.4886
G01 X65.0400 Y2.4940
G01 X64.9298 Y2.4886
G01 X64.8207 Y2.4725
G01 X64.7137 Y2.4456
G01 X64.6098 Y2.4085
G01 X64.5101 Y2.3613
G01 X64.4155 Y2.3046
G01 X64.3269 Y2.2389
G01 X64.2452 Y2.1648
G01 X64.1711 Y2.0831
G01 X64.1054 Y1.9945
G01 X64.0487 Y1.8999
G01 X64.0015 Y1.8002
G01 X63.9644 Y1.6963
G01 X63.9375 Y1.5893
G01 X63.9214 Y1.4802
G01 X63.9160 Y1.3700
G01 X63.9214 Y1.2598
G01 X63.9375 Y1.1507
G01 X63.9644 Y1.0437
G01 X64.0015 Y0.9398
G01 X64.0487 Y0.8401
G01 X64.1054 Y0.7455
G01 X64.1711 Y0.6569
G01 X64.2452 Y0.5752
G01 X64.3269 Y0.5011
G01 X64.4155 Y0.4354
G01 X64.5101 Y0.3787
G01 X64.6098 Y0.3315
G01 X64.7137 Y0.2944
G01 X64.8207 Y0.2675
G01 X64.9298 Y0.2514
G01 X65.0400 Y0.2460
G01 X65.1502 Y0.2514
G01 X65.2593 Y0.2675
G01 X65.3663 Y0.2944
G01 X65.4702 Y0.3315
G01 X65.5699 Y0.3787
G01 X65.6645 Y0.4354
G01 X65.7531 Y0.5011
G01 X65.8348 Y0.5752
G01 X65.9089 Y0.6569
G01 X65.9746 Y0.7455
G01 X66.0313 Y0.8401
G01 X66.0785 Y0.9398
G01 X66.1156 Y1.0437
G01 X66.1425 Y1.1507
G01 X66.1586 Y1.2598
G01 X66.1639 Y1.3647
G01 X66.1639 Y1.3753
G00 Z3.0000
G00 X66.8366 Y2.2116
G01 F60.00
G01 Z-0.0300
G01 F90.00
G01 X66.7890 Y2.1685
G01 X66.7833 Y2.1629
G01 X66.7146 Y2.0871
G01 X66.7094 Y2.0810
G01 X66.6454 Y1.9945
G01 X66.5913 Y1.9045
G01 X66.5875 Y1.8975
G01 X66.5415 Y1.8002
G01 X66.5044 Y1.6963
G01 X66.4775 Y1.5893
G01 X66.4620 Y1.4854
G01 X66.4611 Y1.4775
G01 X66.4560 Y1.3700
G01 X66.4614 Y1.2598
G01 X66.4775 Y1.1507
G01 X66.5044 Y1.0437
G01 X66.5415 Y0.9398
G01 X66.5887 Y0.8401
G01 X66.6454 Y0.7455
G01 X66.7078 Y0.6611
G01 X66.7128 Y0.6549
G01 X66.7852 Y0.5752
G01 X66.8669 Y0.5011
G01 X66.9555 Y0.4354
G01 X67.0501 Y0.3787
G01 X67.1498 Y0.3315
G01 X67.2537 Y0.2944
G01 X67.3607 Y0.2675
G01 X67.4698 Y0.2514
G01 X67.5800 Y0.2460
G01 X67.6902 Y0.2514
G01 X67.7993 Y0.2675
G01 X67.9063 Y0.2944
G01 X68.0102 Y0.3315
G01 X68.1099 Y0.3787
G01 X68.2045 Y0.4354
G01 X68.2889 Y0.4978
G01 X68.2951 Y0.5028
G01 X68.3748 Y0.5752
G01 X68.4454 Y0.6529
G01 X68.4522 Y0.6611
G01 X68.5146 Y0.7455
G01 X68.5687 Y0.8355
G01 X68.5737 Y0.8449
G01 X68.6163 Y0.9350
G01 X68.6204 Y0.9448
G01 X68.6556 Y1.0437
G01 X68.6825 Y1.1507
G01 X68.6986 Y1.2598
G01 X68.7040 Y1.3700
G01 X68.6986 Y1.4802
G01 X68.6825 Y1.5893
G01 X68.6556 Y1.6963
G01 X68.6204 Y1.7952
G01 X68.6174 Y1.8026
G01 X68.5713 Y1.8999
G01 X68.5175 Y1.9900
G01 X68.5131 Y1.9967
G01 X68.4522 Y2.0789
G01 X68.4472 Y2.0851
G01 X68.3748 Y2.1648
G01 X68.3234 Y2.2116
G01 X68.3234 Y37.3799
G01 X68.3597 Y37.4128
G01 X68.3654 Y37.4184
G01 X68.4348 Y37.4950
G01 X68.4398 Y37.5012
G01 X68.4998 Y37.5822
G01 X68.5041 Y37.5889
G01 X68.5572 Y37.6777
G01 X68.6027 Y37.7735
G01 X68.6056 Y37.7809
G01 X68.6403 Y37.8784
G01 X68.6668 Y37.9838
G01 X68.6827 Y38.0914
G01 X68.6879 Y38.1947
G01 X68.6880 Y38.2027
G01 X68.6827 Y38.3086
G01 X68.6668 Y38.4162
G01 X68.6403 Y38.5216
G01 X68.6037 Y38.6240
G01 X68.5572 Y38.7223
G01 X68.5013 Y38.8156
G01 X68.4365 Y38.9029
G01 X68.3635 Y38.9835
G01 X68.2829 Y39.0565
G01 X68.1956 Y39.1213
G01 X68.1023 Y39.1772
G01 X68.0040 Y39.2237
G01 X67.9016 Y39.2603
G01 X67.7962 Y39.2868
G01 X67.6886 Y39.3027
G01 X67.5827 Y39.3080
G01 X67.5747 Y39.3079
G01 X67.4714 Y39.3027
G01 X67.3638 Y39.2868
G01 X67.2584 Y39.2603
G01 X67.1560 Y39.2237
G01 X67.0577 Y39.1772
G01 X66.9644 Y39.1213
G01 X66.8771 Y39.0565
G01 X66.7965 Y38.9835
G01 X66.7235 Y38.9029
G01 X66.6587 Y38.8156
G01 X66.6028 Y38.7223
G01 X66.5563 Y38.6240
G01 X66.5197 Y38.5216
G01 X66.4932 Y38.4162
G01 X66.4773 Y38.3086
G01 X66.4720 Y38.2027
G01 X66.4721 Y38.1947
G01 X66.4773 Y38.0914
G01 X66.4932 Y37.9838
G01 X66.5197 Y37.8784
G01 X66.5544 Y37.7809
G01 X66.5573 Y37.7735
G01 X66.6028 Y37.6777
G01 X66.6559 Y37.5889
G01 X66.6602 Y37.5822
G01 X66.7202 Y37.5012
G01 X66.7252 Y37.4950
G01 X66.7946 Y37.4184
G01 X66.8003 Y37.4128
G01 X66.8366 Y37.3799
G01 X66.8366 Y2.2116
G00 Z3.0000
G00 X69.3766 Y2.2116
G01 F60.00
G01 Z-0.0300
G01 F90.00
G01 X69.3290 Y2.1685
G01 X69.3233 Y2.1629
G01 X69.2546 Y2.0871
G01 X69.2494 Y2.0810
G01 X69.1854 Y1.9945
G01 X69.1313 Y1.9045
G01 X69.1275 Y1.8975
G01 X69.0815 Y1.8002
G01 X69.0444 Y1.6963
G01 X69.0175 Y1.5893
G01 X69.0020 Y1.4854
G01 X69.0011 Y1.4775
G01 X68.9960 Y1.3700
G01 X69.0014 Y1.2598
G01 X69.0175 Y1.1507
G01 X69.0444 Y1.0437
G01 X69.0815 Y0.9398
G01 X69.1287 Y0.8401
G01 X69.1854 Y0.7455
G01 X69.2478 Y0.6611
G01 X69.2528 Y0.6549
G01 X69.3252 Y0.5752
G01 X69.4069 Y0.5011
G01 X69.4955 Y0.4354
G01 X69.5901 Y0.3787
G01 X69.6898 Y0.3315
G01 X69.7937 Y0.2944
G01 X69.9007 Y0.2675
G01 X70.0098 Y0.2514
G01 X70.1200 Y0.2460
G01 X70.2302 Y0.2514
G01 X70.3393 Y0.2675
G01 X70.4463 Y0.2944
G01 X70.5502 Y0.3315
G01 X70.6499 Y0.3787
G01 X70.7445 Y0.4354
G01 X70.8289 Y0.4978
G01 X70.8351 Y0.5028
G01 X70.9148 Y0.5752
G01 X70.9854 Y0.6529
G01 X70.9922 Y0.6611
G01 X71.0546 Y0.7455
G01 X71.1087 Y0.8355
G01 X71.1137 Y0.8449
G01 X71.1563 Y0.9350
G01 X71.1604 Y0.9448
G01 X71.1956 Y1.0437
G01 X71.2225 Y1.1507
G01 X71.2386 Y1.2598
G01 X71.2440 Y1.3700
G01 X71.2386 Y1.4802
G01 X71.2225 Y1.5893
G01 X71.1956 Y1.6963
G01 X71.1604 Y1.7952
G01 X71.1574 Y1.8026
G01 X71.1113 Y1.8999
G01 X71.0575 Y1.9900
G01 X71.0531 Y1.9967
G01 X70.9922 Y2.0789
G01 X70.9872 Y2.0851
G01 X70.9148 Y2.1648
G01 X70.8634 Y2.2116
G01 X70.8634 Y34.8399
G01 X70.8997 Y34.8728
G01 X70.9054 Y34.8784
G01 X70.9748 Y34.9550
G01 X70.9798 Y34.9612
G01 X71.0398 Y35.0422
G01 X71.0441 Y35.0489
G01 X71.0972 Y35.1377
G01 X71.1427 Y35.2335
G01 X71.1456 Y35.2409
G01 X71.1803 Y35.3384
G01 X71.2068 Y35.4438
G01 X71.2227 Y35.5514
G01 X71.2279 Y35.6547
G01 X71.2280 Y35.6627
G01 X71.2227 Y35.7686
G01 X71.2068 Y35.8762
G01 X71.1803 Y35.9816
G01 X71.1437 Y36.0840
G01 X71.0972 Y36.1823
G01 X71.0413 Y36.2756
G01 X70.9765 Y36.3629
G01 X70.9035 Y36.4435
G01 X70.8229 Y36.5165
G01 X70.7356 Y36.5813
G01 X70.6423 Y36.6372
G01 X70.5440 Y36.6837
G01 X70.4416 Y36.7203
G01 X70.3362 Y36.7468
G01 X70.2286 Y36.7627
G01 X70.1227 Y36.7680
G01 X70.1147 Y36.7679
G01 X70.0114 Y36.7627
G01 X69.9038 Y36.7468
G01 X69.7984 Y36.7203
G01 X69.6960 Y36.6837
G01 X69.5977 Y36.6372
G01 X69.5044 Y36.5813
G01 X69.4171 Y36.5165
G01 X69.3365 Y36.4435
G01 X69.2635 Y36.3629
G01 X69.1987 Y36.2756
G01 X69.1428 Y36.1823
G01 X69.0963 Y36.0840
G01 X69.0597 Y35.9816
G01 X69.0332 Y35.8762
G01 X69.0173 Y35.7686
G01 X69.0120 Y35.6627
G01 X69.0121 Y35.6547
G01 X69.0173 Y35.5514
G01 X69.0332 Y35.4438
G01 X69.0597 Y35.3384
G01 X69.0944 Y35.2409
G01 X69.0973 Y35.2335
G01 X69.1428 Y35.1377
G01 X69.1959 Y35.0489
G01 X69.2002 Y35.0422
G01 X69.2602 Y34.9612
G01 X69.2652 Y34.9550
G01 X69.3346 Y34.8784
G01 X69.3403 Y34.8728
G01 X69.3766 Y34.8399
G01 X69.3766 Y2.2116
G00 Z3.0000
G00 X71.9166 Y2.2116
G01 F60.00
G01 Z-0.0300
G01 F90.00
G01 X71.8690 Y2.1685
G01 X71.8633 Y2.1629
G01 X71.7946 Y2.0871
G01 X71.7894 Y2.0810
G01 X71.7254 Y1.9945
G01 X71.6713 Y1.9045
G01 X71.6675 Y1.8975
G01 X71.6215 Y1.8002
G01 X71.5844 Y1.6963
G01 X71.5575 Y1.5893
G01 X71.5420 Y1.4854
G01 X71.5411 Y1.4775
G01 X71.5360 Y1.3700
G01 X71.5414 Y1.2598
G01 X71.5575 Y1.1507
G01 X71.5844 Y1.0437
G01 X71.6215 Y0.9398
G01 X71.6687 Y0.8401
G01 X71.7254 Y0.7455
G01 X71.7878 Y0.6611
G01 X71.7928 Y0.6549
G01 X71.8652 Y0.5752
G01 X71.9469 Y0.5011
G01 X72.0355 Y0.4354
G01 X72.1301 Y0.3787
G01 X72.2298 Y0.3315
G01 X72.3337 Y0.2944
G01 X72.4407 Y0.2675
G01 X72.5498 Y0.2514
G01 X72.6600 Y0.2460
G01 X72.7702 Y0.2514
G01 X72.8793 Y0.2675
G01 X72.9863 Y0.2944
G01 X73.0902 Y0.3315
G01 X73.1899 Y0.3787
G01 X73.2845 Y0.4354
G01 X73.3689 Y0.4978
G01 X73.3751 Y0.5028
G01 X73.4548 Y0.5752
G01 X73.5254 Y0.6529
G01 X73.5322 Y0.6611
G01 X73.5946 Y0.7455
G01 X73.6487 Y0.8355
G01 X73.6537 Y0.8449
G01 X73.6963 Y0.9350
G01 X73.7004 Y0.9448
G01 X73.7356 Y1.0437
G01 X73.7625 Y1.1507
G01 X73.7786 Y1.2598
G01 X73.7840 Y1.3700
G01 X73.7786 Y1.4802
G01 X73.7625 Y1.5893
G01 X73.7356 Y1.6963
G01 X73.7004 Y1.7952
G01 X73.6974 Y1.8026
G01 X73.6513 Y1.8999
G01 X73.5975 Y1.9900
G01 X73.5931 Y1.9967
G01 X73.5322 Y2.0789
G01 X73.5272 Y2.0851
G01 X73.4548 Y2.1648
G01 X73.4034 Y2.2116
G01 X73.4034 Y32.2999
G01 X73.4397 Y32.3328
G01 X73.4454 Y32.3384
G01 X73.5148 Y32.4150
G01 X73.5198 Y32.4212
G01 X73.5798 Y32.5022
G01 X73.5841 Y32.5089
G01 X73.6372 Y32.5977
G01 X73.6827 Y32.6935
G01 X73.6856 Y32.7009
G01 X73.7203 Y32.7984
G01 X73.7468 Y32.9038
G01 X73.7627 Y33.0114
G01 X73.7679 Y33.1147
G01 X73.7680 Y33.1227
G01 X73.7627 Y33.2286
G01 X73.7468 Y33.3362
G01 X73.7203 Y33.4416
G01 X73.6837 Y33.5440
G01 X73.6372 Y33.6423
G01 X73.5813 Y33.7356
G01 X73.5165 Y33.8229
G01 X73.4435 Y33.9035
G01 X73.3629 Y33.9765
G01 X73.2756 Y34.0413
G01 X73.1823 Y34.0972
G01 X73.0840 Y34.1437
G01 X72.9816 Y34.1803
G01 X72.8762 Y34.2068
G01 X72.7686 Y34.2227
G01 X72.6627 Y34.2280
G01 X72.6547 Y34.2279
G01 X72.5514 Y34.2227
G01 X72.4438 Y34.2068
G01 X72.3384 Y34.1803
G01 X72.2360 Y34.1437
G01 X72.1377 Y34.0972
G01 X72.0444 Y34.0413
G01 X71.9571 Y33.9765
G01 X71.8765 Y33.9035
G01 X71.8035 Y33.8229
G01 X71.7387 Y33.7356
G01 X71.6828 Y33.6423
G01 X71.6363 Y33.5440
G01 X71.5997 Y33.4416
G01 X71.5732 Y33.3362
G01 X71.5573 Y33.2286
G01 X71.5520 Y33.1227
G01 X71.5521 Y33.1147
G01 X71.5573 Y33.0114
G01 X71.5732 Y32.9038
G01 X71.5997 Y32.7984
G01 X71.6344 Y32.7009
G01 X71.6373 Y32.6935
G01 X71.6828 Y32.5977
G01 X71.7359 Y32.5089
G01 X71.7402 Y32.5022
G01 X71.8002 Y32.4212
G01 X71.8052 Y32.4150
G01 X71.8746 Y32.3384
G01 X71.8803 Y32.3328
G01 X71.9166 Y32.2999
G01 X71.9166 Y2.2116
G00 Z3.0000
G00 X74.4566 Y2.2116
G01 F60.00
G01 Z-0.0300
G01 F90.00
G01 X74.4090 Y2.1685
G01 X74.4033 Y2.1629
G01 X74.3346 Y2.0871
G01 X74.3294 Y2.0810
G01 X74.2654 Y1.9945
G01 X74.2113 Y1.9045
G01 X74.2075 Y1.8975
G01 X74.1615 Y1.8002
G01 X74.1244 Y1.6963
G01 X74.0975 Y1.5893
G01 X74.0820 Y1.4854
G01 X74.0811 Y1.4775
G01 X74.0760 Y1.3700
G01 X74.0814 Y1.2598
G01 X74.0975 Y1.1507
G01 X74.1244 Y1.0437
G01 X74.1615 Y0.9398
G01 X74.2087 Y0.8401
G01 X74.2654 Y0.7455
G01 X74.3278 Y0.6611
G01 X74.3328 Y0.6549
G01 X74.4052 Y0.5752
G01 X74.4869 Y0.5011
G01 X74.5755 Y0.4354
G01 X74.6701 Y0.3787
G01 X74.7698 Y0.3315
G01 X74.8737 Y0.2944
G01 X74.9807 Y0.2675
G01 X75.0898 Y0.2514
G01 X75.2000 Y0.2460
G01 X75.3102 Y0.2514
G01 X75.4193 Y0.2675
G01 X75.5263 Y0.2944
G01 X75.6302 Y0.3315
G01 X75.7299 Y0.3787
G01 X75.8245 Y0.4354
G01 X75.9089 Y0.4978
G01 X75.9151 Y0.5028
G01 X75.9948 Y0.5752
G01 X76.0689 Y0.6569
G01 X76.1346 Y0.7455
G01 X76.1887 Y0.8355
G01 X76.1937 Y0.8449
G01 X76.2385 Y0.9398
G01 X76.2740 Y1.0387
G01 X76.2771 Y1.0488
G01 X76.3013 Y1.1455
G01 X76.3034 Y1.1559
G01 X76.3186 Y1.2598
G01 X76.3240 Y1.3673
G01 X76.3239 Y1.3753
G01 X76.3186 Y1.4802
G01 X76.3025 Y1.5893
G01 X76.2756 Y1.6963
G01 X76.2404 Y1.7952
G01 X76.2374 Y1.8026
G01 X76.1913 Y1.8999
G01 X76.1375 Y1.9900
G01 X76.1331 Y1.9967
G01 X76.0722 Y2.0789
G01 X76.0672 Y2.0851
G01 X75.9948 Y2.1648
G01 X75.9434 Y2.2116
G01 X75.9434 Y22.1399
G01 X75.9797 Y22.1728
G01 X75.9854 Y22.1784
G01 X76.0548 Y22.2550
G01 X76.0598 Y22.2612
G01 X76.1198 Y22.3422
G01 X76.1241 Y22.3489
G01 X76.1772 Y22.4377
G01 X76.2227 Y22.5335
G01 X76.2256 Y22.5409
G01 X76.2603 Y22.6384
G01 X76.2868 Y22.7438
G01 X76.3027 Y22.8514
G01 X76.3079 Y22.9547
G01 X76.3080 Y22.9627
G01 X76.3027 Y23.0686
G01 X76.2868 Y23.1762
G01 X76.2603 Y23.2816
G01 X76.2237 Y23.3840
G01 X76.1772 Y23.4823
G01 X76.1213 Y23.5756
G01 X76.0565 Y23.6629
G01 X75.9835 Y23.7435
G01 X75.9029 Y23.8165
G01 X75.8156 Y23.8813
G01 X75.7223 Y23.9372
G01 X75.6240 Y23.9837
G01 X75.5216 Y24.0203
G01 X75.4162 Y24.0468
G01 X75.3086 Y24.0627
G01 X75.2027 Y24.0680
G01 X75.1947 Y24.0679
G01 X75.0914 Y24.0627
G01 X74.9838 Y24.0468
G01 X74.8784 Y24.0203
G01 X74.7760 Y23.9837
G01 X74.6777 Y23.9372
G01 X74.5844 Y23.8813
G01 X74.4971 Y23.8165
G01 X74.4165 Y23.7435
G01 X74.3435 Y23.6629
G01 X74.2787 Y23.5756
G01 X74.2228 Y23.4823
G01 X74.1763 Y23.3840
G01 X74.1397 Y23.2816
G01 X74.1132 Y23.1762
G01 X74.0973 Y23.0686
G01 X74.0920 Y22.9627
G01 X74.0921 Y22.9547
G01 X74.0973 Y22.8514
G01 X74.1132 Y22.7438
G01 X74.1397 Y22.6384
G01 X74.1744 Y22.5409
G01 X74.1773 Y22.5335
G01 X74.2228 Y22.4377
G01 X74.2759 Y22.3489
G01 X74.2802 Y22.3422
G01 X74.3402 Y22.2612
G01 X74.3452 Y22.2550
G01 X74.4146 Y22.1784
G01 X74.4203 Y22.1728
G01 X74.4566 Y22.1399
G01 X74.4566 Y2.2116
G00 Z3.0000
G00 X76.9966 Y2.2116
G01 F60.00
G01 Z-0.0300
G01 F90.00
G01 X76.9490 Y2.1685
G01 X76.9433 Y2.1629
G01 X76.8746 Y2.0871
G01 X76.8694 Y2.0810
G01 X76.8054 Y1.9945
G01 X76.7513 Y1.9045
G01 X76.7475 Y1.8975
G01 X76.7015 Y1.8002
G01 X76.6644 Y1.6963
G01 X76.6375 Y1.5893
G01 X76.6220 Y1.4854
G01 X76.6211 Y1.4775
G01 X76.6160 Y1.3700
G01 X76.6214 Y1.2598
G01 X76.6375 Y1.1507
G01 X76.6644 Y1.0437
G01 X76.7015 Y0.9398
G01 X76.7487 Y0.8401
G01 X76.8054 Y0.7455
G01 X76.8678 Y0.6611
G01 X76.8728 Y0.6549
G01 X76.9452 Y0.5752
G01 X77.0269 Y0.5011
G01 X77.1155 Y0.4354
G01 X77.2101 Y0.3787
G01 X77.3098 Y0.3315
G01 X77.4137 Y0.2944
G01 X77.5207 Y0.2675
G01 X77.6298 Y0.2514
G01 X77.7400 Y0.2460
G01 X77.8502 Y0.2514
G01 X77.9593 Y0.2675
G01 X78.0663 Y0.2944
G01 X78.1702 Y0.3315
G01 X78.2699 Y0.3787
G01 X78.3645 Y0.4354
G01 X78.4489 Y0.4978
G01 X78.4551 Y0.5028
G01 X78.5348 Y0.5752
G01 X78.6089 Y0.6569
G01 X78.6746 Y0.7455
G01 X78.7287 Y0.8355
G01 X78.7337 Y0.8449
G01 X78.7785 Y0.9398
G01 X78.8140 Y1.0387
G01 X78.8171 Y1.0488
G01 X78.8413 Y1.1455
G01 X78.8434 Y1.1559
G01 X78.8586 Y1.2598
G01 X78.8640 Y1.3673
G01 X78.8639 Y1.3753
G01 X78.8586 Y1.4802
G01 X78.8425 Y1.5893
G01 X78.8156 Y1.6963
G01 X78.7804 Y1.7952
G01 X78.7774 Y1.8026
G01 X78.7313 Y1.8999
G01 X78.6775 Y1.9900
G01 X78.6731 Y1.9967
G01 X78.6122 Y2.0789
G01 X78.6072 Y2.0851
G01 X78.5348 Y2.1648
G01 X78.4834 Y2.2116
G01 X78.4834 Y19.5999
G01 X78.5197 Y19.6328
G01 X78.5254 Y19.6384
G01 X78.5948 Y19.7150
G01 X78.5998 Y19.7212
G01 X78.6598 Y19.8022
G01 X78.6641 Y19.8089
G01 X78.7172 Y19.8977
G01 X78.7627 Y19.9935
G01 X78.7656 Y20.0009
G01 X78.8003 Y20.0984
G01 X78.8268 Y20.2038
G01 X78.8427 Y20.3114
G01 X78.8479 Y20.4147
G01 X78.8480 Y20.4227
G01 X78.8427 Y20.5286
G01 X78.8268 Y20.6362
G01 X78.8003 Y20.7416
G01 X78.7637 Y20.8440
G01 X78.7172 Y20.9423
G01 X78.6613 Y21.0356
G01 X78.5965 Y21.1229
G01 X78.5235 Y21.2035
G01 X78.4429 Y21.2765
G01 X78.3556 Y21.3413
G01 X78.2623 Y21.3972
G01 X78.1640 Y21.4437
G01 X78.0616 Y21.4803
G01 X77.9562 Y21.5068
G01 X77.8486 Y21.5227
G01 X77.7453 Y21.5279
G01 X77.7347 Y21.5279
G01 X77.6314 Y21.5227
G01 X77.5238 Y21.5068
G01 X77.4184 Y21.4803
G01 X77.3160 Y21.4437
G01 X77.2177 Y21.3972
G01 X77.1244 Y21.3413
G01 X77.0371 Y21.2765
G01 X76.9565 Y21.2035
G01 X76.8835 Y21.1229
G01 X76.8187 Y21.0356
G01 X76.7628 Y20.9423
G01 X76.7163 Y20.8440
G01 X76.6797 Y20.7416
G01 X76.6532 Y20.6362
G01 X76.6373 Y20.5286
G01 X76.6321 Y20.4253
G01 X76.6321 Y20.4147
G01 X76.6373 Y20.3114
G01 X76.6532 Y20.2038
G01 X76.6797 Y20.0984
G01 X76.7144 Y20.0009
G01 X76.7173 Y19.9935
G01 X76.7628 Y19.8977
G01 X76.8159 Y19.8089
G01 X76.8202 Y19.8022
G01 X76.8802 Y19.7212
G01 X76.8852 Y19.7150
G01 X76.9546 Y19.6384
G01 X76.9603 Y19.6328
G01 X76.9966 Y19.5999
G01 X76.9966 Y2.2116
G00 Z3.0000
G00 X79.5366 Y2.2116
G01 F60.00
G01 Z-0.0300
G01 F90.00
G01 X79.4890 Y2.1685
G01 X79.4833 Y2.1629
G01 X79.4146 Y2.0871
G01 X79.4094 Y2.0810
G01 X79.3454 Y1.9945
G01 X79.2913 Y1.9045
G01 X79.2875 Y1.8975
G01 X79.2415 Y1.8002
G01 X79.2044 Y1.6963
G01 X79.1775 Y1.5893
G01 X79.1620 Y1.4854
G01 X79.1611 Y1.4775
G01 X79.1560 Y1.3700
G01 X79.1614 Y1.2598
G01 X79.1775 Y1.1507
G01 X79.2044 Y1.0437
G01 X79.2415 Y0.9398
G01 X79.2887 Y0.8401
G01 X79.3454 Y0.7455
G01 X79.4078 Y0.6611
G01 X79.4128 Y0.6549
G01 X79.4852 Y0.5752
G01 X79.5669 Y0.5011
G01 X79.6555 Y0.4354
G01 X79.7501 Y0.3787
G01 X79.8498 Y0.3315
G01 X79.9537 Y0.2944
G01 X80.0607 Y0.2675
G01 X80.1698 Y0.2514
G01 X80.2800 Y0.2460
G01 X80.3902 Y0.2514
G01 X80.4993 Y0.2675
G01 X80.6063 Y0.2944
G01 X80.7102 Y0.3315
G01 X80.8099 Y0.3787
G01 X80.9045 Y0.4354
G01 X80.9889 Y0.4978
G01 X80.9951 Y0.5028
G01 X81.0748 Y0.5752
G01 X81.1489 Y0.6569
G01 X81.2146 Y0.7455
G01 X81.2687 Y0.8355
G01 X81.2737 Y0.8449
G01 X81.3185 Y0.9398
G01 X81.3540 Y1.0387
G01 X81.3571 Y1.0488
