(G-CODE GENERATED BY FLATCAM v8.994 - www.flatcam.org - Version Date: 2020/11/7)

(Name: copper_bottom.gbr_iso_combined_cnc)
(Type: G-code from Geometry)
(Units: MM)

(Created on sexta, 04 fevereiro 2022 at 13:48)

(This preprocessor is the default preprocessor used by FlatCAM.)
(It is made to work with MACH3 compatible motion controllers.)

(TOOL DIAMETER: 0.2375 mm)
(Feedrate_XY: 60.0 mm/min)
(Feedrate_Z: 60.0 mm/min)
(Feedrate rapids 1500.0 mm/min)

(Z_Cut: -0.07 mm)
(Z_Move: 3.0 mm)
(Z Start: None mm)
(Z End: 15.0 mm)
(X,Y End: None mm)
(Steps per circle: 64)
(Preprocessor Geometry: default)

(X range:   -0.0547 ...  128.8341  mm)
(Y range:    0.0753 ...   74.3541  mm)

(Spindle Speed: 1000.0 RPM)
G21
G90
G94

G01 F60.00

M5
G00 Z15.0000
G00 X0.0000 Y0.0000
T1
M6    
(MSG, Change to Tool Dia = 0.2375)
M0
G00 Z15.0000

M03 S1000.0
G01 F60.00
G00 X0.3259 Y2.0564
G01 F60.00
G01 Z-0.0700
G01 F60.00
G01 X0.2818 Y2.0164
G01 X0.2756 Y2.0103
G01 X0.2066 Y1.9343
G01 X0.2010 Y1.9276
G01 X0.1365 Y1.8404
G01 X0.0821 Y1.7500
G01 X0.0779 Y1.7423
G01 X0.0316 Y1.6442
G01 X-0.0059 Y1.5394
G01 X-0.0329 Y1.4314
G01 X-0.0486 Y1.3270
G01 X-0.0495 Y1.3183
G01 X-0.0547 Y1.2100
G01 X-0.0493 Y1.0988
G01 X-0.0329 Y0.9886
G01 X-0.0059 Y0.8806
G01 X0.0316 Y0.7758
G01 X0.0792 Y0.6751
G01 X0.1365 Y0.5796
G01 X0.1992 Y0.4947
G01 X0.2047 Y0.4879
G01 X0.2776 Y0.4076
G01 X0.3601 Y0.3328
G01 X0.4496 Y0.2665
G01 X0.5451 Y0.2092
G01 X0.6458 Y0.1616
G01 X0.7506 Y0.1241
G01 X0.8586 Y0.0971
G01 X0.9688 Y0.0807
G01 X1.0800 Y0.0753
G01 X1.1912 Y0.0807
G01 X1.3014 Y0.0971
G01 X1.4094 Y0.1241
G01 X1.5142 Y0.1616
G01 X1.6149 Y0.2092
G01 X1.7104 Y0.2665
G01 X1.7953 Y0.3292
G01 X1.8021 Y0.3347
G01 X1.8824 Y0.4076
G01 X1.9534 Y0.4857
G01 X1.9608 Y0.4947
G01 X2.0202 Y0.5748
G01 X2.0266 Y0.5845
G01 X2.0808 Y0.6751
G01 X2.1260 Y0.7704
G01 X2.1305 Y0.7812
G01 X2.1659 Y0.8806
G01 X2.1929 Y0.9886
G01 X2.2093 Y1.0988
G01 X2.2147 Y1.2100
G01 X2.2093 Y1.3212
G01 X2.1929 Y1.4314
G01 X2.1659 Y1.5394
G01 X2.1305 Y1.6388
G01 X2.1272 Y1.6469
G01 X2.0808 Y1.7449
G01 X2.0266 Y1.8355
G01 X2.0219 Y1.8428
G01 X1.9608 Y1.9253
G01 X1.9553 Y1.9321
G01 X1.8844 Y2.0103
G01 X1.8782 Y2.0164
G01 X1.8341 Y2.0564
G01 X1.8341 Y44.9059
G01 X23.1859 Y44.9059
G01 X23.1859 Y35.8499
G01 X23.1448 Y35.8045
G01 X23.1392 Y35.7978
G01 X23.0839 Y35.7234
G01 X23.0790 Y35.7162
G01 X23.0284 Y35.6316
G01 X22.9862 Y35.5426
G01 X22.9830 Y35.5345
G01 X22.9527 Y35.4500
G01 X22.9493 Y35.4388
G01 X22.9263 Y35.3460
G01 X22.9114 Y35.2457
G01 X22.9064 Y35.1444
G01 X22.9064 Y33.3156
G01 X22.9111 Y33.2172
G01 X22.9121 Y33.2085
G01 X22.9263 Y33.1140
G01 X22.9509 Y33.0156
G01 X22.9851 Y32.9201
G01 X23.0284 Y32.8284
G01 X23.0806 Y32.7414
G01 X23.1410 Y32.6599
G01 X23.2091 Y32.5847
G01 X23.2843 Y32.5166
G01 X23.3658 Y32.4562
G01 X23.4528 Y32.4040
G01 X23.5445 Y32.3607
G01 X23.6400 Y32.3265
G01 X23.7384 Y32.3019
G01 X23.8387 Y32.2870
G01 X23.9400 Y32.2820
G01 X24.0384 Y32.2867
G01 X24.0471 Y32.2877
G01 X24.1416 Y32.3019
G01 X24.2400 Y32.3265
G01 X24.3355 Y32.3607
G01 X24.4220 Y32.4014
G01 X24.4323 Y32.4069
G01 X24.5093 Y32.4531
G01 X24.5190 Y32.4595
G01 X24.5957 Y32.5166
G01 X24.6666 Y32.5807
G01 X24.6749 Y32.5890
G01 X24.7390 Y32.6599
G01 X24.7994 Y32.7414
G01 X24.8516 Y32.8284
G01 X24.8949 Y32.9201
G01 X24.9291 Y33.0156
G01 X24.9537 Y33.1140
G01 X24.9686 Y33.2143
G01 X24.9736 Y33.3127
G01 X24.9736 Y35.1444
G01 X24.9686 Y35.2457
G01 X24.9537 Y35.3460
G01 X24.9307 Y35.4388
G01 X24.9273 Y35.4500
G01 X24.8970 Y35.5345
G01 X24.8938 Y35.5426
G01 X24.8516 Y35.6316
G01 X24.8010 Y35.7162
G01 X24.7961 Y35.7234
G01 X24.7408 Y35.7978
G01 X24.7352 Y35.8045
G01 X24.6941 Y35.8499
G01 X24.6941 Y45.6600
G01 X24.6909 Y45.7281
G01 X24.6897 Y45.7397
G01 X24.6796 Y45.8071
G01 X24.6632 Y45.8733
G01 X24.6598 Y45.8844
G01 X24.6367 Y45.9486
G01 X24.6076 Y46.0103
G01 X24.6022 Y46.0205
G01 X24.5670 Y46.0789
G01 X24.5229 Y46.1384
G01 X24.4772 Y46.1890
G01 X24.4690 Y46.1972
G01 X24.4184 Y46.2429
G01 X24.3637 Y46.2836
G01 X24.3540 Y46.2901
G01 X24.2955 Y46.3250
G01 X24.2339 Y46.3543
G01 X24.2231 Y46.3588
G01 X24.1589 Y46.3816
G01 X24.0928 Y46.3983
G01 X24.0814 Y46.4006
G01 X24.0139 Y46.4104
G01 X23.9400 Y46.4141
G01 X1.0771 Y46.4140
G01 X1.0061 Y46.4104
G01 X0.9386 Y46.4006
G01 X0.9272 Y46.3983
G01 X0.8611 Y46.3816
G01 X0.7969 Y46.3588
G01 X0.7861 Y46.3543
G01 X0.7245 Y46.3250
G01 X0.6660 Y46.2901
G01 X0.6563 Y46.2836
G01 X0.6016 Y46.2429
G01 X0.5510 Y46.1972
G01 X0.5428 Y46.1890
G01 X0.4971 Y46.1384
G01 X0.4564 Y46.0837
G01 X0.4499 Y46.0740
G01 X0.4150 Y46.0155
G01 X0.3857 Y45.9539
G01 X0.3812 Y45.9431
G01 X0.3584 Y45.8789
G01 X0.3417 Y45.8128
G01 X0.3394 Y45.8014
G01 X0.3296 Y45.7339
G01 X0.3259 Y45.6600
G01 X0.3259 Y2.0564
G00 Z3.0000
G00 X2.8659 Y2.0564
G01 F60.00
G01 Z-0.0700
G01 F60.00
G01 X2.8218 Y2.0164
G01 X2.8156 Y2.0103
G01 X2.7466 Y1.9343
G01 X2.7410 Y1.9276
G01 X2.6765 Y1.8404
G01 X2.6221 Y1.7500
G01 X2.6179 Y1.7423
G01 X2.5716 Y1.6442
G01 X2.5341 Y1.5394
G01 X2.5071 Y1.4314
G01 X2.4914 Y1.3270
G01 X2.4905 Y1.3183
G01 X2.4853 Y1.2100
G01 X2.4907 Y1.0988
G01 X2.5071 Y0.9886
G01 X2.5341 Y0.8806
G01 X2.5716 Y0.7758
G01 X2.6192 Y0.6751
G01 X2.6765 Y0.5796
G01 X2.7392 Y0.4947
G01 X2.7447 Y0.4879
G01 X2.8176 Y0.4076
G01 X2.9001 Y0.3328
G01 X2.9896 Y0.2665
G01 X3.0851 Y0.2092
G01 X3.1858 Y0.1616
G01 X3.2906 Y0.1241
G01 X3.3986 Y0.0971
G01 X3.5088 Y0.0807
G01 X3.6200 Y0.0753
G01 X3.7312 Y0.0807
G01 X3.8414 Y0.0971
G01 X3.9494 Y0.1241
G01 X4.0542 Y0.1616
G01 X4.1549 Y0.2092
G01 X4.2504 Y0.2665
G01 X4.3353 Y0.3292
G01 X4.3421 Y0.3347
G01 X4.4224 Y0.4076
G01 X4.4934 Y0.4857
G01 X4.5008 Y0.4947
G01 X4.5635 Y0.5796
G01 X4.6179 Y0.6700
G01 X4.6234 Y0.6803
G01 X4.6660 Y0.7704
G01 X4.6705 Y0.7812
G01 X4.7059 Y0.8806
G01 X4.7329 Y0.9886
G01 X4.7493 Y1.0988
G01 X4.7547 Y1.2100
G01 X4.7493 Y1.3212
G01 X4.7329 Y1.4314
G01 X4.7059 Y1.5394
G01 X4.6705 Y1.6388
G01 X4.6672 Y1.6469
G01 X4.6208 Y1.7449
G01 X4.5666 Y1.8355
G01 X4.5619 Y1.8428
G01 X4.5008 Y1.9253
G01 X4.4953 Y1.9321
G01 X4.4244 Y2.0103
G01 X4.4182 Y2.0164
G01 X4.3741 Y2.0564
G01 X4.3741 Y42.3659
G01 X20.6459 Y42.3659
G01 X20.6459 Y35.8499
G01 X20.6048 Y35.8045
G01 X20.5992 Y35.7978
G01 X20.5439 Y35.7234
G01 X20.5390 Y35.7162
G01 X20.4884 Y35.6316
G01 X20.4462 Y35.5426
G01 X20.4430 Y35.5345
G01 X20.4127 Y35.4500
G01 X20.4093 Y35.4388
G01 X20.3863 Y35.3460
G01 X20.3714 Y35.2457
G01 X20.3664 Y35.1444
G01 X20.3664 Y33.3156
G01 X20.3711 Y33.2172
G01 X20.3721 Y33.2085
G01 X20.3863 Y33.1140
G01 X20.4109 Y33.0156
G01 X20.4451 Y32.9201
G01 X20.4884 Y32.8284
G01 X20.5406 Y32.7414
G01 X20.6010 Y32.6599
G01 X20.6691 Y32.5847
G01 X20.7443 Y32.5166
G01 X20.8258 Y32.4562
G01 X20.9128 Y32.4040
G01 X21.0045 Y32.3607
G01 X21.1000 Y32.3265
G01 X21.1984 Y32.3019
G01 X21.2987 Y32.2870
G01 X21.4000 Y32.2820
G01 X21.4984 Y32.2867
G01 X21.5071 Y32.2877
G01 X21.6016 Y32.3019
G01 X21.7000 Y32.3265
G01 X21.7955 Y32.3607
G01 X21.8820 Y32.4014
G01 X21.8923 Y32.4069
G01 X21.9693 Y32.4531
G01 X21.9790 Y32.4595
G01 X22.0557 Y32.5166
G01 X22.1266 Y32.5807
G01 X22.1349 Y32.5890
G01 X22.1990 Y32.6599
G01 X22.2594 Y32.7414
G01 X22.3116 Y32.8284
G01 X22.3549 Y32.9201
G01 X22.3891 Y33.0156
G01 X22.4137 Y33.1140
G01 X22.4286 Y33.2143
G01 X22.4336 Y33.3127
G01 X22.4336 Y35.1444
G01 X22.4286 Y35.2457
G01 X22.4137 Y35.3460
G01 X22.3907 Y35.4388
G01 X22.3873 Y35.4500
G01 X22.3570 Y35.5345
G01 X22.3538 Y35.5426
G01 X22.3116 Y35.6316
G01 X22.2610 Y35.7162
G01 X22.2561 Y35.7234
G01 X22.2008 Y35.7978
G01 X22.1952 Y35.8045
G01 X22.1541 Y35.8499
G01 X22.1541 Y43.1200
G01 X22.1507 Y43.1910
G01 X22.1497 Y43.1997
G01 X22.1406 Y43.2614
G01 X22.1383 Y43.2728
G01 X22.1216 Y43.3389
G01 X22.0988 Y43.4031
G01 X22.0943 Y43.4139
G01 X22.0650 Y43.4755
G01 X22.0301 Y43.5340
G01 X22.0236 Y43.5437
G01 X21.9829 Y43.5984
G01 X21.9372 Y43.6490
G01 X21.9290 Y43.6572
G01 X21.8784 Y43.7029
G01 X21.8237 Y43.7436
G01 X21.8140 Y43.7501
G01 X21.7555 Y43.7850
G01 X21.6912 Y43.8155
G01 X21.6831 Y43.8188
G01 X21.6189 Y43.8416
G01 X21.5471 Y43.8596
G01 X21.4739 Y43.8704
G01 X21.4000 Y43.8741
G01 X3.6171 Y43.8740
G01 X3.5461 Y43.8704
G01 X3.4786 Y43.8606
G01 X3.4672 Y43.8583
G01 X3.4011 Y43.8416
G01 X3.3369 Y43.8188
G01 X3.3261 Y43.8143
G01 X3.2645 Y43.7850
G01 X3.2011 Y43.7470
G01 X3.1416 Y43.7029
G01 X3.0910 Y43.6572
G01 X3.0828 Y43.6490
G01 X3.0371 Y43.5984
G01 X2.9964 Y43.5437
G01 X2.9899 Y43.5340
G01 X2.9550 Y43.4755
G01 X2.9245 Y43.4112
G01 X2.9212 Y43.4031
G01 X2.8984 Y43.3389
G01 X2.8804 Y43.2671
G01 X2.8696 Y43.1939
G01 X2.8659 Y43.1200
G01 X2.8659 Y2.0564
G00 Z3.0000
G00 X5.4059 Y2.0564
G01 F60.00
G01 Z-0.0700
G01 F60.00
G01 X5.3618 Y2.0164
G01 X5.3556 Y2.0103
G01 X5.2866 Y1.9343
G01 X5.2810 Y1.9276
G01 X5.2165 Y1.8404
G01 X5.1621 Y1.7500
G01 X5.1579 Y1.7423
G01 X5.1116 Y1.6442
G01 X5.0741 Y1.5394
G01 X5.0471 Y1.4314
G01 X5.0314 Y1.3270
G01 X5.0305 Y1.3183
G01 X5.0253 Y1.2100
G01 X5.0307 Y1.0988
G01 X5.0471 Y0.9886
G01 X5.0741 Y0.8806
G01 X5.1116 Y0.7758
G01 X5.1592 Y0.6751
G01 X5.2165 Y0.5796
G01 X5.2792 Y0.4947
G01 X5.2847 Y0.4879
G01 X5.3576 Y0.4076
G01 X5.4401 Y0.3328
G01 X5.5296 Y0.2665
G01 X5.6251 Y0.2092
G01 X5.7258 Y0.1616
G01 X5.8306 Y0.1241
G01 X5.9386 Y0.0971
G01 X6.0488 Y0.0807
G01 X6.1600 Y0.0753
G01 X6.2712 Y0.0807
G01 X6.3814 Y0.0971
G01 X6.4894 Y0.1241
G01 X6.5942 Y0.1616
G01 X6.6949 Y0.2092
G01 X6.7904 Y0.2665
G01 X6.8753 Y0.3292
G01 X6.8821 Y0.3347
G01 X6.9624 Y0.4076
G01 X7.0334 Y0.4857
G01 X7.0408 Y0.4947
G01 X7.1035 Y0.5796
G01 X7.1579 Y0.6700
G01 X7.1634 Y0.6803
G01 X7.2060 Y0.7704
G01 X7.2105 Y0.7812
G01 X7.2459 Y0.8806
G01 X7.2729 Y0.9886
G01 X7.2893 Y1.0988
G01 X7.2947 Y1.2100
G01 X7.2893 Y1.3212
G01 X7.2729 Y1.4314
G01 X7.2459 Y1.5394
G01 X7.2105 Y1.6388
G01 X7.2072 Y1.6469
G01 X7.1608 Y1.7449
G01 X7.1066 Y1.8355
G01 X7.1019 Y1.8428
G01 X7.0408 Y1.9253
G01 X7.0353 Y1.9321
G01 X6.9644 Y2.0103
G01 X6.9582 Y2.0164
G01 X6.9141 Y2.0564
G01 X6.9141 Y39.8259
G01 X18.1059 Y39.8259
G01 X18.1059 Y35.8499
G01 X18.0648 Y35.8045
G01 X18.0592 Y35.7978
G01 X18.0039 Y35.7234
G01 X17.9990 Y35.7162
G01 X17.9484 Y35.6316
G01 X17.9062 Y35.5426
G01 X17.9030 Y35.5345
G01 X17.8727 Y35.4500
G01 X17.8693 Y35.4388
G01 X17.8463 Y35.3460
G01 X17.8314 Y35.2457
G01 X17.8264 Y35.1444
G01 X17.8264 Y33.3156
G01 X17.8309 Y33.2201
G01 X17.8317 Y33.2114
G01 X17.8463 Y33.1140
G01 X17.8709 Y33.0156
G01 X17.9051 Y32.9201
G01 X17.9484 Y32.8284
G01 X18.0006 Y32.7414
G01 X18.0610 Y32.6599
G01 X18.1291 Y32.5847
G01 X18.2043 Y32.5166
G01 X18.2858 Y32.4562
G01 X18.3728 Y32.4040
G01 X18.4645 Y32.3607
G01 X18.5600 Y32.3265
G01 X18.6584 Y32.3019
G01 X18.7587 Y32.2870
G01 X18.8600 Y32.2820
G01 X18.9555 Y32.2865
G01 X18.9642 Y32.2873
G01 X19.0616 Y32.3019
G01 X19.1600 Y32.3265
G01 X19.2555 Y32.3607
G01 X19.3472 Y32.4040
G01 X19.4342 Y32.4562
G01 X19.5157 Y32.5166
G01 X19.5909 Y32.5847
G01 X19.6552 Y32.6555
G01 X19.6626 Y32.6645
G01 X19.7194 Y32.7414
G01 X19.7687 Y32.8233
G01 X19.7742 Y32.8336
G01 X19.8126 Y32.9147
G01 X19.8170 Y32.9255
G01 X19.8491 Y33.0156
G01 X19.8737 Y33.1140
G01 X19.8886 Y33.2143
G01 X19.8936 Y33.3127
G01 X19.8936 Y35.1444
G01 X19.8886 Y35.2457
G01 X19.8737 Y35.3460
G01 X19.8507 Y35.4388
G01 X19.8473 Y35.4500
G01 X19.8170 Y35.5345
G01 X19.8138 Y35.5426
G01 X19.7716 Y35.6316
G01 X19.7210 Y35.7162
G01 X19.7161 Y35.7234
G01 X19.6608 Y35.7978
G01 X19.6552 Y35.8045
G01 X19.6141 Y35.8499
G01 X19.6141 Y40.5800
G01 X19.6104 Y40.6539
G01 X19.5996 Y40.7271
G01 X19.5832 Y40.7933
G01 X19.5798 Y40.8044
G01 X19.5567 Y40.8686
G01 X19.5276 Y40.9303
G01 X19.5222 Y40.9405
G01 X19.4870 Y40.9989
G01 X19.4429 Y41.0584
G01 X19.3972 Y41.1090
G01 X19.3890 Y41.1172
G01 X19.3384 Y41.1629
G01 X19.2789 Y41.2070
G01 X19.2205 Y41.2422
G01 X19.2103 Y41.2476
G01 X19.1486 Y41.2767
G01 X19.0844 Y41.2998
G01 X19.0733 Y41.3032
G01 X19.0128 Y41.3183
G01 X19.0014 Y41.3206
G01 X18.9339 Y41.3304
G01 X18.8600 Y41.3341
G01 X6.1571 Y41.3340
G01 X6.0861 Y41.3304
G01 X6.0186 Y41.3206
G01 X6.0072 Y41.3183
G01 X5.9411 Y41.3016
G01 X5.8714 Y41.2767
G01 X5.8097 Y41.2476
G01 X5.7995 Y41.2422
G01 X5.7460 Y41.2101
G01 X5.7363 Y41.2036
G01 X5.6816 Y41.1629
G01 X5.6268 Y41.1132
G01 X5.5771 Y41.0584
G01 X5.5364 Y41.0037
G01 X5.5299 Y40.9940
G01 X5.4978 Y40.9405
G01 X5.4924 Y40.9303
G01 X5.4633 Y40.8686
G01 X5.4402 Y40.8044
G01 X5.4368 Y40.7933
G01 X5.4217 Y40.7328
G01 X5.4194 Y40.7214
G01 X5.4096 Y40.6539
G01 X5.4059 Y40.5800
G01 X5.4059 Y2.0564
G00 Z3.0000
G00 X9.6065 Y1.8906
G01 F60.00
G01 Z-0.0700
G01 F60.00
G01 X9.6065 Y37.1335
G01 X15.5659 Y37.1335
G01 X15.5659 Y35.8499
G01 X15.5248 Y35.8045
G01 X15.5192 Y35.7978
G01 X15.4639 Y35.7234
G01 X15.4590 Y35.7162
G01 X15.4084 Y35.6316
G01 X15.3662 Y35.5426
G01 X15.3630 Y35.5345
G01 X15.3327 Y35.4500
G01 X15.3293 Y35.4388
G01 X15.3063 Y35.3460
G01 X15.2921 Y35.2515
G01 X15.2911 Y35.2428
G01 X15.2864 Y35.1444
G01 X15.2864 Y33.3156
G01 X15.2914 Y33.2143
G01 X15.3063 Y33.1140
G01 X15.3309 Y33.0156
G01 X15.3651 Y32.9201
G01 X15.4084 Y32.8284
G01 X15.4606 Y32.7414
G01 X15.5210 Y32.6599
G01 X15.5891 Y32.5847
G01 X15.6643 Y32.5166
G01 X15.7458 Y32.4562
G01 X15.8328 Y32.4040
G01 X15.9245 Y32.3607
G01 X16.0200 Y32.3265
G01 X16.1184 Y32.3019
G01 X16.2187 Y32.2870
G01 X16.3200 Y32.2820
G01 X16.4213 Y32.2870
G01 X16.5159 Y32.3009
G01 X16.5245 Y32.3025
G01 X16.6200 Y32.3265
G01 X16.7101 Y32.3586
G01 X16.7209 Y32.3630
G01 X16.8072 Y32.4040
G01 X16.8893 Y32.4531
G01 X16.8990 Y32.4595
G01 X16.9757 Y32.5166
G01 X17.0466 Y32.5807
G01 X17.0549 Y32.5890
G01 X17.1190 Y32.6599
G01 X17.1761 Y32.7366
G01 X17.1825 Y32.7463
G01 X17.2316 Y32.8284
G01 X17.2726 Y32.9147
G01 X17.2770 Y32.9255
G01 X17.3091 Y33.0156
G01 X17.3325 Y33.1083
G01 X17.3347 Y33.1197
G01 X17.3486 Y33.2143
G01 X17.3536 Y33.3127
G01 X17.3536 Y35.1444
G01 X17.3486 Y35.2457
G01 X17.3337 Y35.3460
G01 X17.3091 Y35.4444
G01 X17.2760 Y35.5372
G01 X17.2726 Y35.5453
G01 X17.2316 Y35.6316
G01 X17.1810 Y35.7162
G01 X17.1761 Y35.7234
G01 X17.1208 Y35.7978
G01 X17.1152 Y35.8045
G01 X17.0741 Y35.8499
G01 X17.0740 Y37.8905
G01 X17.0709 Y37.9557
G01 X17.0697 Y37.9673
G01 X17.0596 Y38.0347
G01 X17.0432 Y38.1009
G01 X17.0398 Y38.1120
G01 X17.0188 Y38.1707
G01 X17.0143 Y38.1815
G01 X16.9850 Y38.2431
G01 X16.9501 Y38.3016
G01 X16.9436 Y38.3113
G01 X16.9029 Y38.3660
G01 X16.8572 Y38.4166
G01 X16.8490 Y38.4248
G01 X16.7984 Y38.4705
G01 X16.7437 Y38.5112
G01 X16.7340 Y38.5177
G01 X16.6755 Y38.5526
G01 X16.6139 Y38.5819
G01 X16.6031 Y38.5864
G01 X16.5389 Y38.6092
G01 X16.4671 Y38.6272
G01 X16.3939 Y38.6380
G01 X16.3200 Y38.6417
G01 X8.8524 Y38.6417
G01 X8.7814 Y38.6383
G01 X8.7727 Y38.6373
G01 X8.7110 Y38.6282
G01 X8.6996 Y38.6259
G01 X8.6335 Y38.6092
G01 X8.5638 Y38.5843
G01 X8.4969 Y38.5526
G01 X8.4384 Y38.5177
G01 X8.4287 Y38.5112
G01 X8.3786 Y38.4741
G01 X8.3696 Y38.4667
G01 X8.3192 Y38.4208
G01 X8.2695 Y38.3660
G01 X8.2254 Y38.3065
G01 X8.1902 Y38.2481
G01 X8.1848 Y38.2379
G01 X8.1581 Y38.1815
G01 X8.1536 Y38.1707
G01 X8.1308 Y38.1065
G01 X8.1128 Y38.0347
G01 X8.1020 Y37.9615
G01 X8.0983 Y37.8876
G01 X8.0983 Y2.1709
G01 X8.0672 Y2.1519
G01 X7.9824 Y2.0890
G01 X7.9757 Y2.0834
G01 X7.8997 Y2.0144
G01 X7.8936 Y2.0082
G01 X7.8228 Y1.9299
G01 X7.7581 Y1.8428
G01 X7.7534 Y1.8355
G01 X7.6992 Y1.7449
G01 X7.6516 Y1.6442
G01 X7.6141 Y1.5394
G01 X7.5883 Y1.4371
G01 X7.5865 Y1.4285
G01 X7.5707 Y1.3212
G01 X7.5653 Y1.2100
G01 X7.5707 Y1.0988
G01 X7.5861 Y0.9944
G01 X7.5883 Y0.9829
G01 X7.6141 Y0.8806
G01 X7.6495 Y0.7812
G01 X7.6540 Y0.7704
G01 X7.6966 Y0.6803
G01 X7.7021 Y0.6700
G01 X7.7565 Y0.5796
G01 X7.8210 Y0.4924
G01 X7.8266 Y0.4857
G01 X7.8976 Y0.4076
G01 X7.9801 Y0.3328
G01 X8.0696 Y0.2665
G01 X8.1651 Y0.2092
G01 X8.2658 Y0.1616
G01 X8.3706 Y0.1241
G01 X8.4786 Y0.0971
G01 X8.5888 Y0.0807
G01 X8.7000 Y0.0753
G01 X8.8112 Y0.0807
G01 X8.9214 Y0.0971
G01 X9.0294 Y0.1241
G01 X9.1342 Y0.1616
G01 X9.2349 Y0.2092
G01 X9.3304 Y0.2665
G01 X9.4176 Y0.3310
G01 X9.4243 Y0.3366
G01 X9.5024 Y0.4076
G01 X9.5772 Y0.4901
G01 X9.6435 Y0.5796
G01 X9.7008 Y0.6751
G01 X9.7484 Y0.7758
G01 X9.7859 Y0.8806
G01 X9.8129 Y0.9886
G01 X9.8290 Y1.0959
G01 X9.8297 Y1.1046
G01 X9.8347 Y1.2100
G01 X9.8293 Y1.3212
G01 X9.8129 Y1.4314
G01 X9.7867 Y1.5366
G01 X9.7841 Y1.5449
G01 X9.7484 Y1.6442
G01 X9.7021 Y1.7423
G01 X9.6979 Y1.7500
G01 X9.6451 Y1.8380
G01 X9.6402 Y1.8452
G01 X9.6065 Y1.8906
G00 Z3.0000
G00 X10.4859 Y2.0564
G01 F60.00
G01 Z-0.0700
G01 F60.00
G01 X10.4418 Y2.0164
G01 X10.4356 Y2.0103
G01 X10.3666 Y1.9343
G01 X10.3610 Y1.9276
G01 X10.2965 Y1.8404
G01 X10.2421 Y1.7500
G01 X10.2379 Y1.7423
G01 X10.1916 Y1.6442
G01 X10.1541 Y1.5394
G01 X10.1271 Y1.4314
G01 X10.1114 Y1.3270
G01 X10.1105 Y1.3183
G01 X10.1053 Y1.2100
G01 X10.1107 Y1.0988
G01 X10.1271 Y0.9886
G01 X10.1541 Y0.8806
G01 X10.1916 Y0.7758
G01 X10.2392 Y0.6751
G01 X10.2965 Y0.5796
G01 X10.3592 Y0.4947
G01 X10.3647 Y0.4879
G01 X10.4376 Y0.4076
G01 X10.5201 Y0.3328
G01 X10.6096 Y0.2665
G01 X10.7051 Y0.2092
G01 X10.8058 Y0.1616
G01 X10.9106 Y0.1241
G01 X11.0186 Y0.0971
G01 X11.1288 Y0.0807
G01 X11.2400 Y0.0753
G01 X11.3512 Y0.0807
G01 X11.4614 Y0.0971
G01 X11.5694 Y0.1241
G01 X11.6742 Y0.1616
G01 X11.7749 Y0.2092
G01 X11.8704 Y0.2665
G01 X11.9553 Y0.3292
G01 X11.9621 Y0.3347
G01 X12.0424 Y0.4076
G01 X12.1134 Y0.4857
G01 X12.1208 Y0.4947
G01 X12.1835 Y0.5796
G01 X12.2379 Y0.6700
G01 X12.2434 Y0.6803
G01 X12.2860 Y0.7704
G01 X12.2905 Y0.7812
G01 X12.3259 Y0.8806
G01 X12.3529 Y0.9886
G01 X12.3693 Y1.0988
G01 X12.3747 Y1.2100
G01 X12.3693 Y1.3212
G01 X12.3529 Y1.4314
G01 X12.3259 Y1.5394
G01 X12.2905 Y1.6388
G01 X12.2872 Y1.6469
G01 X12.2408 Y1.7449
G01 X12.1866 Y1.8355
G01 X12.1819 Y1.8428
G01 X12.1208 Y1.9253
G01 X12.1153 Y1.9321
G01 X12.0444 Y2.0103
G01 X12.0382 Y2.0164
G01 X11.9941 Y2.0564
G01 X11.9941 Y33.4759
G01 X12.7464 Y33.4759
G01 X12.7464 Y33.3127
G01 X12.7509 Y33.2201
G01 X12.7521 Y33.2085
G01 X12.7653 Y33.1197
G01 X12.7669 Y33.1111
G01 X12.7909 Y33.0156
G01 X12.8251 Y32.9201
G01 X12.8684 Y32.8284
G01 X12.9190 Y32.7438
G01 X12.9239 Y32.7366
G01 X12.9810 Y32.6599
G01 X13.0491 Y32.5847
G01 X13.1243 Y32.5166
G01 X13.2010 Y32.4595
G01 X13.2107 Y32.4531
G01 X13.2877 Y32.4069
G01 X13.2980 Y32.4014
G01 X13.3845 Y32.3607
G01 X13.4744 Y32.3283
G01 X13.4828 Y32.3257
G01 X13.5784 Y32.3019
G01 X13.6729 Y32.2877
G01 X13.6845 Y32.2865
G01 X13.7800 Y32.2820
G01 X13.8813 Y32.2870
G01 X13.9759 Y32.3009
G01 X13.9873 Y32.3031
G01 X14.0744 Y32.3249
G01 X14.0856 Y32.3283
G01 X14.1755 Y32.3607
G01 X14.2672 Y32.4040
G01 X14.3542 Y32.4562
G01 X14.4311 Y32.5130
G01 X14.4401 Y32.5204
G01 X14.5066 Y32.5807
G01 X14.5149 Y32.5890
G01 X14.5790 Y32.6599
G01 X14.6378 Y32.7390
G01 X14.6425 Y32.7463
G01 X14.6887 Y32.8233
G01 X14.6942 Y32.8336
G01 X14.7349 Y32.9201
G01 X14.7673 Y33.0100
G01 X14.7707 Y33.0212
G01 X14.7937 Y33.1140
G01 X14.8079 Y33.2085
G01 X14.8091 Y33.2201
G01 X14.8136 Y33.3156
G01 X14.8136 Y35.1444
G01 X14.8086 Y35.2457
G01 X14.7947 Y35.3403
G01 X14.7931 Y35.3489
G01 X14.7691 Y35.4444
G01 X14.7370 Y35.5345
G01 X14.7326 Y35.5453
G01 X14.6942 Y35.6264
G01 X14.6887 Y35.6367
G01 X14.6394 Y35.7186
G01 X14.5790 Y35.8001
G01 X14.5109 Y35.8753
G01 X14.4401 Y35.9396
G01 X14.4311 Y35.9470
G01 X14.3590 Y36.0005
G01 X14.3493 Y36.0069
G01 X14.2672 Y36.0560
G01 X14.1755 Y36.0993
G01 X14.0800 Y36.1335
G01 X13.9873 Y36.1569
G01 X13.9759 Y36.1591
G01 X13.8813 Y36.1730
G01 X13.7800 Y36.1780
G01 X13.6845 Y36.1735
G01 X13.6729 Y36.1723
G01 X13.5841 Y36.1591
G01 X13.5727 Y36.1569
G01 X13.4800 Y36.1335
G01 X13.3899 Y36.1014
G01 X13.3791 Y36.0970
G01 X13.2928 Y36.0560
G01 X13.2058 Y36.0038
G01 X13.1243 Y35.9434
G01 X13.0534 Y35.8793
G01 X13.0471 Y35.8732
G01 X12.9810 Y35.8001
G01 X12.9239 Y35.7234
G01 X12.9175 Y35.7137
G01 X12.8684 Y35.6316
G01 X12.8274 Y35.5453
G01 X12.8230 Y35.5345
G01 X12.7918 Y35.4472
G01 X12.7893 Y35.4388
G01 X12.7663 Y35.3460
G01 X12.7514 Y35.2457
G01 X12.7464 Y35.1473
G01 X12.7464 Y34.9841
G01 X11.2371 Y34.9840
G01 X11.1661 Y34.9804
G01 X11.0986 Y34.9706
G01 X11.0872 Y34.9683
G01 X11.0211 Y34.9516
G01 X10.9514 Y34.9267
G01 X10.8897 Y34.8976
G01 X10.8795 Y34.8922
G01 X10.8211 Y34.8570
G01 X10.7616 Y34.8129
G01 X10.7110 Y34.7672
G01 X10.7028 Y34.7590
G01 X10.6571 Y34.7084
G01 X10.6130 Y34.6489
G01 X10.5778 Y34.5905
G01 X10.5724 Y34.5803
G01 X10.5433 Y34.5186
G01 X10.5202 Y34.4544
G01 X10.5168 Y34.4433
G01 X10.5004 Y34.3771
G01 X10.4896 Y34.3039
G01 X10.4859 Y34.2300
G01 X10.4859 Y2.0564
G00 Z3.0000
G00 X15.5659 Y2.0564
G01 F60.00
G01 Z-0.0700
G01 F60.00
G01 X15.5218 Y2.0164
G01 X15.5156 Y2.0103
G01 X15.4466 Y1.9343
G01 X15.4410 Y1.9276
G01 X15.3765 Y1.8404
G01 X15.3221 Y1.7500
G01 X15.3179 Y1.7423
G01 X15.2716 Y1.6442
G01 X15.2341 Y1.5394
G01 X15.2071 Y1.4314
G01 X15.1914 Y1.3270
G01 X15.1905 Y1.3183
G01 X15.1853 Y1.2100
G01 X15.1907 Y1.0988
G01 X15.2071 Y0.9886
G01 X15.2341 Y0.8806
G01 X15.2716 Y0.7758
G01 X15.3192 Y0.6751
G01 X15.3765 Y0.5796
G01 X15.4392 Y0.4947
G01 X15.4447 Y0.4879
G01 X15.5176 Y0.4076
G01 X15.6001 Y0.3328
G01 X15.6896 Y0.2665
G01 X15.7851 Y0.2092
G01 X15.8858 Y0.1616
G01 X15.9906 Y0.1241
G01 X16.0986 Y0.0971
G01 X16.2088 Y0.0807
G01 X16.3200 Y0.0753
G01 X16.4312 Y0.0807
G01 X16.5414 Y0.0971
G01 X16.6494 Y0.1241
G01 X16.7542 Y0.1616
G01 X16.8549 Y0.2092
G01 X16.9504 Y0.2665
G01 X17.0353 Y0.3292
G01 X17.0421 Y0.3347
G01 X17.1224 Y0.4076
G01 X17.1972 Y0.4901
G01 X17.2635 Y0.5796
G01 X17.3179 Y0.6700
G01 X17.3234 Y0.6803
G01 X17.3684 Y0.7758
G01 X17.4041 Y0.8751
G01 X17.4074 Y0.8862
G01 X17.4317 Y0.9829
G01 X17.4339 Y0.9944
G01 X17.4493 Y1.0988
G01 X17.4547 Y1.2071
G01 X17.4546 Y1.2158
G01 X17.4493 Y1.3212
G01 X17.4329 Y1.4314
G01 X17.4059 Y1.5394
G01 X17.3705 Y1.6388
G01 X17.3672 Y1.6469
G01 X17.3208 Y1.7449
G01 X17.2666 Y1.8355
G01 X17.2619 Y1.8428
G01 X17.2008 Y1.9253
G01 X17.1953 Y1.9321
G01 X17.1244 Y2.0103
G01 X17.1182 Y2.0164
G01 X17.0741 Y2.0564
G01 X17.0741 Y17.3701
G01 X17.1152 Y17.4155
G01 X17.1208 Y17.4222
G01 X17.1761 Y17.4966
G01 X17.1810 Y17.5038
G01 X17.2316 Y17.5884
G01 X17.2738 Y17.6774
G01 X17.2770 Y17.6855
G01 X17.3073 Y17.7700
G01 X17.3107 Y17.7812
G01 X17.3337 Y17.8740
G01 X17.3486 Y17.9743
G01 X17.3536 Y18.0756
G01 X17.3536 Y19.9073
G01 X17.3486 Y20.0057
G01 X17.3337 Y20.1060
G01 X17.3091 Y20.2044
G01 X17.2749 Y20.2999
G01 X17.2316 Y20.3916
G01 X17.1794 Y20.4786
G01 X17.1190 Y20.5601
G01 X17.0509 Y20.6353
G01 X16.9757 Y20.7034
G01 X16.8942 Y20.7638
G01 X16.8072 Y20.8160
G01 X16.7155 Y20.8593
G01 X16.6200 Y20.8935
G01 X16.5216 Y20.9181
G01 X16.4213 Y20.9330
G01 X16.3258 Y20.9379
G01 X16.3142 Y20.9379
G01 X16.2187 Y20.9330
G01 X16.1184 Y20.9181
G01 X16.0200 Y20.8935
G01 X15.9245 Y20.8593
G01 X15.8328 Y20.8160
G01 X15.7458 Y20.7638
G01 X15.6643 Y20.7034
G01 X15.5891 Y20.6353
G01 X15.5210 Y20.5601
G01 X15.4606 Y20.4786
G01 X15.4084 Y20.3916
G01 X15.3651 Y20.2999
G01 X15.3309 Y20.2044
G01 X15.3063 Y20.1060
G01 X15.2914 Y20.0057
G01 X15.2865 Y19.9102
G01 X15.2864 Y18.0756
G01 X15.2914 Y17.9743
G01 X15.3063 Y17.8740
G01 X15.3293 Y17.7812
G01 X15.3327 Y17.7700
G01 X15.3630 Y17.6855
G01 X15.3662 Y17.6774
G01 X15.4084 Y17.5884
G01 X15.4590 Y17.5038
G01 X15.4639 Y17.4966
G01 X15.5192 Y17.4222
G01 X15.5248 Y17.4155
G01 X15.5659 Y17.3701
G01 X15.5659 Y2.0564
G00 Z3.0000
G00 X20.6459 Y2.0564
G01 F60.00
G01 Z-0.0700
G01 F60.00
G01 X20.6018 Y2.0164
G01 X20.5956 Y2.0103
G01 X20.5266 Y1.9343
G01 X20.5210 Y1.9276
G01 X20.4565 Y1.8404
G01 X20.4021 Y1.7500
G01 X20.3979 Y1.7423
G01 X20.3516 Y1.6442
G01 X20.3141 Y1.5394
G01 X20.2871 Y1.4314
G01 X20.2714 Y1.3270
G01 X20.2705 Y1.3183
G01 X20.2653 Y1.2100
G01 X20.2707 Y1.0988
G01 X20.2871 Y0.9886
G01 X20.3141 Y0.8806
G01 X20.3516 Y0.7758
G01 X20.3992 Y0.6751
G01 X20.4565 Y0.5796
G01 X20.5192 Y0.4947
G01 X20.5247 Y0.4879
G01 X20.5976 Y0.4076
G01 X20.6801 Y0.3328
G01 X20.7696 Y0.2665
G01 X20.8651 Y0.2092
G01 X20.9658 Y0.1616
G01 X21.0706 Y0.1241
G01 X21.1786 Y0.0971
G01 X21.2888 Y0.0807
G01 X21.4000 Y0.0753
G01 X21.5112 Y0.0807
G01 X21.6214 Y0.0971
G01 X21.7294 Y0.1241
G01 X21.8342 Y0.1616
G01 X21.9349 Y0.2092
G01 X22.0304 Y0.2665
G01 X22.1153 Y0.3292
G01 X22.1221 Y0.3347
G01 X22.2024 Y0.4076
G01 X22.2772 Y0.4901
G01 X22.3435 Y0.5796
G01 X22.3979 Y0.6700
G01 X22.4034 Y0.6803
G01 X22.4484 Y0.7758
G01 X22.4841 Y0.8751
G01 X22.4874 Y0.8862
G01 X22.5117 Y0.9829
G01 X22.5139 Y0.9944
G01 X22.5293 Y1.0988
G01 X22.5347 Y1.2071
G01 X22.5346 Y1.2158
G01 X22.5293 Y1.3212
G01 X22.5129 Y1.4314
G01 X22.4859 Y1.5394
G01 X22.4505 Y1.6388
G01 X22.4472 Y1.6469
G01 X22.4008 Y1.7449
G01 X22.3466 Y1.8355
G01 X22.3419 Y1.8428
G01 X22.2808 Y1.9253
G01 X22.2753 Y1.9321
G01 X22.2044 Y2.0103
G01 X22.1982 Y2.0164
G01 X22.1541 Y2.0564
G01 X22.1541 Y17.3701
G01 X22.1952 Y17.4155
G01 X22.2008 Y17.4222
G01 X22.2561 Y17.4966
G01 X22.2610 Y17.5038
G01 X22.3116 Y17.5884
G01 X22.3538 Y17.6774
G01 X22.3570 Y17.6855
G01 X22.3873 Y17.7700
G01 X22.3907 Y17.7812
G01 X22.4137 Y17.8740
G01 X22.4286 Y17.9743
G01 X22.4336 Y18.0756
G01 X22.4336 Y19.9073
G01 X22.4286 Y20.0057
G01 X22.4137 Y20.1060
G01 X22.3891 Y20.2044
G01 X22.3549 Y20.2999
G01 X22.3116 Y20.3916
G01 X22.2594 Y20.4786
G01 X22.1990 Y20.5601
G01 X22.1309 Y20.6353
G01 X22.0557 Y20.7034
G01 X21.9742 Y20.7638
G01 X21.8872 Y20.8160
G01 X21.7955 Y20.8593
G01 X21.7000 Y20.8935
G01 X21.6016 Y20.9181
G01 X21.5013 Y20.9330
G01 X21.4058 Y20.9379
G01 X21.3942 Y20.9379
G01 X21.2987 Y20.9330
G01 X21.1984 Y20.9181
G01 X21.1000 Y20.8935
G01 X21.0045 Y20.8593
G01 X20.9128 Y20.8160
G01 X20.8258 Y20.7638
G01 X20.7443 Y20.7034
G01 X20.6691 Y20.6353
G01 X20.6010 Y20.5601
G01 X20.5406 Y20.4786
G01 X20.4884 Y20.3916
G01 X20.4451 Y20.2999
G01 X20.4109 Y20.2044
G01 X20.3863 Y20.1060
G01 X20.3714 Y20.0057
G01 X20.3665 Y19.9102
G01 X20.3664 Y18.0756
G01 X20.3714 Y17.9743
G01 X20.3863 Y17.8740
G01 X20.4093 Y17.7812
G01 X20.4127 Y17.7700
G01 X20.4430 Y17.6855
G01 X20.4462 Y17.6774
G01 X20.4884 Y17.5884
G01 X20.5390 Y17.5038
G01 X20.5439 Y17.4966
G01 X20.5992 Y17.4222
G01 X20.6048 Y17.4155
G01 X20.6459 Y17.3701
G01 X20.6459 Y2.0564
G00 Z3.0000
G00 X25.7259 Y2.0564
G01 F60.00
G01 Z-0.0700
G01 F60.00
G01 X25.6818 Y2.0164
G01 X25.6756 Y2.0103
G01 X25.6066 Y1.9343
G01 X25.6010 Y1.9276
G01 X25.5365 Y1.8404
G01 X25.4821 Y1.7500
G01 X25.4779 Y1.7423
G01 X25.4316 Y1.6442
G01 X25.3941 Y1.5394
G01 X25.3671 Y1.4314
G01 X25.3514 Y1.3270
G01 X25.3505 Y1.3183
G01 X25.3453 Y1.2100
G01 X25.3507 Y1.0988
G01 X25.3671 Y0.9886
G01 X25.3941 Y0.8806
G01 X25.4316 Y0.7758
G01 X25.4792 Y0.6751
G01 X25.5365 Y0.5796
G01 X25.5992 Y0.4947
G01 X25.6047 Y0.4879
G01 X25.6776 Y0.4076
G01 X25.7601 Y0.3328
G01 X25.8496 Y0.2665
G01 X25.9451 Y0.2092
G01 X26.0458 Y0.1616
G01 X26.1506 Y0.1241
G01 X26.2586 Y0.0971
G01 X26.3688 Y0.0807
G01 X26.4800 Y0.0753
G01 X26.5912 Y0.0807
G01 X26.7014 Y0.0971
G01 X26.8094 Y0.1241
G01 X26.9142 Y0.1616
G01 X27.0149 Y0.2092
G01 X27.1104 Y0.2665
G01 X27.1953 Y0.3292
G01 X27.2021 Y0.3347
G01 X27.2824 Y0.4076
G01 X27.3572 Y0.4901
G01 X27.4235 Y0.5796
G01 X27.4779 Y0.6700
G01 X27.4834 Y0.6803
G01 X27.5284 Y0.7758
G01 X27.5641 Y0.8751
G01 X27.5674 Y0.8862
G01 X27.5917 Y0.9829
G01 X27.5939 Y0.9944
G01 X27.6093 Y1.0988
G01 X27.6147 Y1.2071
G01 X27.6146 Y1.2158
G01 X27.6093 Y1.3212
G01 X27.5929 Y1.4314
G01 X27.5659 Y1.5394
G01 X27.5305 Y1.6388
G01 X27.5272 Y1.6469
G01 X27.4808 Y1.7449
G01 X27.4266 Y1.8355
G01 X27.4219 Y1.8428
G01 X27.3608 Y1.9253
G01 X27.3553 Y1.9321
G01 X27.2844 Y2.0103
G01 X27.2782 Y2.0164
G01 X27.2341 Y2.0564
G01 X27.2341 Y17.3701
G01 X27.2752 Y17.4155
G01 X27.2808 Y17.4222
G01 X27.3361 Y17.4966
G01 X27.3410 Y17.5038
G01 X27.3916 Y17.5884
G01 X27.4338 Y17.6774
G01 X27.4370 Y17.6855
G01 X27.4673 Y17.7700
G01 X27.4707 Y17.7812
G01 X27.4937 Y17.8740
G01 X27.5086 Y17.9743
G01 X27.5136 Y18.0756
G01 X27.5136 Y19.9073
G01 X27.5086 Y20.0057
G01 X27.4937 Y20.1060
G01 X27.4691 Y20.2044
G01 X27.4349 Y20.2999
G01 X27.3916 Y20.3916
G01 X27.3394 Y20.4786
G01 X27.2790 Y20.5601
G01 X27.2109 Y20.6353
G01 X27.1357 Y20.7034
G01 X27.0542 Y20.7638
G01 X26.9672 Y20.8160
G01 X26.8755 Y20.8593
G01 X26.7800 Y20.8935
G01 X26.6816 Y20.9181
G01 X26.5813 Y20.9330
G01 X26.4858 Y20.9379
G01 X26.4742 Y20.9379
G01 X26.3787 Y20.9330
G01 X26.2784 Y20.9181
G01 X26.1800 Y20.8935
G01 X26.0845 Y20.8593
G01 X25.9928 Y20.8160
G01 X25.9058 Y20.7638
G01 X25.8243 Y20.7034
G01 X25.7491 Y20.6353
G01 X25.6810 Y20.5601
G01 X25.6206 Y20.4786
G01 X25.5684 Y20.3916
G01 X25.5251 Y20.2999
G01 X25.4909 Y20.2044
G01 X25.4663 Y20.1060
G01 X25.4514 Y20.0057
G01 X25.4465 Y19.9102
G01 X25.4464 Y18.0756
G01 X25.4514 Y17.9743
G01 X25.4663 Y17.8740
G01 X25.4893 Y17.7812
G01 X25.4927 Y17.7700
G01 X25.5230 Y17.6855
G01 X25.5262 Y17.6774
G01 X25.5684 Y17.5884
G01 X25.6190 Y17.5038
G01 X25.6239 Y17.4966
G01 X25.6792 Y17.4222
G01 X25.6848 Y17.4155
G01 X25.7259 Y17.3701
G01 X25.7259 Y2.0564
G00 Z3.0000
G00 X30.8059 Y2.0564
G01 F60.00
G01 Z-0.0700
G01 F60.00
G01 X30.7618 Y2.0164
G01 X30.7556 Y2.0103
G01 X30.6866 Y1.9343
G01 X30.6810 Y1.9276
G01 X30.6165 Y1.8404
G01 X30.5621 Y1.7500
G01 X30.5579 Y1.7423
G01 X30.5116 Y1.6442
G01 X30.4741 Y1.5394
G01 X30.4471 Y1.4314
G01 X30.4314 Y1.3270
G01 X30.4305 Y1.3183
G01 X30.4253 Y1.2100
G01 X30.4307 Y1.0988
G01 X30.4471 Y0.9886
G01 X30.4741 Y0.8806
G01 X30.5116 Y0.7758
G01 X30.5592 Y0.6751
G01 X30.6165 Y0.5796
G01 X30.6792 Y0.4947
G01 X30.6847 Y0.4879
G01 X30.7576 Y0.4076
G01 X30.8401 Y0.3328
G01 X30.9296 Y0.2665
G01 X31.0251 Y0.2092
G01 X31.1258 Y0.1616
G01 X31.2306 Y0.1241
G01 X31.3386 Y0.0971
G01 X31.4488 Y0.0807
G01 X31.5600 Y0.0753
G01 X31.6712 Y0.0807
G01 X31.7814 Y0.0971
G01 X31.8894 Y0.1241
G01 X31.9942 Y0.1616
G01 X32.0949 Y0.2092
G01 X32.1904 Y0.2665
G01 X32.2753 Y0.3292
G01 X32.2821 Y0.3347
G01 X32.3624 Y0.4076
G01 X32.4372 Y0.4901
G01 X32.5035 Y0.5796
G01 X32.5579 Y0.6700
G01 X32.5634 Y0.6803
G01 X32.6060 Y0.7704
G01 X32.6105 Y0.7812
G01 X32.6459 Y0.8806
G01 X32.6717 Y0.9829
G01 X32.6739 Y0.9944
G01 X32.6893 Y1.0988
G01 X32.6947 Y1.2071
G01 X32.6946 Y1.2158
G01 X32.6893 Y1.3212
G01 X32.6729 Y1.4314
G01 X32.6459 Y1.5394
G01 X32.6105 Y1.6388
G01 X32.6072 Y1.6469
G01 X32.5608 Y1.7449
G01 X32.5066 Y1.8355
G01 X32.5019 Y1.8428
G01 X32.4408 Y1.9253
G01 X32.4353 Y1.9321
G01 X32.3644 Y2.0103
G01 X32.3582 Y2.0164
G01 X32.3141 Y2.0564
G01 X32.3141 Y17.3701
G01 X32.3552 Y17.4155
G01 X32.3608 Y17.4222
G01 X32.4161 Y17.4966
G01 X32.4210 Y17.5038
G01 X32.4716 Y17.5884
G01 X32.5138 Y17.6774
G01 X32.5170 Y17.6855
G01 X32.5473 Y17.7700
G01 X32.5507 Y17.7812
G01 X32.5737 Y17.8740
G01 X32.5886 Y17.9743
G01 X32.5936 Y18.0756
G01 X32.5936 Y19.9073
G01 X32.5886 Y20.0057
G01 X32.5737 Y20.1060
G01 X32.5491 Y20.2044
G01 X32.5149 Y20.2999
G01 X32.4716 Y20.3916
G01 X32.4194 Y20.4786
G01 X32.3590 Y20.5601
G01 X32.2909 Y20.6353
G01 X32.2157 Y20.7034
G01 X32.1342 Y20.7638
G01 X32.0472 Y20.8160
G01 X31.9555 Y20.8593
G01 X31.8600 Y20.8935
G01 X31.7616 Y20.9181
G01 X31.6613 Y20.9330
G01 X31.5658 Y20.9379
G01 X31.5542 Y20.9379
G01 X31.4587 Y20.9330
G01 X31.3584 Y20.9181
G01 X31.2600 Y20.8935
G01 X31.1645 Y20.8593
G01 X31.0728 Y20.8160
G01 X30.9858 Y20.7638
G01 X30.9043 Y20.7034
G01 X30.8291 Y20.6353
G01 X30.7610 Y20.5601
G01 X30.7006 Y20.4786
G01 X30.6484 Y20.3916
G01 X30.6051 Y20.2999
G01 X30.5709 Y20.2044
G01 X30.5463 Y20.1060
G01 X30.5314 Y20.0057
G01 X30.5265 Y19.9102
G01 X30.5264 Y18.0756
G01 X30.5314 Y17.9743
G01 X30.5463 Y17.8740
G01 X30.5693 Y17.7812
G01 X30.5727 Y17.7700
G01 X30.6030 Y17.6855
G01 X30.6062 Y17.6774
G01 X30.6484 Y17.5884
G01 X30.6990 Y17.5038
G01 X30.7039 Y17.4966
G01 X30.7592 Y17.4222
G01 X30.7648 Y17.4155
G01 X30.8059 Y17.3701
G01 X30.8059 Y2.0564
G00 Z3.0000
G00 X35.8859 Y2.0564
G01 F60.00
G01 Z-0.0700
G01 F60.00
G01 X35.8418 Y2.0164
G01 X35.8356 Y2.0103
G01 X35.7666 Y1.9343
G01 X35.7610 Y1.9276
G01 X35.6965 Y1.8404
G01 X35.6421 Y1.7500
G01 X35.6379 Y1.7423
G01 X35.5916 Y1.6442
G01 X35.5541 Y1.5394
G01 X35.5271 Y1.4314
G01 X35.5114 Y1.3270
G01 X35.5105 Y1.3183
G01 X35.5053 Y1.2100
G01 X35.5107 Y1.0988
G01 X35.5271 Y0.9886
G01 X35.5541 Y0.8806
G01 X35.5916 Y0.7758
G01 X35.6392 Y0.6751
G01 X35.6965 Y0.5796
G01 X35.7592 Y0.4947
G01 X35.7647 Y0.4879
G01 X35.8376 Y0.4076
G01 X35.9201 Y0.3328
G01 X36.0096 Y0.2665
G01 X36.1051 Y0.2092
G01 X36.2058 Y0.1616
G01 X36.3106 Y0.1241
G01 X36.4186 Y0.0971
G01 X36.5288 Y0.0807
G01 X36.6400 Y0.0753
G01 X36.7512 Y0.0807
G01 X36.8614 Y0.0971
G01 X36.9694 Y0.1241
G01 X37.0742 Y0.1616
G01 X37.1749 Y0.2092
G01 X37.2704 Y0.2665
G01 X37.3553 Y0.3292
G01 X37.3621 Y0.3347
G01 X37.4424 Y0.4076
G01 X37.5172 Y0.4901
G01 X37.5835 Y0.5796
G01 X37.6379 Y0.6700
G01 X37.6434 Y0.6803
G01 X37.6860 Y0.7704
G01 X37.6905 Y0.7812
G01 X37.7259 Y0.8806
G01 X37.7517 Y0.9829
G01 X37.7539 Y0.9944
G01 X37.7693 Y1.0988
G01 X37.7747 Y1.2071
G01 X37.7746 Y1.2158
G01 X37.7693 Y1.3212
G01 X37.7529 Y1.4314
G01 X37.7259 Y1.5394
G01 X37.6905 Y1.6388
G01 X37.6872 Y1.6469
G01 X37.6408 Y1.7449
G01 X37.5866 Y1.8355
G01 X37.5819 Y1.8428
G01 X37.5208 Y1.9253
G01 X37.5153 Y1.9321
G01 X37.4444 Y2.0103
G01 X37.4382 Y2.0164
G01 X37.3941 Y2.0564
G01 X37.3941 Y17.3701
G01 X37.4352 Y17.4155
G01 X37.4408 Y17.4222
G01 X37.4961 Y17.4966
G01 X37.5010 Y17.5038
G01 X37.5516 Y17.5884
G01 X37.5938 Y17.6774
G01 X37.5970 Y17.6855
G01 X37.6273 Y17.7700
G01 X37.6307 Y17.7812
G01 X37.6537 Y17.8740
G01 X37.6686 Y17.9743
G01 X37.6736 Y18.0756
G01 X37.6736 Y19.9073
G01 X37.6686 Y20.0057
G01 X37.6537 Y20.1060
G01 X37.6291 Y20.2044
G01 X37.5949 Y20.2999
G01 X37.5516 Y20.3916
G01 X37.4994 Y20.4786
G01 X37.4390 Y20.5601
G01 X37.3709 Y20.6353
G01 X37.2957 Y20.7034
G01 X37.2142 Y20.7638
G01 X37.1272 Y20.8160
G01 X37.0355 Y20.8593
G01 X36.9400 Y20.8935
G01 X36.8416 Y20.9181
G01 X36.7413 Y20.9330
G01 X36.6458 Y20.9379
G01 X36.6342 Y20.9379
G01 X36.5387 Y20.9330
G01 X36.4384 Y20.9181
G01 X36.3400 Y20.8935
G01 X36.2445 Y20.8593
G01 X36.1528 Y20.8160
G01 X36.0658 Y20.7638
G01 X35.9843 Y20.7034
G01 X35.9091 Y20.6353
G01 X35.8410 Y20.5601
G01 X35.7806 Y20.4786
G01 X35.7284 Y20.3916
G01 X35.6851 Y20.2999
G01 X35.6509 Y20.2044
G01 X35.6263 Y20.1060
G01 X35.6114 Y20.0057
G01 X35.6065 Y19.9102
G01 X35.6064 Y18.0756
G01 X35.6114 Y17.9743
G01 X35.6263 Y17.8740
G01 X35.6493 Y17.7812
G01 X35.6527 Y17.7700
G01 X35.6830 Y17.6855
G01 X35.6862 Y17.6774
G01 X35.7284 Y17.5884
G01 X35.7790 Y17.5038
G01 X35.7839 Y17.4966
G01 X35.8392 Y17.4222
G01 X35.8448 Y17.4155
G01 X35.8859 Y17.3701
G01 X35.8859 Y2.0564
G00 Z3.0000
G00 X40.9659 Y2.0564
G01 F60.00
G01 Z-0.0700
G01 F60.00
G01 X40.9218 Y2.0164
G01 X40.9156 Y2.0103
G01 X40.8466 Y1.9343
G01 X40.8410 Y1.9276
G01 X40.7765 Y1.8404
G01 X40.7221 Y1.7500
G01 X40.7179 Y1.7423
G01 X40.6716 Y1.6442
G01 X40.6341 Y1.5394
G01 X40.6071 Y1.4314
G01 X40.5914 Y1.3270
G01 X40.5905 Y1.3183
G01 X40.5853 Y1.2100
G01 X40.5907 Y1.0988
G01 X40.6071 Y0.9886
G01 X40.6341 Y0.8806
G01 X40.6716 Y0.7758
G01 X40.7192 Y0.6751
G01 X40.7765 Y0.5796
G01 X40.8392 Y0.4947
G01 X40.8447 Y0.4879
G01 X40.9176 Y0.4076
G01 X41.0001 Y0.3328
G01 X41.0896 Y0.2665
G01 X41.1851 Y0.2092
G01 X41.2858 Y0.1616
G01 X41.3906 Y0.1241
G01 X41.4986 Y0.0971
G01 X41.6088 Y0.0807
G01 X41.7200 Y0.0753
G01 X41.8312 Y0.0807
G01 X41.9414 Y0.0971
G01 X42.0494 Y0.1241
G01 X42.1542 Y0.1616
G01 X42.2549 Y0.2092
G01 X42.3504 Y0.2665
G01 X42.4353 Y0.3292
G01 X42.4421 Y0.3347
G01 X42.5224 Y0.4076
G01 X42.5972 Y0.4901
G01 X42.6635 Y0.5796
G01 X42.7179 Y0.6700
G01 X42.7234 Y0.6803
G01 X42.7660 Y0.7704
G01 X42.7705 Y0.7812
G01 X42.8059 Y0.8806
G01 X42.8317 Y0.9829
G01 X42.8339 Y0.9944
G01 X42.8493 Y1.0988
G01 X42.8547 Y1.2071
G01 X42.8546 Y1.2158
G01 X42.8493 Y1.3212
G01 X42.8329 Y1.4314
G01 X42.8059 Y1.5394
G01 X42.7705 Y1.6388
G01 X42.7672 Y1.6469
G01 X42.7208 Y1.7449
G01 X42.6666 Y1.8355
G01 X42.6619 Y1.8428
G01 X42.6008 Y1.9253
G01 X42.5953 Y1.9321
G01 X42.5244 Y2.0103
G01 X42.5182 Y2.0164
G01 X42.4741 Y2.0564
G01 X42.4741 Y9.2752
G01 X42.5069 Y9.3049
G01 X42.5131 Y9.3110
G01 X42.5829 Y9.3880
G01 X42.5884 Y9.3949
G01 X42.6486 Y9.4761
G01 X42.6533 Y9.4834
G01 X42.7066 Y9.5726
G01 X42.7524 Y9.6692
G01 X42.7557 Y9.6773
G01 X42.7906 Y9.7752
G01 X42.8173 Y9.8817
G01 X42.8334 Y9.9903
G01 X42.8387 Y10.1000
G01 X42.8334 Y10.2097
G01 X42.8173 Y10.3183
G01 X42.7906 Y10.4248
G01 X42.7557 Y10.5227
G01 X42.7524 Y10.5308
G01 X42.7066 Y10.6274
G01 X42.6533 Y10.7166
G01 X42.6486 Y10.7239
G01 X42.5884 Y10.8051
G01 X42.5829 Y10.8120
G01 X42.5131 Y10.8890
G01 X42.5069 Y10.8951
G01 X42.4741 Y10.9248
G01 X42.4741 Y17.3701
G01 X42.5152 Y17.4155
G01 X42.5208 Y17.4222
G01 X42.5761 Y17.4966
G01 X42.5810 Y17.5038
G01 X42.6316 Y17.5884
G01 X42.6738 Y17.6774
G01 X42.6770 Y17.6855
G01 X42.7073 Y17.7700
G01 X42.7107 Y17.7812
G01 X42.7337 Y17.8740
G01 X42.7486 Y17.9743
G01 X42.7536 Y18.0756
G01 X42.7536 Y19.9073
G01 X42.7486 Y20.0057
G01 X42.7337 Y20.1060
G01 X42.7091 Y20.2044
G01 X42.6749 Y20.2999
G01 X42.6316 Y20.3916
G01 X42.5794 Y20.4786
G01 X42.5190 Y20.5601
G01 X42.4509 Y20.6353
G01 X42.3757 Y20.7034
G01 X42.2942 Y20.7638
G01 X42.2072 Y20.8160
G01 X42.1155 Y20.8593
G01 X42.0200 Y20.8935
G01 X41.9216 Y20.9181
G01 X41.8213 Y20.9330
G01 X41.7258 Y20.9379
G01 X41.7142 Y20.9379
G01 X41.6187 Y20.9330
G01 X41.5184 Y20.9181
G01 X41.4200 Y20.8935
G01 X41.3245 Y20.8593
G01 X41.2328 Y20.8160
G01 X41.1458 Y20.7638
G01 X41.0643 Y20.7034
G01 X40.9891 Y20.6353
G01 X40.9210 Y20.5601
G01 X40.8606 Y20.4786
G01 X40.8084 Y20.3916
G01 X40.7651 Y20.2999
G01 X40.7309 Y20.2044
G01 X40.7063 Y20.1060
G01 X40.6914 Y20.0057
G01 X40.6865 Y19.9102
G01 X40.6864 Y18.0756
G01 X40.6914 Y17.9743
G01 X40.7063 Y17.8740
G01 X40.7293 Y17.7812
G01 X40.7327 Y17.7700
G01 X40.7630 Y17.6855
G01 X40.7662 Y17.6774
G01 X40.8084 Y17.5884
G01 X40.8590 Y17.5038
G01 X40.8639 Y17.4966
G01 X40.9192 Y17.4222
G01 X40.9248 Y17.4155
G01 X40.9659 Y17.3701
G01 X40.9659 Y10.9248
G01 X40.9331 Y10.8951
G01 X40.9269 Y10.8890
G01 X40.8571 Y10.8120
G01 X40.8516 Y10.8051
G01 X40.7914 Y10.7239
G01 X40.7867 Y10.7166
G01 X40.7334 Y10.6274
G01 X40.6876 Y10.5308
G01 X40.6843 Y10.5227
G01 X40.6494 Y10.4248
G01 X40.6227 Y10.3183
G01 X40.6066 Y10.2097
G01 X40.6013 Y10.1000
G01 X40.6066 Y9.9903
G01 X40.6227 Y9.8817
G01 X40.6494 Y9.7752
G01 X40.6843 Y9.6773
G01 X40.6876 Y9.6692
G01 X40.7334 Y9.5726
G01 X40.7867 Y9.4834
G01 X40.7914 Y9.4761
G01 X40.8516 Y9.3949
G01 X40.8571 Y9.3880
G01 X40.9269 Y9.3110
G01 X40.9331 Y9.3049
G01 X40.9659 Y9.2752
G01 X40.9659 Y2.0564
G00 Z3.0000
G00 X43.5059 Y2.0564
G01 F60.00
G01 Z-0.0700
G01 F60.00
G01 X43.4618 Y2.0164
G01 X43.4556 Y2.0103
G01 X43.3866 Y1.9343
G01 X43.3810 Y1.9276
G01 X43.3165 Y1.8404
G01 X43.2621 Y1.7500
G01 X43.2579 Y1.7423
G01 X43.2116 Y1.6442
G01 X43.1741 Y1.5394
G01 X43.1471 Y1.4314
G01 X43.1314 Y1.3270
G01 X43.1305 Y1.3183
G01 X43.1253 Y1.2100
G01 X43.1307 Y1.0988
G01 X43.1471 Y0.9886
G01 X43.1741 Y0.8806
G01 X43.2116 Y0.7758
G01 X43.2592 Y0.6751
G01 X43.3165 Y0.5796
G01 X43.3792 Y0.4947
G01 X43.3847 Y0.4879
G01 X43.4576 Y0.4076
G01 X43.5401 Y0.3328
G01 X43.6296 Y0.2665
G01 X43.7251 Y0.2092
G01 X43.8258 Y0.1616
G01 X43.9306 Y0.1241
G01 X44.0386 Y0.0971
G01 X44.1488 Y0.0807
G01 X44.2600 Y0.0753
G01 X44.3712 Y0.0807
G01 X44.4814 Y0.0971
G01 X44.5894 Y0.1241
G01 X44.6942 Y0.1616
G01 X44.7949 Y0.2092
G01 X44.8904 Y0.2665
G01 X44.9753 Y0.3292
G01 X44.9821 Y0.3347
G01 X45.0624 Y0.4076
G01 X45.1372 Y0.4901
G01 X45.2035 Y0.5796
G01 X45.2608 Y0.6751
G01 X45.3084 Y0.7758
G01 X45.3459 Y0.8806
G01 X45.3729 Y0.9886
G01 X45.3886 Y1.0930
G01 X45.3897 Y1.1046
G01 X45.3946 Y1.2042
G01 X45.3946 Y1.2158
G01 X45.3893 Y1.3212
G01 X45.3739 Y1.4256
G01 X45.3717 Y1.4371
G01 X45.3459 Y1.5394
G01 X45.3095 Y1.6415
G01 X45.3060 Y1.6496
G01 X45.2608 Y1.7449
G01 X45.2066 Y1.8355
G01 X45.2019 Y1.8428
G01 X45.1408 Y1.9253
G01 X45.1353 Y1.9321
G01 X45.0644 Y2.0103
G01 X45.0582 Y2.0164
G01 X45.0141 Y2.0564
G01 X45.0141 Y6.7352
G01 X45.0469 Y6.7649
G01 X45.0531 Y6.7710
G01 X45.1229 Y6.8480
G01 X45.1284 Y6.8549
G01 X45.1886 Y6.9361
G01 X45.1933 Y6.9434
G01 X45.2466 Y7.0326
G01 X45.2912 Y7.1265
G01 X45.2947 Y7.1346
G01 X45.3287 Y7.2297
G01 X45.3321 Y7.2409
G01 X45.3573 Y7.3417
G01 X45.3726 Y7.4446
G01 X45.3738 Y7.4562
G01 X45.3787 Y7.5600
G01 X45.3736 Y7.6668
G01 X45.3726 Y7.6754
G01 X45.3573 Y7.7783
G01 X45.3321 Y7.8791
G01 X45.3287 Y7.8903
G01 X45.2957 Y7.9827
G01 X45.2912 Y7.9935
G01 X45.2466 Y8.0874
G01 X45.1902 Y8.1815
G01 X45.1248 Y8.2697
G01 X45.0511 Y8.3511
G01 X44.9697 Y8.4248
G01 X44.8863 Y8.4869
G01 X44.8766 Y8.4933
G01 X44.7924 Y8.5438
G01 X44.7822 Y8.5493
G01 X44.6881 Y8.5936
G01 X44.5848 Y8.6306
G01 X44.4783 Y8.6573
G01 X44.3726 Y8.6730
G01 X44.3638 Y8.6738
G01 X44.2600 Y8.6787
G01 X44.1503 Y8.6734
G01 X44.0417 Y8.6573
G01 X43.9352 Y8.6306
G01 X43.8319 Y8.5936
G01 X43.7326 Y8.5466
G01 X43.6385 Y8.4902
G01 X43.5503 Y8.4248
G01 X43.4689 Y8.3511
G01 X43.3952 Y8.2697
G01 X43.3298 Y8.1815
G01 X43.2734 Y8.0874
G01 X43.2264 Y7.9881
G01 X43.1894 Y7.8848
G01 X43.1627 Y7.7783
G01 X43.1470 Y7.6726
G01 X43.1462 Y7.6638
G01 X43.1413 Y7.5600
G01 X43.1462 Y7.4562
G01 X43.1474 Y7.4446
G01 X43.1627 Y7.3417
G01 X43.1879 Y7.2409
G01 X43.1913 Y7.2297
G01 X43.2253 Y7.1346
G01 X43.2288 Y7.1265
G01 X43.2734 Y7.0326
G01 X43.3267 Y6.9434
G01 X43.3314 Y6.9361
G01 X43.3916 Y6.8549
G01 X43.3971 Y6.8480
G01 X43.4669 Y6.7710
G01 X43.4731 Y6.7649
G01 X43.5059 Y6.7352
G01 X43.5059 Y2.0564
G00 Z3.0000
G00 X46.0459 Y2.0564
G01 F60.00
G01 Z-0.0700
G01 F60.00
G01 X46.0018 Y2.0164
G01 X45.9956 Y2.0103
G01 X45.9266 Y1.9343
G01 X45.9210 Y1.9276
G01 X45.8565 Y1.8404
G01 X45.8021 Y1.7500
G01 X45.7979 Y1.7423
G01 X45.7516 Y1.6442
G01 X45.7141 Y1.5394
G01 X45.6871 Y1.4314
G01 X45.6714 Y1.3270
G01 X45.6705 Y1.3183
G01 X45.6653 Y1.2100
G01 X45.6707 Y1.0988
G01 X45.6871 Y0.9886
G01 X45.7141 Y0.8806
G01 X45.7516 Y0.7758
G01 X45.7992 Y0.6751
G01 X45.8565 Y0.5796
G01 X45.9192 Y0.4947
G01 X45.9247 Y0.4879
G01 X45.9976 Y0.4076
G01 X46.0801 Y0.3328
G01 X46.1696 Y0.2665
G01 X46.2651 Y0.2092
G01 X46.3658 Y0.1616
G01 X46.4706 Y0.1241
G01 X46.5786 Y0.0971
G01 X46.6888 Y0.0807
G01 X46.8000 Y0.0753
G01 X46.9112 Y0.0807
G01 X47.0214 Y0.0971
G01 X47.1294 Y0.1241
G01 X47.2342 Y0.1616
G01 X47.3349 Y0.2092
G01 X47.4304 Y0.2665
G01 X47.5153 Y0.3292
G01 X47.5221 Y0.3347
G01 X47.6024 Y0.4076
G01 X47.6772 Y0.4901
G01 X47.7435 Y0.5796
G01 X47.7979 Y0.6700
G01 X47.8034 Y0.6803
G01 X47.8460 Y0.7704
G01 X47.8505 Y0.7812
G01 X47.8859 Y0.8806
G01 X47.9117 Y0.9829
G01 X47.9139 Y0.9944
G01 X47.9293 Y1.0988
G01 X47.9347 Y1.2071
G01 X47.9346 Y1.2158
G01 X47.9293 Y1.3212
G01 X47.9129 Y1.4314
G01 X47.8859 Y1.5394
G01 X47.8505 Y1.6388
G01 X47.8472 Y1.6469
G01 X47.8008 Y1.7449
G01 X47.7466 Y1.8355
G01 X47.7419 Y1.8428
G01 X47.6808 Y1.9253
G01 X47.6753 Y1.9321
G01 X47.6044 Y2.0103
G01 X47.5982 Y2.0164
G01 X47.5541 Y2.0564
G01 X47.5541 Y17.3701
G01 X47.5952 Y17.4155
G01 X47.6008 Y17.4222
G01 X47.6561 Y17.4966
G01 X47.6610 Y17.5038
G01 X47.7116 Y17.5884
G01 X47.7538 Y17.6774
G01 X47.7570 Y17.6855
G01 X47.7873 Y17.7700
G01 X47.7907 Y17.7812
G01 X47.8137 Y17.8740
G01 X47.8286 Y17.9743
G01 X47.8336 Y18.0756
G01 X47.8336 Y19.9073
G01 X47.8286 Y20.0057
G01 X47.8137 Y20.1060
G01 X47.7891 Y20.2044
G01 X47.7549 Y20.2999
G01 X47.7116 Y20.3916
G01 X47.6594 Y20.4786
G01 X47.5990 Y20.5601
G01 X47.5309 Y20.6353
G01 X47.4557 Y20.7034
G01 X47.3742 Y20.7638
G01 X47.2872 Y20.8160
G01 X47.1955 Y20.8593
G01 X47.1000 Y20.8935
G01 X47.0016 Y20.9181
G01 X46.9013 Y20.9330
G01 X46.8058 Y20.9379
G01 X46.7942 Y20.9379
G01 X46.6987 Y20.9330
G01 X46.5984 Y20.9181
G01 X46.5000 Y20.8935
G01 X46.4045 Y20.8593
G01 X46.3128 Y20.8160
G01 X46.2258 Y20.7638
G01 X46.1443 Y20.7034
G01 X46.0691 Y20.6353
G01 X46.0010 Y20.5601
G01 X45.9406 Y20.4786
G01 X45.8884 Y20.3916
G01 X45.8451 Y20.2999
G01 X45.8109 Y20.2044
G01 X45.7863 Y20.1060
G01 X45.7714 Y20.0057
G01 X45.7665 Y19.9102
G01 X45.7664 Y18.0756
G01 X45.7714 Y17.9743
G01 X45.7863 Y17.8740
G01 X45.8093 Y17.7812
G01 X45.8127 Y17.7700
G01 X45.8430 Y17.6855
G01 X45.8462 Y17.6774
G01 X45.8884 Y17.5884
G01 X45.9390 Y17.5038
G01 X45.9439 Y17.4966
G01 X45.9992 Y17.4222
G01 X46.0048 Y17.4155
G01 X46.0459 Y17.3701
G01 X46.0459 Y2.0564
G00 Z3.0000
G00 X51.1259 Y2.0564
G01 F60.00
G01 Z-0.0700
G01 F60.00
G01 X51.0818 Y2.0164
G01 X51.0756 Y2.0103
G01 X51.0066 Y1.9343
G01 X51.0010 Y1.9276
G01 X50.9365 Y1.8404
G01 X50.8821 Y1.7500
G01 X50.8779 Y1.7423
G01 X50.8316 Y1.6442
G01 X50.7941 Y1.5394
G01 X50.7671 Y1.4314
G01 X50.7514 Y1.3270
G01 X50.7505 Y1.3183
G01 X50.7453 Y1.2100
G01 X50.7507 Y1.0988
G01 X50.7671 Y0.9886
G01 X50.7941 Y0.8806
G01 X50.8316 Y0.7758
G01 X50.8792 Y0.6751
G01 X50.9365 Y0.5796
G01 X50.9992 Y0.4947
G01 X51.0047 Y0.4879
G01 X51.0776 Y0.4076
G01 X51.1601 Y0.3328
G01 X51.2496 Y0.2665
G01 X51.3451 Y0.2092
G01 X51.4458 Y0.1616
G01 X51.5506 Y0.1241
G01 X51.6586 Y0.0971
G01 X51.7688 Y0.0807
G01 X51.8800 Y0.0753
G01 X51.9912 Y0.0807
G01 X52.1014 Y0.0971
G01 X52.2094 Y0.1241
G01 X52.3142 Y0.1616
G01 X52.4149 Y0.2092
G01 X52.5104 Y0.2665
G01 X52.5953 Y0.3292
G01 X52.6021 Y0.3347
G01 X52.6824 Y0.4076
G01 X52.7572 Y0.4901
G01 X52.8235 Y0.5796
G01 X52.8808 Y0.6751
G01 X52.9284 Y0.7758
G01 X52.9659 Y0.8806
G01 X52.9929 Y0.9886
G01 X53.0086 Y1.0930
G01 X53.0097 Y1.1046
G01 X53.0146 Y1.2042
G01 X53.0146 Y1.2158
G01 X53.0093 Y1.3212
G01 X52.9939 Y1.4256
G01 X52.9917 Y1.4371
G01 X52.9659 Y1.5394
G01 X52.9295 Y1.6415
G01 X52.9260 Y1.6496
G01 X52.8808 Y1.7449
G01 X52.8266 Y1.8355
G01 X52.8219 Y1.8428
G01 X52.7608 Y1.9253
G01 X52.7553 Y1.9321
G01 X52.6844 Y2.0103
G01 X52.6782 Y2.0164
G01 X52.6341 Y2.0564
G01 X52.6341 Y6.7352
G01 X52.6669 Y6.7649
G01 X52.6731 Y6.7710
G01 X52.7429 Y6.8480
G01 X52.7484 Y6.8549
G01 X52.8086 Y6.9361
G01 X52.8133 Y6.9434
G01 X52.8666 Y7.0326
G01 X52.9112 Y7.1265
G01 X52.9147 Y7.1346
G01 X52.9487 Y7.2297
G01 X52.9521 Y7.2409
G01 X52.9773 Y7.3417
G01 X52.9926 Y7.4446
G01 X52.9938 Y7.4562
G01 X52.9987 Y7.5600
G01 X52.9936 Y7.6668
G01 X52.9926 Y7.6754
G01 X52.9773 Y7.7783
G01 X52.9521 Y7.8791
G01 X52.9487 Y7.8903
G01 X52.9157 Y7.9827
G01 X52.9112 Y7.9935
G01 X52.8666 Y8.0874
G01 X52.8102 Y8.1815
G01 X52.7448 Y8.2697
G01 X52.6711 Y8.3511
G01 X52.5897 Y8.4248
G01 X52.5063 Y8.4869
G01 X52.4966 Y8.4933
G01 X52.4124 Y8.5438
G01 X52.4022 Y8.5493
G01 X52.3081 Y8.5936
G01 X52.2048 Y8.6306
G01 X52.0983 Y8.6573
G01 X51.9926 Y8.6730
G01 X51.9838 Y8.6738
G01 X51.8800 Y8.6787
G01 X51.7703 Y8.6734
G01 X51.6617 Y8.6573
G01 X51.5552 Y8.6306
G01 X51.4519 Y8.5936
G01 X51.3526 Y8.5466
G01 X51.2585 Y8.4902
G01 X51.1703 Y8.4248
G01 X51.0889 Y8.3511
G01 X51.0152 Y8.2697
G01 X50.9498 Y8.1815
G01 X50.8934 Y8.0874
G01 X50.8464 Y7.9881
G01 X50.8094 Y7.8848
G01 X50.7827 Y7.7783
G01 X50.7670 Y7.6726
G01 X50.7662 Y7.6638
G01 X50.7613 Y7.5600
G01 X50.7662 Y7.4562
G01 X50.7674 Y7.4446
G01 X50.7827 Y7.3417
G01 X50.8079 Y7.2409
G01 X50.8113 Y7.2297
G01 X50.8453 Y7.1346
G01 X50.8488 Y7.1265
G01 X50.8934 Y7.0326
G01 X50.9467 Y6.9434
G01 X50.9514 Y6.9361
G01 X51.0116 Y6.8549
G01 X51.0171 Y6.8480
G01 X51.0869 Y6.7710
G01 X51.0931 Y6.7649
G01 X51.1259 Y6.7352
G01 X51.1259 Y2.0564
G00 Z3.0000
G00 X53.6659 Y2.0564
G01 F60.00
G01 Z-0.0700
G01 F60.00
G01 X53.6218 Y2.0164
G01 X53.6156 Y2.0103
G01 X53.5466 Y1.9343
G01 X53.5410 Y1.9276
G01 X53.4765 Y1.8404
G01 X53.4221 Y1.7500
G01 X53.4179 Y1.7423
G01 X53.3716 Y1.6442
G01 X53.3341 Y1.5394
G01 X53.3071 Y1.4314
G01 X53.2914 Y1.3270
G01 X53.2905 Y1.3183
G01 X53.2853 Y1.2100
G01 X53.2907 Y1.0988
G01 X53.3071 Y0.9886
G01 X53.3341 Y0.8806
G01 X53.3716 Y0.7758
G01 X53.4192 Y0.6751
G01 X53.4765 Y0.5796
G01 X53.5392 Y0.4947
G01 X53.5447 Y0.4879
G01 X53.6176 Y0.4076
G01 X53.7001 Y0.3328
G01 X53.7896 Y0.2665
G01 X53.8851 Y0.2092
G01 X53.9858 Y0.1616
G01 X54.0906 Y0.1241
G01 X54.1986 Y0.0971
G01 X54.3088 Y0.0807
G01 X54.4200 Y0.0753
G01 X54.5312 Y0.0807
G01 X54.6414 Y0.0971
G01 X54.7494 Y0.1241
G01 X54.8542 Y0.1616
G01 X54.9549 Y0.2092
G01 X55.0504 Y0.2665
G01 X55.1353 Y0.3292
G01 X55.1421 Y0.3347
G01 X55.2224 Y0.4076
G01 X55.2972 Y0.4901
G01 X55.3635 Y0.5796
G01 X55.4208 Y0.6751
G01 X55.4684 Y0.7758
G01 X55.5059 Y0.8806
G01 X55.5329 Y0.9886
G01 X55.5486 Y1.0930
G01 X55.5497 Y1.1046
G01 X55.5546 Y1.2042
G01 X55.5546 Y1.2158
G01 X55.5493 Y1.3212
G01 X55.5339 Y1.4256
G01 X55.5317 Y1.4371
G01 X55.5059 Y1.5394
G01 X55.4695 Y1.6415
G01 X55.4660 Y1.6496
G01 X55.4208 Y1.7449
G01 X55.3666 Y1.8355
G01 X55.3619 Y1.8428
G01 X55.3008 Y1.9253
G01 X55.2953 Y1.9321
G01 X55.2244 Y2.0103
G01 X55.2182 Y2.0164
G01 X55.1741 Y2.0564
G01 X55.1741 Y6.7352
G01 X55.2069 Y6.7649
G01 X55.2131 Y6.7710
G01 X55.2829 Y6.8480
G01 X55.2884 Y6.8549
G01 X55.3486 Y6.9361
G01 X55.3533 Y6.9434
G01 X55.4066 Y7.0326
G01 X55.4512 Y7.1265
G01 X55.4547 Y7.1346
G01 X55.4887 Y7.2297
G01 X55.4921 Y7.2409
G01 X55.5173 Y7.3417
G01 X55.5326 Y7.4446
G01 X55.5338 Y7.4562
G01 X55.5387 Y7.5600
G01 X55.5336 Y7.6668
G01 X55.5326 Y7.6754
G01 X55.5173 Y7.7783
G01 X55.4921 Y7.8791
G01 X55.4887 Y7.8903
G01 X55.4557 Y7.9827
G01 X55.4512 Y7.9935
G01 X55.4066 Y8.0874
G01 X55.3502 Y8.1815
G01 X55.2848 Y8.2697
G01 X55.2111 Y8.3511
G01 X55.1297 Y8.4248
G01 X55.0463 Y8.4869
G01 X55.0366 Y8.4933
G01 X54.9524 Y8.5438
G01 X54.9422 Y8.5493
G01 X54.8481 Y8.5936
G01 X54.7448 Y8.6306
G01 X54.6383 Y8.6573
G01 X54.5326 Y8.6730
G01 X54.5238 Y8.6738
G01 X54.4200 Y8.6787
G01 X54.3103 Y8.6734
G01 X54.2017 Y8.6573
G01 X54.0952 Y8.6306
G01 X53.9919 Y8.5936
G01 X53.8926 Y8.5466
G01 X53.7985 Y8.4902
G01 X53.7103 Y8.4248
G01 X53.6289 Y8.3511
G01 X53.5552 Y8.2697
G01 X53.4898 Y8.1815
G01 X53.4334 Y8.0874
G01 X53.3864 Y7.9881
G01 X53.3494 Y7.8848
G01 X53.3227 Y7.7783
G01 X53.3070 Y7.6726
G01 X53.3062 Y7.6638
G01 X53.3013 Y7.5600
G01 X53.3062 Y7.4562
G01 X53.3074 Y7.4446
G01 X53.3227 Y7.3417
G01 X53.3479 Y7.2409
G01 X53.3513 Y7.2297
G01 X53.3853 Y7.1346
G01 X53.3888 Y7.1265
G01 X53.4334 Y7.0326
G01 X53.4867 Y6.9434
G01 X53.4914 Y6.9361
G01 X53.5516 Y6.8549
G01 X53.5571 Y6.8480
G01 X53.6269 Y6.7710
G01 X53.6331 Y6.7649
G01 X53.6659 Y6.7352
G01 X53.6659 Y2.0564
G00 Z3.0000
G00 X56.2059 Y2.0564
G01 F60.00
G01 Z-0.0700
G01 F60.00
G01 X56.1618 Y2.0164
G01 X56.1556 Y2.0103
G01 X56.0866 Y1.9343
G01 X56.0810 Y1.9276
G01 X56.0165 Y1.8404
G01 X55.9621 Y1.7500
G01 X55.9579 Y1.7423
G01 X55.9116 Y1.6442
G01 X55.8741 Y1.5394
G01 X55.8471 Y1.4314
G01 X55.8314 Y1.3270
G01 X55.8305 Y1.3183
G01 X55.8253 Y1.2100
G01 X55.8307 Y1.0988
G01 X55.8471 Y0.9886
G01 X55.8741 Y0.8806
G01 X55.9116 Y0.7758
G01 X55.9592 Y0.6751
G01 X56.0165 Y0.5796
G01 X56.0792 Y0.4947
G01 X56.0847 Y0.4879
G01 X56.1576 Y0.4076
G01 X56.2401 Y0.3328
G01 X56.3296 Y0.2665
G01 X56.4251 Y0.2092
G01 X56.5258 Y0.1616
G01 X56.6306 Y0.1241
G01 X56.7386 Y0.0971
G01 X56.8488 Y0.0807
G01 X56.9600 Y0.0753
G01 X57.0712 Y0.0807
G01 X57.1814 Y0.0971
G01 X57.2894 Y0.1241
G01 X57.3942 Y0.1616
G01 X57.4949 Y0.2092
G01 X57.5904 Y0.2665
G01 X57.6753 Y0.3292
G01 X57.6821 Y0.3347
G01 X57.7624 Y0.4076
G01 X57.8372 Y0.4901
G01 X57.9035 Y0.5796
G01 X57.9608 Y0.6751
G01 X58.0084 Y0.7758
G01 X58.0459 Y0.8806
G01 X58.0729 Y0.9886
G01 X58.0886 Y1.0930
G01 X58.0897 Y1.1046
G01 X58.0946 Y1.2042
G01 X58.0946 Y1.2158
G01 X58.0893 Y1.3212
G01 X58.0739 Y1.4256
G01 X58.0717 Y1.4371
G01 X58.0459 Y1.5394
G01 X58.0095 Y1.6415
G01 X58.0060 Y1.6496
G01 X57.9608 Y1.7449
G01 X57.9066 Y1.8355
G01 X57.9019 Y1.8428
G01 X57.8408 Y1.9253
G01 X57.8353 Y1.9321
G01 X57.7644 Y2.0103
G01 X57.7582 Y2.0164
G01 X57.7141 Y2.0564
G01 X57.7141 Y6.7352
G01 X57.7469 Y6.7649
G01 X57.7531 Y6.7710
G01 X57.8229 Y6.8480
G01 X57.8284 Y6.8549
G01 X57.8886 Y6.9361
G01 X57.8933 Y6.9434
G01 X57.9466 Y7.0326
G01 X57.9912 Y7.1265
G01 X57.9947 Y7.1346
G01 X58.0287 Y7.2297
G01 X58.0321 Y7.2409
G01 X58.0573 Y7.3417
G01 X58.0726 Y7.4446
G01 X58.0738 Y7.4562
G01 X58.0787 Y7.5600
G01 X58.0736 Y7.6668
G01 X58.0726 Y7.6754
G01 X58.0573 Y7.7783
G01 X58.0321 Y7.8791
G01 X58.0287 Y7.8903
G01 X57.9957 Y7.9827
G01 X57.9912 Y7.9935
G01 X57.9466 Y8.0874
G01 X57.8902 Y8.1815
G01 X57.8248 Y8.2697
G01 X57.7511 Y8.3511
G01 X57.6697 Y8.4248
G01 X57.5863 Y8.4869
G01 X57.5766 Y8.4933
G01 X57.4924 Y8.5438
G01 X57.4822 Y8.5493
G01 X57.3881 Y8.5936
G01 X57.2848 Y8.6306
G01 X57.1783 Y8.6573
G01 X57.0726 Y8.6730
G01 X57.0638 Y8.6738
G01 X56.9600 Y8.6787
G01 X56.8503 Y8.6734
G01 X56.7417 Y8.6573
G01 X56.6352 Y8.6306
G01 X56.5319 Y8.5936
G01 X56.4326 Y8.5466
G01 X56.3385 Y8.4902
G01 X56.2503 Y8.4248
G01 X56.1689 Y8.3511
G01 X56.0952 Y8.2697
G01 X56.0298 Y8.1815
G01 X55.9734 Y8.0874
G01 X55.9264 Y7.9881
G01 X55.8894 Y7.8848
G01 X55.8627 Y7.7783
G01 X55.8470 Y7.6726
G01 X55.8462 Y7.6638
G01 X55.8413 Y7.5600
G01 X55.8462 Y7.4562
G01 X55.8474 Y7.4446
G01 X55.8627 Y7.3417
G01 X55.8879 Y7.2409
G01 X55.8913 Y7.2297
G01 X55.9253 Y7.1346
G01 X55.9288 Y7.1265
G01 X55.9734 Y7.0326
G01 X56.0267 Y6.9434
G01 X56.0314 Y6.9361
G01 X56.0916 Y6.8549
G01 X56.0971 Y6.8480
G01 X56.1669 Y6.7710
G01 X56.1731 Y6.7649
G01 X56.2059 Y6.7352
G01 X56.2059 Y2.0564
G00 Z3.0000
G00 X61.2859 Y2.0564
G01 F60.00
G01 Z-0.0700
G01 F60.00
G01 X61.2418 Y2.0164
G01 X61.2356 Y2.0103
G01 X61.1666 Y1.9343
G01 X61.1610 Y1.9276
G01 X61.0965 Y1.8404
G01 X61.0421 Y1.7500
G01 X61.0379 Y1.7423
G01 X60.9916 Y1.6442
G01 X60.9541 Y1.5394
G01 X60.9271 Y1.4314
G01 X60.9114 Y1.3270
G01 X60.9105 Y1.3183
G01 X60.9053 Y1.2100
G01 X60.9107 Y1.0988
G01 X60.9271 Y0.9886
G01 X60.9541 Y0.8806
G01 X60.9916 Y0.7758
G01 X61.0392 Y0.6751
G01 X61.0965 Y0.5796
G01 X61.1592 Y0.4947
G01 X61.1647 Y0.4879
G01 X61.2376 Y0.4076
G01 X61.3201 Y0.3328
G01 X61.4096 Y0.2665
G01 X61.5051 Y0.2092
G01 X61.6058 Y0.1616
G01 X61.7106 Y0.1241
G01 X61.8186 Y0.0971
G01 X61.9288 Y0.0807
G01 X62.0400 Y0.0753
G01 X62.1512 Y0.0807
G01 X62.2614 Y0.0971
G01 X62.3694 Y0.1241
G01 X62.4742 Y0.1616
G01 X62.5749 Y0.2092
G01 X62.6704 Y0.2665
G01 X62.7553 Y0.3292
G01 X62.7621 Y0.3347
G01 X62.8424 Y0.4076
G01 X62.9172 Y0.4901
G01 X62.9835 Y0.5796
G01 X63.0379 Y0.6700
G01 X63.0434 Y0.6803
G01 X63.0884 Y0.7758
G01 X63.1241 Y0.8751
G01 X63.1274 Y0.8862
G01 X63.1517 Y0.9829
G01 X63.1539 Y0.9944
G01 X63.1693 Y1.0988
G01 X63.1747 Y1.2071
G01 X63.1746 Y1.2158
G01 X63.1693 Y1.3212
G01 X63.1529 Y1.4314
G01 X63.1259 Y1.5394
G01 X63.0905 Y1.6388
G01 X63.0872 Y1.6469
G01 X63.0408 Y1.7449
G01 X62.9866 Y1.8355
G01 X62.9819 Y1.8428
G01 X62.9208 Y1.9253
G01 X62.9153 Y1.9321
G01 X62.8444 Y2.0103
G01 X62.8382 Y2.0164
G01 X62.7941 Y2.0564
G01 X62.7941 Y17.3701
G01 X62.8352 Y17.4155
G01 X62.8408 Y17.4222
G01 X62.8961 Y17.4966
G01 X62.9010 Y17.5038
G01 X62.9516 Y17.5884
G01 X62.9938 Y17.6774
G01 X62.9970 Y17.6855
G01 X63.0273 Y17.7700
G01 X63.0307 Y17.7812
G01 X63.0537 Y17.8740
G01 X63.0686 Y17.9743
G01 X63.0736 Y18.0756
G01 X63.0736 Y19.9073
G01 X63.0686 Y20.0057
G01 X63.0537 Y20.1060
G01 X63.0291 Y20.2044
G01 X62.9949 Y20.2999
G01 X62.9516 Y20.3916
G01 X62.8994 Y20.4786
G01 X62.8390 Y20.5601
G01 X62.7709 Y20.6353
G01 X62.6957 Y20.7034
G01 X62.6142 Y20.7638
G01 X62.5272 Y20.8160
G01 X62.4355 Y20.8593
G01 X62.3400 Y20.8935
G01 X62.2416 Y20.9181
G01 X62.1413 Y20.9330
G01 X62.0458 Y20.9379
G01 X62.0342 Y20.9379
G01 X61.9387 Y20.9330
G01 X61.8384 Y20.9181
G01 X61.7400 Y20.8935
G01 X61.6445 Y20.8593
G01 X61.5528 Y20.8160
G01 X61.4658 Y20.7638
G01 X61.3843 Y20.7034
G01 X61.3091 Y20.6353
G01 X61.2410 Y20.5601
G01 X61.1806 Y20.4786
G01 X61.1284 Y20.3916
G01 X61.0851 Y20.2999
G01 X61.0509 Y20.2044
G01 X61.0263 Y20.1060
G01 X61.0114 Y20.0057
G01 X61.0065 Y19.9102
G01 X61.0064 Y18.0756
G01 X61.0114 Y17.9743
G01 X61.0263 Y17.8740
G01 X61.0493 Y17.7812
G01 X61.0527 Y17.7700
G01 X61.0830 Y17.6855
G01 X61.0862 Y17.6774
G01 X61.1284 Y17.5884
G01 X61.1790 Y17.5038
G01 X61.1839 Y17.4966
G01 X61.2392 Y17.4222
G01 X61.2448 Y17.4155
G01 X61.2859 Y17.3701
G01 X61.2859 Y2.0564
G00 Z3.0000
G00 X66.3659 Y2.0564
G01 F60.00
G01 Z-0.0700
G01 F60.00
G01 X66.3218 Y2.0164
G01 X66.3156 Y2.0103
G01 X66.2466 Y1.9343
G01 X66.2410 Y1.9276
G01 X66.1765 Y1.8404
G01 X66.1221 Y1.7500
G01 X66.1179 Y1.7423
G01 X66.0716 Y1.6442
G01 X66.0341 Y1.5394
G01 X66.0071 Y1.4314
G01 X65.9914 Y1.3270
G01 X65.9905 Y1.3183
G01 X65.9853 Y1.2100
G01 X65.9907 Y1.0988
G01 X66.0071 Y0.9886
G01 X66.0341 Y0.8806
G01 X66.0716 Y0.7758
G01 X66.1192 Y0.6751
G01 X66.1765 Y0.5796
G01 X66.2392 Y0.4947
G01 X66.2447 Y0.4879
G01 X66.3176 Y0.4076
G01 X66.4001 Y0.3328
G01 X66.4896 Y0.2665
G01 X66.5851 Y0.2092
G01 X66.6858 Y0.1616
G01 X66.7906 Y0.1241
G01 X66.8986 Y0.0971
G01 X67.0088 Y0.0807
G01 X67.1200 Y0.0753
G01 X67.2312 Y0.0807
G01 X67.3414 Y0.0971
G01 X67.4494 Y0.1241
G01 X67.5542 Y0.1616
G01 X67.6549 Y0.2092
G01 X67.7504 Y0.2665
G01 X67.8353 Y0.3292
G01 X67.8421 Y0.3347
G01 X67.9224 Y0.4076
G01 X67.9972 Y0.4901
G01 X68.0635 Y0.5796
G01 X68.1179 Y0.6700
G01 X68.1234 Y0.6803
G01 X68.1684 Y0.7758
G01 X68.2041 Y0.8751
G01 X68.2074 Y0.8862
G01 X68.2317 Y0.9829
G01 X68.2339 Y0.9944
G01 X68.2493 Y1.0988
G01 X68.2547 Y1.2071
G01 X68.2546 Y1.2158
G01 X68.2493 Y1.3212
G01 X68.2329 Y1.4314
G01 X68.2059 Y1.5394
G01 X68.1705 Y1.6388
G01 X68.1672 Y1.6469
G01 X68.1208 Y1.7449
G01 X68.0666 Y1.8355
G01 X68.0619 Y1.8428
G01 X68.0008 Y1.9253
G01 X67.9953 Y1.9321
G01 X67.9244 Y2.0103
G01 X67.9182 Y2.0164
G01 X67.8741 Y2.0564
G01 X67.8741 Y19.4352
G01 X67.9069 Y19.4649
G01 X67.9131 Y19.4710
G01 X67.9829 Y19.5480
G01 X67.9884 Y19.5549
G01 X68.0486 Y19.6361
G01 X68.0533 Y19.6434
G01 X68.1066 Y19.7326
G01 X68.1524 Y19.8292
G01 X68.1557 Y19.8373
G01 X68.1906 Y19.9352
G01 X68.2173 Y20.0417
G01 X68.2334 Y20.1503
G01 X68.2386 Y20.2542
G01 X68.2387 Y20.2629
G01 X68.2334 Y20.3697
G01 X68.2173 Y20.4783
G01 X68.1906 Y20.5848
G01 X68.1536 Y20.6881
G01 X68.1066 Y20.7874
G01 X68.0502 Y20.8815
G01 X67.9848 Y20.9697
G01 X67.9111 Y21.0511
G01 X67.8297 Y21.1248
G01 X67.7415 Y21.1902
G01 X67.6474 Y21.2466
G01 X67.5481 Y21.2936
G01 X67.4448 Y21.3306
G01 X67.3383 Y21.3573
G01 X67.2297 Y21.3734
G01 X67.1258 Y21.3786
G01 X67.1142 Y21.3786
G01 X67.0103 Y21.3734
G01 X66.9017 Y21.3573
G01 X66.7952 Y21.3306
G01 X66.6919 Y21.2936
G01 X66.5926 Y21.2466
G01 X66.4985 Y21.1902
G01 X66.4103 Y21.1248
G01 X66.3289 Y21.0511
G01 X66.2552 Y20.9697
G01 X66.1898 Y20.8815
G01 X66.1334 Y20.7874
G01 X66.0864 Y20.6881
G01 X66.0494 Y20.5848
G01 X66.0227 Y20.4783
G01 X66.0066 Y20.3697
G01 X66.0014 Y20.2658
G01 X66.0014 Y20.2542
G01 X66.0066 Y20.1503
G01 X66.0227 Y20.0417
G01 X66.0494 Y19.9352
G01 X66.0843 Y19.8373
G01 X66.0876 Y19.8292
G01 X66.1334 Y19.7326
G01 X66.1867 Y19.6434
G01 X66.1914 Y19.6361
G01 X66.2516 Y19.5549
G01 X66.2571 Y19.5480
G01 X66.3269 Y19.4710
G01 X66.3331 Y19.4649
G01 X66.3659 Y19.4352
G01 X66.3659 Y2.0564
G00 Z3.0000
G00 X56.2059 Y14.7348
G01 F60.00
G01 Z-0.0700
G01 F60.00
G01 X56.1731 Y14.7051
G01 X56.1669 Y14.6990
G01 X56.0971 Y14.6220
G01 X56.0916 Y14.6151
G01 X56.0314 Y14.5339
G01 X56.0267 Y14.5266
G01 X55.9734 Y14.4374
G01 X55.9276 Y14.3408
G01 X55.9243 Y14.3327
G01 X55.8894 Y14.2348
G01 X55.8627 Y14.1283
G01 X55.8466 Y14.0197
G01 X55.8413 Y13.9129
G01 X55.8414 Y13.9042
G01 X55.8466 Y13.8003
G01 X55.8627 Y13.6917
G01 X55.8894 Y13.5852
G01 X55.9264 Y13.4819
G01 X55.9734 Y13.3826
G01 X56.0298 Y13.2885
G01 X56.0952 Y13.2003
G01 X56.1669 Y13.1210
G01 X56.1731 Y13.1149
G01 X56.2503 Y13.0452
G01 X56.3385 Y12.9798
G01 X56.4326 Y12.9234
G01 X56.5319 Y12.8764
G01 X56.6352 Y12.8394
G01 X56.7417 Y12.8127
G01 X56.8503 Y12.7966
G01 X56.9600 Y12.7913
G01 X57.0697 Y12.7966
G01 X57.1783 Y12.8127
G01 X57.2848 Y12.8394
G01 X57.3881 Y12.8764
G01 X57.4874 Y12.9234
G01 X57.5815 Y12.9798
G01 X57.6697 Y13.0452
G01 X57.7490 Y13.1169
G01 X57.7551 Y13.1231
G01 X57.8248 Y13.2003
G01 X57.8902 Y13.2885
G01 X57.9466 Y13.3826
G01 X57.9936 Y13.4819
G01 X58.0306 Y13.5852
G01 X58.0573 Y13.6917
G01 X58.0734 Y13.8003
G01 X58.0787 Y13.9071
G01 X58.0786 Y13.9158
G01 X58.0734 Y14.0197
G01 X58.0573 Y14.1283
G01 X58.0306 Y14.2348
G01 X57.9957 Y14.3327
G01 X57.9924 Y14.3408
G01 X57.9466 Y14.4374
G01 X57.8933 Y14.5266
G01 X57.8886 Y14.5339
G01 X57.8284 Y14.6151
G01 X57.8229 Y14.6220
G01 X57.7531 Y14.6990
G01 X57.7469 Y14.7051
G01 X57.7141 Y14.7348
G01 X57.7141 Y17.3701
G01 X57.7552 Y17.4155
G01 X57.7608 Y17.4222
G01 X57.8161 Y17.4966
G01 X57.8210 Y17.5038
G01 X57.8716 Y17.5884
G01 X57.9138 Y17.6774
G01 X57.9170 Y17.6855
G01 X57.9473 Y17.7700
G01 X57.9507 Y17.7812
G01 X57.9737 Y17.8740
G01 X57.9886 Y17.9743
G01 X57.9936 Y18.0756
G01 X57.9936 Y19.9044
G01 X57.9886 Y20.0057
G01 X57.9737 Y20.1060
G01 X57.9491 Y20.2044
G01 X57.9149 Y20.2999
G01 X57.8742 Y20.3864
G01 X57.8687 Y20.3967
G01 X57.8225 Y20.4737
G01 X57.8161 Y20.4834
G01 X57.7590 Y20.5601
G01 X57.6909 Y20.6353
G01 X57.6157 Y20.7034
G01 X57.5390 Y20.7605
G01 X57.5293 Y20.7669
G01 X57.4523 Y20.8131
G01 X57.4420 Y20.8186
G01 X57.3555 Y20.8593
G01 X57.2600 Y20.8935
G01 X57.1616 Y20.9181
G01 X57.0671 Y20.9323
G01 X57.0555 Y20.9335
G01 X56.9600 Y20.9380
G01 X56.8587 Y20.9330
G01 X56.7584 Y20.9181
G01 X56.6600 Y20.8935
G01 X56.5645 Y20.8593
G01 X56.4728 Y20.8160
G01 X56.3858 Y20.7638
G01 X56.3043 Y20.7034
G01 X56.2291 Y20.6353
G01 X56.1610 Y20.5601
G01 X56.1006 Y20.4786
G01 X56.0484 Y20.3916
G01 X56.0051 Y20.2999
G01 X55.9709 Y20.2044
G01 X55.9463 Y20.1060
G01 X55.9321 Y20.0115
G01 X55.9309 Y19.9999
G01 X55.9264 Y19.9044
G01 X55.9264 Y18.0756
G01 X55.9314 Y17.9743
G01 X55.9463 Y17.8740
G01 X55.9693 Y17.7812
G01 X55.9727 Y17.7700
G01 X56.0030 Y17.6855
G01 X56.0062 Y17.6774
G01 X56.0484 Y17.5884
G01 X56.0990 Y17.5038
G01 X56.1039 Y17.4966
G01 X56.1592 Y17.4222
G01 X56.1648 Y17.4155
G01 X56.2059 Y17.3701
G01 X56.2059 Y14.7348
G00 Z3.0000
G00 X51.1259 Y14.7348
G01 F60.00
G01 Z-0.0700
G01 F60.00
G01 X51.0931 Y14.7051
G01 X51.0869 Y14.6990
G01 X51.0171 Y14.6220
G01 X51.0116 Y14.6151
G01 X50.9514 Y14.5339
G01 X50.9467 Y14.5266
G01 X50.8934 Y14.4374
G01 X50.8476 Y14.3408
G01 X50.8443 Y14.3327
G01 X50.8094 Y14.2348
G01 X50.7827 Y14.1283
G01 X50.7666 Y14.0197
G01 X50.7613 Y13.9129
G01 X50.7614 Y13.9042
G01 X50.7666 Y13.8003
G01 X50.7827 Y13.6917
G01 X50.8094 Y13.5852
G01 X50.8464 Y13.4819
G01 X50.8934 Y13.3826
G01 X50.9498 Y13.2885
G01 X51.0152 Y13.2003
G01 X51.0869 Y13.1210
G01 X51.0931 Y13.1149
G01 X51.1703 Y13.0452
G01 X51.2585 Y12.9798
G01 X51.3526 Y12.9234
G01 X51.4519 Y12.8764
G01 X51.5552 Y12.8394
G01 X51.6617 Y12.8127
G01 X51.7703 Y12.7966
G01 X51.8800 Y12.7913
G01 X51.9897 Y12.7966
G01 X52.0983 Y12.8127
G01 X52.2048 Y12.8394
G01 X52.3081 Y12.8764
G01 X52.4074 Y12.9234
G01 X52.5015 Y12.9798
G01 X52.5897 Y13.0452
G01 X52.6690 Y13.1169
G01 X52.6751 Y13.1231
G01 X52.7448 Y13.2003
G01 X52.8102 Y13.2885
G01 X52.8666 Y13.3826
G01 X52.9136 Y13.4819
G01 X52.9506 Y13.5852
G01 X52.9773 Y13.6917
G01 X52.9934 Y13.8003
G01 X52.9987 Y13.9071
G01 X52.9986 Y13.9158
G01 X52.9934 Y14.0197
G01 X52.9773 Y14.1283
G01 X52.9506 Y14.2348
G01 X52.9157 Y14.3327
G01 X52.9124 Y14.3408
G01 X52.8666 Y14.4374
G01 X52.8133 Y14.5266
G01 X52.8086 Y14.5339
G01 X52.7484 Y14.6151
G01 X52.7429 Y14.6220
G01 X52.6731 Y14.6990
G01 X52.6669 Y14.7051
G01 X52.6341 Y14.7348
G01 X52.6341 Y17.3701
G01 X52.6752 Y17.4155
G01 X52.6808 Y17.4222
G01 X52.7361 Y17.4966
G01 X52.7410 Y17.5038
G01 X52.7916 Y17.5884
G01 X52.8338 Y17.6774
G01 X52.8370 Y17.6855
G01 X52.8673 Y17.7700
G01 X52.8707 Y17.7812
G01 X52.8937 Y17.8740
G01 X52.9086 Y17.9743
G01 X52.9136 Y18.0756
G01 X52.9136 Y19.9044
G01 X52.9086 Y20.0057
G01 X52.8937 Y20.1060
G01 X52.8691 Y20.2044
G01 X52.8349 Y20.2999
G01 X52.7942 Y20.3864
G01 X52.7887 Y20.3967
G01 X52.7425 Y20.4737
G01 X52.7361 Y20.4834
G01 X52.6790 Y20.5601
G01 X52.6109 Y20.6353
G01 X52.5357 Y20.7034
G01 X52.4590 Y20.7605
G01 X52.4493 Y20.7669
G01 X52.3723 Y20.8131
G01 X52.3620 Y20.8186
G01 X52.2755 Y20.8593
G01 X52.1800 Y20.8935
G01 X52.0816 Y20.9181
G01 X51.9871 Y20.9323
G01 X51.9755 Y20.9335
G01 X51.8800 Y20.9380
G01 X51.7787 Y20.9330
G01 X51.6784 Y20.9181
G01 X51.5800 Y20.8935
G01 X51.4845 Y20.8593
G01 X51.3928 Y20.8160
G01 X51.3058 Y20.7638
G01 X51.2243 Y20.7034
G01 X51.1491 Y20.6353
G01 X51.0810 Y20.5601
G01 X51.0206 Y20.4786
G01 X50.9684 Y20.3916
G01 X50.9251 Y20.2999
G01 X50.8909 Y20.2044
G01 X50.8663 Y20.1060
G01 X50.8521 Y20.0115
G01 X50.8509 Y19.9999
G01 X50.8464 Y19.9044
G01 X50.8464 Y18.0756
G01 X50.8514 Y17.9743
G01 X50.8663 Y17.8740
G01 X50.8893 Y17.7812
G01 X50.8927 Y17.7700
G01 X50.9230 Y17.6855
G01 X50.9262 Y17.6774
G01 X50.9684 Y17.5884
G01 X51.0190 Y17.5038
G01 X51.0239 Y17.4966
G01 X51.0792 Y17.4222
G01 X51.0848 Y17.4155
G01 X51.1259 Y17.3701
G01 X51.1259 Y14.7348
G00 Z3.0000
G00 X53.3864 Y19.9044
G01 F60.00
G01 Z-0.0700
G01 F60.00
G01 X53.3864 Y18.0756
G01 X53.3914 Y17.9743
G01 X53.4063 Y17.8740
G01 X53.4293 Y17.7812
G01 X53.4327 Y17.7700
G01 X53.4630 Y17.6855
G01 X53.4662 Y17.6774
G01 X53.5084 Y17.5884
G01 X53.5590 Y17.5038
G01 X53.5639 Y17.4966
G01 X53.6192 Y17.4222
G01 X53.6248 Y17.4155
G01 X53.6659 Y17.3701
G01 X53.6659 Y14.7348
G01 X53.6331 Y14.7051
G01 X53.6269 Y14.6990
G01 X53.5571 Y14.6220
G01 X53.5516 Y14.6151
G01 X53.4931 Y14.5363
G01 X53.4882 Y14.5291
G01 X53.4334 Y14.4374
G01 X53.3888 Y14.3435
G01 X53.3843 Y14.3327
G01 X53.3503 Y14.2375
G01 X53.3479 Y14.2291
G01 X53.3227 Y14.1283
G01 X53.3074 Y14.0254
G01 X53.3062 Y14.0138
G01 X53.3013 Y13.9100
G01 X53.3062 Y13.8062
G01 X53.3074 Y13.7946
G01 X53.3222 Y13.6946
G01 X53.3240 Y13.6861
G01 X53.3494 Y13.5852
G01 X53.3864 Y13.4819
G01 X53.4334 Y13.3826
G01 X53.4898 Y13.2885
G01 X53.5552 Y13.2003
G01 X53.6289 Y13.1189
G01 X53.7103 Y13.0452
G01 X53.7985 Y12.9798
G01 X53.8926 Y12.9234
G01 X53.9919 Y12.8764
G01 X54.0952 Y12.8394
G01 X54.2017 Y12.8127
G01 X54.3103 Y12.7966
G01 X54.4200 Y12.7913
G01 X54.5297 Y12.7966
G01 X54.6354 Y12.8122
G01 X54.6439 Y12.8140
G01 X54.7391 Y12.8379
G01 X54.7503 Y12.8413
G01 X54.8481 Y12.8764
G01 X54.9474 Y12.9234
G01 X55.0415 Y12.9798
G01 X55.1251 Y13.0416
G01 X55.1341 Y13.0490
G01 X55.2069 Y13.1149
G01 X55.2151 Y13.1231
G01 X55.2848 Y13.2003
G01 X55.3502 Y13.2885
G01 X55.4066 Y13.3826
G01 X55.4512 Y13.4765
G01 X55.4557 Y13.4873
G01 X55.4887 Y13.5797
G01 X55.4921 Y13.5909
G01 X55.5173 Y13.6917
G01 X55.5334 Y13.8003
G01 X55.5387 Y13.9100
G01 X55.5338 Y14.0138
G01 X55.5326 Y14.0254
G01 X55.5173 Y14.1283
G01 X55.4921 Y14.2291
G01 X55.4887 Y14.2403
G01 X55.4547 Y14.3354
G01 X55.4512 Y14.3435
G01 X55.4066 Y14.4374
G01 X55.3533 Y14.5266
G01 X55.3486 Y14.5339
G01 X55.2884 Y14.6151
G01 X55.2829 Y14.6220
G01 X55.2131 Y14.6990
G01 X55.2069 Y14.7051
G01 X55.1741 Y14.7348
G01 X55.1741 Y17.3701
G01 X55.2152 Y17.4155
G01 X55.2208 Y17.4222
G01 X55.2761 Y17.4966
G01 X55.2810 Y17.5038
G01 X55.3316 Y17.5884
G01 X55.3738 Y17.6774
G01 X55.3770 Y17.6855
G01 X55.4073 Y17.7700
G01 X55.4107 Y17.7812
G01 X55.4337 Y17.8740
G01 X55.4486 Y17.9743
G01 X55.4536 Y18.0756
G01 X55.4536 Y19.9044
G01 X55.4486 Y20.0057
G01 X55.4343 Y20.1032
G01 X55.4325 Y20.1117
G01 X55.4091 Y20.2044
G01 X55.3749 Y20.2999
G01 X55.3316 Y20.3916
G01 X55.2825 Y20.4737
G01 X55.2761 Y20.4834
G01 X55.2226 Y20.5555
G01 X55.2152 Y20.5645
G01 X55.1509 Y20.6353
G01 X55.0801 Y20.6996
G01 X55.0711 Y20.7070
G01 X54.9942 Y20.7638
G01 X54.9072 Y20.8160
G01 X54.8155 Y20.8593
G01 X54.7200 Y20.8935
G01 X54.6216 Y20.9181
G01 X54.5213 Y20.9330
G01 X54.4200 Y20.9380
G01 X54.3187 Y20.9330
G01 X54.2184 Y20.9181
G01 X54.1200 Y20.8935
G01 X54.0245 Y20.8593
G01 X53.9328 Y20.8160
G01 X53.8458 Y20.7638
G01 X53.7643 Y20.7034
G01 X53.6891 Y20.6353
G01 X53.6248 Y20.5645
G01 X53.6174 Y20.5555
G01 X53.5639 Y20.4834
G01 X53.5575 Y20.4737
G01 X53.5084 Y20.3916
G01 X53.4674 Y20.3053
G01 X53.4630 Y20.2945
G01 X53.4309 Y20.2044
G01 X53.4063 Y20.1060
G01 X53.3914 Y20.0057
G01 X53.3864 Y19.9044
G00 Z3.0000
G00 X58.4664 Y19.9044
G01 F60.00
G01 Z-0.0700
G01 F60.00
G01 X58.4664 Y18.0756
G01 X58.4714 Y17.9743
G01 X58.4863 Y17.8740
G01 X58.5093 Y17.7812
G01 X58.5127 Y17.7700
G01 X58.5430 Y17.6855
G01 X58.5462 Y17.6774
G01 X58.5884 Y17.5884
G01 X58.6390 Y17.5038
G01 X58.6439 Y17.4966
G01 X58.6992 Y17.4222
G01 X58.7048 Y17.4155
G01 X58.7459 Y17.3701
G01 X58.7459 Y2.0564
G01 X58.7018 Y2.0164
G01 X58.6956 Y2.0103
G01 X58.6247 Y1.9321
G01 X58.6192 Y1.9253
G01 X58.5581 Y1.8428
G01 X58.5534 Y1.8355
G01 X58.4992 Y1.7449
G01 X58.4540 Y1.6496
G01 X58.4505 Y1.6415
G01 X58.4141 Y1.5394
G01 X58.3883 Y1.4371
G01 X58.3861 Y1.4256
G01 X58.3714 Y1.3270
G01 X58.3703 Y1.3154
G01 X58.3653 Y1.2100
G01 X58.3703 Y1.1046
G01 X58.3714 Y1.0930
G01 X58.3871 Y0.9886
G01 X58.4141 Y0.8806
G01 X58.4516 Y0.7758
G01 X58.4992 Y0.6751
G01 X58.5565 Y0.5796
G01 X58.6228 Y0.4901
G01 X58.6976 Y0.4076
G01 X58.7801 Y0.3328
G01 X58.8696 Y0.2665
G01 X58.9651 Y0.2092
G01 X59.0658 Y0.1616
G01 X59.1706 Y0.1241
G01 X59.2786 Y0.0971
G01 X59.3888 Y0.0807
G01 X59.5000 Y0.0753
G01 X59.6054 Y0.0803
G01 X59.6170 Y0.0814
G01 X59.7214 Y0.0971
G01 X59.8294 Y0.1241
G01 X59.9342 Y0.1616
G01 X60.0297 Y0.2066
G01 X60.0400 Y0.2121
G01 X60.1255 Y0.2634
G01 X60.1352 Y0.2698
G01 X60.2199 Y0.3328
G01 X60.2982 Y0.4036
G01 X60.3064 Y0.4118
G01 X60.3772 Y0.4901
G01 X60.4435 Y0.5796
G01 X60.5008 Y0.6751
G01 X60.5484 Y0.7758
G01 X60.5859 Y0.8806
G01 X60.6129 Y0.9886
G01 X60.6293 Y1.0988
G01 X60.6346 Y1.2042
G01 X60.6346 Y1.2158
G01 X60.6293 Y1.3212
G01 X60.6129 Y1.4314
G01 X60.5859 Y1.5394
G01 X60.5505 Y1.6388
G01 X60.5472 Y1.6469
G01 X60.5008 Y1.7449
G01 X60.4466 Y1.8355
G01 X60.4419 Y1.8428
G01 X60.3808 Y1.9253
G01 X60.3753 Y1.9321
G01 X60.3044 Y2.0103
G01 X60.2982 Y2.0164
G01 X60.2541 Y2.0564
G01 X60.2541 Y17.3701
G01 X60.2952 Y17.4155
G01 X60.3008 Y17.4222
G01 X60.3561 Y17.4966
G01 X60.3610 Y17.5038
G01 X60.4116 Y17.5884
G01 X60.4538 Y17.6774
G01 X60.4570 Y17.6855
G01 X60.4873 Y17.7700
G01 X60.4907 Y17.7812
G01 X60.5137 Y17.8740
G01 X60.5286 Y17.9743
G01 X60.5336 Y18.0756
G01 X60.5336 Y19.9044
G01 X60.5291 Y19.9999
G01 X60.5279 Y20.0115
G01 X60.5137 Y20.1060
G01 X60.4891 Y20.2044
G01 X60.4549 Y20.2999
G01 X60.4142 Y20.3864
G01 X60.4087 Y20.3967
G01 X60.3625 Y20.4737
G01 X60.3561 Y20.4834
G01 X60.2990 Y20.5601
G01 X60.2349 Y20.6310
G01 X60.2266 Y20.6393
G01 X60.1557 Y20.7034
G01 X60.0742 Y20.7638
G01 X59.9872 Y20.8160
G01 X59.8955 Y20.8593
G01 X59.8000 Y20.8935
G01 X59.7016 Y20.9181
G01 X59.6013 Y20.9330
G01 X59.5058 Y20.9379
G01 X59.4942 Y20.9379
G01 X59.3987 Y20.9330
G01 X59.2984 Y20.9181
G01 X59.2000 Y20.8935
G01 X59.1045 Y20.8593
G01 X59.0128 Y20.8160
G01 X58.9258 Y20.7638
G01 X58.8443 Y20.7034
G01 X58.7691 Y20.6353
G01 X58.7010 Y20.5601
G01 X58.6406 Y20.4786
G01 X58.5884 Y20.3916
G01 X58.5451 Y20.2999
G01 X58.5109 Y20.2044
G01 X58.4863 Y20.1060
G01 X58.4714 Y20.0057
G01 X58.4664 Y19.9044
G00 Z3.0000
G00 X48.3064 Y19.9044
G01 F60.00
G01 Z-0.0700
G01 F60.00
G01 X48.3064 Y18.0756
G01 X48.3114 Y17.9743
G01 X48.3263 Y17.8740
G01 X48.3493 Y17.7812
G01 X48.3527 Y17.7700
G01 X48.3830 Y17.6855
G01 X48.3862 Y17.6774
G01 X48.4284 Y17.5884
G01 X48.4790 Y17.5038
G01 X48.4839 Y17.4966
G01 X48.5392 Y17.4222
G01 X48.5448 Y17.4155
G01 X48.5859 Y17.3701
G01 X48.5859 Y2.0564
G01 X48.5418 Y2.0164
G01 X48.5356 Y2.0103
G01 X48.4647 Y1.9321
G01 X48.4592 Y1.9253
G01 X48.3981 Y1.8428
G01 X48.3934 Y1.8355
G01 X48.3392 Y1.7449
G01 X48.2940 Y1.6496
G01 X48.2905 Y1.6415
G01 X48.2541 Y1.5394
G01 X48.2283 Y1.4371
G01 X48.2261 Y1.4256
G01 X48.2114 Y1.3270
G01 X48.2103 Y1.3154
G01 X48.2053 Y1.2100
G01 X48.2103 Y1.1046
G01 X48.2114 Y1.0930
G01 X48.2271 Y0.9886
G01 X48.2541 Y0.8806
G01 X48.2916 Y0.7758
G01 X48.3392 Y0.6751
G01 X48.3965 Y0.5796
G01 X48.4628 Y0.4901
G01 X48.5376 Y0.4076
G01 X48.6201 Y0.3328
G01 X48.7096 Y0.2665
G01 X48.8051 Y0.2092
G01 X48.9058 Y0.1616
G01 X49.0106 Y0.1241
G01 X49.1186 Y0.0971
G01 X49.2288 Y0.0807
G01 X49.3400 Y0.0753
G01 X49.4454 Y0.0803
G01 X49.4570 Y0.0814
G01 X49.5614 Y0.0971
G01 X49.6694 Y0.1241
G01 X49.7742 Y0.1616
G01 X49.8697 Y0.2066
G01 X49.8800 Y0.2121
G01 X49.9655 Y0.2634
G01 X49.9752 Y0.2698
G01 X50.0599 Y0.3328
G01 X50.1382 Y0.4036
G01 X50.1464 Y0.4118
G01 X50.2172 Y0.4901
G01 X50.2835 Y0.5796
G01 X50.3408 Y0.6751
G01 X50.3884 Y0.7758
G01 X50.4259 Y0.8806
G01 X50.4529 Y0.9886
G01 X50.4693 Y1.0988
G01 X50.4746 Y1.2042
G01 X50.4746 Y1.2158
G01 X50.4693 Y1.3212
G01 X50.4529 Y1.4314
G01 X50.4259 Y1.5394
G01 X50.3905 Y1.6388
G01 X50.3872 Y1.6469
G01 X50.3408 Y1.7449
G01 X50.2866 Y1.8355
G01 X50.2819 Y1.8428
G01 X50.2208 Y1.9253
G01 X50.2153 Y1.9321
G01 X50.1444 Y2.0103
G01 X50.1382 Y2.0164
G01 X50.0941 Y2.0564
G01 X50.0941 Y17.3701
G01 X50.1352 Y17.4155
G01 X50.1408 Y17.4222
G01 X50.1961 Y17.4966
G01 X50.2010 Y17.5038
G01 X50.2516 Y17.5884
G01 X50.2938 Y17.6774
G01 X50.2970 Y17.6855
G01 X50.3273 Y17.7700
G01 X50.3307 Y17.7812
G01 X50.3537 Y17.8740
G01 X50.3686 Y17.9743
G01 X50.3736 Y18.0756
G01 X50.3736 Y19.9044
G01 X50.3691 Y19.9999
G01 X50.3679 Y20.0115
G01 X50.3537 Y20.1060
G01 X50.3291 Y20.2044
G01 X50.2949 Y20.2999
G01 X50.2542 Y20.3864
G01 X50.2487 Y20.3967
G01 X50.1994 Y20.4786
G01 X50.1426 Y20.5555
G01 X50.1352 Y20.5645
G01 X50.0749 Y20.6310
G01 X50.0666 Y20.6393
G01 X49.9957 Y20.7034
G01 X49.9142 Y20.7638
G01 X49.8272 Y20.8160
G01 X49.7355 Y20.8593
G01 X49.6400 Y20.8935
G01 X49.5416 Y20.9181
G01 X49.4413 Y20.9330
G01 X49.3458 Y20.9379
G01 X49.3342 Y20.9379
G01 X49.2387 Y20.9330
G01 X49.1384 Y20.9181
G01 X49.0400 Y20.8935
G01 X48.9445 Y20.8593
G01 X48.8528 Y20.8160
G01 X48.7658 Y20.7638
G01 X48.6843 Y20.7034
G01 X48.6091 Y20.6353
G01 X48.5410 Y20.5601
G01 X48.4806 Y20.4786
G01 X48.4284 Y20.3916
G01 X48.3851 Y20.2999
G01 X48.3509 Y20.2044
G01 X48.3263 Y20.1060
G01 X48.3114 Y20.0057
G01 X48.3064 Y19.9044
G00 Z3.0000
G00 X43.2264 Y19.9044
G01 F60.00
G01 Z-0.0700
G01 F60.00
G01 X43.2264 Y18.0756
G01 X43.2314 Y17.9743
G01 X43.2463 Y17.8740
G01 X43.2693 Y17.7812
G01 X43.2727 Y17.7700
G01 X43.3030 Y17.6855
G01 X43.3062 Y17.6774
G01 X43.3484 Y17.5884
G01 X43.3990 Y17.5038
G01 X43.4039 Y17.4966
G01 X43.4592 Y17.4222
G01 X43.4648 Y17.4155
G01 X43.5059 Y17.3701
G01 X43.5059 Y14.7348
G01 X43.4731 Y14.7051
G01 X43.4669 Y14.6990
G01 X43.3971 Y14.6220
G01 X43.3916 Y14.6151
G01 X43.3331 Y14.5363
G01 X43.3282 Y14.5291
G01 X43.2734 Y14.4374
G01 X43.2288 Y14.3435
G01 X43.2243 Y14.3327
G01 X43.1903 Y14.2375
G01 X43.1879 Y14.2291
G01 X43.1627 Y14.1283
G01 X43.1474 Y14.0254
G01 X43.1462 Y14.0138
G01 X43.1413 Y13.9100
G01 X43.1462 Y13.8062
G01 X43.1474 Y13.7946
G01 X43.1622 Y13.6946
G01 X43.1640 Y13.6861
G01 X43.1894 Y13.5852
G01 X43.2264 Y13.4819
G01 X43.2734 Y13.3826
G01 X43.3298 Y13.2885
G01 X43.3952 Y13.2003
G01 X43.4689 Y13.1189
G01 X43.5503 Y13.0452
G01 X43.6385 Y12.9798
G01 X43.7326 Y12.9234
G01 X43.8319 Y12.8764
G01 X43.9352 Y12.8394
G01 X44.0417 Y12.8127
G01 X44.1503 Y12.7966
G01 X44.2600 Y12.7913
G01 X44.3697 Y12.7966
G01 X44.4754 Y12.8122
G01 X44.4839 Y12.8140
G01 X44.5791 Y12.8379
G01 X44.5903 Y12.8413
G01 X44.6881 Y12.8764
G01 X44.7874 Y12.9234
G01 X44.8815 Y12.9798
G01 X44.9651 Y13.0416
G01 X44.9741 Y13.0490
G01 X45.0469 Y13.1149
G01 X45.0551 Y13.1231
G01 X45.1248 Y13.2003
G01 X45.1902 Y13.2885
G01 X45.2466 Y13.3826
G01 X45.2912 Y13.4765
G01 X45.2957 Y13.4873
G01 X45.3287 Y13.5797
G01 X45.3321 Y13.5909
G01 X45.3573 Y13.6917
G01 X45.3734 Y13.8003
G01 X45.3787 Y13.9100
G01 X45.3738 Y14.0138
G01 X45.3726 Y14.0254
G01 X45.3573 Y14.1283
G01 X45.3321 Y14.2291
G01 X45.3287 Y14.2403
G01 X45.2947 Y14.3354
G01 X45.2912 Y14.3435
G01 X45.2466 Y14.4374
G01 X45.1933 Y14.5266
G01 X45.1886 Y14.5339
G01 X45.1284 Y14.6151
G01 X45.1229 Y14.6220
G01 X45.0531 Y14.6990
G01 X45.0469 Y14.7051
G01 X45.0141 Y14.7348
G01 X45.0141 Y17.3701
G01 X45.0552 Y17.4155
G01 X45.0608 Y17.4222
G01 X45.1161 Y17.4966
G01 X45.1210 Y17.5038
G01 X45.1716 Y17.5884
G01 X45.2138 Y17.6774
G01 X45.2170 Y17.6855
G01 X45.2473 Y17.7700
G01 X45.2507 Y17.7812
G01 X45.2737 Y17.8740
G01 X45.2886 Y17.9743
G01 X45.2936 Y18.0756
G01 X45.2936 Y19.9044
G01 X45.2886 Y20.0057
G01 X45.2743 Y20.1032
G01 X45.2725 Y20.1117
G01 X45.2491 Y20.2044
G01 X45.2149 Y20.2999
G01 X45.1716 Y20.3916
G01 X45.1225 Y20.4737
G01 X45.1161 Y20.4834
G01 X45.0626 Y20.5555
G01 X45.0552 Y20.5645
G01 X44.9909 Y20.6353
G01 X44.9201 Y20.6996
G01 X44.9111 Y20.7070
G01 X44.8342 Y20.7638
G01 X44.7472 Y20.8160
G01 X44.6555 Y20.8593
G01 X44.5600 Y20.8935
G01 X44.4616 Y20.9181
G01 X44.3613 Y20.9330
G01 X44.2600 Y20.9380
G01 X44.1587 Y20.9330
G01 X44.0584 Y20.9181
G01 X43.9600 Y20.8935
G01 X43.8645 Y20.8593
G01 X43.7728 Y20.8160
G01 X43.6858 Y20.7638
G01 X43.6043 Y20.7034
G01 X43.5291 Y20.6353
G01 X43.4648 Y20.5645
G01 X43.4574 Y20.5555
G01 X43.4039 Y20.4834
G01 X43.3975 Y20.4737
G01 X43.3484 Y20.3916
G01 X43.3074 Y20.3053
G01 X43.3030 Y20.2945
G01 X43.2709 Y20.2044
G01 X43.2463 Y20.1060
G01 X43.2314 Y20.0057
G01 X43.2264 Y19.9044
G00 Z3.0000
G00 X38.1464 Y19.9044
G01 F60.00
G01 Z-0.0700
G01 F60.00
G01 X38.1464 Y18.0756
G01 X38.1514 Y17.9743
G01 X38.1663 Y17.8740
G01 X38.1893 Y17.7812
G01 X38.1927 Y17.7700
G01 X38.2230 Y17.6855
G01 X38.2262 Y17.6774
G01 X38.2684 Y17.5884
G01 X38.3190 Y17.5038
G01 X38.3239 Y17.4966
G01 X38.3792 Y17.4222
G01 X38.3848 Y17.4155
G01 X38.4259 Y17.3701
G01 X38.4259 Y2.0564
G01 X38.3818 Y2.0164
G01 X38.3756 Y2.0103
G01 X38.3047 Y1.9321
G01 X38.2992 Y1.9253
G01 X38.2381 Y1.8428
G01 X38.2334 Y1.8355
G01 X38.1792 Y1.7449
G01 X38.1340 Y1.6496
G01 X38.1305 Y1.6415
G01 X38.0941 Y1.5394
G01 X38.0683 Y1.4371
G01 X38.0661 Y1.4256
G01 X38.0514 Y1.3270
G01 X38.0503 Y1.3154
G01 X38.0453 Y1.2100
G01 X38.0503 Y1.1046
G01 X38.0514 Y1.0930
G01 X38.0671 Y0.9886
G01 X38.0941 Y0.8806
G01 X38.1316 Y0.7758
G01 X38.1792 Y0.6751
G01 X38.2365 Y0.5796
G01 X38.3028 Y0.4901
G01 X38.3776 Y0.4076
G01 X38.4601 Y0.3328
G01 X38.5496 Y0.2665
G01 X38.6451 Y0.2092
G01 X38.7458 Y0.1616
G01 X38.8506 Y0.1241
G01 X38.9586 Y0.0971
G01 X39.0688 Y0.0807
G01 X39.1800 Y0.0753
G01 X39.2854 Y0.0803
G01 X39.2970 Y0.0814
G01 X39.4014 Y0.0971
G01 X39.5094 Y0.1241
G01 X39.6142 Y0.1616
G01 X39.7097 Y0.2066
G01 X39.7200 Y0.2121
G01 X39.8055 Y0.2634
G01 X39.8152 Y0.2698
G01 X39.8999 Y0.3328
G01 X39.9782 Y0.4036
G01 X39.9864 Y0.4118
G01 X40.0572 Y0.4901
G01 X40.1235 Y0.5796
G01 X40.1808 Y0.6751
G01 X40.2284 Y0.7758
G01 X40.2659 Y0.8806
G01 X40.2929 Y0.9886
G01 X40.3093 Y1.0988
G01 X40.3146 Y1.2042
G01 X40.3146 Y1.2158
G01 X40.3093 Y1.3212
G01 X40.2929 Y1.4314
G01 X40.2659 Y1.5394
G01 X40.2305 Y1.6388
G01 X40.2272 Y1.6469
G01 X40.1808 Y1.7449
G01 X40.1266 Y1.8355
G01 X40.1219 Y1.8428
G01 X40.0608 Y1.9253
G01 X40.0553 Y1.9321
G01 X39.9844 Y2.0103
G01 X39.9782 Y2.0164
G01 X39.9341 Y2.0564
G01 X39.9341 Y17.3701
G01 X39.9752 Y17.4155
G01 X39.9808 Y17.4222
G01 X40.0361 Y17.4966
G01 X40.0410 Y17.5038
G01 X40.0916 Y17.5884
G01 X40.1338 Y17.6774
G01 X40.1370 Y17.6855
G01 X40.1673 Y17.7700
G01 X40.1707 Y17.7812
G01 X40.1937 Y17.8740
G01 X40.2086 Y17.9743
G01 X40.2136 Y18.0756
G01 X40.2136 Y19.9044
G01 X40.2091 Y19.9999
G01 X40.2079 Y20.0115
G01 X40.1937 Y20.1060
G01 X40.1691 Y20.2044
G01 X40.1349 Y20.2999
G01 X40.0942 Y20.3864
G01 X40.0887 Y20.3967
G01 X40.0394 Y20.4786
G01 X39.9826 Y20.5555
G01 X39.9752 Y20.5645
G01 X39.9149 Y20.6310
G01 X39.9066 Y20.6393
G01 X39.8357 Y20.7034
G01 X39.7542 Y20.7638
G01 X39.6672 Y20.8160
G01 X39.5755 Y20.8593
G01 X39.4800 Y20.8935
G01 X39.3816 Y20.9181
G01 X39.2813 Y20.9330
G01 X39.1858 Y20.9379
G01 X39.1742 Y20.9379
G01 X39.0787 Y20.9330
G01 X38.9784 Y20.9181
G01 X38.8800 Y20.8935
G01 X38.7845 Y20.8593
G01 X38.6928 Y20.8160
G01 X38.6058 Y20.7638
G01 X38.5243 Y20.7034
G01 X38.4491 Y20.6353
G01 X38.3810 Y20.5601
G01 X38.3206 Y20.4786
G01 X38.2684 Y20.3916
G01 X38.2251 Y20.2999
G01 X38.1909 Y20.2044
G01 X38.1663 Y20.1060
G01 X38.1514 Y20.0057
G01 X38.1464 Y19.9044
G00 Z3.0000
G00 X33.0664 Y19.9044
G01 F60.00
G01 Z-0.0700
G01 F60.00
G01 X33.0664 Y18.0756
G01 X33.0714 Y17.9743
G01 X33.0863 Y17.8740
G01 X33.1093 Y17.7812
G01 X33.1127 Y17.7700
G01 X33.1430 Y17.6855
G01 X33.1462 Y17.6774
G01 X33.1884 Y17.5884
G01 X33.2390 Y17.5038
G01 X33.2439 Y17.4966
G01 X33.2992 Y17.4222
G01 X33.3048 Y17.4155
G01 X33.3459 Y17.3701
G01 X33.3459 Y2.0564
G01 X33.3018 Y2.0164
G01 X33.2956 Y2.0103
G01 X33.2247 Y1.9321
G01 X33.2192 Y1.9253
G01 X33.1581 Y1.8428
G01 X33.1534 Y1.8355
G01 X33.0992 Y1.7449
G01 X33.0540 Y1.6496
G01 X33.0505 Y1.6415
G01 X33.0141 Y1.5394
G01 X32.9883 Y1.4371
G01 X32.9861 Y1.4256
G01 X32.9714 Y1.3270
G01 X32.9703 Y1.3154
G01 X32.9653 Y1.2100
G01 X32.9703 Y1.1046
G01 X32.9714 Y1.0930
G01 X32.9871 Y0.9886
G01 X33.0141 Y0.8806
G01 X33.0516 Y0.7758
G01 X33.0992 Y0.6751
G01 X33.1565 Y0.5796
G01 X33.2228 Y0.4901
G01 X33.2976 Y0.4076
G01 X33.3801 Y0.3328
G01 X33.4696 Y0.2665
G01 X33.5651 Y0.2092
G01 X33.6658 Y0.1616
G01 X33.7706 Y0.1241
G01 X33.8786 Y0.0971
G01 X33.9888 Y0.0807
G01 X34.1000 Y0.0753
G01 X34.2054 Y0.0803
G01 X34.2170 Y0.0814
G01 X34.3214 Y0.0971
G01 X34.4294 Y0.1241
G01 X34.5342 Y0.1616
G01 X34.6297 Y0.2066
G01 X34.6400 Y0.2121
G01 X34.7255 Y0.2634
G01 X34.7352 Y0.2698
G01 X34.8199 Y0.3328
G01 X34.8982 Y0.4036
G01 X34.9064 Y0.4118
G01 X34.9772 Y0.4901
G01 X35.0435 Y0.5796
G01 X35.1008 Y0.6751
G01 X35.1484 Y0.7758
G01 X35.1859 Y0.8806
G01 X35.2129 Y0.9886
G01 X35.2293 Y1.0988
G01 X35.2346 Y1.2042
G01 X35.2346 Y1.2158
G01 X35.2293 Y1.3212
G01 X35.2129 Y1.4314
G01 X35.1859 Y1.5394
G01 X35.1505 Y1.6388
G01 X35.1472 Y1.6469
G01 X35.1008 Y1.7449
G01 X35.0466 Y1.8355
G01 X35.0419 Y1.8428
G01 X34.9808 Y1.9253
G01 X34.9753 Y1.9321
G01 X34.9044 Y2.0103
G01 X34.8982 Y2.0164
G01 X34.8541 Y2.0564
G01 X34.8541 Y17.3701
G01 X34.8952 Y17.4155
G01 X34.9008 Y17.4222
G01 X34.9561 Y17.4966
G01 X34.9610 Y17.5038
G01 X35.0116 Y17.5884
G01 X35.0538 Y17.6774
G01 X35.0570 Y17.6855
G01 X35.0873 Y17.7700
G01 X35.0907 Y17.7812
G01 X35.1137 Y17.8740
G01 X35.1286 Y17.9743
G01 X35.1336 Y18.0756
G01 X35.1336 Y19.9044
G01 X35.1291 Y19.9999
G01 X35.1279 Y20.0115
G01 X35.1137 Y20.1060
G01 X35.0891 Y20.2044
G01 X35.0549 Y20.2999
G01 X35.0142 Y20.3864
G01 X35.0087 Y20.3967
G01 X34.9594 Y20.4786
G01 X34.9026 Y20.5555
G01 X34.8952 Y20.5645
G01 X34.8349 Y20.6310
G01 X34.8266 Y20.6393
G01 X34.7557 Y20.7034
G01 X34.6742 Y20.7638
G01 X34.5872 Y20.8160
G01 X34.4955 Y20.8593
G01 X34.4000 Y20.8935
G01 X34.3016 Y20.9181
G01 X34.2013 Y20.9330
G01 X34.1058 Y20.9379
G01 X34.0942 Y20.9379
G01 X33.9987 Y20.9330
G01 X33.8984 Y20.9181
G01 X33.8000 Y20.8935
G01 X33.7045 Y20.8593
G01 X33.6128 Y20.8160
G01 X33.5258 Y20.7638
G01 X33.4443 Y20.7034
G01 X33.3691 Y20.6353
G01 X33.3010 Y20.5601
G01 X33.2406 Y20.4786
G01 X33.1884 Y20.3916
G01 X33.1451 Y20.2999
G01 X33.1109 Y20.2044
G01 X33.0863 Y20.1060
G01 X33.0714 Y20.0057
G01 X33.0664 Y19.9044
G00 Z3.0000
G00 X27.9864 Y19.9044
G01 F60.00
G01 Z-0.0700
G01 F60.00
G01 X27.9864 Y18.0756
G01 X27.9914 Y17.9743
G01 X28.0063 Y17.8740
G01 X28.0293 Y17.7812
G01 X28.0327 Y17.7700
G01 X28.0630 Y17.6855
G01 X28.0662 Y17.6774
G01 X28.1084 Y17.5884
G01 X28.1590 Y17.5038
G01 X28.1639 Y17.4966
G01 X28.2192 Y17.4222
G01 X28.2248 Y17.4155
G01 X28.2659 Y17.3701
G01 X28.2659 Y2.0564
G01 X28.2218 Y2.0164
G01 X28.2156 Y2.0103
G01 X28.1447 Y1.9321
G01 X28.1392 Y1.9253
G01 X28.0781 Y1.8428
G01 X28.0734 Y1.8355
G01 X28.0192 Y1.7449
G01 X27.9740 Y1.6496
G01 X27.9705 Y1.6415
G01 X27.9341 Y1.5394
G01 X27.9083 Y1.4371
G01 X27.9061 Y1.4256
G01 X27.8914 Y1.3270
G01 X27.8903 Y1.3154
G01 X27.8853 Y1.2100
G01 X27.8903 Y1.1046
G01 X27.8914 Y1.0930
G01 X27.9071 Y0.9886
G01 X27.9341 Y0.8806
G01 X27.9716 Y0.7758
G01 X28.0192 Y0.6751
G01 X28.0765 Y0.5796
G01 X28.1428 Y0.4901
G01 X28.2176 Y0.4076
G01 X28.3001 Y0.3328
G01 X28.3896 Y0.2665
G01 X28.4851 Y0.2092
G01 X28.5858 Y0.1616
G01 X28.6906 Y0.1241
G01 X28.7986 Y0.0971
G01 X28.9088 Y0.0807
G01 X29.0200 Y0.0753
G01 X29.1254 Y0.0803
G01 X29.1370 Y0.0814
G01 X29.2414 Y0.0971
G01 X29.3494 Y0.1241
G01 X29.4542 Y0.1616
G01 X29.5497 Y0.2066
G01 X29.5600 Y0.2121
G01 X29.6455 Y0.2634
G01 X29.6552 Y0.2698
G01 X29.7399 Y0.3328
G01 X29.8182 Y0.4036
G01 X29.8264 Y0.4118
G01 X29.8972 Y0.4901
G01 X29.9635 Y0.5796
G01 X30.0208 Y0.6751
G01 X30.0684 Y0.7758
G01 X30.1059 Y0.8806
G01 X30.1329 Y0.9886
G01 X30.1493 Y1.0988
G01 X30.1546 Y1.2042
G01 X30.1546 Y1.2158
G01 X30.1493 Y1.3212
G01 X30.1329 Y1.4314
G01 X30.1059 Y1.5394
G01 X30.0705 Y1.6388
G01 X30.0672 Y1.6469
G01 X30.0208 Y1.7449
G01 X29.9666 Y1.8355
G01 X29.9619 Y1.8428
G01 X29.9008 Y1.9253
G01 X29.8953 Y1.9321
G01 X29.8244 Y2.0103
G01 X29.8182 Y2.0164
G01 X29.7741 Y2.0564
G01 X29.7741 Y17.3701
G01 X29.8152 Y17.4155
G01 X29.8208 Y17.4222
G01 X29.8761 Y17.4966
G01 X29.8810 Y17.5038
G01 X29.9316 Y17.5884
G01 X29.9738 Y17.6774
G01 X29.9770 Y17.6855
G01 X30.0073 Y17.7700
G01 X30.0107 Y17.7812
G01 X30.0337 Y17.8740
G01 X30.0486 Y17.9743
G01 X30.0536 Y18.0756
G01 X30.0536 Y19.9044
G01 X30.0491 Y19.9999
G01 X30.0479 Y20.0115
G01 X30.0337 Y20.1060
G01 X30.0091 Y20.2044
G01 X29.9749 Y20.2999
G01 X29.9342 Y20.3864
G01 X29.9287 Y20.3967
G01 X29.8794 Y20.4786
G01 X29.8226 Y20.5555
G01 X29.8152 Y20.5645
G01 X29.7549 Y20.6310
G01 X29.7466 Y20.6393
G01 X29.6757 Y20.7034
G01 X29.5942 Y20.7638
G01 X29.5072 Y20.8160
G01 X29.4155 Y20.8593
G01 X29.3200 Y20.8935
G01 X29.2216 Y20.9181
G01 X29.1213 Y20.9330
G01 X29.0258 Y20.9379
G01 X29.0142 Y20.9379
G01 X28.9187 Y20.9330
G01 X28.8184 Y20.9181
G01 X28.7200 Y20.8935
G01 X28.6245 Y20.8593
G01 X28.5328 Y20.8160
G01 X28.4458 Y20.7638
G01 X28.3643 Y20.7034
G01 X28.2891 Y20.6353
G01 X28.2210 Y20.5601
G01 X28.1606 Y20.4786
G01 X28.1084 Y20.3916
G01 X28.0651 Y20.2999
G01 X28.0309 Y20.2044
G01 X28.0063 Y20.1060
G01 X27.9914 Y20.0057
G01 X27.9864 Y19.9044
G00 Z3.0000
G00 X22.9064 Y19.9044
G01 F60.00
G01 Z-0.0700
G01 F60.00
G01 X22.9064 Y18.0756
G01 X22.9114 Y17.9743
G01 X22.9263 Y17.8740
G01 X22.9493 Y17.7812
G01 X22.9527 Y17.7700
G01 X22.9830 Y17.6855
G01 X22.9862 Y17.6774
G01 X23.0284 Y17.5884
G01 X23.0790 Y17.5038
G01 X23.0839 Y17.4966
G01 X23.1392 Y17.4222
G01 X23.1448 Y17.4155
G01 X23.1859 Y17.3701
G01 X23.1859 Y2.0564
G01 X23.1418 Y2.0164
G01 X23.1356 Y2.0103
G01 X23.0647 Y1.9321
G01 X23.0592 Y1.9253
G01 X22.9981 Y1.8428
G01 X22.9934 Y1.8355
G01 X22.9392 Y1.7449
G01 X22.8940 Y1.6496
G01 X22.8905 Y1.6415
G01 X22.8541 Y1.5394
G01 X22.8283 Y1.4371
G01 X22.8261 Y1.4256
G01 X22.8107 Y1.3212
G01 X22.8054 Y1.2158
G01 X22.8054 Y1.2042
G01 X22.8103 Y1.1046
G01 X22.8114 Y1.0930
G01 X22.8271 Y0.9886
G01 X22.8541 Y0.8806
G01 X22.8916 Y0.7758
G01 X22.9392 Y0.6751
G01 X22.9965 Y0.5796
G01 X23.0628 Y0.4901
G01 X23.1376 Y0.4076
G01 X23.2201 Y0.3328
G01 X23.3096 Y0.2665
G01 X23.4051 Y0.2092
G01 X23.5058 Y0.1616
G01 X23.6106 Y0.1241
G01 X23.7186 Y0.0971
G01 X23.8288 Y0.0807
G01 X23.9400 Y0.0753
G01 X24.0454 Y0.0803
G01 X24.0570 Y0.0814
G01 X24.1614 Y0.0971
G01 X24.2694 Y0.1241
G01 X24.3742 Y0.1616
G01 X24.4697 Y0.2066
G01 X24.4800 Y0.2121
G01 X24.5655 Y0.2634
G01 X24.5752 Y0.2698
G01 X24.6599 Y0.3328
G01 X24.7382 Y0.4036
G01 X24.7464 Y0.4118
G01 X24.8172 Y0.4901
G01 X24.8835 Y0.5796
G01 X24.9408 Y0.6751
G01 X24.9884 Y0.7758
G01 X25.0259 Y0.8806
G01 X25.0529 Y0.9886
G01 X25.0693 Y1.0988
G01 X25.0746 Y1.2042
G01 X25.0746 Y1.2158
G01 X25.0693 Y1.3212
G01 X25.0529 Y1.4314
G01 X25.0259 Y1.5394
G01 X24.9905 Y1.6388
G01 X24.9872 Y1.6469
G01 X24.9408 Y1.7449
G01 X24.8866 Y1.8355
G01 X24.8819 Y1.8428
G01 X24.8208 Y1.9253
G01 X24.8153 Y1.9321
G01 X24.7444 Y2.0103
G01 X24.7382 Y2.0164
G01 X24.6941 Y2.0564
G01 X24.6941 Y17.3701
G01 X24.7352 Y17.4155
G01 X24.7408 Y17.4222
G01 X24.7961 Y17.4966
G01 X24.8010 Y17.5038
G01 X24.8516 Y17.5884
G01 X24.8938 Y17.6774
G01 X24.8970 Y17.6855
G01 X24.9273 Y17.7700
G01 X24.9307 Y17.7812
G01 X24.9537 Y17.8740
G01 X24.9686 Y17.9743
G01 X24.9736 Y18.0756
G01 X24.9736 Y19.9044
G01 X24.9691 Y19.9999
G01 X24.9679 Y20.0115
G01 X24.9537 Y20.1060
G01 X24.9291 Y20.2044
G01 X24.8949 Y20.2999
G01 X24.8542 Y20.3864
G01 X24.8487 Y20.3967
G01 X24.7994 Y20.4786
G01 X24.7426 Y20.5555
G01 X24.7352 Y20.5645
G01 X24.6749 Y20.6310
G01 X24.6666 Y20.6393
G01 X24.5957 Y20.7034
G01 X24.5142 Y20.7638
G01 X24.4272 Y20.8160
G01 X24.3355 Y20.8593
G01 X24.2400 Y20.8935
G01 X24.1416 Y20.9181
G01 X24.0413 Y20.9330
G01 X23.9458 Y20.9379
G01 X23.9342 Y20.9379
G01 X23.8387 Y20.9330
G01 X23.7384 Y20.9181
G01 X23.6400 Y20.8935
G01 X23.5445 Y20.8593
G01 X23.4528 Y20.8160
G01 X23.3658 Y20.7638
G01 X23.2843 Y20.7034
G01 X23.2091 Y20.6353
G01 X23.1410 Y20.5601
G01 X23.0806 Y20.4786
G01 X23.0284 Y20.3916
G01 X22.9851 Y20.2999
G01 X22.9509 Y20.2044
G01 X22.9263 Y20.1060
G01 X22.9114 Y20.0057
G01 X22.9064 Y19.9044
G00 Z3.0000
G00 X17.8264 Y19.9044
G01 F60.00
G01 Z-0.0700
G01 F60.00
G01 X17.8264 Y18.0756
G01 X17.8314 Y17.9743
G01 X17.8463 Y17.8740
G01 X17.8693 Y17.7812
G01 X17.8727 Y17.7700
G01 X17.9030 Y17.6855
G01 X17.9062 Y17.6774
G01 X17.9484 Y17.5884
G01 X17.9990 Y17.5038
G01 X18.0039 Y17.4966
G01 X18.0592 Y17.4222
G01 X18.0648 Y17.4155
G01 X18.1059 Y17.3701
G01 X18.1059 Y2.0564
G01 X18.0618 Y2.0164
G01 X18.0556 Y2.0103
G01 X17.9847 Y1.9321
G01 X17.9792 Y1.9253
G01 X17.9181 Y1.8428
G01 X17.9134 Y1.8355
G01 X17.8592 Y1.7449
G01 X17.8140 Y1.6496
G01 X17.8105 Y1.6415
G01 X17.7741 Y1.5394
G01 X17.7483 Y1.4371
G01 X17.7461 Y1.4256
G01 X17.7314 Y1.3270
G01 X17.7303 Y1.3154
G01 X17.7253 Y1.2100
G01 X17.7303 Y1.1046
G01 X17.7314 Y1.0930
G01 X17.7471 Y0.9886
G01 X17.7741 Y0.8806
G01 X17.8116 Y0.7758
G01 X17.8592 Y0.6751
G01 X17.9165 Y0.5796
G01 X17.9828 Y0.4901
G01 X18.0576 Y0.4076
G01 X18.1401 Y0.3328
G01 X18.2296 Y0.2665
G01 X18.3251 Y0.2092
G01 X18.4258 Y0.1616
G01 X18.5306 Y0.1241
G01 X18.6386 Y0.0971
G01 X18.7488 Y0.0807
G01 X18.8600 Y0.0753
G01 X18.9654 Y0.0803
G01 X18.9770 Y0.0814
G01 X19.0814 Y0.0971
G01 X19.1894 Y0.1241
G01 X19.2942 Y0.1616
G01 X19.3897 Y0.2066
G01 X19.4000 Y0.2121
G01 X19.4855 Y0.2634
G01 X19.4952 Y0.2698
G01 X19.5799 Y0.3328
G01 X19.6582 Y0.4036
G01 X19.6664 Y0.4118
G01 X19.7372 Y0.4901
G01 X19.8035 Y0.5796
G01 X19.8608 Y0.6751
G01 X19.9084 Y0.7758
G01 X19.9459 Y0.8806
G01 X19.9729 Y0.9886
G01 X19.9893 Y1.0988
G01 X19.9946 Y1.2042
G01 X19.9946 Y1.2158
G01 X19.9893 Y1.3212
G01 X19.9729 Y1.4314
G01 X19.9459 Y1.5394
G01 X19.9105 Y1.6388
G01 X19.9072 Y1.6469
G01 X19.8608 Y1.7449
G01 X19.8066 Y1.8355
G01 X19.8019 Y1.8428
G01 X19.7408 Y1.9253
G01 X19.7353 Y1.9321
G01 X19.6644 Y2.0103
G01 X19.6582 Y2.0164
G01 X19.6141 Y2.0564
G01 X19.6141 Y17.3701
G01 X19.6552 Y17.4155
G01 X19.6608 Y17.4222
G01 X19.7161 Y17.4966
G01 X19.7210 Y17.5038
G01 X19.7716 Y17.5884
G01 X19.8138 Y17.6774
G01 X19.8170 Y17.6855
G01 X19.8473 Y17.7700
G01 X19.8507 Y17.7812
G01 X19.8737 Y17.8740
G01 X19.8886 Y17.9743
G01 X19.8936 Y18.0756
G01 X19.8936 Y19.9044
G01 X19.8891 Y19.9999
G01 X19.8879 Y20.0115
G01 X19.8737 Y20.1060
G01 X19.8491 Y20.2044
G01 X19.8149 Y20.2999
G01 X19.7742 Y20.3864
G01 X19.7687 Y20.3967
G01 X19.7194 Y20.4786
G01 X19.6626 Y20.5555
G01 X19.6552 Y20.5645
G01 X19.5949 Y20.6310
G01 X19.5866 Y20.6393
G01 X19.5157 Y20.7034
G01 X19.4342 Y20.7638
G01 X19.3472 Y20.8160
G01 X19.2555 Y20.8593
G01 X19.1600 Y20.8935
G01 X19.0616 Y20.9181
G01 X18.9613 Y20.9330
G01 X18.8658 Y20.9379
G01 X18.8542 Y20.9379
G01 X18.7587 Y20.9330
G01 X18.6584 Y20.9181
G01 X18.5600 Y20.8935
G01 X18.4645 Y20.8593
G01 X18.3728 Y20.8160
G01 X18.2858 Y20.7638
G01 X18.2043 Y20.7034
G01 X18.1291 Y20.6353
G01 X18.0610 Y20.5601
G01 X18.0006 Y20.4786
G01 X17.9484 Y20.3916
G01 X17.9051 Y20.2999
G01 X17.8709 Y20.2044
G01 X17.8463 Y20.1060
G01 X17.8314 Y20.0057
G01 X17.8264 Y19.9044
G00 Z3.0000
G00 X12.7464 Y19.9044
G01 F60.00
G01 Z-0.0700
G01 F60.00
G01 X12.7464 Y18.0756
G01 X12.7514 Y17.9743
G01 X12.7663 Y17.8740
G01 X12.7893 Y17.7812
G01 X12.7927 Y17.7700
G01 X12.8230 Y17.6855
G01 X12.8262 Y17.6774
G01 X12.8684 Y17.5884
G01 X12.9190 Y17.5038
G01 X12.9239 Y17.4966
G01 X12.9792 Y17.4222
G01 X12.9848 Y17.4155
G01 X13.0259 Y17.3701
G01 X13.0259 Y2.0564
G01 X12.9818 Y2.0164
G01 X12.9756 Y2.0103
G01 X12.9047 Y1.9321
G01 X12.8992 Y1.9253
G01 X12.8381 Y1.8428
G01 X12.8334 Y1.8355
G01 X12.7792 Y1.7449
G01 X12.7340 Y1.6496
G01 X12.7305 Y1.6415
G01 X12.6941 Y1.5394
G01 X12.6683 Y1.4371
G01 X12.6661 Y1.4256
G01 X12.6514 Y1.3270
G01 X12.6503 Y1.3154
G01 X12.6453 Y1.2100
G01 X12.6503 Y1.1046
G01 X12.6514 Y1.0930
G01 X12.6671 Y0.9886
G01 X12.6941 Y0.8806
G01 X12.7316 Y0.7758
G01 X12.7792 Y0.6751
G01 X12.8365 Y0.5796
G01 X12.9028 Y0.4901
G01 X12.9776 Y0.4076
G01 X13.0601 Y0.3328
G01 X13.1496 Y0.2665
G01 X13.2451 Y0.2092
G01 X13.3458 Y0.1616
G01 X13.4506 Y0.1241
G01 X13.5586 Y0.0971
G01 X13.6688 Y0.0807
G01 X13.7800 Y0.0753
G01 X13.8854 Y0.0803
G01 X13.8970 Y0.0814
G01 X14.0014 Y0.0971
G01 X14.1094 Y0.1241
G01 X14.2142 Y0.1616
G01 X14.3097 Y0.2066
G01 X14.3200 Y0.2121
G01 X14.4055 Y0.2634
G01 X14.4152 Y0.2698
G01 X14.4999 Y0.3328
G01 X14.5782 Y0.4036
G01 X14.5864 Y0.4118
G01 X14.6572 Y0.4901
G01 X14.7235 Y0.5796
G01 X14.7808 Y0.6751
G01 X14.8284 Y0.7758
G01 X14.8659 Y0.8806
G01 X14.8929 Y0.9886
G01 X14.9093 Y1.0988
G01 X14.9146 Y1.2042
G01 X14.9146 Y1.2158
G01 X14.9093 Y1.3212
G01 X14.8929 Y1.4314
G01 X14.8659 Y1.5394
G01 X14.8305 Y1.6388
G01 X14.8272 Y1.6469
G01 X14.7808 Y1.7449
G01 X14.7266 Y1.8355
G01 X14.7219 Y1.8428
G01 X14.6608 Y1.9253
G01 X14.6553 Y1.9321
G01 X14.5844 Y2.0103
G01 X14.5782 Y2.0164
G01 X14.5341 Y2.0564
G01 X14.5341 Y17.3701
G01 X14.5752 Y17.4155
G01 X14.5808 Y17.4222
G01 X14.6361 Y17.4966
G01 X14.6410 Y17.5038
G01 X14.6916 Y17.5884
G01 X14.7338 Y17.6774
G01 X14.7370 Y17.6855
G01 X14.7673 Y17.7700
G01 X14.7707 Y17.7812
G01 X14.7937 Y17.8740
G01 X14.8086 Y17.9743
G01 X14.8136 Y18.0756
G01 X14.8136 Y19.9044
G01 X14.8091 Y19.9999
G01 X14.8079 Y20.0115
G01 X14.7937 Y20.1060
G01 X14.7691 Y20.2044
G01 X14.7349 Y20.2999
G01 X14.6942 Y20.3864
G01 X14.6887 Y20.3967
G01 X14.6394 Y20.4786
G01 X14.5826 Y20.5555
G01 X14.5752 Y20.5645
G01 X14.5149 Y20.6310
G01 X14.5066 Y20.6393
G01 X14.4357 Y20.7034
G01 X14.3542 Y20.7638
G01 X14.2672 Y20.8160
G01 X14.1755 Y20.8593
G01 X14.0800 Y20.8935
G01 X13.9816 Y20.9181
G01 X13.8813 Y20.9330
G01 X13.7858 Y20.9379
G01 X13.7742 Y20.9379
G01 X13.6787 Y20.9330
G01 X13.5784 Y20.9181
G01 X13.4800 Y20.8935
G01 X13.3845 Y20.8593
G01 X13.2928 Y20.8160
G01 X13.2058 Y20.7638
G01 X13.1243 Y20.7034
G01 X13.0491 Y20.6353
G01 X12.9810 Y20.5601
G01 X12.9206 Y20.4786
G01 X12.8684 Y20.3916
G01 X12.8251 Y20.2999
G01 X12.7909 Y20.2044
G01 X12.7663 Y20.1060
G01 X12.7514 Y20.0057
G01 X12.7464 Y19.9044
G00 Z3.0000
G00 X25.7259 Y35.8499
G01 F60.00
G01 Z-0.0700
G01 F60.00
G01 X25.6848 Y35.8045
G01 X25.6792 Y35.7978
G01 X25.6239 Y35.7234
G01 X25.6190 Y35.7162
G01 X25.5684 Y35.6316
G01 X25.5262 Y35.5426
G01 X25.5230 Y35.5345
G01 X25.4927 Y35.4500
G01 X25.4893 Y35.4388
G01 X25.4663 Y35.3460
G01 X25.4521 Y35.2515
G01 X25.4511 Y35.2428
G01 X25.4464 Y35.1444
G01 X25.4464 Y33.3127
G01 X25.4514 Y33.2143
G01 X25.4653 Y33.1197
G01 X25.4675 Y33.1083
G01 X25.4909 Y33.0156
G01 X25.5251 Y32.9201
G01 X25.5684 Y32.8284
G01 X25.6206 Y32.7414
G01 X25.6810 Y32.6599
G01 X25.7491 Y32.5847
G01 X25.8243 Y32.5166
G01 X25.9058 Y32.4562
G01 X25.9928 Y32.4040
G01 X26.0845 Y32.3607
G01 X26.1800 Y32.3265
G01 X26.2784 Y32.3019
G01 X26.3787 Y32.2870
G01 X26.4800 Y32.2820
G01 X26.5813 Y32.2870
G01 X26.6816 Y32.3019
G01 X26.7800 Y32.3265
G01 X26.8755 Y32.3607
G01 X26.9620 Y32.4014
G01 X26.9723 Y32.4069
G01 X27.0542 Y32.4562
G01 X27.1357 Y32.5166
G01 X27.2066 Y32.5807
G01 X27.2149 Y32.5890
G01 X27.2790 Y32.6599
G01 X27.3394 Y32.7414
G01 X27.3887 Y32.8233
G01 X27.3942 Y32.8336
G01 X27.4349 Y32.9201
G01 X27.4673 Y33.0100
G01 X27.4707 Y33.0212
G01 X27.4937 Y33.1140
G01 X27.5079 Y33.2085
G01 X27.5091 Y33.2201
G01 X27.5136 Y33.3156
G01 X27.5136 Y35.1444
G01 X27.5089 Y35.2428
G01 X27.5079 Y35.2515
G01 X27.4937 Y35.3460
G01 X27.4707 Y35.4388
G01 X27.4673 Y35.4500
G01 X27.4370 Y35.5345
G01 X27.4338 Y35.5426
G01 X27.3916 Y35.6316
G01 X27.3410 Y35.7162
G01 X27.3361 Y35.7234
G01 X27.2808 Y35.7978
G01 X27.2752 Y35.8045
G01 X27.2341 Y35.8499
G01 X27.2341 Y37.2152
G01 X27.2669 Y37.2449
G01 X27.2731 Y37.2510
G01 X27.3429 Y37.3280
G01 X27.3484 Y37.3349
G01 X27.4086 Y37.4161
G01 X27.4133 Y37.4234
G01 X27.4666 Y37.5126
G01 X27.5124 Y37.6092
G01 X27.5157 Y37.6173
G01 X27.5506 Y37.7152
G01 X27.5773 Y37.8217
G01 X27.5934 Y37.9303
G01 X27.5987 Y38.0400
G01 X27.5938 Y38.1438
G01 X27.5926 Y38.1554
G01 X27.5773 Y38.2583
G01 X27.5506 Y38.3648
G01 X27.5136 Y38.4681
G01 X27.4693 Y38.5622
G01 X27.4638 Y38.5724
G01 X27.4133 Y38.6566
G01 X27.4069 Y38.6663
G01 X27.3448 Y38.7497
G01 X27.2711 Y38.8311
G01 X27.1897 Y38.9048
G01 X27.1063 Y38.9669
G01 X27.0966 Y38.9733
G01 X27.0124 Y39.0238
G01 X27.0022 Y39.0293
G01 X26.9081 Y39.0736
G01 X26.8075 Y39.1097
G01 X26.7991 Y39.1121
G01 X26.6983 Y39.1373
G01 X26.5897 Y39.1534
G01 X26.4800 Y39.1587
G01 X26.3703 Y39.1534
G01 X26.2617 Y39.1373
G01 X26.1552 Y39.1106
G01 X26.0519 Y39.0736
G01 X25.9526 Y39.0266
G01 X25.8585 Y38.9702
G01 X25.7703 Y38.9048
G01 X25.6889 Y38.8311
G01 X25.6152 Y38.7497
G01 X25.5498 Y38.6615
G01 X25.4934 Y38.5674
G01 X25.4464 Y38.4681
G01 X25.4103 Y38.3675
G01 X25.4079 Y38.3591
G01 X25.3840 Y38.2639
G01 X25.3818 Y38.2525
G01 X25.3666 Y38.1497
G01 X25.3613 Y38.0400
G01 X25.3662 Y37.9362
G01 X25.3674 Y37.9246
G01 X25.3827 Y37.8217
G01 X25.4086 Y37.7180
G01 X25.4113 Y37.7097
G01 X25.4443 Y37.6173
G01 X25.4488 Y37.6065
G01 X25.4934 Y37.5126
G01 X25.5482 Y37.4209
G01 X25.5531 Y37.4137
G01 X25.6116 Y37.3349
G01 X25.6171 Y37.3280
G01 X25.6869 Y37.2510
G01 X25.6931 Y37.2449
G01 X25.7259 Y37.2152
G01 X25.7259 Y35.8499
G00 Z3.0000
G00 X28.2659 Y35.8499
G01 F60.00
G01 Z-0.0700
G01 F60.00
G01 X28.2248 Y35.8045
G01 X28.2192 Y35.7978
G01 X28.1639 Y35.7234
G01 X28.1590 Y35.7162
G01 X28.1084 Y35.6316
G01 X28.0662 Y35.5426
G01 X28.0630 Y35.5345
G01 X28.0327 Y35.4500
G01 X28.0293 Y35.4388
G01 X28.0063 Y35.3460
G01 X27.9921 Y35.2515
G01 X27.9911 Y35.2428
G01 X27.9864 Y35.1444
G01 X27.9864 Y33.3127
G01 X27.9914 Y33.2143
G01 X28.0053 Y33.1197
G01 X28.0075 Y33.1083
G01 X28.0309 Y33.0156
G01 X28.0651 Y32.9201
G01 X28.1084 Y32.8284
G01 X28.1606 Y32.7414
G01 X28.2210 Y32.6599
G01 X28.2891 Y32.5847
G01 X28.3643 Y32.5166
G01 X28.4458 Y32.4562
G01 X28.5328 Y32.4040
G01 X28.6245 Y32.3607
G01 X28.7200 Y32.3265
G01 X28.8184 Y32.3019
G01 X28.9187 Y32.2870
G01 X29.0200 Y32.2820
G01 X29.1213 Y32.2870
G01 X29.2216 Y32.3019
G01 X29.3200 Y32.3265
G01 X29.4155 Y32.3607
G01 X29.5020 Y32.4014
G01 X29.5123 Y32.4069
G01 X29.5942 Y32.4562
G01 X29.6757 Y32.5166
G01 X29.7466 Y32.5807
G01 X29.7549 Y32.5890
G01 X29.8152 Y32.6555
G01 X29.8226 Y32.6645
G01 X29.8794 Y32.7414
G01 X29.9316 Y32.8284
G01 X29.9749 Y32.9201
G01 X30.0073 Y33.0100
G01 X30.0107 Y33.0212
G01 X30.0325 Y33.1083
G01 X30.0347 Y33.1197
G01 X30.0486 Y33.2143
G01 X30.0536 Y33.3127
G01 X30.0536 Y35.1444
G01 X30.0486 Y35.2457
G01 X30.0337 Y35.3460
G01 X30.0107 Y35.4388
G01 X30.0073 Y35.4500
G01 X29.9770 Y35.5345
G01 X29.9738 Y35.5426
G01 X29.9316 Y35.6316
G01 X29.8810 Y35.7162
G01 X29.8761 Y35.7234
G01 X29.8208 Y35.7978
G01 X29.8152 Y35.8045
G01 X29.7741 Y35.8499
G01 X29.7741 Y65.1552
G01 X29.8069 Y65.1849
G01 X29.8131 Y65.1910
G01 X29.8829 Y65.2680
G01 X29.8884 Y65.2749
G01 X29.9486 Y65.3561
G01 X29.9533 Y65.3634
G01 X30.0066 Y65.4526
G01 X30.0524 Y65.5492
G01 X30.0557 Y65.5573
G01 X30.0906 Y65.6552
G01 X30.1173 Y65.7617
G01 X30.1334 Y65.8703
G01 X30.1387 Y65.9800
G01 X30.1334 Y66.0897
G01 X30.1173 Y66.1983
G01 X30.0906 Y66.3048
G01 X30.0536 Y66.4081
G01 X30.0066 Y66.5074
G01 X29.9502 Y66.6015
G01 X29.8848 Y66.6897
G01 X29.8111 Y66.7711
G01 X29.7297 Y66.8448
G01 X29.6415 Y66.9102
G01 X29.5474 Y66.9666
G01 X29.4481 Y67.0136
G01 X29.3448 Y67.0506
G01 X29.2383 Y67.0773
G01 X29.1297 Y67.0934
G01 X29.0229 Y67.0987
G01 X29.0142 Y67.0986
G01 X28.9103 Y67.0934
G01 X28.8017 Y67.0773
G01 X28.6952 Y67.0506
G01 X28.5919 Y67.0136
G01 X28.4926 Y66.9666
G01 X28.3985 Y66.9102
G01 X28.3103 Y66.8448
G01 X28.2289 Y66.7711
G01 X28.1552 Y66.6897
G01 X28.0898 Y66.6015
G01 X28.0334 Y66.5074
G01 X27.9864 Y66.4081
G01 X27.9494 Y66.3048
G01 X27.9227 Y66.1983
G01 X27.9066 Y66.0897
G01 X27.9013 Y65.9829
G01 X27.9014 Y65.9742
G01 X27.9066 Y65.8703
G01 X27.9227 Y65.7617
G01 X27.9494 Y65.6552
G01 X27.9843 Y65.5573
G01 X27.9876 Y65.5492
G01 X28.0334 Y65.4526
G01 X28.0867 Y65.3634
G01 X28.0914 Y65.3561
G01 X28.1516 Y65.2749
G01 X28.1571 Y65.2680
G01 X28.2269 Y65.1910
G01 X28.2331 Y65.1849
G01 X28.2659 Y65.1552
G01 X28.2659 Y35.8499
G00 Z3.0000
G00 X30.5264 Y35.1444
G01 F60.00
G01 Z-0.0700
G01 F60.00
G01 X30.5264 Y33.3156
G01 X30.5309 Y33.2201
G01 X30.5321 Y33.2085
G01 X30.5463 Y33.1140
G01 X30.5709 Y33.0156
G01 X30.6051 Y32.9201
G01 X30.6458 Y32.8336
G01 X30.6498 Y32.8258
G01 X30.7006 Y32.7414
G01 X30.7610 Y32.6599
G01 X30.8291 Y32.5847
G01 X30.9043 Y32.5166
G01 X30.9858 Y32.4562
G01 X31.0728 Y32.4040
G01 X31.1645 Y32.3607
G01 X31.2600 Y32.3265
G01 X31.3584 Y32.3019
G01 X31.4587 Y32.2870
G01 X31.5600 Y32.2820
G01 X31.6613 Y32.2870
G01 X31.7616 Y32.3019
G01 X31.8600 Y32.3265
G01 X31.9555 Y32.3607
G01 X32.0420 Y32.4014
G01 X32.0498 Y32.4054
G01 X32.1342 Y32.4562
G01 X32.2111 Y32.5130
G01 X32.2201 Y32.5204
G01 X32.2909 Y32.5847
G01 X32.3552 Y32.6555
G01 X32.3626 Y32.6645
G01 X32.4194 Y32.7414
G01 X32.4687 Y32.8233
G01 X32.4742 Y32.8336
G01 X32.5149 Y32.9201
G01 X32.5473 Y33.0100
G01 X32.5507 Y33.0212
G01 X32.5737 Y33.1140
G01 X32.5879 Y33.2085
G01 X32.5891 Y33.2201
G01 X32.5936 Y33.3127
G01 X32.5936 Y35.1444
G01 X32.5886 Y35.2457
G01 X32.5737 Y35.3460
G01 X32.5507 Y35.4388
G01 X32.5473 Y35.4500
G01 X32.5170 Y35.5345
G01 X32.5138 Y35.5426
G01 X32.4716 Y35.6316
G01 X32.4210 Y35.7162
G01 X32.4161 Y35.7234
G01 X32.3608 Y35.7978
G01 X32.3552 Y35.8045
G01 X32.3141 Y35.8499
G01 X32.3141 Y62.6152
G01 X32.3469 Y62.6449
G01 X32.3531 Y62.6510
G01 X32.4229 Y62.7280
G01 X32.4284 Y62.7349
G01 X32.4886 Y62.8161
