(G-CODE GENERATED BY FLATCAM v8.994 - www.flatcam.org - Version Date: 2020/11/7)

(Name: copper_bottom.gbr_iso_combined_cnc)
(Type: G-code from Geometry)
(Units: MM)

(Created on sexta, 04 fevereiro 2022 at 13:19)

(This preprocessor is the default preprocessor used by FlatCAM.)
(It is made to work with MACH3 compatible motion controllers.)

(TOOL DIAMETER: 0.2268 mm)
(Feedrate_XY: 60.0 mm/min)
(Feedrate_Z: 60.0 mm/min)
(Feedrate rapids 1500.0 mm/min)

(Z_Cut: -0.05 mm)
(Z_Move: 3.0 mm)
(Z Start: None mm)
(Z End: 15.0 mm)
(X,Y End: None mm)
(Steps per circle: 64)
(Preprocessor Geometry: default)

(X range:   -0.0494 ...  128.8287  mm)
(Y range:    0.0806 ...   74.3487  mm)

(Spindle Speed: 1000.0 RPM)
G21
G90
G94

G01 F60.00

M5
G00 Z15.0000
G00 X0.0000 Y0.0000
T1
M6    
(MSG, Change to Tool Dia = 0.2268)
M0
G00 Z15.0000

M03 S1000.0
G01 F60.00
G00 X0.3313 Y2.0540
G01 F60.00
G01 Z-0.0500
G01 F60.00
G01 X0.2854 Y2.0124
G01 X0.2794 Y2.0066
G01 X0.2106 Y1.9307
G01 X0.2052 Y1.9243
G01 X0.1409 Y1.8375
G01 X0.0867 Y1.7472
G01 X0.0827 Y1.7399
G01 X0.0366 Y1.6422
G01 X-0.0008 Y1.5378
G01 X-0.0277 Y1.4303
G01 X-0.0433 Y1.3262
G01 X-0.0442 Y1.3179
G01 X-0.0494 Y1.2100
G01 X-0.0440 Y1.0993
G01 X-0.0277 Y0.9897
G01 X-0.0008 Y0.8822
G01 X0.0366 Y0.7778
G01 X0.0840 Y0.6776
G01 X0.1409 Y0.5825
G01 X0.2035 Y0.4979
G01 X0.2088 Y0.4914
G01 X0.2814 Y0.4114
G01 X0.3635 Y0.3370
G01 X0.4525 Y0.2709
G01 X0.5476 Y0.2140
G01 X0.6478 Y0.1666
G01 X0.7522 Y0.1292
G01 X0.8597 Y0.1023
G01 X0.9693 Y0.0860
G01 X1.0800 Y0.0806
G01 X1.1907 Y0.0860
G01 X1.3003 Y0.1023
G01 X1.4078 Y0.1292
G01 X1.5122 Y0.1666
G01 X1.6124 Y0.2140
G01 X1.7075 Y0.2709
G01 X1.7921 Y0.3335
G01 X1.7986 Y0.3388
G01 X1.8786 Y0.4114
G01 X1.9494 Y0.4893
G01 X1.9565 Y0.4979
G01 X2.0159 Y0.5780
G01 X2.0220 Y0.5872
G01 X2.0760 Y0.6776
G01 X2.1212 Y0.7727
G01 X2.1254 Y0.7830
G01 X2.1608 Y0.8822
G01 X2.1877 Y0.9897
G01 X2.2040 Y1.0993
G01 X2.2094 Y1.2100
G01 X2.2040 Y1.3207
G01 X2.1877 Y1.4303
G01 X2.1608 Y1.5378
G01 X2.1254 Y1.6370
G01 X2.1223 Y1.6448
G01 X2.0760 Y1.7424
G01 X2.0220 Y1.8328
G01 X2.0175 Y1.8398
G01 X1.9565 Y1.9221
G01 X1.9512 Y1.9286
G01 X1.8786 Y2.0086
G01 X1.8287 Y2.0540
G01 X1.8287 Y44.9113
G01 X23.1913 Y44.9113
G01 X23.1913 Y35.8478
G01 X23.1451 Y35.7967
G01 X23.0850 Y35.7157
G01 X23.0332 Y35.6291
G01 X22.9911 Y35.5405
G01 X22.9880 Y35.5327
G01 X22.9578 Y35.4482
G01 X22.9545 Y35.4375
G01 X22.9315 Y35.3450
G01 X22.9167 Y35.2452
G01 X22.9117 Y35.1444
G01 X22.9117 Y33.3156
G01 X22.9165 Y33.2176
G01 X22.9174 Y33.2093
G01 X22.9315 Y33.1150
G01 X22.9560 Y33.0171
G01 X22.9900 Y32.9221
G01 X23.0332 Y32.8309
G01 X23.0850 Y32.7443
G01 X23.1451 Y32.6633
G01 X23.2129 Y32.5885
G01 X23.2877 Y32.5207
G01 X23.3687 Y32.4606
G01 X23.4553 Y32.4088
G01 X23.5465 Y32.3656
G01 X23.6415 Y32.3316
G01 X23.7394 Y32.3071
G01 X23.8392 Y32.2923
G01 X23.9400 Y32.2873
G01 X24.0380 Y32.2921
G01 X24.0463 Y32.2930
G01 X24.1406 Y32.3071
G01 X24.2385 Y32.3316
G01 X24.3335 Y32.3656
G01 X24.4197 Y32.4063
G01 X24.4296 Y32.4115
G01 X24.5066 Y32.4577
G01 X24.5158 Y32.4638
G01 X24.5923 Y32.5207
G01 X24.6631 Y32.5847
G01 X24.6709 Y32.5925
G01 X24.7349 Y32.6633
G01 X24.7950 Y32.7443
G01 X24.8468 Y32.8309
G01 X24.8900 Y32.9221
G01 X24.9240 Y33.0171
G01 X24.9485 Y33.1150
G01 X24.9633 Y33.2148
G01 X24.9682 Y33.3128
G01 X24.9683 Y35.1444
G01 X24.9633 Y35.2452
G01 X24.9485 Y35.3450
G01 X24.9255 Y35.4375
G01 X24.9222 Y35.4482
G01 X24.8920 Y35.5327
G01 X24.8889 Y35.5405
G01 X24.8468 Y35.6291
G01 X24.7950 Y35.7157
G01 X24.7349 Y35.7967
G01 X24.6887 Y35.8478
G01 X24.6887 Y45.6600
G01 X24.6855 Y45.7278
G01 X24.6844 Y45.7389
G01 X24.6743 Y45.8061
G01 X24.6580 Y45.8720
G01 X24.6547 Y45.8826
G01 X24.6317 Y45.9465
G01 X24.6028 Y46.0080
G01 X24.5976 Y46.0178
G01 X24.5625 Y46.0760
G01 X24.5188 Y46.1350
G01 X24.4733 Y46.1854
G01 X24.4654 Y46.1933
G01 X24.4150 Y46.2388
G01 X24.3605 Y46.2793
G01 X24.3513 Y46.2855
G01 X24.2929 Y46.3203
G01 X24.2316 Y46.3495
G01 X24.2213 Y46.3537
G01 X24.1573 Y46.3765
G01 X24.0915 Y46.3931
G01 X24.0806 Y46.3953
G01 X24.0134 Y46.4051
G01 X23.9400 Y46.4087
G01 X1.0772 Y46.4087
G01 X1.0066 Y46.4051
G01 X0.9394 Y46.3953
G01 X0.9285 Y46.3931
G01 X0.8627 Y46.3765
G01 X0.7987 Y46.3537
G01 X0.7884 Y46.3495
G01 X0.7271 Y46.3203
G01 X0.6687 Y46.2855
G01 X0.6595 Y46.2793
G01 X0.6050 Y46.2388
G01 X0.5546 Y46.1933
G01 X0.5467 Y46.1854
G01 X0.5012 Y46.1350
G01 X0.4607 Y46.0805
G01 X0.4545 Y46.0713
G01 X0.4197 Y46.0129
G01 X0.3905 Y45.9516
G01 X0.3863 Y45.9413
G01 X0.3635 Y45.8773
G01 X0.3469 Y45.8115
G01 X0.3447 Y45.8006
G01 X0.3349 Y45.7334
G01 X0.3313 Y45.6600
G01 X0.3313 Y2.0540
G00 Z3.0000
G00 X2.8713 Y2.0540
G01 F60.00
G01 Z-0.0500
G01 F60.00
G01 X2.8254 Y2.0124
G01 X2.8194 Y2.0066
G01 X2.7506 Y1.9307
G01 X2.7452 Y1.9243
G01 X2.6809 Y1.8375
G01 X2.6267 Y1.7472
G01 X2.6227 Y1.7399
G01 X2.5766 Y1.6422
G01 X2.5392 Y1.5378
G01 X2.5123 Y1.4303
G01 X2.4967 Y1.3262
G01 X2.4958 Y1.3179
G01 X2.4906 Y1.2100
G01 X2.4960 Y1.0993
G01 X2.5123 Y0.9897
G01 X2.5392 Y0.8822
G01 X2.5766 Y0.7778
G01 X2.6240 Y0.6776
G01 X2.6809 Y0.5825
G01 X2.7435 Y0.4979
G01 X2.7488 Y0.4914
G01 X2.8214 Y0.4114
G01 X2.9035 Y0.3370
G01 X2.9925 Y0.2709
G01 X3.0876 Y0.2140
G01 X3.1878 Y0.1666
G01 X3.2922 Y0.1292
G01 X3.3997 Y0.1023
G01 X3.5093 Y0.0860
G01 X3.6200 Y0.0806
G01 X3.7307 Y0.0860
G01 X3.8403 Y0.1023
G01 X3.9478 Y0.1292
G01 X4.0522 Y0.1666
G01 X4.1524 Y0.2140
G01 X4.2475 Y0.2709
G01 X4.3321 Y0.3335
G01 X4.3386 Y0.3388
G01 X4.4186 Y0.4114
G01 X4.4894 Y0.4893
G01 X4.4965 Y0.4979
G01 X4.5591 Y0.5825
G01 X4.6133 Y0.6728
G01 X4.6185 Y0.6826
G01 X4.6612 Y0.7727
G01 X4.6654 Y0.7830
G01 X4.7008 Y0.8822
G01 X4.7277 Y0.9897
G01 X4.7440 Y1.0993
G01 X4.7494 Y1.2100
G01 X4.7440 Y1.3207
G01 X4.7277 Y1.4303
G01 X4.7008 Y1.5378
G01 X4.6654 Y1.6370
G01 X4.6623 Y1.6448
G01 X4.6160 Y1.7424
G01 X4.5620 Y1.8328
G01 X4.5575 Y1.8398
G01 X4.4965 Y1.9221
G01 X4.4912 Y1.9286
G01 X4.4186 Y2.0086
G01 X4.3687 Y2.0540
G01 X4.3687 Y42.3713
G01 X20.6513 Y42.3713
G01 X20.6513 Y35.8478
G01 X20.6051 Y35.7967
G01 X20.5450 Y35.7157
G01 X20.4932 Y35.6291
G01 X20.4511 Y35.5405
G01 X20.4480 Y35.5327
G01 X20.4178 Y35.4482
G01 X20.4145 Y35.4375
G01 X20.3915 Y35.3450
G01 X20.3767 Y35.2452
G01 X20.3717 Y35.1444
G01 X20.3717 Y33.3156
G01 X20.3765 Y33.2176
G01 X20.3774 Y33.2093
G01 X20.3915 Y33.1150
G01 X20.4160 Y33.0171
G01 X20.4500 Y32.9221
G01 X20.4932 Y32.8309
G01 X20.5450 Y32.7443
G01 X20.6051 Y32.6633
G01 X20.6729 Y32.5885
G01 X20.7477 Y32.5207
G01 X20.8287 Y32.4606
G01 X20.9153 Y32.4088
G01 X21.0065 Y32.3656
G01 X21.1015 Y32.3316
G01 X21.1994 Y32.3071
G01 X21.2992 Y32.2923
G01 X21.4000 Y32.2873
G01 X21.4980 Y32.2921
G01 X21.5063 Y32.2930
G01 X21.6006 Y32.3071
G01 X21.6985 Y32.3316
G01 X21.7935 Y32.3656
G01 X21.8797 Y32.4063
G01 X21.8896 Y32.4115
G01 X21.9666 Y32.4577
G01 X21.9758 Y32.4638
G01 X22.0523 Y32.5207
G01 X22.1231 Y32.5847
G01 X22.1309 Y32.5925
G01 X22.1949 Y32.6633
G01 X22.2550 Y32.7443
G01 X22.3068 Y32.8309
G01 X22.3500 Y32.9221
G01 X22.3840 Y33.0171
G01 X22.4085 Y33.1150
G01 X22.4233 Y33.2148
G01 X22.4282 Y33.3128
G01 X22.4283 Y35.1444
G01 X22.4233 Y35.2452
G01 X22.4085 Y35.3450
G01 X22.3855 Y35.4375
G01 X22.3822 Y35.4482
G01 X22.3520 Y35.5327
G01 X22.3489 Y35.5405
G01 X22.3068 Y35.6291
G01 X22.2550 Y35.7157
G01 X22.1949 Y35.7967
G01 X22.1487 Y35.8478
G01 X22.1487 Y43.1200
G01 X22.1454 Y43.1906
G01 X22.1444 Y43.1989
G01 X22.1353 Y43.2606
G01 X22.1331 Y43.2715
G01 X22.1165 Y43.3373
G01 X22.0937 Y43.4013
G01 X22.0895 Y43.4116
G01 X22.0603 Y43.4729
G01 X22.0255 Y43.5313
G01 X22.0193 Y43.5405
G01 X21.9788 Y43.5950
G01 X21.9333 Y43.6454
G01 X21.9254 Y43.6533
G01 X21.8750 Y43.6988
G01 X21.8205 Y43.7393
G01 X21.8113 Y43.7455
G01 X21.7529 Y43.7803
G01 X21.6891 Y43.8106
G01 X21.6813 Y43.8137
G01 X21.6173 Y43.8365
G01 X21.5461 Y43.8543
G01 X21.4734 Y43.8651
G01 X21.4000 Y43.8687
G01 X3.6172 Y43.8687
G01 X3.5466 Y43.8651
G01 X3.4794 Y43.8553
G01 X3.4685 Y43.8531
G01 X3.4027 Y43.8365
G01 X3.3335 Y43.8117
G01 X3.2720 Y43.7828
G01 X3.2622 Y43.7776
G01 X3.2040 Y43.7425
G01 X3.1450 Y43.6988
G01 X3.0946 Y43.6533
G01 X3.0867 Y43.6454
G01 X3.0412 Y43.5950
G01 X3.0007 Y43.5405
G01 X2.9945 Y43.5313
G01 X2.9597 Y43.4729
G01 X2.9294 Y43.4091
G01 X2.9263 Y43.4013
G01 X2.9035 Y43.3373
G01 X2.8857 Y43.2661
G01 X2.8749 Y43.1934
G01 X2.8713 Y43.1200
G01 X2.8713 Y2.0540
G00 Z3.0000
G00 X5.4113 Y2.0540
G01 F60.00
G01 Z-0.0500
G01 F60.00
G01 X5.3654 Y2.0124
G01 X5.3594 Y2.0066
G01 X5.2906 Y1.9307
G01 X5.2852 Y1.9243
G01 X5.2209 Y1.8375
G01 X5.1667 Y1.7472
G01 X5.1627 Y1.7399
G01 X5.1166 Y1.6422
G01 X5.0792 Y1.5378
G01 X5.0523 Y1.4303
G01 X5.0367 Y1.3262
G01 X5.0358 Y1.3179
G01 X5.0306 Y1.2100
G01 X5.0360 Y1.0993
G01 X5.0523 Y0.9897
G01 X5.0792 Y0.8822
G01 X5.1166 Y0.7778
G01 X5.1640 Y0.6776
G01 X5.2209 Y0.5825
G01 X5.2835 Y0.4979
G01 X5.2888 Y0.4914
G01 X5.3614 Y0.4114
G01 X5.4435 Y0.3370
G01 X5.5325 Y0.2709
G01 X5.6276 Y0.2140
G01 X5.7278 Y0.1666
G01 X5.8322 Y0.1292
G01 X5.9397 Y0.1023
G01 X6.0493 Y0.0860
G01 X6.1600 Y0.0806
G01 X6.2707 Y0.0860
G01 X6.3803 Y0.1023
G01 X6.4878 Y0.1292
G01 X6.5922 Y0.1666
G01 X6.6924 Y0.2140
G01 X6.7875 Y0.2709
G01 X6.8721 Y0.3335
G01 X6.8786 Y0.3388
G01 X6.9586 Y0.4114
G01 X7.0294 Y0.4893
G01 X7.0365 Y0.4979
G01 X7.0991 Y0.5825
G01 X7.1533 Y0.6728
G01 X7.1585 Y0.6826
G01 X7.2012 Y0.7727
G01 X7.2054 Y0.7830
G01 X7.2408 Y0.8822
G01 X7.2677 Y0.9897
G01 X7.2840 Y1.0993
G01 X7.2894 Y1.2100
G01 X7.2840 Y1.3207
G01 X7.2677 Y1.4303
G01 X7.2408 Y1.5378
G01 X7.2054 Y1.6370
G01 X7.2023 Y1.6448
G01 X7.1560 Y1.7424
G01 X7.1020 Y1.8328
G01 X7.0975 Y1.8398
G01 X7.0365 Y1.9221
G01 X7.0312 Y1.9286
G01 X6.9586 Y2.0086
G01 X6.9087 Y2.0540
G01 X6.9087 Y39.8313
G01 X18.1113 Y39.8313
G01 X18.1113 Y35.8478
G01 X18.0651 Y35.7967
G01 X18.0050 Y35.7157
G01 X17.9532 Y35.6291
G01 X17.9111 Y35.5405
G01 X17.9080 Y35.5327
G01 X17.8778 Y35.4482
G01 X17.8745 Y35.4375
G01 X17.8515 Y35.3450
G01 X17.8367 Y35.2452
G01 X17.8317 Y35.1444
G01 X17.8317 Y33.3156
G01 X17.8363 Y33.2204
G01 X17.8370 Y33.2120
G01 X17.8515 Y33.1150
G01 X17.8760 Y33.0171
G01 X17.9100 Y32.9221
G01 X17.9532 Y32.8309
G01 X18.0050 Y32.7443
G01 X18.0651 Y32.6633
G01 X18.1329 Y32.5885
G01 X18.2077 Y32.5207
G01 X18.2887 Y32.4606
G01 X18.3753 Y32.4088
G01 X18.4665 Y32.3656
G01 X18.5615 Y32.3316
G01 X18.6594 Y32.3071
G01 X18.7592 Y32.2923
G01 X18.8600 Y32.2873
G01 X18.9552 Y32.2919
G01 X18.9636 Y32.2926
G01 X19.0606 Y32.3071
G01 X19.1585 Y32.3316
G01 X19.2535 Y32.3656
G01 X19.3447 Y32.4088
G01 X19.4313 Y32.4606
G01 X19.5123 Y32.5207
G01 X19.5871 Y32.5885
G01 X19.6512 Y32.6591
G01 X19.6583 Y32.6677
G01 X19.7150 Y32.7443
G01 X19.7641 Y32.8260
G01 X19.7693 Y32.8359
G01 X19.8077 Y32.9170
G01 X19.8120 Y32.9273
G01 X19.8440 Y33.0171
G01 X19.8685 Y33.1150
G01 X19.8833 Y33.2148
G01 X19.8882 Y33.3128
G01 X19.8883 Y35.1444
G01 X19.8833 Y35.2452
G01 X19.8685 Y35.3450
G01 X19.8455 Y35.4375
G01 X19.8422 Y35.4482
G01 X19.8120 Y35.5327
G01 X19.8089 Y35.5405
G01 X19.7668 Y35.6291
G01 X19.7150 Y35.7157
G01 X19.6549 Y35.7967
G01 X19.6087 Y35.8478
G01 X19.6087 Y40.5800
G01 X19.6051 Y40.6534
G01 X19.5943 Y40.7261
G01 X19.5780 Y40.7920
G01 X19.5747 Y40.8026
G01 X19.5517 Y40.8665
G01 X19.5228 Y40.9280
G01 X19.5176 Y40.9378
G01 X19.4825 Y40.9960
G01 X19.4388 Y41.0550
G01 X19.3933 Y41.1054
G01 X19.3854 Y41.1133
G01 X19.3350 Y41.1588
G01 X19.2760 Y41.2025
G01 X19.2178 Y41.2376
G01 X19.2080 Y41.2428
G01 X19.1465 Y41.2717
G01 X19.0826 Y41.2947
G01 X19.0720 Y41.2980
G01 X19.0115 Y41.3131
G01 X19.0006 Y41.3153
G01 X18.9334 Y41.3251
G01 X18.8600 Y41.3287
G01 X6.1572 Y41.3287
G01 X6.0866 Y41.3251
G01 X6.0194 Y41.3153
G01 X6.0085 Y41.3131
G01 X5.9427 Y41.2965
G01 X5.8735 Y41.2717
G01 X5.8120 Y41.2428
G01 X5.8022 Y41.2376
G01 X5.7487 Y41.2055
G01 X5.7395 Y41.1993
G01 X5.6850 Y41.1588
G01 X5.6306 Y41.1094
G01 X5.5812 Y41.0550
G01 X5.5407 Y41.0005
G01 X5.5345 Y40.9913
G01 X5.5024 Y40.9378
G01 X5.4972 Y40.9280
G01 X5.4683 Y40.8665
G01 X5.4453 Y40.8026
G01 X5.4420 Y40.7920
G01 X5.4269 Y40.7315
G01 X5.4247 Y40.7206
G01 X5.4149 Y40.6534
G01 X5.4113 Y40.5800
G01 X5.4113 Y2.0540
G00 Z3.0000
G00 X9.6011 Y1.8889
G01 F60.00
G01 Z-0.0500
G01 F60.00
G01 X9.6011 Y37.1389
G01 X15.5713 Y37.1389
G01 X15.5713 Y35.8478
G01 X15.5251 Y35.7967
G01 X15.4650 Y35.7157
G01 X15.4132 Y35.6291
G01 X15.3711 Y35.5405
G01 X15.3680 Y35.5327
G01 X15.3378 Y35.4482
G01 X15.3345 Y35.4375
G01 X15.3115 Y35.3450
G01 X15.2974 Y35.2507
G01 X15.2965 Y35.2424
G01 X15.2917 Y35.1444
G01 X15.2917 Y33.3156
G01 X15.2967 Y33.2148
G01 X15.3115 Y33.1150
G01 X15.3360 Y33.0171
G01 X15.3700 Y32.9221
G01 X15.4132 Y32.8309
G01 X15.4650 Y32.7443
G01 X15.5251 Y32.6633
G01 X15.5929 Y32.5885
G01 X15.6677 Y32.5207
G01 X15.7487 Y32.4606
G01 X15.8353 Y32.4088
G01 X15.9265 Y32.3656
G01 X16.0215 Y32.3316
G01 X16.1194 Y32.3071
G01 X16.2192 Y32.2923
G01 X16.3200 Y32.2873
G01 X16.4208 Y32.2923
G01 X16.5151 Y32.3061
G01 X16.5233 Y32.3077
G01 X16.6185 Y32.3316
G01 X16.7083 Y32.3636
G01 X16.7186 Y32.3679
G01 X16.8047 Y32.4088
G01 X16.8866 Y32.4577
G01 X16.8958 Y32.4638
G01 X16.9723 Y32.5207
G01 X17.0431 Y32.5847
G01 X17.0509 Y32.5925
G01 X17.1149 Y32.6633
G01 X17.1718 Y32.7398
G01 X17.1779 Y32.7490
G01 X17.2268 Y32.8309
G01 X17.2677 Y32.9170
G01 X17.2720 Y32.9273
G01 X17.3040 Y33.0171
G01 X17.3273 Y33.1096
G01 X17.3295 Y33.1205
G01 X17.3433 Y33.2148
G01 X17.3482 Y33.3128
G01 X17.3483 Y35.1444
G01 X17.3433 Y35.2452
G01 X17.3285 Y35.3450
G01 X17.3040 Y35.4429
G01 X17.2710 Y35.5353
G01 X17.2677 Y35.5430
G01 X17.2268 Y35.6291
G01 X17.1765 Y35.7133
G01 X17.1718 Y35.7202
G01 X17.1149 Y35.7967
G01 X17.0687 Y35.8478
G01 X17.0687 Y37.8904
G01 X17.0655 Y37.9554
G01 X17.0644 Y37.9665
G01 X17.0543 Y38.0337
G01 X17.0380 Y38.0996
G01 X17.0347 Y38.1102
G01 X17.0137 Y38.1689
G01 X17.0095 Y38.1792
G01 X16.9803 Y38.2405
G01 X16.9455 Y38.2989
G01 X16.9393 Y38.3081
G01 X16.8988 Y38.3626
G01 X16.8533 Y38.4130
G01 X16.8454 Y38.4209
G01 X16.7950 Y38.4664
G01 X16.7405 Y38.5069
G01 X16.7313 Y38.5131
G01 X16.6729 Y38.5479
G01 X16.6116 Y38.5771
G01 X16.6013 Y38.5813
G01 X16.5373 Y38.6041
G01 X16.4661 Y38.6219
G01 X16.3934 Y38.6327
G01 X16.3200 Y38.6363
G01 X8.8524 Y38.6363
G01 X8.7818 Y38.6330
G01 X8.7735 Y38.6320
G01 X8.7118 Y38.6229
G01 X8.7009 Y38.6207
G01 X8.6351 Y38.6041
G01 X8.5659 Y38.5793
G01 X8.4995 Y38.5479
G01 X8.4411 Y38.5131
G01 X8.4319 Y38.5069
G01 X8.3818 Y38.4698
G01 X8.3732 Y38.4627
G01 X8.3230 Y38.4170
G01 X8.2736 Y38.3626
G01 X8.2299 Y38.3036
G01 X8.1948 Y38.2454
G01 X8.1896 Y38.2356
G01 X8.1629 Y38.1792
G01 X8.1587 Y38.1689
G01 X8.1359 Y38.1049
G01 X8.1181 Y38.0337
G01 X8.1073 Y37.9610
G01 X8.1037 Y37.8876
G01 X8.1037 Y2.1679
G01 X8.0702 Y2.1475
G01 X7.9857 Y2.0848
G01 X7.9793 Y2.0794
G01 X7.9034 Y2.0106
G01 X7.8976 Y2.0046
G01 X7.8270 Y1.9265
G01 X7.7625 Y1.8398
G01 X7.7580 Y1.8328
G01 X7.7040 Y1.7424
G01 X7.6566 Y1.6422
G01 X7.6192 Y1.5378
G01 X7.5935 Y1.4358
G01 X7.5918 Y1.4276
G01 X7.5760 Y1.3207
G01 X7.5706 Y1.2100
G01 X7.5760 Y1.0993
G01 X7.5913 Y0.9951
G01 X7.5935 Y0.9842
G01 X7.6177 Y0.8875
G01 X7.6210 Y0.8769
G01 X7.6566 Y0.7778
G01 X7.7015 Y0.6826
G01 X7.7067 Y0.6728
G01 X7.7609 Y0.5825
G01 X7.8252 Y0.4957
G01 X7.8306 Y0.4893
G01 X7.9014 Y0.4114
G01 X7.9835 Y0.3370
G01 X8.0725 Y0.2709
G01 X8.1676 Y0.2140
G01 X8.2678 Y0.1666
G01 X8.3722 Y0.1292
G01 X8.4797 Y0.1023
G01 X8.5893 Y0.0860
G01 X8.7000 Y0.0806
G01 X8.8107 Y0.0860
G01 X8.9203 Y0.1023
G01 X9.0278 Y0.1292
G01 X9.1322 Y0.1666
G01 X9.2324 Y0.2140
G01 X9.3275 Y0.2709
G01 X9.4143 Y0.3352
G01 X9.4207 Y0.3406
G01 X9.4986 Y0.4114
G01 X9.5730 Y0.4935
G01 X9.6391 Y0.5825
G01 X9.6960 Y0.6776
G01 X9.7434 Y0.7778
G01 X9.7808 Y0.8822
G01 X9.8077 Y0.9897
G01 X9.8237 Y1.0965
G01 X9.8244 Y1.1049
G01 X9.8294 Y1.2100
G01 X9.8240 Y1.3207
G01 X9.8077 Y1.4303
G01 X9.7815 Y1.5352
G01 X9.7790 Y1.5431
G01 X9.7434 Y1.6422
G01 X9.6973 Y1.7399
G01 X9.6933 Y1.7472
G01 X9.6406 Y1.8351
G01 X9.6359 Y1.8420
G01 X9.6011 Y1.8889
G00 Z3.0000
G00 X10.4913 Y2.0540
G01 F60.00
G01 Z-0.0500
G01 F60.00
G01 X10.4454 Y2.0124
G01 X10.4394 Y2.0066
G01 X10.3706 Y1.9307
G01 X10.3652 Y1.9243
G01 X10.3009 Y1.8375
G01 X10.2467 Y1.7472
G01 X10.2427 Y1.7399
G01 X10.1966 Y1.6422
G01 X10.1592 Y1.5378
G01 X10.1323 Y1.4303
G01 X10.1167 Y1.3262
G01 X10.1158 Y1.3179
G01 X10.1106 Y1.2100
G01 X10.1160 Y1.0993
G01 X10.1323 Y0.9897
G01 X10.1592 Y0.8822
G01 X10.1966 Y0.7778
G01 X10.2440 Y0.6776
G01 X10.3009 Y0.5825
G01 X10.3635 Y0.4979
G01 X10.3688 Y0.4914
G01 X10.4414 Y0.4114
G01 X10.5235 Y0.3370
G01 X10.6125 Y0.2709
G01 X10.7076 Y0.2140
G01 X10.8078 Y0.1666
G01 X10.9122 Y0.1292
G01 X11.0197 Y0.1023
G01 X11.1293 Y0.0860
G01 X11.2400 Y0.0806
G01 X11.3507 Y0.0860
G01 X11.4603 Y0.1023
G01 X11.5678 Y0.1292
G01 X11.6722 Y0.1666
G01 X11.7724 Y0.2140
G01 X11.8675 Y0.2709
G01 X11.9521 Y0.3335
G01 X11.9586 Y0.3388
G01 X12.0386 Y0.4114
G01 X12.1094 Y0.4893
G01 X12.1165 Y0.4979
G01 X12.1791 Y0.5825
G01 X12.2333 Y0.6728
G01 X12.2385 Y0.6826
G01 X12.2812 Y0.7727
G01 X12.2854 Y0.7830
G01 X12.3208 Y0.8822
G01 X12.3477 Y0.9897
G01 X12.3640 Y1.0993
G01 X12.3694 Y1.2100
G01 X12.3640 Y1.3207
G01 X12.3477 Y1.4303
G01 X12.3208 Y1.5378
G01 X12.2854 Y1.6370
G01 X12.2823 Y1.6448
G01 X12.2360 Y1.7424
G01 X12.1820 Y1.8328
G01 X12.1775 Y1.8398
G01 X12.1165 Y1.9221
G01 X12.1112 Y1.9286
G01 X12.0386 Y2.0086
G01 X11.9887 Y2.0540
G01 X11.9887 Y33.4813
G01 X12.7517 Y33.4813
G01 X12.7518 Y33.3128
G01 X12.7563 Y33.2204
G01 X12.7574 Y33.2093
G01 X12.7705 Y33.1205
G01 X12.7721 Y33.1123
G01 X12.7960 Y33.0171
G01 X12.8300 Y32.9221
G01 X12.8732 Y32.8309
G01 X12.9235 Y32.7467
G01 X12.9282 Y32.7398
G01 X12.9851 Y32.6633
G01 X13.0529 Y32.5885
G01 X13.1277 Y32.5207
G01 X13.2042 Y32.4638
G01 X13.2134 Y32.4577
G01 X13.2904 Y32.4115
G01 X13.3003 Y32.4063
G01 X13.3865 Y32.3656
G01 X13.4762 Y32.3334
G01 X13.4842 Y32.3308
G01 X13.5794 Y32.3071
G01 X13.6737 Y32.2930
G01 X13.6848 Y32.2919
G01 X13.7800 Y32.2873
G01 X13.8808 Y32.2923
G01 X13.9751 Y32.3061
G01 X13.9860 Y32.3083
G01 X14.0731 Y32.3301
G01 X14.0838 Y32.3334
G01 X14.1735 Y32.3656
G01 X14.2647 Y32.4088
G01 X14.3513 Y32.4606
G01 X14.4279 Y32.5173
G01 X14.4365 Y32.5244
G01 X14.5031 Y32.5847
G01 X14.5109 Y32.5925
G01 X14.5749 Y32.6633
G01 X14.6334 Y32.7420
G01 X14.6379 Y32.7490
G01 X14.6841 Y32.8260
G01 X14.6893 Y32.8359
G01 X14.7300 Y32.9221
G01 X14.7622 Y33.0118
G01 X14.7655 Y33.0225
G01 X14.7885 Y33.1150
G01 X14.8026 Y33.2093
G01 X14.8037 Y33.2204
G01 X14.8083 Y33.3156
G01 X14.8083 Y35.1444
G01 X14.8033 Y35.2452
G01 X14.7895 Y35.3395
G01 X14.7879 Y35.3477
G01 X14.7640 Y35.4429
G01 X14.7320 Y35.5327
G01 X14.7277 Y35.5430
G01 X14.6893 Y35.6241
G01 X14.6841 Y35.6340
G01 X14.6350 Y35.7157
G01 X14.5749 Y35.7967
G01 X14.5071 Y35.8715
G01 X14.4365 Y35.9356
G01 X14.4279 Y35.9427
G01 X14.3558 Y35.9962
G01 X14.3466 Y36.0023
G01 X14.2647 Y36.0512
G01 X14.1735 Y36.0944
G01 X14.0785 Y36.1284
G01 X13.9860 Y36.1517
G01 X13.9751 Y36.1539
G01 X13.8808 Y36.1677
G01 X13.7800 Y36.1727
G01 X13.6848 Y36.1681
G01 X13.6737 Y36.1670
G01 X13.5849 Y36.1539
G01 X13.5740 Y36.1517
G01 X13.4815 Y36.1284
G01 X13.3917 Y36.0964
G01 X13.3814 Y36.0921
G01 X13.2953 Y36.0512
G01 X13.2087 Y35.9994
G01 X13.1277 Y35.9393
G01 X13.0569 Y35.8753
G01 X13.0510 Y35.8695
G01 X12.9851 Y35.7967
G01 X12.9282 Y35.7202
G01 X12.9221 Y35.7110
G01 X12.8732 Y35.6291
G01 X12.8323 Y35.5430
G01 X12.8280 Y35.5327
G01 X12.7969 Y35.4455
G01 X12.7945 Y35.4375
G01 X12.7715 Y35.3450
G01 X12.7567 Y35.2452
G01 X12.7518 Y35.1472
G01 X12.7517 Y34.9787
G01 X11.2372 Y34.9787
G01 X11.1666 Y34.9751
G01 X11.0994 Y34.9653
G01 X11.0885 Y34.9631
G01 X11.0227 Y34.9465
G01 X10.9535 Y34.9217
G01 X10.8920 Y34.8928
G01 X10.8822 Y34.8876
G01 X10.8240 Y34.8525
G01 X10.7650 Y34.8088
G01 X10.7146 Y34.7633
G01 X10.7067 Y34.7554
G01 X10.6612 Y34.7050
G01 X10.6175 Y34.6460
G01 X10.5824 Y34.5878
G01 X10.5772 Y34.5780
G01 X10.5483 Y34.5165
G01 X10.5253 Y34.4526
G01 X10.5220 Y34.4420
G01 X10.5057 Y34.3761
G01 X10.4949 Y34.3034
G01 X10.4913 Y34.2300
G01 X10.4913 Y2.0540
G00 Z3.0000
G00 X15.5713 Y2.0540
G01 F60.00
G01 Z-0.0500
G01 F60.00
G01 X15.5254 Y2.0124
G01 X15.5194 Y2.0066
G01 X15.4506 Y1.9307
G01 X15.4452 Y1.9243
G01 X15.3809 Y1.8375
G01 X15.3267 Y1.7472
G01 X15.3227 Y1.7399
G01 X15.2766 Y1.6422
G01 X15.2392 Y1.5378
G01 X15.2123 Y1.4303
G01 X15.1967 Y1.3262
G01 X15.1958 Y1.3179
G01 X15.1906 Y1.2100
G01 X15.1960 Y1.0993
G01 X15.2123 Y0.9897
G01 X15.2392 Y0.8822
G01 X15.2766 Y0.7778
G01 X15.3240 Y0.6776
G01 X15.3809 Y0.5825
G01 X15.4435 Y0.4979
G01 X15.4488 Y0.4914
G01 X15.5214 Y0.4114
G01 X15.6035 Y0.3370
G01 X15.6925 Y0.2709
G01 X15.7876 Y0.2140
G01 X15.8878 Y0.1666
G01 X15.9922 Y0.1292
G01 X16.0997 Y0.1023
G01 X16.2093 Y0.0860
G01 X16.3200 Y0.0806
G01 X16.4307 Y0.0860
G01 X16.5403 Y0.1023
G01 X16.6478 Y0.1292
G01 X16.7522 Y0.1666
G01 X16.8524 Y0.2140
G01 X16.9475 Y0.2709
G01 X17.0321 Y0.3335
G01 X17.0386 Y0.3388
G01 X17.1186 Y0.4114
G01 X17.1930 Y0.4935
G01 X17.2591 Y0.5825
G01 X17.3133 Y0.6728
G01 X17.3185 Y0.6826
G01 X17.3634 Y0.7778
G01 X17.3990 Y0.8769
G01 X17.4023 Y0.8875
G01 X17.4265 Y0.9842
G01 X17.4287 Y0.9951
G01 X17.4440 Y1.0993
G01 X17.4494 Y1.2072
G01 X17.4493 Y1.2156
G01 X17.4440 Y1.3207
G01 X17.4277 Y1.4303
G01 X17.4008 Y1.5378
G01 X17.3654 Y1.6370
G01 X17.3623 Y1.6448
G01 X17.3160 Y1.7424
G01 X17.2620 Y1.8328
G01 X17.2575 Y1.8398
G01 X17.1965 Y1.9221
G01 X17.1912 Y1.9286
G01 X17.1186 Y2.0086
G01 X17.0687 Y2.0540
G01 X17.0687 Y17.3722
G01 X17.1149 Y17.4233
G01 X17.1750 Y17.5043
G01 X17.2268 Y17.5909
G01 X17.2689 Y17.6795
G01 X17.2720 Y17.6873
G01 X17.3022 Y17.7718
G01 X17.3055 Y17.7825
G01 X17.3285 Y17.8750
G01 X17.3433 Y17.9748
G01 X17.3483 Y18.0756
G01 X17.3482 Y19.9072
G01 X17.3433 Y20.0052
G01 X17.3285 Y20.1050
G01 X17.3040 Y20.2029
G01 X17.2700 Y20.2979
G01 X17.2268 Y20.3891
G01 X17.1750 Y20.4757
G01 X17.1149 Y20.5567
G01 X17.0471 Y20.6315
G01 X16.9723 Y20.6993
G01 X16.8913 Y20.7594
G01 X16.8047 Y20.8112
G01 X16.7135 Y20.8544
G01 X16.6185 Y20.8884
G01 X16.5206 Y20.9129
G01 X16.4208 Y20.9277
G01 X16.3256 Y20.9325
G01 X16.3144 Y20.9325
G01 X16.2192 Y20.9277
G01 X16.1194 Y20.9129
G01 X16.0215 Y20.8884
G01 X15.9265 Y20.8544
G01 X15.8353 Y20.8112
G01 X15.7487 Y20.7594
G01 X15.6677 Y20.6993
G01 X15.5929 Y20.6315
G01 X15.5251 Y20.5567
G01 X15.4650 Y20.4757
G01 X15.4132 Y20.3891
G01 X15.3700 Y20.2979
G01 X15.3360 Y20.2029
G01 X15.3115 Y20.1050
G01 X15.2967 Y20.0052
G01 X15.2919 Y19.9100
G01 X15.2917 Y18.0756
G01 X15.2967 Y17.9748
G01 X15.3115 Y17.8750
G01 X15.3345 Y17.7825
G01 X15.3378 Y17.7718
G01 X15.3680 Y17.6873
G01 X15.3711 Y17.6795
G01 X15.4132 Y17.5909
G01 X15.4650 Y17.5043
G01 X15.5251 Y17.4233
G01 X15.5713 Y17.3722
G01 X15.5713 Y2.0540
G00 Z3.0000
G00 X20.6513 Y2.0540
G01 F60.00
G01 Z-0.0500
G01 F60.00
G01 X20.6054 Y2.0124
G01 X20.5994 Y2.0066
G01 X20.5306 Y1.9307
G01 X20.5252 Y1.9243
G01 X20.4609 Y1.8375
G01 X20.4067 Y1.7472
G01 X20.4027 Y1.7399
G01 X20.3566 Y1.6422
G01 X20.3192 Y1.5378
G01 X20.2923 Y1.4303
G01 X20.2767 Y1.3262
G01 X20.2758 Y1.3179
G01 X20.2706 Y1.2100
G01 X20.2760 Y1.0993
G01 X20.2923 Y0.9897
G01 X20.3192 Y0.8822
G01 X20.3566 Y0.7778
G01 X20.4040 Y0.6776
G01 X20.4609 Y0.5825
G01 X20.5235 Y0.4979
G01 X20.5288 Y0.4914
G01 X20.6014 Y0.4114
G01 X20.6835 Y0.3370
G01 X20.7725 Y0.2709
G01 X20.8676 Y0.2140
G01 X20.9678 Y0.1666
G01 X21.0722 Y0.1292
G01 X21.1797 Y0.1023
G01 X21.2893 Y0.0860
G01 X21.4000 Y0.0806
G01 X21.5107 Y0.0860
G01 X21.6203 Y0.1023
G01 X21.7278 Y0.1292
G01 X21.8322 Y0.1666
G01 X21.9324 Y0.2140
G01 X22.0275 Y0.2709
G01 X22.1121 Y0.3335
G01 X22.1186 Y0.3388
G01 X22.1986 Y0.4114
G01 X22.2730 Y0.4935
G01 X22.3391 Y0.5825
G01 X22.3933 Y0.6728
G01 X22.3985 Y0.6826
G01 X22.4434 Y0.7778
G01 X22.4790 Y0.8769
G01 X22.4823 Y0.8875
G01 X22.5065 Y0.9842
G01 X22.5087 Y0.9951
G01 X22.5240 Y1.0993
G01 X22.5294 Y1.2072
G01 X22.5293 Y1.2156
G01 X22.5240 Y1.3207
G01 X22.5077 Y1.4303
G01 X22.4808 Y1.5378
G01 X22.4454 Y1.6370
G01 X22.4423 Y1.6448
G01 X22.3960 Y1.7424
G01 X22.3420 Y1.8328
G01 X22.3375 Y1.8398
G01 X22.2765 Y1.9221
G01 X22.2712 Y1.9286
G01 X22.1986 Y2.0086
G01 X22.1487 Y2.0540
G01 X22.1487 Y17.3722
G01 X22.1949 Y17.4233
G01 X22.2550 Y17.5043
G01 X22.3068 Y17.5909
G01 X22.3489 Y17.6795
G01 X22.3520 Y17.6873
G01 X22.3822 Y17.7718
G01 X22.3855 Y17.7825
G01 X22.4085 Y17.8750
G01 X22.4233 Y17.9748
G01 X22.4283 Y18.0756
G01 X22.4282 Y19.9072
G01 X22.4233 Y20.0052
G01 X22.4085 Y20.1050
G01 X22.3840 Y20.2029
G01 X22.3500 Y20.2979
G01 X22.3068 Y20.3891
G01 X22.2550 Y20.4757
G01 X22.1949 Y20.5567
G01 X22.1271 Y20.6315
G01 X22.0523 Y20.6993
G01 X21.9713 Y20.7594
G01 X21.8847 Y20.8112
G01 X21.7935 Y20.8544
G01 X21.6985 Y20.8884
G01 X21.6006 Y20.9129
G01 X21.5008 Y20.9277
G01 X21.4056 Y20.9325
G01 X21.3944 Y20.9325
G01 X21.2992 Y20.9277
G01 X21.1994 Y20.9129
G01 X21.1015 Y20.8884
G01 X21.0065 Y20.8544
G01 X20.9153 Y20.8112
G01 X20.8287 Y20.7594
G01 X20.7477 Y20.6993
G01 X20.6729 Y20.6315
G01 X20.6051 Y20.5567
G01 X20.5450 Y20.4757
G01 X20.4932 Y20.3891
G01 X20.4500 Y20.2979
G01 X20.4160 Y20.2029
G01 X20.3915 Y20.1050
G01 X20.3767 Y20.0052
G01 X20.3719 Y19.9100
G01 X20.3717 Y18.0756
G01 X20.3767 Y17.9748
G01 X20.3915 Y17.8750
G01 X20.4145 Y17.7825
G01 X20.4178 Y17.7718
G01 X20.4480 Y17.6873
G01 X20.4511 Y17.6795
G01 X20.4932 Y17.5909
G01 X20.5450 Y17.5043
G01 X20.6051 Y17.4233
G01 X20.6513 Y17.3722
G01 X20.6513 Y2.0540
G00 Z3.0000
G00 X25.7313 Y2.0540
G01 F60.00
G01 Z-0.0500
G01 F60.00
G01 X25.6854 Y2.0124
G01 X25.6794 Y2.0066
G01 X25.6106 Y1.9307
G01 X25.6052 Y1.9243
G01 X25.5409 Y1.8375
G01 X25.4867 Y1.7472
G01 X25.4827 Y1.7399
G01 X25.4366 Y1.6422
G01 X25.3992 Y1.5378
G01 X25.3723 Y1.4303
G01 X25.3567 Y1.3262
G01 X25.3558 Y1.3179
G01 X25.3506 Y1.2100
G01 X25.3560 Y1.0993
G01 X25.3723 Y0.9897
G01 X25.3992 Y0.8822
G01 X25.4366 Y0.7778
G01 X25.4840 Y0.6776
G01 X25.5409 Y0.5825
G01 X25.6035 Y0.4979
G01 X25.6088 Y0.4914
G01 X25.6814 Y0.4114
G01 X25.7635 Y0.3370
G01 X25.8525 Y0.2709
G01 X25.9476 Y0.2140
G01 X26.0478 Y0.1666
G01 X26.1522 Y0.1292
G01 X26.2597 Y0.1023
G01 X26.3693 Y0.0860
G01 X26.4800 Y0.0806
G01 X26.5907 Y0.0860
G01 X26.7003 Y0.1023
G01 X26.8078 Y0.1292
G01 X26.9122 Y0.1666
G01 X27.0124 Y0.2140
G01 X27.1075 Y0.2709
G01 X27.1921 Y0.3335
G01 X27.1986 Y0.3388
G01 X27.2786 Y0.4114
G01 X27.3530 Y0.4935
G01 X27.4191 Y0.5825
G01 X27.4733 Y0.6728
G01 X27.4785 Y0.6826
G01 X27.5234 Y0.7778
G01 X27.5590 Y0.8769
G01 X27.5623 Y0.8875
G01 X27.5865 Y0.9842
G01 X27.5887 Y0.9951
G01 X27.6040 Y1.0993
G01 X27.6094 Y1.2072
G01 X27.6093 Y1.2156
G01 X27.6040 Y1.3207
G01 X27.5877 Y1.4303
G01 X27.5608 Y1.5378
G01 X27.5254 Y1.6370
G01 X27.5223 Y1.6448
G01 X27.4760 Y1.7424
G01 X27.4220 Y1.8328
G01 X27.4175 Y1.8398
G01 X27.3565 Y1.9221
G01 X27.3512 Y1.9286
G01 X27.2786 Y2.0086
G01 X27.2287 Y2.0540
G01 X27.2287 Y17.3722
G01 X27.2749 Y17.4233
G01 X27.3350 Y17.5043
G01 X27.3868 Y17.5909
G01 X27.4289 Y17.6795
G01 X27.4320 Y17.6873
G01 X27.4622 Y17.7718
G01 X27.4655 Y17.7825
G01 X27.4885 Y17.8750
G01 X27.5033 Y17.9748
G01 X27.5083 Y18.0756
G01 X27.5082 Y19.9072
G01 X27.5033 Y20.0052
G01 X27.4885 Y20.1050
G01 X27.4640 Y20.2029
G01 X27.4300 Y20.2979
G01 X27.3868 Y20.3891
G01 X27.3350 Y20.4757
G01 X27.2749 Y20.5567
G01 X27.2071 Y20.6315
G01 X27.1323 Y20.6993
G01 X27.0513 Y20.7594
G01 X26.9647 Y20.8112
G01 X26.8735 Y20.8544
G01 X26.7785 Y20.8884
G01 X26.6806 Y20.9129
G01 X26.5808 Y20.9277
G01 X26.4856 Y20.9325
G01 X26.4744 Y20.9325
G01 X26.3792 Y20.9277
G01 X26.2794 Y20.9129
G01 X26.1815 Y20.8884
G01 X26.0865 Y20.8544
G01 X25.9953 Y20.8112
G01 X25.9087 Y20.7594
G01 X25.8277 Y20.6993
G01 X25.7529 Y20.6315
G01 X25.6851 Y20.5567
G01 X25.6250 Y20.4757
G01 X25.5732 Y20.3891
G01 X25.5300 Y20.2979
G01 X25.4960 Y20.2029
G01 X25.4715 Y20.1050
G01 X25.4567 Y20.0052
G01 X25.4519 Y19.9100
G01 X25.4517 Y18.0756
G01 X25.4567 Y17.9748
G01 X25.4715 Y17.8750
G01 X25.4945 Y17.7825
G01 X25.4978 Y17.7718
G01 X25.5280 Y17.6873
G01 X25.5311 Y17.6795
G01 X25.5732 Y17.5909
G01 X25.6250 Y17.5043
G01 X25.6851 Y17.4233
G01 X25.7313 Y17.3722
G01 X25.7313 Y2.0540
G00 Z3.0000
G00 X30.8113 Y2.0540
G01 F60.00
G01 Z-0.0500
G01 F60.00
G01 X30.7654 Y2.0124
G01 X30.7594 Y2.0066
G01 X30.6906 Y1.9307
G01 X30.6852 Y1.9243
G01 X30.6209 Y1.8375
G01 X30.5667 Y1.7472
G01 X30.5627 Y1.7399
G01 X30.5166 Y1.6422
G01 X30.4792 Y1.5378
G01 X30.4523 Y1.4303
G01 X30.4367 Y1.3262
G01 X30.4358 Y1.3179
G01 X30.4306 Y1.2100
G01 X30.4360 Y1.0993
G01 X30.4523 Y0.9897
G01 X30.4792 Y0.8822
G01 X30.5166 Y0.7778
G01 X30.5640 Y0.6776
G01 X30.6209 Y0.5825
G01 X30.6835 Y0.4979
G01 X30.6888 Y0.4914
G01 X30.7614 Y0.4114
G01 X30.8435 Y0.3370
G01 X30.9325 Y0.2709
G01 X31.0276 Y0.2140
G01 X31.1278 Y0.1666
G01 X31.2322 Y0.1292
G01 X31.3397 Y0.1023
G01 X31.4493 Y0.0860
G01 X31.5600 Y0.0806
G01 X31.6707 Y0.0860
G01 X31.7803 Y0.1023
G01 X31.8878 Y0.1292
G01 X31.9922 Y0.1666
G01 X32.0924 Y0.2140
G01 X32.1875 Y0.2709
G01 X32.2721 Y0.3335
G01 X32.2786 Y0.3388
G01 X32.3586 Y0.4114
G01 X32.4330 Y0.4935
G01 X32.4991 Y0.5825
G01 X32.5533 Y0.6728
G01 X32.5585 Y0.6826
G01 X32.6012 Y0.7727
G01 X32.6054 Y0.7830
G01 X32.6408 Y0.8822
G01 X32.6665 Y0.9842
G01 X32.6687 Y0.9951
G01 X32.6840 Y1.0993
G01 X32.6894 Y1.2072
G01 X32.6893 Y1.2156
G01 X32.6840 Y1.3207
G01 X32.6677 Y1.4303
G01 X32.6408 Y1.5378
G01 X32.6054 Y1.6370
G01 X32.6023 Y1.6448
G01 X32.5560 Y1.7424
G01 X32.5020 Y1.8328
G01 X32.4975 Y1.8398
G01 X32.4365 Y1.9221
G01 X32.4312 Y1.9286
G01 X32.3586 Y2.0086
G01 X32.3087 Y2.0540
G01 X32.3087 Y17.3722
G01 X32.3549 Y17.4233
G01 X32.4150 Y17.5043
G01 X32.4668 Y17.5909
G01 X32.5089 Y17.6795
G01 X32.5120 Y17.6873
G01 X32.5422 Y17.7718
G01 X32.5455 Y17.7825
G01 X32.5685 Y17.8750
G01 X32.5833 Y17.9748
G01 X32.5883 Y18.0756
G01 X32.5882 Y19.9072
G01 X32.5833 Y20.0052
G01 X32.5685 Y20.1050
G01 X32.5440 Y20.2029
G01 X32.5100 Y20.2979
G01 X32.4668 Y20.3891
G01 X32.4150 Y20.4757
G01 X32.3549 Y20.5567
G01 X32.2871 Y20.6315
G01 X32.2123 Y20.6993
G01 X32.1313 Y20.7594
G01 X32.0447 Y20.8112
G01 X31.9535 Y20.8544
G01 X31.8585 Y20.8884
G01 X31.7606 Y20.9129
G01 X31.6608 Y20.9277
G01 X31.5656 Y20.9325
G01 X31.5544 Y20.9325
G01 X31.4592 Y20.9277
G01 X31.3594 Y20.9129
G01 X31.2615 Y20.8884
G01 X31.1665 Y20.8544
G01 X31.0753 Y20.8112
G01 X30.9887 Y20.7594
G01 X30.9077 Y20.6993
G01 X30.8329 Y20.6315
G01 X30.7651 Y20.5567
G01 X30.7050 Y20.4757
G01 X30.6532 Y20.3891
G01 X30.6100 Y20.2979
G01 X30.5760 Y20.2029
G01 X30.5515 Y20.1050
G01 X30.5367 Y20.0052
G01 X30.5319 Y19.9100
G01 X30.5317 Y18.0756
G01 X30.5367 Y17.9748
G01 X30.5515 Y17.8750
G01 X30.5745 Y17.7825
G01 X30.5778 Y17.7718
G01 X30.6080 Y17.6873
G01 X30.6111 Y17.6795
G01 X30.6532 Y17.5909
G01 X30.7050 Y17.5043
G01 X30.7651 Y17.4233
G01 X30.8113 Y17.3722
G01 X30.8113 Y2.0540
G00 Z3.0000
G00 X35.8913 Y2.0540
G01 F60.00
G01 Z-0.0500
G01 F60.00
G01 X35.8454 Y2.0124
G01 X35.8394 Y2.0066
G01 X35.7706 Y1.9307
G01 X35.7652 Y1.9243
G01 X35.7009 Y1.8375
G01 X35.6467 Y1.7472
G01 X35.6427 Y1.7399
G01 X35.5966 Y1.6422
G01 X35.5592 Y1.5378
G01 X35.5323 Y1.4303
G01 X35.5167 Y1.3262
G01 X35.5158 Y1.3179
G01 X35.5106 Y1.2100
G01 X35.5160 Y1.0993
G01 X35.5323 Y0.9897
G01 X35.5592 Y0.8822
G01 X35.5966 Y0.7778
G01 X35.6440 Y0.6776
G01 X35.7009 Y0.5825
G01 X35.7635 Y0.4979
G01 X35.7688 Y0.4914
G01 X35.8414 Y0.4114
G01 X35.9235 Y0.3370
G01 X36.0125 Y0.2709
G01 X36.1076 Y0.2140
G01 X36.2078 Y0.1666
G01 X36.3122 Y0.1292
G01 X36.4197 Y0.1023
G01 X36.5293 Y0.0860
G01 X36.6400 Y0.0806
G01 X36.7507 Y0.0860
G01 X36.8603 Y0.1023
G01 X36.9678 Y0.1292
G01 X37.0722 Y0.1666
G01 X37.1724 Y0.2140
G01 X37.2675 Y0.2709
G01 X37.3521 Y0.3335
G01 X37.3586 Y0.3388
G01 X37.4386 Y0.4114
G01 X37.5130 Y0.4935
G01 X37.5791 Y0.5825
G01 X37.6333 Y0.6728
G01 X37.6385 Y0.6826
G01 X37.6812 Y0.7727
G01 X37.6854 Y0.7830
G01 X37.7208 Y0.8822
G01 X37.7465 Y0.9842
G01 X37.7487 Y0.9951
G01 X37.7640 Y1.0993
G01 X37.7694 Y1.2072
G01 X37.7693 Y1.2156
G01 X37.7640 Y1.3207
G01 X37.7477 Y1.4303
G01 X37.7208 Y1.5378
G01 X37.6854 Y1.6370
G01 X37.6823 Y1.6448
G01 X37.6360 Y1.7424
G01 X37.5820 Y1.8328
G01 X37.5775 Y1.8398
G01 X37.5165 Y1.9221
G01 X37.5112 Y1.9286
G01 X37.4386 Y2.0086
G01 X37.3887 Y2.0540
G01 X37.3887 Y17.3722
G01 X37.4349 Y17.4233
G01 X37.4950 Y17.5043
G01 X37.5468 Y17.5909
G01 X37.5889 Y17.6795
G01 X37.5920 Y17.6873
G01 X37.6222 Y17.7718
G01 X37.6255 Y17.7825
G01 X37.6485 Y17.8750
G01 X37.6633 Y17.9748
G01 X37.6683 Y18.0756
G01 X37.6682 Y19.9072
G01 X37.6633 Y20.0052
G01 X37.6485 Y20.1050
G01 X37.6240 Y20.2029
G01 X37.5900 Y20.2979
G01 X37.5468 Y20.3891
G01 X37.4950 Y20.4757
G01 X37.4349 Y20.5567
G01 X37.3671 Y20.6315
G01 X37.2923 Y20.6993
G01 X37.2113 Y20.7594
G01 X37.1247 Y20.8112
G01 X37.0335 Y20.8544
G01 X36.9385 Y20.8884
G01 X36.8406 Y20.9129
G01 X36.7408 Y20.9277
G01 X36.6456 Y20.9325
G01 X36.6344 Y20.9325
G01 X36.5392 Y20.9277
G01 X36.4394 Y20.9129
G01 X36.3415 Y20.8884
G01 X36.2465 Y20.8544
G01 X36.1553 Y20.8112
G01 X36.0687 Y20.7594
G01 X35.9877 Y20.6993
G01 X35.9129 Y20.6315
G01 X35.8451 Y20.5567
G01 X35.7850 Y20.4757
G01 X35.7332 Y20.3891
G01 X35.6900 Y20.2979
G01 X35.6560 Y20.2029
G01 X35.6315 Y20.1050
G01 X35.6167 Y20.0052
G01 X35.6119 Y19.9100
G01 X35.6117 Y18.0756
G01 X35.6167 Y17.9748
G01 X35.6315 Y17.8750
G01 X35.6545 Y17.7825
G01 X35.6578 Y17.7718
G01 X35.6880 Y17.6873
G01 X35.6911 Y17.6795
G01 X35.7332 Y17.5909
G01 X35.7850 Y17.5043
G01 X35.8451 Y17.4233
G01 X35.8913 Y17.3722
G01 X35.8913 Y2.0540
G00 Z3.0000
G00 X40.9713 Y2.0540
G01 F60.00
G01 Z-0.0500
G01 F60.00
G01 X40.9254 Y2.0124
G01 X40.9194 Y2.0066
G01 X40.8506 Y1.9307
G01 X40.8452 Y1.9243
G01 X40.7809 Y1.8375
G01 X40.7267 Y1.7472
G01 X40.7227 Y1.7399
G01 X40.6766 Y1.6422
G01 X40.6392 Y1.5378
G01 X40.6123 Y1.4303
G01 X40.5967 Y1.3262
G01 X40.5958 Y1.3179
G01 X40.5906 Y1.2100
G01 X40.5960 Y1.0993
G01 X40.6123 Y0.9897
G01 X40.6392 Y0.8822
G01 X40.6766 Y0.7778
G01 X40.7240 Y0.6776
G01 X40.7809 Y0.5825
G01 X40.8435 Y0.4979
G01 X40.8488 Y0.4914
G01 X40.9214 Y0.4114
G01 X41.0035 Y0.3370
G01 X41.0925 Y0.2709
G01 X41.1876 Y0.2140
G01 X41.2878 Y0.1666
G01 X41.3922 Y0.1292
G01 X41.4997 Y0.1023
G01 X41.6093 Y0.0860
G01 X41.7200 Y0.0806
G01 X41.8307 Y0.0860
G01 X41.9403 Y0.1023
G01 X42.0478 Y0.1292
G01 X42.1522 Y0.1666
G01 X42.2524 Y0.2140
G01 X42.3475 Y0.2709
G01 X42.4321 Y0.3335
G01 X42.4386 Y0.3388
G01 X42.5186 Y0.4114
G01 X42.5930 Y0.4935
G01 X42.6591 Y0.5825
G01 X42.7133 Y0.6728
G01 X42.7185 Y0.6826
G01 X42.7612 Y0.7727
G01 X42.7654 Y0.7830
G01 X42.8008 Y0.8822
G01 X42.8265 Y0.9842
G01 X42.8287 Y0.9951
G01 X42.8440 Y1.0993
G01 X42.8494 Y1.2072
G01 X42.8493 Y1.2156
G01 X42.8440 Y1.3207
G01 X42.8277 Y1.4303
G01 X42.8008 Y1.5378
G01 X42.7654 Y1.6370
G01 X42.7623 Y1.6448
G01 X42.7160 Y1.7424
G01 X42.6620 Y1.8328
G01 X42.6575 Y1.8398
G01 X42.5965 Y1.9221
G01 X42.5912 Y1.9286
G01 X42.5186 Y2.0086
G01 X42.4687 Y2.0540
G01 X42.4687 Y9.2776
G01 X42.5033 Y9.3089
G01 X42.5092 Y9.3147
G01 X42.5789 Y9.3915
G01 X42.5841 Y9.3981
G01 X42.6442 Y9.4791
G01 X42.6487 Y9.4861
G01 X42.7019 Y9.5751
G01 X42.7476 Y9.6714
G01 X42.7507 Y9.6791
G01 X42.7855 Y9.7768
G01 X42.8120 Y9.8828
G01 X42.8280 Y9.9909
G01 X42.8334 Y10.1000
G01 X42.8280 Y10.2091
G01 X42.8120 Y10.3172
G01 X42.7855 Y10.4232
G01 X42.7507 Y10.5209
G01 X42.7476 Y10.5286
G01 X42.7019 Y10.6249
G01 X42.6487 Y10.7139
G01 X42.6442 Y10.7209
G01 X42.5841 Y10.8019
G01 X42.5789 Y10.8085
G01 X42.5092 Y10.8853
G01 X42.5033 Y10.8911
G01 X42.4687 Y10.9224
G01 X42.4687 Y17.3722
G01 X42.5149 Y17.4233
G01 X42.5750 Y17.5043
G01 X42.6268 Y17.5909
G01 X42.6689 Y17.6795
G01 X42.6720 Y17.6873
G01 X42.7022 Y17.7718
G01 X42.7055 Y17.7825
G01 X42.7285 Y17.8750
G01 X42.7433 Y17.9748
G01 X42.7483 Y18.0756
G01 X42.7482 Y19.9072
G01 X42.7433 Y20.0052
G01 X42.7285 Y20.1050
G01 X42.7040 Y20.2029
G01 X42.6700 Y20.2979
G01 X42.6268 Y20.3891
G01 X42.5750 Y20.4757
G01 X42.5149 Y20.5567
G01 X42.4471 Y20.6315
G01 X42.3723 Y20.6993
G01 X42.2913 Y20.7594
G01 X42.2047 Y20.8112
G01 X42.1135 Y20.8544
G01 X42.0185 Y20.8884
G01 X41.9206 Y20.9129
G01 X41.8208 Y20.9277
G01 X41.7256 Y20.9325
G01 X41.7144 Y20.9325
G01 X41.6192 Y20.9277
G01 X41.5194 Y20.9129
G01 X41.4215 Y20.8884
G01 X41.3265 Y20.8544
G01 X41.2353 Y20.8112
G01 X41.1487 Y20.7594
G01 X41.0677 Y20.6993
G01 X40.9929 Y20.6315
G01 X40.9251 Y20.5567
G01 X40.8650 Y20.4757
G01 X40.8132 Y20.3891
G01 X40.7700 Y20.2979
G01 X40.7360 Y20.2029
G01 X40.7115 Y20.1050
G01 X40.6967 Y20.0052
G01 X40.6919 Y19.9100
G01 X40.6917 Y18.0756
G01 X40.6967 Y17.9748
G01 X40.7115 Y17.8750
G01 X40.7345 Y17.7825
G01 X40.7378 Y17.7718
G01 X40.7680 Y17.6873
G01 X40.7711 Y17.6795
G01 X40.8132 Y17.5909
G01 X40.8650 Y17.5043
G01 X40.9251 Y17.4233
G01 X40.9713 Y17.3722
G01 X40.9713 Y10.9224
G01 X40.9367 Y10.8911
G01 X40.9308 Y10.8853
G01 X40.8611 Y10.8085
G01 X40.8559 Y10.8019
G01 X40.7958 Y10.7209
G01 X40.7913 Y10.7139
G01 X40.7381 Y10.6249
G01 X40.6924 Y10.5286
G01 X40.6893 Y10.5209
G01 X40.6545 Y10.4232
G01 X40.6280 Y10.3172
G01 X40.6120 Y10.2091
G01 X40.6066 Y10.1000
G01 X40.6120 Y9.9909
G01 X40.6280 Y9.8828
G01 X40.6545 Y9.7768
G01 X40.6893 Y9.6791
G01 X40.6924 Y9.6714
G01 X40.7381 Y9.5751
G01 X40.7913 Y9.4861
G01 X40.7958 Y9.4791
G01 X40.8559 Y9.3981
G01 X40.8611 Y9.3915
G01 X40.9308 Y9.3147
G01 X40.9367 Y9.3089
G01 X40.9713 Y9.2776
G01 X40.9713 Y2.0540
G00 Z3.0000
G00 X43.5113 Y2.0540
G01 F60.00
G01 Z-0.0500
G01 F60.00
G01 X43.4654 Y2.0124
G01 X43.4594 Y2.0066
G01 X43.3906 Y1.9307
G01 X43.3852 Y1.9243
G01 X43.3209 Y1.8375
G01 X43.2667 Y1.7472
G01 X43.2627 Y1.7399
G01 X43.2166 Y1.6422
G01 X43.1792 Y1.5378
G01 X43.1523 Y1.4303
G01 X43.1367 Y1.3262
G01 X43.1358 Y1.3179
G01 X43.1306 Y1.2100
G01 X43.1360 Y1.0993
G01 X43.1523 Y0.9897
G01 X43.1792 Y0.8822
G01 X43.2166 Y0.7778
G01 X43.2640 Y0.6776
G01 X43.3209 Y0.5825
G01 X43.3835 Y0.4979
G01 X43.3888 Y0.4914
G01 X43.4614 Y0.4114
G01 X43.5435 Y0.3370
G01 X43.6325 Y0.2709
G01 X43.7276 Y0.2140
G01 X43.8278 Y0.1666
G01 X43.9322 Y0.1292
G01 X44.0397 Y0.1023
G01 X44.1493 Y0.0860
G01 X44.2600 Y0.0806
G01 X44.3707 Y0.0860
G01 X44.4803 Y0.1023
G01 X44.5878 Y0.1292
G01 X44.6922 Y0.1666
G01 X44.7924 Y0.2140
G01 X44.8875 Y0.2709
G01 X44.9721 Y0.3335
G01 X44.9786 Y0.3388
G01 X45.0586 Y0.4114
G01 X45.1330 Y0.4935
G01 X45.1991 Y0.5825
G01 X45.2560 Y0.6776
G01 X45.3034 Y0.7778
G01 X45.3408 Y0.8822
G01 X45.3677 Y0.9897
G01 X45.3833 Y1.0938
G01 X45.3844 Y1.1049
G01 X45.3893 Y1.2044
G01 X45.3893 Y1.2156
G01 X45.3840 Y1.3207
G01 X45.3687 Y1.4249
G01 X45.3665 Y1.4358
G01 X45.3408 Y1.5378
G01 X45.3045 Y1.6396
G01 X45.3012 Y1.6473
G01 X45.2560 Y1.7424
G01 X45.2020 Y1.8328
G01 X45.1975 Y1.8398
G01 X45.1365 Y1.9221
G01 X45.1312 Y1.9286
G01 X45.0586 Y2.0086
G01 X45.0087 Y2.0540
G01 X45.0087 Y6.7376
G01 X45.0433 Y6.7689
G01 X45.0492 Y6.7747
G01 X45.1189 Y6.8515
G01 X45.1241 Y6.8581
G01 X45.1842 Y6.9391
G01 X45.1887 Y6.9461
G01 X45.2419 Y7.0351
G01 X45.2864 Y7.1288
G01 X45.2897 Y7.1365
G01 X45.3237 Y7.2315
G01 X45.3269 Y7.2422
G01 X45.3520 Y7.3428
G01 X45.3674 Y7.4453
G01 X45.3684 Y7.4564
G01 X45.3734 Y7.5600
G01 X45.3683 Y7.6664
G01 X45.3674 Y7.6747
G01 X45.3520 Y7.7772
G01 X45.3269 Y7.8778
G01 X45.3237 Y7.8885
G01 X45.2907 Y7.9809
G01 X45.2864 Y7.9912
G01 X45.2419 Y8.0849
G01 X45.1858 Y8.1786
G01 X45.1207 Y8.2663
G01 X45.0473 Y8.3473
G01 X44.9663 Y8.4207
G01 X44.8831 Y8.4826
G01 X44.8739 Y8.4887
G01 X44.7897 Y8.5392
G01 X44.7799 Y8.5444
G01 X44.6861 Y8.5886
G01 X44.5832 Y8.6255
G01 X44.4772 Y8.6520
G01 X44.3719 Y8.6677
G01 X44.3636 Y8.6684
G01 X44.2600 Y8.6734
G01 X44.1509 Y8.6680
G01 X44.0428 Y8.6520
G01 X43.9368 Y8.6255
G01 X43.8339 Y8.5886
G01 X43.7351 Y8.5419
G01 X43.6414 Y8.4858
G01 X43.5537 Y8.4207
G01 X43.4727 Y8.3473
G01 X43.3993 Y8.2663
G01 X43.3342 Y8.1786
G01 X43.2781 Y8.0849
G01 X43.2314 Y7.9861
G01 X43.1945 Y7.8832
G01 X43.1680 Y7.7772
G01 X43.1523 Y7.6719
G01 X43.1516 Y7.6636
G01 X43.1466 Y7.5600
G01 X43.1516 Y7.4564
G01 X43.1526 Y7.4453
G01 X43.1680 Y7.3428
G01 X43.1931 Y7.2422
G01 X43.1963 Y7.2315
G01 X43.2303 Y7.1365
G01 X43.2336 Y7.1288
G01 X43.2781 Y7.0351
G01 X43.3313 Y6.9461
G01 X43.3358 Y6.9391
G01 X43.3959 Y6.8581
G01 X43.4011 Y6.8515
G01 X43.4708 Y6.7747
G01 X43.4767 Y6.7689
G01 X43.5113 Y6.7376
G01 X43.5113 Y2.0540
G00 Z3.0000
G00 X46.0513 Y2.0540
G01 F60.00
G01 Z-0.0500
G01 F60.00
G01 X46.0054 Y2.0124
G01 X45.9994 Y2.0066
G01 X45.9306 Y1.9307
G01 X45.9252 Y1.9243
G01 X45.8609 Y1.8375
G01 X45.8067 Y1.7472
G01 X45.8027 Y1.7399
G01 X45.7566 Y1.6422
G01 X45.7192 Y1.5378
G01 X45.6923 Y1.4303
G01 X45.6767 Y1.3262
G01 X45.6758 Y1.3179
G01 X45.6706 Y1.2100
G01 X45.6760 Y1.0993
G01 X45.6923 Y0.9897
G01 X45.7192 Y0.8822
G01 X45.7566 Y0.7778
G01 X45.8040 Y0.6776
G01 X45.8609 Y0.5825
G01 X45.9235 Y0.4979
G01 X45.9288 Y0.4914
G01 X46.0014 Y0.4114
G01 X46.0835 Y0.3370
G01 X46.1725 Y0.2709
G01 X46.2676 Y0.2140
G01 X46.3678 Y0.1666
G01 X46.4722 Y0.1292
G01 X46.5797 Y0.1023
G01 X46.6893 Y0.0860
G01 X46.8000 Y0.0806
G01 X46.9107 Y0.0860
G01 X47.0203 Y0.1023
G01 X47.1278 Y0.1292
G01 X47.2322 Y0.1666
G01 X47.3324 Y0.2140
G01 X47.4275 Y0.2709
G01 X47.5121 Y0.3335
G01 X47.5186 Y0.3388
G01 X47.5986 Y0.4114
G01 X47.6730 Y0.4935
G01 X47.7391 Y0.5825
G01 X47.7933 Y0.6728
G01 X47.7985 Y0.6826
G01 X47.8412 Y0.7727
G01 X47.8454 Y0.7830
G01 X47.8808 Y0.8822
G01 X47.9065 Y0.9842
G01 X47.9087 Y0.9951
G01 X47.9240 Y1.0993
G01 X47.9294 Y1.2072
G01 X47.9293 Y1.2156
G01 X47.9240 Y1.3207
G01 X47.9077 Y1.4303
G01 X47.8808 Y1.5378
G01 X47.8454 Y1.6370
G01 X47.8423 Y1.6448
G01 X47.7960 Y1.7424
G01 X47.7420 Y1.8328
G01 X47.7375 Y1.8398
G01 X47.6765 Y1.9221
G01 X47.6712 Y1.9286
G01 X47.5986 Y2.0086
G01 X47.5487 Y2.0540
G01 X47.5487 Y17.3722
G01 X47.5949 Y17.4233
G01 X47.6550 Y17.5043
G01 X47.7068 Y17.5909
G01 X47.7489 Y17.6795
G01 X47.7520 Y17.6873
G01 X47.7822 Y17.7718
G01 X47.7855 Y17.7825
G01 X47.8085 Y17.8750
G01 X47.8233 Y17.9748
G01 X47.8283 Y18.0756
G01 X47.8282 Y19.9072
G01 X47.8233 Y20.0052
G01 X47.8085 Y20.1050
G01 X47.7840 Y20.2029
G01 X47.7500 Y20.2979
G01 X47.7068 Y20.3891
G01 X47.6550 Y20.4757
G01 X47.5949 Y20.5567
G01 X47.5271 Y20.6315
G01 X47.4523 Y20.6993
G01 X47.3713 Y20.7594
G01 X47.2847 Y20.8112
G01 X47.1935 Y20.8544
G01 X47.0985 Y20.8884
G01 X47.0006 Y20.9129
G01 X46.9008 Y20.9277
G01 X46.8056 Y20.9325
G01 X46.7944 Y20.9325
G01 X46.6992 Y20.9277
G01 X46.5994 Y20.9129
G01 X46.5015 Y20.8884
G01 X46.4065 Y20.8544
G01 X46.3153 Y20.8112
G01 X46.2287 Y20.7594
G01 X46.1477 Y20.6993
G01 X46.0729 Y20.6315
G01 X46.0051 Y20.5567
G01 X45.9450 Y20.4757
G01 X45.8932 Y20.3891
G01 X45.8500 Y20.2979
G01 X45.8160 Y20.2029
G01 X45.7915 Y20.1050
G01 X45.7767 Y20.0052
G01 X45.7719 Y19.9100
G01 X45.7717 Y18.0756
G01 X45.7767 Y17.9748
G01 X45.7915 Y17.8750
G01 X45.8145 Y17.7825
G01 X45.8178 Y17.7718
G01 X45.8480 Y17.6873
G01 X45.8511 Y17.6795
G01 X45.8932 Y17.5909
G01 X45.9450 Y17.5043
G01 X46.0051 Y17.4233
G01 X46.0513 Y17.3722
G01 X46.0513 Y2.0540
G00 Z3.0000
G00 X51.1313 Y2.0540
G01 F60.00
G01 Z-0.0500
G01 F60.00
G01 X51.0854 Y2.0124
G01 X51.0794 Y2.0066
G01 X51.0106 Y1.9307
G01 X51.0052 Y1.9243
G01 X50.9409 Y1.8375
G01 X50.8867 Y1.7472
G01 X50.8827 Y1.7399
G01 X50.8366 Y1.6422
G01 X50.7992 Y1.5378
G01 X50.7723 Y1.4303
G01 X50.7567 Y1.3262
G01 X50.7558 Y1.3179
G01 X50.7506 Y1.2100
G01 X50.7560 Y1.0993
G01 X50.7723 Y0.9897
G01 X50.7992 Y0.8822
G01 X50.8366 Y0.7778
G01 X50.8840 Y0.6776
G01 X50.9409 Y0.5825
G01 X51.0035 Y0.4979
G01 X51.0088 Y0.4914
G01 X51.0814 Y0.4114
G01 X51.1635 Y0.3370
G01 X51.2525 Y0.2709
G01 X51.3476 Y0.2140
G01 X51.4478 Y0.1666
G01 X51.5522 Y0.1292
G01 X51.6597 Y0.1023
G01 X51.7693 Y0.0860
G01 X51.8800 Y0.0806
G01 X51.9907 Y0.0860
G01 X52.1003 Y0.1023
G01 X52.2078 Y0.1292
G01 X52.3122 Y0.1666
G01 X52.4124 Y0.2140
G01 X52.5075 Y0.2709
G01 X52.5921 Y0.3335
G01 X52.5986 Y0.3388
G01 X52.6786 Y0.4114
G01 X52.7530 Y0.4935
G01 X52.8191 Y0.5825
G01 X52.8760 Y0.6776
G01 X52.9234 Y0.7778
G01 X52.9608 Y0.8822
G01 X52.9877 Y0.9897
G01 X53.0033 Y1.0938
G01 X53.0044 Y1.1049
G01 X53.0093 Y1.2044
G01 X53.0093 Y1.2156
G01 X53.0040 Y1.3207
G01 X52.9887 Y1.4249
G01 X52.9865 Y1.4358
G01 X52.9608 Y1.5378
G01 X52.9245 Y1.6396
G01 X52.9212 Y1.6473
G01 X52.8760 Y1.7424
G01 X52.8220 Y1.8328
G01 X52.8175 Y1.8398
G01 X52.7565 Y1.9221
G01 X52.7512 Y1.9286
G01 X52.6786 Y2.0086
G01 X52.6287 Y2.0540
G01 X52.6287 Y6.7376
G01 X52.6633 Y6.7689
G01 X52.6692 Y6.7747
G01 X52.7389 Y6.8515
G01 X52.7441 Y6.8581
G01 X52.8042 Y6.9391
G01 X52.8087 Y6.9461
G01 X52.8619 Y7.0351
G01 X52.9064 Y7.1288
G01 X52.9097 Y7.1365
G01 X52.9437 Y7.2315
G01 X52.9469 Y7.2422
G01 X52.9720 Y7.3428
G01 X52.9874 Y7.4453
G01 X52.9884 Y7.4564
G01 X52.9934 Y7.5600
G01 X52.9883 Y7.6664
G01 X52.9874 Y7.6747
G01 X52.9720 Y7.7772
G01 X52.9469 Y7.8778
G01 X52.9437 Y7.8885
G01 X52.9107 Y7.9809
G01 X52.9064 Y7.9912
G01 X52.8619 Y8.0849
G01 X52.8058 Y8.1786
G01 X52.7407 Y8.2663
G01 X52.6673 Y8.3473
G01 X52.5863 Y8.4207
G01 X52.5031 Y8.4826
G01 X52.4939 Y8.4887
G01 X52.4097 Y8.5392
G01 X52.3999 Y8.5444
G01 X52.3061 Y8.5886
G01 X52.2032 Y8.6255
G01 X52.0972 Y8.6520
G01 X51.9919 Y8.6677
G01 X51.9836 Y8.6684
G01 X51.8800 Y8.6734
G01 X51.7709 Y8.6680
G01 X51.6628 Y8.6520
G01 X51.5568 Y8.6255
G01 X51.4539 Y8.5886
G01 X51.3551 Y8.5419
G01 X51.2614 Y8.4858
G01 X51.1737 Y8.4207
G01 X51.0927 Y8.3473
G01 X51.0193 Y8.2663
G01 X50.9542 Y8.1786
G01 X50.8981 Y8.0849
G01 X50.8514 Y7.9861
G01 X50.8145 Y7.8832
G01 X50.7880 Y7.7772
G01 X50.7723 Y7.6719
G01 X50.7716 Y7.6636
G01 X50.7666 Y7.5600
G01 X50.7716 Y7.4564
G01 X50.7726 Y7.4453
G01 X50.7880 Y7.3428
G01 X50.8131 Y7.2422
G01 X50.8163 Y7.2315
G01 X50.8503 Y7.1365
G01 X50.8536 Y7.1288
G01 X50.8981 Y7.0351
G01 X50.9513 Y6.9461
G01 X50.9558 Y6.9391
G01 X51.0159 Y6.8581
G01 X51.0211 Y6.8515
G01 X51.0908 Y6.7747
G01 X51.0967 Y6.7689
G01 X51.1313 Y6.7376
G01 X51.1313 Y2.0540
G00 Z3.0000
G00 X53.6713 Y2.0540
G01 F60.00
G01 Z-0.0500
G01 F60.00
G01 X53.6254 Y2.0124
G01 X53.6194 Y2.0066
G01 X53.5506 Y1.9307
G01 X53.5452 Y1.9243
G01 X53.4809 Y1.8375
G01 X53.4267 Y1.7472
G01 X53.4227 Y1.7399
G01 X53.3766 Y1.6422
G01 X53.3392 Y1.5378
G01 X53.3123 Y1.4303
G01 X53.2967 Y1.3262
G01 X53.2958 Y1.3179
G01 X53.2906 Y1.2100
G01 X53.2960 Y1.0993
G01 X53.3123 Y0.9897
G01 X53.3392 Y0.8822
G01 X53.3766 Y0.7778
G01 X53.4240 Y0.6776
G01 X53.4809 Y0.5825
G01 X53.5435 Y0.4979
G01 X53.5488 Y0.4914
G01 X53.6214 Y0.4114
G01 X53.7035 Y0.3370
G01 X53.7925 Y0.2709
G01 X53.8876 Y0.2140
G01 X53.9878 Y0.1666
G01 X54.0922 Y0.1292
G01 X54.1997 Y0.1023
G01 X54.3093 Y0.0860
G01 X54.4200 Y0.0806
G01 X54.5307 Y0.0860
G01 X54.6403 Y0.1023
G01 X54.7478 Y0.1292
G01 X54.8522 Y0.1666
G01 X54.9524 Y0.2140
G01 X55.0475 Y0.2709
G01 X55.1321 Y0.3335
G01 X55.1386 Y0.3388
G01 X55.2186 Y0.4114
G01 X55.2930 Y0.4935
G01 X55.3591 Y0.5825
G01 X55.4160 Y0.6776
G01 X55.4634 Y0.7778
G01 X55.5008 Y0.8822
G01 X55.5277 Y0.9897
G01 X55.5433 Y1.0938
G01 X55.5444 Y1.1049
G01 X55.5493 Y1.2044
G01 X55.5493 Y1.2156
G01 X55.5440 Y1.3207
G01 X55.5287 Y1.4249
G01 X55.5265 Y1.4358
G01 X55.5008 Y1.5378
G01 X55.4645 Y1.6396
G01 X55.4612 Y1.6473
G01 X55.4160 Y1.7424
G01 X55.3620 Y1.8328
G01 X55.3575 Y1.8398
G01 X55.2965 Y1.9221
G01 X55.2912 Y1.9286
G01 X55.2186 Y2.0086
G01 X55.1687 Y2.0540
G01 X55.1687 Y6.7376
G01 X55.2033 Y6.7689
G01 X55.2092 Y6.7747
G01 X55.2789 Y6.8515
G01 X55.2841 Y6.8581
G01 X55.3442 Y6.9391
G01 X55.3487 Y6.9461
G01 X55.4019 Y7.0351
G01 X55.4464 Y7.1288
G01 X55.4497 Y7.1365
G01 X55.4837 Y7.2315
G01 X55.4869 Y7.2422
G01 X55.5120 Y7.3428
G01 X55.5274 Y7.4453
G01 X55.5284 Y7.4564
G01 X55.5334 Y7.5600
G01 X55.5283 Y7.6664
G01 X55.5274 Y7.6747
G01 X55.5120 Y7.7772
G01 X55.4869 Y7.8778
G01 X55.4837 Y7.8885
G01 X55.4507 Y7.9809
G01 X55.4464 Y7.9912
G01 X55.4019 Y8.0849
G01 X55.3458 Y8.1786
G01 X55.2807 Y8.2663
G01 X55.2073 Y8.3473
G01 X55.1263 Y8.4207
G01 X55.0431 Y8.4826
G01 X55.0339 Y8.4887
G01 X54.9497 Y8.5392
G01 X54.9399 Y8.5444
G01 X54.8461 Y8.5886
G01 X54.7432 Y8.6255
G01 X54.6372 Y8.6520
G01 X54.5319 Y8.6677
G01 X54.5236 Y8.6684
G01 X54.4200 Y8.6734
G01 X54.3109 Y8.6680
G01 X54.2028 Y8.6520
G01 X54.0968 Y8.6255
G01 X53.9939 Y8.5886
G01 X53.8951 Y8.5419
G01 X53.8014 Y8.4858
G01 X53.7137 Y8.4207
G01 X53.6327 Y8.3473
G01 X53.5593 Y8.2663
G01 X53.4942 Y8.1786
G01 X53.4381 Y8.0849
G01 X53.3914 Y7.9861
G01 X53.3545 Y7.8832
G01 X53.3280 Y7.7772
G01 X53.3123 Y7.6719
G01 X53.3116 Y7.6636
G01 X53.3066 Y7.5600
G01 X53.3116 Y7.4564
G01 X53.3126 Y7.4453
G01 X53.3280 Y7.3428
G01 X53.3531 Y7.2422
G01 X53.3563 Y7.2315
G01 X53.3903 Y7.1365
G01 X53.3936 Y7.1288
G01 X53.4381 Y7.0351
G01 X53.4913 Y6.9461
G01 X53.4958 Y6.9391
G01 X53.5559 Y6.8581
G01 X53.5611 Y6.8515
G01 X53.6308 Y6.7747
G01 X53.6367 Y6.7689
G01 X53.6713 Y6.7376
G01 X53.6713 Y2.0540
G00 Z3.0000
G00 X56.2113 Y2.0540
G01 F60.00
G01 Z-0.0500
G01 F60.00
G01 X56.1654 Y2.0124
G01 X56.1594 Y2.0066
G01 X56.0906 Y1.9307
G01 X56.0852 Y1.9243
G01 X56.0209 Y1.8375
G01 X55.9667 Y1.7472
G01 X55.9627 Y1.7399
G01 X55.9166 Y1.6422
G01 X55.8792 Y1.5378
G01 X55.8523 Y1.4303
G01 X55.8367 Y1.3262
G01 X55.8358 Y1.3179
G01 X55.8306 Y1.2100
G01 X55.8360 Y1.0993
G01 X55.8523 Y0.9897
G01 X55.8792 Y0.8822
G01 X55.9166 Y0.7778
G01 X55.9640 Y0.6776
G01 X56.0209 Y0.5825
G01 X56.0835 Y0.4979
G01 X56.0888 Y0.4914
G01 X56.1614 Y0.4114
G01 X56.2435 Y0.3370
G01 X56.3325 Y0.2709
G01 X56.4276 Y0.2140
G01 X56.5278 Y0.1666
G01 X56.6322 Y0.1292
G01 X56.7397 Y0.1023
G01 X56.8493 Y0.0860
G01 X56.9600 Y0.0806
G01 X57.0707 Y0.0860
G01 X57.1803 Y0.1023
G01 X57.2878 Y0.1292
G01 X57.3922 Y0.1666
G01 X57.4924 Y0.2140
G01 X57.5875 Y0.2709
G01 X57.6721 Y0.3335
G01 X57.6786 Y0.3388
G01 X57.7586 Y0.4114
G01 X57.8330 Y0.4935
G01 X57.8991 Y0.5825
G01 X57.9560 Y0.6776
G01 X58.0034 Y0.7778
G01 X58.0408 Y0.8822
G01 X58.0677 Y0.9897
G01 X58.0833 Y1.0938
G01 X58.0844 Y1.1049
G01 X58.0893 Y1.2044
G01 X58.0893 Y1.2156
G01 X58.0840 Y1.3207
G01 X58.0687 Y1.4249
G01 X58.0665 Y1.4358
G01 X58.0408 Y1.5378
G01 X58.0045 Y1.6396
G01 X58.0012 Y1.6473
G01 X57.9560 Y1.7424
G01 X57.9020 Y1.8328
G01 X57.8975 Y1.8398
G01 X57.8365 Y1.9221
G01 X57.8312 Y1.9286
G01 X57.7586 Y2.0086
G01 X57.7087 Y2.0540
G01 X57.7087 Y6.7376
G01 X57.7433 Y6.7689
G01 X57.7492 Y6.7747
G01 X57.8189 Y6.8515
G01 X57.8241 Y6.8581
G01 X57.8842 Y6.9391
G01 X57.8887 Y6.9461
G01 X57.9419 Y7.0351
G01 X57.9864 Y7.1288
G01 X57.9897 Y7.1365
G01 X58.0237 Y7.2315
G01 X58.0269 Y7.2422
G01 X58.0520 Y7.3428
G01 X58.0674 Y7.4453
G01 X58.0684 Y7.4564
G01 X58.0734 Y7.5600
G01 X58.0683 Y7.6664
G01 X58.0674 Y7.6747
G01 X58.0520 Y7.7772
G01 X58.0269 Y7.8778
G01 X58.0237 Y7.8885
G01 X57.9907 Y7.9809
G01 X57.9864 Y7.9912
G01 X57.9419 Y8.0849
G01 X57.8858 Y8.1786
G01 X57.8207 Y8.2663
G01 X57.7473 Y8.3473
G01 X57.6663 Y8.4207
G01 X57.5831 Y8.4826
G01 X57.5739 Y8.4887
G01 X57.4897 Y8.5392
G01 X57.4799 Y8.5444
G01 X57.3861 Y8.5886
G01 X57.2832 Y8.6255
G01 X57.1772 Y8.6520
G01 X57.0719 Y8.6677
G01 X57.0636 Y8.6684
G01 X56.9600 Y8.6734
G01 X56.8509 Y8.6680
G01 X56.7428 Y8.6520
G01 X56.6368 Y8.6255
G01 X56.5339 Y8.5886
G01 X56.4351 Y8.5419
G01 X56.3414 Y8.4858
G01 X56.2537 Y8.4207
G01 X56.1727 Y8.3473
G01 X56.0993 Y8.2663
G01 X56.0342 Y8.1786
G01 X55.9781 Y8.0849
G01 X55.9314 Y7.9861
G01 X55.8945 Y7.8832
G01 X55.8680 Y7.7772
G01 X55.8523 Y7.6719
G01 X55.8516 Y7.6636
G01 X55.8466 Y7.5600
G01 X55.8516 Y7.4564
G01 X55.8526 Y7.4453
G01 X55.8680 Y7.3428
G01 X55.8931 Y7.2422
G01 X55.8963 Y7.2315
G01 X55.9303 Y7.1365
G01 X55.9336 Y7.1288
G01 X55.9781 Y7.0351
G01 X56.0313 Y6.9461
G01 X56.0358 Y6.9391
G01 X56.0959 Y6.8581
G01 X56.1011 Y6.8515
G01 X56.1708 Y6.7747
G01 X56.1767 Y6.7689
G01 X56.2113 Y6.7376
G01 X56.2113 Y2.0540
G00 Z3.0000
G00 X61.2913 Y2.0540
G01 F60.00
G01 Z-0.0500
G01 F60.00
G01 X61.2454 Y2.0124
G01 X61.2394 Y2.0066
G01 X61.1706 Y1.9307
G01 X61.1652 Y1.9243
G01 X61.1009 Y1.8375
G01 X61.0467 Y1.7472
G01 X61.0427 Y1.7399
G01 X60.9966 Y1.6422
G01 X60.9592 Y1.5378
G01 X60.9323 Y1.4303
G01 X60.9167 Y1.3262
G01 X60.9158 Y1.3179
G01 X60.9106 Y1.2100
G01 X60.9160 Y1.0993
G01 X60.9323 Y0.9897
G01 X60.9592 Y0.8822
G01 X60.9966 Y0.7778
G01 X61.0440 Y0.6776
G01 X61.1009 Y0.5825
G01 X61.1635 Y0.4979
G01 X61.1688 Y0.4914
G01 X61.2414 Y0.4114
G01 X61.3235 Y0.3370
G01 X61.4125 Y0.2709
G01 X61.5076 Y0.2140
G01 X61.6078 Y0.1666
G01 X61.7122 Y0.1292
G01 X61.8197 Y0.1023
G01 X61.9293 Y0.0860
G01 X62.0400 Y0.0806
G01 X62.1507 Y0.0860
G01 X62.2603 Y0.1023
G01 X62.3678 Y0.1292
G01 X62.4722 Y0.1666
G01 X62.5724 Y0.2140
G01 X62.6675 Y0.2709
G01 X62.7521 Y0.3335
G01 X62.7586 Y0.3388
G01 X62.8386 Y0.4114
G01 X62.9130 Y0.4935
G01 X62.9791 Y0.5825
G01 X63.0333 Y0.6728
G01 X63.0385 Y0.6826
G01 X63.0834 Y0.7778
G01 X63.1190 Y0.8769
G01 X63.1223 Y0.8875
G01 X63.1465 Y0.9842
G01 X63.1487 Y0.9951
G01 X63.1640 Y1.0993
G01 X63.1694 Y1.2072
G01 X63.1693 Y1.2156
G01 X63.1640 Y1.3207
G01 X63.1477 Y1.4303
G01 X63.1208 Y1.5378
G01 X63.0854 Y1.6370
G01 X63.0823 Y1.6448
G01 X63.0360 Y1.7424
G01 X62.9820 Y1.8328
G01 X62.9775 Y1.8398
G01 X62.9165 Y1.9221
G01 X62.9112 Y1.9286
G01 X62.8386 Y2.0086
G01 X62.7887 Y2.0540
G01 X62.7887 Y17.3722
G01 X62.8349 Y17.4233
G01 X62.8950 Y17.5043
G01 X62.9468 Y17.5909
G01 X62.9889 Y17.6795
G01 X62.9920 Y17.6873
G01 X63.0222 Y17.7718
G01 X63.0255 Y17.7825
G01 X63.0485 Y17.8750
G01 X63.0633 Y17.9748
G01 X63.0683 Y18.0756
G01 X63.0682 Y19.9072
G01 X63.0633 Y20.0052
G01 X63.0485 Y20.1050
G01 X63.0240 Y20.2029
G01 X62.9900 Y20.2979
G01 X62.9468 Y20.3891
G01 X62.8950 Y20.4757
G01 X62.8349 Y20.5567
G01 X62.7671 Y20.6315
G01 X62.6923 Y20.6993
G01 X62.6113 Y20.7594
G01 X62.5247 Y20.8112
G01 X62.4335 Y20.8544
G01 X62.3385 Y20.8884
G01 X62.2406 Y20.9129
G01 X62.1408 Y20.9277
G01 X62.0456 Y20.9325
G01 X62.0344 Y20.9325
G01 X61.9392 Y20.9277
G01 X61.8394 Y20.9129
G01 X61.7415 Y20.8884
G01 X61.6465 Y20.8544
G01 X61.5553 Y20.8112
G01 X61.4687 Y20.7594
G01 X61.3877 Y20.6993
G01 X61.3129 Y20.6315
G01 X61.2451 Y20.5567
G01 X61.1850 Y20.4757
G01 X61.1332 Y20.3891
G01 X61.0900 Y20.2979
G01 X61.0560 Y20.2029
G01 X61.0315 Y20.1050
G01 X61.0167 Y20.0052
G01 X61.0119 Y19.9100
G01 X61.0117 Y18.0756
G01 X61.0167 Y17.9748
G01 X61.0315 Y17.8750
G01 X61.0545 Y17.7825
G01 X61.0578 Y17.7718
G01 X61.0880 Y17.6873
G01 X61.0911 Y17.6795
G01 X61.1332 Y17.5909
G01 X61.1850 Y17.5043
G01 X61.2451 Y17.4233
G01 X61.2913 Y17.3722
G01 X61.2913 Y2.0540
G00 Z3.0000
G00 X66.3713 Y2.0540
G01 F60.00
G01 Z-0.0500
G01 F60.00
G01 X66.3254 Y2.0124
G01 X66.3194 Y2.0066
G01 X66.2506 Y1.9307
G01 X66.2452 Y1.9243
G01 X66.1809 Y1.8375
G01 X66.1267 Y1.7472
G01 X66.1227 Y1.7399
G01 X66.0766 Y1.6422
G01 X66.0392 Y1.5378
G01 X66.0123 Y1.4303
G01 X65.9967 Y1.3262
G01 X65.9958 Y1.3179
G01 X65.9906 Y1.2100
G01 X65.9960 Y1.0993
G01 X66.0123 Y0.9897
G01 X66.0392 Y0.8822
G01 X66.0766 Y0.7778
G01 X66.1240 Y0.6776
G01 X66.1809 Y0.5825
G01 X66.2435 Y0.4979
G01 X66.2488 Y0.4914
G01 X66.3214 Y0.4114
G01 X66.4035 Y0.3370
G01 X66.4925 Y0.2709
G01 X66.5876 Y0.2140
G01 X66.6878 Y0.1666
G01 X66.7922 Y0.1292
G01 X66.8997 Y0.1023
G01 X67.0093 Y0.0860
G01 X67.1200 Y0.0806
G01 X67.2307 Y0.0860
G01 X67.3403 Y0.1023
G01 X67.4478 Y0.1292
G01 X67.5522 Y0.1666
G01 X67.6524 Y0.2140
G01 X67.7475 Y0.2709
G01 X67.8321 Y0.3335
G01 X67.8386 Y0.3388
G01 X67.9186 Y0.4114
G01 X67.9930 Y0.4935
G01 X68.0591 Y0.5825
G01 X68.1133 Y0.6728
G01 X68.1185 Y0.6826
G01 X68.1634 Y0.7778
G01 X68.1990 Y0.8769
G01 X68.2023 Y0.8875
G01 X68.2265 Y0.9842
G01 X68.2287 Y0.9951
G01 X68.2440 Y1.0993
G01 X68.2494 Y1.2072
G01 X68.2493 Y1.2156
G01 X68.2440 Y1.3207
G01 X68.2277 Y1.4303
G01 X68.2008 Y1.5378
G01 X68.1654 Y1.6370
G01 X68.1623 Y1.6448
G01 X68.1160 Y1.7424
G01 X68.0620 Y1.8328
G01 X68.0575 Y1.8398
G01 X67.9965 Y1.9221
G01 X67.9912 Y1.9286
G01 X67.9186 Y2.0086
G01 X67.8687 Y2.0540
G01 X67.8687 Y19.4376
G01 X67.9033 Y19.4689
G01 X67.9092 Y19.4747
G01 X67.9789 Y19.5515
G01 X67.9841 Y19.5581
G01 X68.0442 Y19.6391
G01 X68.0487 Y19.6461
G01 X68.1019 Y19.7351
G01 X68.1476 Y19.8314
G01 X68.1507 Y19.8391
G01 X68.1855 Y19.9368
G01 X68.2120 Y20.0428
G01 X68.2280 Y20.1509
G01 X68.2333 Y20.2544
G01 X68.2334 Y20.2628
G01 X68.2280 Y20.3691
G01 X68.2120 Y20.4772
G01 X68.1855 Y20.5832
G01 X68.1486 Y20.6861
G01 X68.1019 Y20.7849
G01 X68.0458 Y20.8786
G01 X67.9807 Y20.9663
G01 X67.9073 Y21.0473
G01 X67.8263 Y21.1207
G01 X67.7386 Y21.1858
G01 X67.6449 Y21.2419
G01 X67.5461 Y21.2886
G01 X67.4432 Y21.3255
G01 X67.3372 Y21.3520
G01 X67.2291 Y21.3680
G01 X67.1256 Y21.3733
G01 X67.1144 Y21.3733
G01 X67.0109 Y21.3680
G01 X66.9028 Y21.3520
G01 X66.7968 Y21.3255
G01 X66.6939 Y21.2886
G01 X66.5951 Y21.2419
G01 X66.5014 Y21.1858
G01 X66.4137 Y21.1207
G01 X66.3327 Y21.0473
G01 X66.2593 Y20.9663
G01 X66.1942 Y20.8786
G01 X66.1381 Y20.7849
G01 X66.0914 Y20.6861
G01 X66.0545 Y20.5832
G01 X66.0280 Y20.4772
G01 X66.0120 Y20.3691
G01 X66.0067 Y20.2656
G01 X66.0067 Y20.2544
G01 X66.0120 Y20.1509
G01 X66.0280 Y20.0428
G01 X66.0545 Y19.9368
G01 X66.0893 Y19.8391
G01 X66.0924 Y19.8314
G01 X66.1381 Y19.7351
G01 X66.1913 Y19.6461
G01 X66.1958 Y19.6391
G01 X66.2559 Y19.5581
G01 X66.2611 Y19.5515
G01 X66.3308 Y19.4747
G01 X66.3367 Y19.4689
G01 X66.3713 Y19.4376
G01 X66.3713 Y2.0540
G00 Z3.0000
G00 X56.2113 Y14.7324
G01 F60.00
G01 Z-0.0500
G01 F60.00
G01 X56.1767 Y14.7011
G01 X56.1708 Y14.6953
G01 X56.1011 Y14.6185
G01 X56.0959 Y14.6119
G01 X56.0358 Y14.5309
G01 X56.0313 Y14.5239
G01 X55.9781 Y14.4349
G01 X55.9324 Y14.3386
G01 X55.9293 Y14.3309
G01 X55.8945 Y14.2332
G01 X55.8680 Y14.1272
G01 X55.8520 Y14.0191
G01 X55.8466 Y13.9128
G01 X55.8467 Y13.9044
G01 X55.8520 Y13.8009
G01 X55.8680 Y13.6928
G01 X55.8945 Y13.5868
G01 X55.9314 Y13.4839
G01 X55.9781 Y13.3851
G01 X56.0342 Y13.2914
G01 X56.0993 Y13.2037
G01 X56.1708 Y13.1247
G01 X56.1767 Y13.1189
G01 X56.2537 Y13.0493
G01 X56.3414 Y12.9842
G01 X56.4351 Y12.9281
G01 X56.5339 Y12.8814
G01 X56.6368 Y12.8445
G01 X56.7428 Y12.8180
G01 X56.8509 Y12.8020
G01 X56.9600 Y12.7966
G01 X57.0691 Y12.8020
G01 X57.1772 Y12.8180
G01 X57.2832 Y12.8445
G01 X57.3861 Y12.8814
G01 X57.4849 Y12.9281
G01 X57.5786 Y12.9842
G01 X57.6663 Y13.0493
G01 X57.7453 Y13.1208
G01 X57.7511 Y13.1267
G01 X57.8207 Y13.2037
G01 X57.8858 Y13.2914
G01 X57.9419 Y13.3851
G01 X57.9886 Y13.4839
G01 X58.0255 Y13.5868
G01 X58.0520 Y13.6928
G01 X58.0680 Y13.8009
G01 X58.0734 Y13.9072
G01 X58.0733 Y13.9156
G01 X58.0680 Y14.0191
G01 X58.0520 Y14.1272
G01 X58.0255 Y14.2332
G01 X57.9907 Y14.3309
G01 X57.9876 Y14.3386
G01 X57.9419 Y14.4349
G01 X57.8887 Y14.5239
G01 X57.8842 Y14.5309
G01 X57.8241 Y14.6119
G01 X57.8189 Y14.6185
G01 X57.7492 Y14.6953
G01 X57.7433 Y14.7011
G01 X57.7087 Y14.7324
G01 X57.7087 Y17.3722
G01 X57.7549 Y17.4233
G01 X57.8150 Y17.5043
G01 X57.8668 Y17.5909
G01 X57.9089 Y17.6795
G01 X57.9120 Y17.6873
G01 X57.9422 Y17.7718
G01 X57.9455 Y17.7825
G01 X57.9685 Y17.8750
G01 X57.9833 Y17.9748
G01 X57.9883 Y18.0756
G01 X57.9883 Y19.9044
G01 X57.9833 Y20.0052
G01 X57.9685 Y20.1050
G01 X57.9440 Y20.2029
G01 X57.9100 Y20.2979
G01 X57.8693 Y20.3841
G01 X57.8641 Y20.3940
G01 X57.8179 Y20.4710
G01 X57.8118 Y20.4802
G01 X57.7549 Y20.5567
G01 X57.6871 Y20.6315
G01 X57.6123 Y20.6993
G01 X57.5358 Y20.7562
G01 X57.5266 Y20.7623
G01 X57.4496 Y20.8085
G01 X57.4397 Y20.8137
G01 X57.3535 Y20.8544
G01 X57.2585 Y20.8884
G01 X57.1606 Y20.9129
G01 X57.0663 Y20.9270
G01 X57.0552 Y20.9281
G01 X56.9600 Y20.9327
G01 X56.8592 Y20.9277
G01 X56.7594 Y20.9129
G01 X56.6615 Y20.8884
G01 X56.5665 Y20.8544
G01 X56.4753 Y20.8112
G01 X56.3887 Y20.7594
G01 X56.3077 Y20.6993
G01 X56.2329 Y20.6315
G01 X56.1651 Y20.5567
G01 X56.1050 Y20.4757
G01 X56.0532 Y20.3891
G01 X56.0100 Y20.2979
G01 X55.9760 Y20.2029
G01 X55.9515 Y20.1050
G01 X55.9374 Y20.0107
G01 X55.9363 Y19.9996
G01 X55.9317 Y19.9044
G01 X55.9317 Y18.0756
G01 X55.9367 Y17.9748
G01 X55.9515 Y17.8750
G01 X55.9745 Y17.7825
G01 X55.9778 Y17.7718
G01 X56.0080 Y17.6873
G01 X56.0111 Y17.6795
G01 X56.0532 Y17.5909
G01 X56.1050 Y17.5043
G01 X56.1651 Y17.4233
G01 X56.2113 Y17.3722
G01 X56.2113 Y14.7324
G00 Z3.0000
G00 X51.1313 Y14.7324
G01 F60.00
G01 Z-0.0500
G01 F60.00
G01 X51.0967 Y14.7011
G01 X51.0908 Y14.6953
G01 X51.0211 Y14.6185
G01 X51.0159 Y14.6119
G01 X50.9558 Y14.5309
G01 X50.9513 Y14.5239
G01 X50.8981 Y14.4349
G01 X50.8524 Y14.3386
G01 X50.8493 Y14.3309
G01 X50.8145 Y14.2332
G01 X50.7880 Y14.1272
G01 X50.7720 Y14.0191
G01 X50.7666 Y13.9128
G01 X50.7667 Y13.9044
G01 X50.7720 Y13.8009
G01 X50.7880 Y13.6928
G01 X50.8145 Y13.5868
G01 X50.8514 Y13.4839
G01 X50.8981 Y13.3851
G01 X50.9542 Y13.2914
G01 X51.0193 Y13.2037
G01 X51.0908 Y13.1247
G01 X51.0967 Y13.1189
G01 X51.1737 Y13.0493
G01 X51.2614 Y12.9842
G01 X51.3551 Y12.9281
G01 X51.4539 Y12.8814
G01 X51.5568 Y12.8445
G01 X51.6628 Y12.8180
G01 X51.7709 Y12.8020
G01 X51.8800 Y12.7966
G01 X51.9891 Y12.8020
G01 X52.0972 Y12.8180
G01 X52.2032 Y12.8445
G01 X52.3061 Y12.8814
G01 X52.4049 Y12.9281
G01 X52.4986 Y12.9842
G01 X52.5863 Y13.0493
G01 X52.6653 Y13.1208
G01 X52.6711 Y13.1267
G01 X52.7407 Y13.2037
G01 X52.8058 Y13.2914
G01 X52.8619 Y13.3851
G01 X52.9086 Y13.4839
G01 X52.9455 Y13.5868
G01 X52.9720 Y13.6928
G01 X52.9880 Y13.8009
G01 X52.9934 Y13.9072
G01 X52.9933 Y13.9156
G01 X52.9880 Y14.0191
G01 X52.9720 Y14.1272
G01 X52.9455 Y14.2332
G01 X52.9107 Y14.3309
G01 X52.9076 Y14.3386
G01 X52.8619 Y14.4349
G01 X52.8087 Y14.5239
G01 X52.8042 Y14.5309
G01 X52.7441 Y14.6119
G01 X52.7389 Y14.6185
G01 X52.6692 Y14.6953
G01 X52.6633 Y14.7011
G01 X52.6287 Y14.7324
G01 X52.6287 Y17.3722
G01 X52.6749 Y17.4233
G01 X52.7350 Y17.5043
G01 X52.7868 Y17.5909
G01 X52.8289 Y17.6795
G01 X52.8320 Y17.6873
G01 X52.8622 Y17.7718
G01 X52.8655 Y17.7825
G01 X52.8885 Y17.8750
G01 X52.9033 Y17.9748
G01 X52.9083 Y18.0756
G01 X52.9083 Y19.9044
G01 X52.9033 Y20.0052
G01 X52.8885 Y20.1050
G01 X52.8640 Y20.2029
G01 X52.8300 Y20.2979
G01 X52.7893 Y20.3841
G01 X52.7841 Y20.3940
G01 X52.7379 Y20.4710
G01 X52.7318 Y20.4802
G01 X52.6749 Y20.5567
G01 X52.6071 Y20.6315
G01 X52.5323 Y20.6993
G01 X52.4558 Y20.7562
G01 X52.4466 Y20.7623
G01 X52.3696 Y20.8085
G01 X52.3597 Y20.8137
G01 X52.2735 Y20.8544
G01 X52.1785 Y20.8884
G01 X52.0806 Y20.9129
G01 X51.9863 Y20.9270
G01 X51.9752 Y20.9281
G01 X51.8800 Y20.9327
G01 X51.7792 Y20.9277
G01 X51.6794 Y20.9129
G01 X51.5815 Y20.8884
G01 X51.4865 Y20.8544
G01 X51.3953 Y20.8112
G01 X51.3087 Y20.7594
G01 X51.2277 Y20.6993
G01 X51.1529 Y20.6315
G01 X51.0851 Y20.5567
G01 X51.0250 Y20.4757
G01 X50.9732 Y20.3891
G01 X50.9300 Y20.2979
G01 X50.8960 Y20.2029
G01 X50.8715 Y20.1050
G01 X50.8574 Y20.0107
G01 X50.8563 Y19.9996
G01 X50.8517 Y19.9044
G01 X50.8517 Y18.0756
G01 X50.8567 Y17.9748
G01 X50.8715 Y17.8750
G01 X50.8945 Y17.7825
G01 X50.8978 Y17.7718
G01 X50.9280 Y17.6873
G01 X50.9311 Y17.6795
G01 X50.9732 Y17.5909
G01 X51.0250 Y17.5043
G01 X51.0851 Y17.4233
G01 X51.1313 Y17.3722
G01 X51.1313 Y14.7324
G00 Z3.0000
G00 X53.3917 Y19.9044
G01 F60.00
G01 Z-0.0500
G01 F60.00
G01 X53.3917 Y18.0756
G01 X53.3967 Y17.9748
G01 X53.4115 Y17.8750
G01 X53.4345 Y17.7825
G01 X53.4378 Y17.7718
G01 X53.4680 Y17.6873
G01 X53.4711 Y17.6795
G01 X53.5132 Y17.5909
G01 X53.5650 Y17.5043
G01 X53.6251 Y17.4233
G01 X53.6713 Y17.3722
G01 X53.6713 Y14.7324
G01 X53.6367 Y14.7011
G01 X53.6308 Y14.6953
G01 X53.5611 Y14.6185
G01 X53.5559 Y14.6119
G01 X53.4974 Y14.5331
G01 X53.4927 Y14.5262
G01 X53.4381 Y14.4349
G01 X53.3936 Y14.3412
G01 X53.3893 Y14.3309
G01 X53.3554 Y14.2359
G01 X53.3531 Y14.2278
G01 X53.3280 Y14.1272
G01 X53.3126 Y14.0247
G01 X53.3116 Y14.0136
G01 X53.3066 Y13.9100
G01 X53.3116 Y13.8064
G01 X53.3126 Y13.7953
G01 X53.3275 Y13.6955
G01 X53.3292 Y13.6874
G01 X53.3545 Y13.5868
G01 X53.3914 Y13.4839
G01 X53.4381 Y13.3851
G01 X53.4942 Y13.2914
G01 X53.5593 Y13.2037
G01 X53.6327 Y13.1227
G01 X53.7137 Y13.0493
G01 X53.8014 Y12.9842
G01 X53.8951 Y12.9281
G01 X53.9939 Y12.8814
G01 X54.0968 Y12.8445
G01 X54.2028 Y12.8180
G01 X54.3109 Y12.8020
G01 X54.4200 Y12.7966
G01 X54.5291 Y12.8020
G01 X54.6345 Y12.8175
G01 X54.6426 Y12.8192
G01 X54.7378 Y12.8431
G01 X54.7485 Y12.8463
G01 X54.8461 Y12.8814
G01 X54.9449 Y12.9281
G01 X55.0386 Y12.9842
G01 X55.1219 Y13.0459
G01 X55.1305 Y13.0530
G01 X55.2033 Y13.1189
G01 X55.2111 Y13.1267
G01 X55.2807 Y13.2037
G01 X55.3458 Y13.2914
G01 X55.4019 Y13.3851
G01 X55.4464 Y13.4788
G01 X55.4507 Y13.4891
G01 X55.4837 Y13.5815
G01 X55.4869 Y13.5922
G01 X55.5120 Y13.6928
G01 X55.5280 Y13.8009
G01 X55.5334 Y13.9100
G01 X55.5284 Y14.0136
G01 X55.5274 Y14.0247
G01 X55.5120 Y14.1272
G01 X55.4869 Y14.2278
G01 X55.4837 Y14.2385
G01 X55.4497 Y14.3335
G01 X55.4464 Y14.3412
G01 X55.4019 Y14.4349
G01 X55.3487 Y14.5239
G01 X55.3442 Y14.5309
G01 X55.2841 Y14.6119
G01 X55.2789 Y14.6185
G01 X55.2092 Y14.6953
G01 X55.2033 Y14.7011
G01 X55.1687 Y14.7324
G01 X55.1687 Y17.3722
G01 X55.2149 Y17.4233
G01 X55.2750 Y17.5043
G01 X55.3268 Y17.5909
G01 X55.3689 Y17.6795
G01 X55.3720 Y17.6873
G01 X55.4022 Y17.7718
G01 X55.4055 Y17.7825
G01 X55.4285 Y17.8750
G01 X55.4433 Y17.9748
G01 X55.4483 Y18.0756
G01 X55.4483 Y19.9044
G01 X55.4433 Y20.0052
G01 X55.4290 Y20.1023
G01 X55.4273 Y20.1104
G01 X55.4040 Y20.2029
G01 X55.3700 Y20.2979
G01 X55.3268 Y20.3891
G01 X55.2779 Y20.4710
G01 X55.2718 Y20.4802
G01 X55.2183 Y20.5523
G01 X55.2112 Y20.5609
G01 X55.1471 Y20.6315
G01 X55.0765 Y20.6956
G01 X55.0679 Y20.7027
G01 X54.9913 Y20.7594
G01 X54.9047 Y20.8112
G01 X54.8135 Y20.8544
G01 X54.7185 Y20.8884
G01 X54.6206 Y20.9129
G01 X54.5208 Y20.9277
G01 X54.4200 Y20.9327
G01 X54.3192 Y20.9277
G01 X54.2194 Y20.9129
G01 X54.1215 Y20.8884
G01 X54.0265 Y20.8544
G01 X53.9353 Y20.8112
G01 X53.8487 Y20.7594
G01 X53.7677 Y20.6993
G01 X53.6929 Y20.6315
G01 X53.6288 Y20.5609
G01 X53.6217 Y20.5523
G01 X53.5682 Y20.4802
G01 X53.5621 Y20.4710
G01 X53.5132 Y20.3891
G01 X53.4723 Y20.3030
G01 X53.4680 Y20.2927
G01 X53.4360 Y20.2029
G01 X53.4115 Y20.1050
G01 X53.3967 Y20.0052
G01 X53.3917 Y19.9044
G00 Z3.0000
G00 X58.4717 Y19.9044
G01 F60.00
G01 Z-0.0500
G01 F60.00
G01 X58.4717 Y18.0756
G01 X58.4767 Y17.9748
G01 X58.4915 Y17.8750
G01 X58.5145 Y17.7825
G01 X58.5178 Y17.7718
G01 X58.5480 Y17.6873
G01 X58.5511 Y17.6795
G01 X58.5932 Y17.5909
G01 X58.6450 Y17.5043
G01 X58.7051 Y17.4233
G01 X58.7513 Y17.3722
G01 X58.7513 Y2.0540
G01 X58.7014 Y2.0086
G01 X58.6288 Y1.9286
G01 X58.6235 Y1.9221
G01 X58.5625 Y1.8398
G01 X58.5580 Y1.8328
G01 X58.5040 Y1.7424
G01 X58.4588 Y1.6473
G01 X58.4555 Y1.6396
G01 X58.4192 Y1.5378
G01 X58.3935 Y1.4358
G01 X58.3913 Y1.4249
G01 X58.3767 Y1.3262
G01 X58.3756 Y1.3151
G01 X58.3706 Y1.2100
G01 X58.3756 Y1.1049
G01 X58.3767 Y1.0938
G01 X58.3923 Y0.9897
G01 X58.4192 Y0.8822
G01 X58.4566 Y0.7778
G01 X58.5040 Y0.6776
G01 X58.5609 Y0.5825
G01 X58.6270 Y0.4935
G01 X58.7014 Y0.4114
G01 X58.7835 Y0.3370
G01 X58.8725 Y0.2709
G01 X58.9676 Y0.2140
G01 X59.0678 Y0.1666
G01 X59.1722 Y0.1292
G01 X59.2797 Y0.1023
G01 X59.3893 Y0.0860
G01 X59.5000 Y0.0806
G01 X59.6051 Y0.0856
G01 X59.6162 Y0.0867
G01 X59.7203 Y0.1023
G01 X59.8278 Y0.1292
G01 X59.9322 Y0.1666
G01 X60.0274 Y0.2115
G01 X60.0372 Y0.2167
G01 X60.1228 Y0.2680
G01 X60.1320 Y0.2741
G01 X60.2165 Y0.3370
G01 X60.2946 Y0.4076
G01 X60.3024 Y0.4154
G01 X60.3730 Y0.4935
G01 X60.4391 Y0.5825
G01 X60.4960 Y0.6776
G01 X60.5434 Y0.7778
G01 X60.5808 Y0.8822
G01 X60.6077 Y0.9897
G01 X60.6240 Y1.0993
G01 X60.6293 Y1.2044
G01 X60.6293 Y1.2156
G01 X60.6240 Y1.3207
G01 X60.6077 Y1.4303
G01 X60.5808 Y1.5378
G01 X60.5454 Y1.6370
G01 X60.5423 Y1.6448
G01 X60.4960 Y1.7424
G01 X60.4420 Y1.8328
G01 X60.4375 Y1.8398
G01 X60.3765 Y1.9221
G01 X60.3712 Y1.9286
G01 X60.2986 Y2.0086
G01 X60.2487 Y2.0540
G01 X60.2487 Y17.3722
G01 X60.2949 Y17.4233
G01 X60.3550 Y17.5043
G01 X60.4068 Y17.5909
G01 X60.4489 Y17.6795
G01 X60.4520 Y17.6873
G01 X60.4822 Y17.7718
G01 X60.4855 Y17.7825
G01 X60.5085 Y17.8750
G01 X60.5233 Y17.9748
G01 X60.5283 Y18.0756
G01 X60.5283 Y19.9044
G01 X60.5237 Y19.9996
G01 X60.5226 Y20.0107
G01 X60.5085 Y20.1050
G01 X60.4840 Y20.2029
G01 X60.4500 Y20.2979
G01 X60.4093 Y20.3841
G01 X60.4041 Y20.3940
G01 X60.3579 Y20.4710
G01 X60.3518 Y20.4802
G01 X60.2949 Y20.5567
G01 X60.2309 Y20.6275
G01 X60.2231 Y20.6353
G01 X60.1523 Y20.6993
G01 X60.0713 Y20.7594
G01 X59.9847 Y20.8112
G01 X59.8935 Y20.8544
G01 X59.7985 Y20.8884
G01 X59.7006 Y20.9129
G01 X59.6008 Y20.9277
G01 X59.5056 Y20.9325
G01 X59.4944 Y20.9325
G01 X59.3992 Y20.9277
G01 X59.2994 Y20.9129
G01 X59.2015 Y20.8884
G01 X59.1065 Y20.8544
G01 X59.0153 Y20.8112
G01 X58.9287 Y20.7594
G01 X58.8477 Y20.6993
G01 X58.7729 Y20.6315
G01 X58.7051 Y20.5567
G01 X58.6450 Y20.4757
G01 X58.5932 Y20.3891
G01 X58.5500 Y20.2979
G01 X58.5160 Y20.2029
G01 X58.4915 Y20.1050
G01 X58.4767 Y20.0052
G01 X58.4717 Y19.9044
G00 Z3.0000
G00 X48.3117 Y19.9044
G01 F60.00
G01 Z-0.0500
G01 F60.00
G01 X48.3117 Y18.0756
G01 X48.3167 Y17.9748
G01 X48.3315 Y17.8750
G01 X48.3545 Y17.7825
G01 X48.3578 Y17.7718
G01 X48.3880 Y17.6873
G01 X48.3911 Y17.6795
G01 X48.4332 Y17.5909
G01 X48.4850 Y17.5043
G01 X48.5451 Y17.4233
G01 X48.5913 Y17.3722
G01 X48.5913 Y2.0540
G01 X48.5414 Y2.0086
G01 X48.4688 Y1.9286
G01 X48.4635 Y1.9221
G01 X48.4025 Y1.8398
G01 X48.3980 Y1.8328
G01 X48.3440 Y1.7424
G01 X48.2988 Y1.6473
G01 X48.2955 Y1.6396
G01 X48.2592 Y1.5378
G01 X48.2335 Y1.4358
G01 X48.2313 Y1.4249
G01 X48.2167 Y1.3262
G01 X48.2156 Y1.3151
G01 X48.2106 Y1.2100
G01 X48.2156 Y1.1049
G01 X48.2167 Y1.0938
G01 X48.2323 Y0.9897
G01 X48.2592 Y0.8822
G01 X48.2966 Y0.7778
G01 X48.3440 Y0.6776
G01 X48.4009 Y0.5825
G01 X48.4670 Y0.4935
G01 X48.5414 Y0.4114
G01 X48.6235 Y0.3370
G01 X48.7125 Y0.2709
G01 X48.8076 Y0.2140
G01 X48.9078 Y0.1666
G01 X49.0122 Y0.1292
G01 X49.1197 Y0.1023
G01 X49.2293 Y0.0860
G01 X49.3400 Y0.0806
G01 X49.4451 Y0.0856
G01 X49.4562 Y0.0867
G01 X49.5603 Y0.1023
G01 X49.6678 Y0.1292
G01 X49.7722 Y0.1666
G01 X49.8674 Y0.2115
G01 X49.8772 Y0.2167
G01 X49.9628 Y0.2680
G01 X49.9720 Y0.2741
G01 X50.0565 Y0.3370
G01 X50.1346 Y0.4076
G01 X50.1424 Y0.4154
G01 X50.2130 Y0.4935
G01 X50.2791 Y0.5825
G01 X50.3360 Y0.6776
G01 X50.3834 Y0.7778
G01 X50.4208 Y0.8822
G01 X50.4477 Y0.9897
G01 X50.4640 Y1.0993
G01 X50.4693 Y1.2044
G01 X50.4693 Y1.2156
G01 X50.4640 Y1.3207
G01 X50.4477 Y1.4303
G01 X50.4208 Y1.5378
G01 X50.3854 Y1.6370
G01 X50.3823 Y1.6448
G01 X50.3360 Y1.7424
G01 X50.2820 Y1.8328
G01 X50.2775 Y1.8398
G01 X50.2165 Y1.9221
G01 X50.2112 Y1.9286
G01 X50.1386 Y2.0086
G01 X50.0887 Y2.0540
G01 X50.0887 Y17.3722
G01 X50.1349 Y17.4233
G01 X50.1950 Y17.5043
G01 X50.2468 Y17.5909
G01 X50.2889 Y17.6795
G01 X50.2920 Y17.6873
G01 X50.3222 Y17.7718
G01 X50.3255 Y17.7825
G01 X50.3485 Y17.8750
G01 X50.3633 Y17.9748
G01 X50.3683 Y18.0756
G01 X50.3683 Y19.9044
G01 X50.3637 Y19.9996
G01 X50.3626 Y20.0107
G01 X50.3485 Y20.1050
G01 X50.3240 Y20.2029
G01 X50.2900 Y20.2979
G01 X50.2493 Y20.3841
G01 X50.2441 Y20.3940
G01 X50.1950 Y20.4757
G01 X50.1383 Y20.5523
G01 X50.1312 Y20.5609
G01 X50.0709 Y20.6275
G01 X50.0631 Y20.6353
G01 X49.9923 Y20.6993
G01 X49.9113 Y20.7594
G01 X49.8247 Y20.8112
G01 X49.7335 Y20.8544
G01 X49.6385 Y20.8884
G01 X49.5406 Y20.9129
G01 X49.4408 Y20.9277
G01 X49.3456 Y20.9325
G01 X49.3344 Y20.9325
G01 X49.2392 Y20.9277
G01 X49.1394 Y20.9129
G01 X49.0415 Y20.8884
G01 X48.9465 Y20.8544
G01 X48.8553 Y20.8112
G01 X48.7687 Y20.7594
G01 X48.6877 Y20.6993
G01 X48.6129 Y20.6315
G01 X48.5451 Y20.5567
G01 X48.4850 Y20.4757
G01 X48.4332 Y20.3891
G01 X48.3900 Y20.2979
G01 X48.3560 Y20.2029
G01 X48.3315 Y20.1050
G01 X48.3167 Y20.0052
G01 X48.3117 Y19.9044
G00 Z3.0000
G00 X43.2317 Y19.9044
G01 F60.00
G01 Z-0.0500
G01 F60.00
G01 X43.2317 Y18.0756
G01 X43.2367 Y17.9748
G01 X43.2515 Y17.8750
G01 X43.2745 Y17.7825
G01 X43.2778 Y17.7718
G01 X43.3080 Y17.6873
G01 X43.3111 Y17.6795
G01 X43.3532 Y17.5909
G01 X43.4050 Y17.5043
G01 X43.4651 Y17.4233
G01 X43.5113 Y17.3722
G01 X43.5113 Y14.7324
G01 X43.4767 Y14.7011
G01 X43.4708 Y14.6953
G01 X43.4011 Y14.6185
G01 X43.3959 Y14.6119
G01 X43.3374 Y14.5331
G01 X43.3327 Y14.5262
G01 X43.2781 Y14.4349
G01 X43.2336 Y14.3412
G01 X43.2293 Y14.3309
G01 X43.1954 Y14.2359
G01 X43.1931 Y14.2278
G01 X43.1680 Y14.1272
G01 X43.1526 Y14.0247
G01 X43.1516 Y14.0136
G01 X43.1466 Y13.9100
G01 X43.1516 Y13.8064
G01 X43.1526 Y13.7953
G01 X43.1675 Y13.6955
G01 X43.1692 Y13.6874
G01 X43.1945 Y13.5868
G01 X43.2314 Y13.4839
G01 X43.2781 Y13.3851
G01 X43.3342 Y13.2914
G01 X43.3993 Y13.2037
G01 X43.4727 Y13.1227
G01 X43.5537 Y13.0493
G01 X43.6414 Y12.9842
G01 X43.7351 Y12.9281
G01 X43.8339 Y12.8814
G01 X43.9368 Y12.8445
G01 X44.0428 Y12.8180
G01 X44.1509 Y12.8020
G01 X44.2600 Y12.7966
G01 X44.3691 Y12.8020
G01 X44.4745 Y12.8175
G01 X44.4826 Y12.8192
G01 X44.5778 Y12.8431
G01 X44.5885 Y12.8463
G01 X44.6861 Y12.8814
G01 X44.7849 Y12.9281
G01 X44.8786 Y12.9842
G01 X44.9619 Y13.0459
G01 X44.9705 Y13.0530
G01 X45.0433 Y13.1189
G01 X45.0511 Y13.1267
G01 X45.1207 Y13.2037
G01 X45.1858 Y13.2914
G01 X45.2419 Y13.3851
G01 X45.2864 Y13.4788
G01 X45.2907 Y13.4891
G01 X45.3237 Y13.5815
G01 X45.3269 Y13.5922
G01 X45.3520 Y13.6928
G01 X45.3680 Y13.8009
G01 X45.3734 Y13.9100
G01 X45.3684 Y14.0136
G01 X45.3674 Y14.0247
G01 X45.3520 Y14.1272
G01 X45.3269 Y14.2278
G01 X45.3237 Y14.2385
G01 X45.2897 Y14.3335
G01 X45.2864 Y14.3412
G01 X45.2419 Y14.4349
G01 X45.1887 Y14.5239
G01 X45.1842 Y14.5309
G01 X45.1241 Y14.6119
G01 X45.1189 Y14.6185
G01 X45.0492 Y14.6953
G01 X45.0433 Y14.7011
G01 X45.0087 Y14.7324
G01 X45.0087 Y17.3722
G01 X45.0549 Y17.4233
G01 X45.1150 Y17.5043
G01 X45.1668 Y17.5909
G01 X45.2089 Y17.6795
G01 X45.2120 Y17.6873
G01 X45.2422 Y17.7718
G01 X45.2455 Y17.7825
G01 X45.2685 Y17.8750
G01 X45.2833 Y17.9748
G01 X45.2883 Y18.0756
G01 X45.2883 Y19.9044
G01 X45.2833 Y20.0052
G01 X45.2690 Y20.1023
G01 X45.2673 Y20.1104
G01 X45.2440 Y20.2029
G01 X45.2100 Y20.2979
G01 X45.1668 Y20.3891
G01 X45.1179 Y20.4710
G01 X45.1118 Y20.4802
G01 X45.0583 Y20.5523
G01 X45.0512 Y20.5609
G01 X44.9871 Y20.6315
G01 X44.9165 Y20.6956
G01 X44.9079 Y20.7027
G01 X44.8313 Y20.7594
G01 X44.7447 Y20.8112
G01 X44.6535 Y20.8544
G01 X44.5585 Y20.8884
G01 X44.4606 Y20.9129
G01 X44.3608 Y20.9277
G01 X44.2600 Y20.9327
G01 X44.1592 Y20.9277
G01 X44.0594 Y20.9129
G01 X43.9615 Y20.8884
G01 X43.8665 Y20.8544
G01 X43.7753 Y20.8112
G01 X43.6887 Y20.7594
G01 X43.6077 Y20.6993
G01 X43.5329 Y20.6315
G01 X43.4688 Y20.5609
G01 X43.4617 Y20.5523
G01 X43.4082 Y20.4802
G01 X43.4021 Y20.4710
G01 X43.3532 Y20.3891
G01 X43.3123 Y20.3030
G01 X43.3080 Y20.2927
G01 X43.2760 Y20.2029
G01 X43.2515 Y20.1050
G01 X43.2367 Y20.0052
G01 X43.2317 Y19.9044
G00 Z3.0000
G00 X38.1517 Y19.9044
G01 F60.00
G01 Z-0.0500
G01 F60.00
G01 X38.1517 Y18.0756
G01 X38.1567 Y17.9748
G01 X38.1715 Y17.8750
G01 X38.1945 Y17.7825
G01 X38.1978 Y17.7718
G01 X38.2280 Y17.6873
G01 X38.2311 Y17.6795
G01 X38.2732 Y17.5909
G01 X38.3250 Y17.5043
G01 X38.3851 Y17.4233
G01 X38.4313 Y17.3722
G01 X38.4313 Y2.0540
G01 X38.3814 Y2.0086
G01 X38.3088 Y1.9286
G01 X38.3035 Y1.9221
G01 X38.2425 Y1.8398
G01 X38.2380 Y1.8328
G01 X38.1840 Y1.7424
G01 X38.1388 Y1.6473
G01 X38.1355 Y1.6396
G01 X38.0992 Y1.5378
G01 X38.0735 Y1.4358
G01 X38.0713 Y1.4249
G01 X38.0567 Y1.3262
G01 X38.0556 Y1.3151
G01 X38.0506 Y1.2100
G01 X38.0556 Y1.1049
G01 X38.0567 Y1.0938
G01 X38.0723 Y0.9897
G01 X38.0992 Y0.8822
G01 X38.1366 Y0.7778
G01 X38.1840 Y0.6776
G01 X38.2409 Y0.5825
G01 X38.3070 Y0.4935
G01 X38.3814 Y0.4114
G01 X38.4635 Y0.3370
G01 X38.5525 Y0.2709
G01 X38.6476 Y0.2140
G01 X38.7478 Y0.1666
G01 X38.8522 Y0.1292
G01 X38.9597 Y0.1023
G01 X39.0693 Y0.0860
G01 X39.1800 Y0.0806
G01 X39.2851 Y0.0856
G01 X39.2962 Y0.0867
G01 X39.4003 Y0.1023
G01 X39.5078 Y0.1292
G01 X39.6122 Y0.1666
G01 X39.7074 Y0.2115
G01 X39.7172 Y0.2167
G01 X39.8028 Y0.2680
G01 X39.8120 Y0.2741
G01 X39.8965 Y0.3370
G01 X39.9746 Y0.4076
G01 X39.9824 Y0.4154
G01 X40.0530 Y0.4935
G01 X40.1191 Y0.5825
G01 X40.1760 Y0.6776
G01 X40.2234 Y0.7778
G01 X40.2608 Y0.8822
G01 X40.2877 Y0.9897
G01 X40.3040 Y1.0993
G01 X40.3093 Y1.2044
G01 X40.3093 Y1.2156
G01 X40.3040 Y1.3207
G01 X40.2877 Y1.4303
G01 X40.2608 Y1.5378
G01 X40.2254 Y1.6370
G01 X40.2223 Y1.6448
G01 X40.1760 Y1.7424
G01 X40.1220 Y1.8328
G01 X40.1175 Y1.8398
G01 X40.0565 Y1.9221
G01 X40.0512 Y1.9286
G01 X39.9786 Y2.0086
G01 X39.9287 Y2.0540
G01 X39.9287 Y17.3722
G01 X39.9749 Y17.4233
G01 X40.0350 Y17.5043
G01 X40.0868 Y17.5909
G01 X40.1289 Y17.6795
G01 X40.1320 Y17.6873
G01 X40.1622 Y17.7718
G01 X40.1655 Y17.7825
G01 X40.1885 Y17.8750
G01 X40.2033 Y17.9748
G01 X40.2083 Y18.0756
G01 X40.2083 Y19.9044
G01 X40.2037 Y19.9996
G01 X40.2026 Y20.0107
G01 X40.1885 Y20.1050
G01 X40.1640 Y20.2029
G01 X40.1300 Y20.2979
G01 X40.0893 Y20.3841
G01 X40.0841 Y20.3940
G01 X40.0350 Y20.4757
G01 X39.9783 Y20.5523
G01 X39.9712 Y20.5609
G01 X39.9109 Y20.6275
G01 X39.9031 Y20.6353
G01 X39.8323 Y20.6993
G01 X39.7513 Y20.7594
G01 X39.6647 Y20.8112
G01 X39.5735 Y20.8544
G01 X39.4785 Y20.8884
G01 X39.3806 Y20.9129
G01 X39.2808 Y20.9277
G01 X39.1856 Y20.9325
G01 X39.1744 Y20.9325
G01 X39.0792 Y20.9277
G01 X38.9794 Y20.9129
G01 X38.8815 Y20.8884
G01 X38.7865 Y20.8544
G01 X38.6953 Y20.8112
G01 X38.6087 Y20.7594
G01 X38.5277 Y20.6993
G01 X38.4529 Y20.6315
G01 X38.3851 Y20.5567
G01 X38.3250 Y20.4757
G01 X38.2732 Y20.3891
G01 X38.2300 Y20.2979
G01 X38.1960 Y20.2029
G01 X38.1715 Y20.1050
G01 X38.1567 Y20.0052
G01 X38.1517 Y19.9044
G00 Z3.0000
G00 X33.0717 Y19.9044
G01 F60.00
G01 Z-0.0500
G01 F60.00
G01 X33.0717 Y18.0756
G01 X33.0767 Y17.9748
G01 X33.0915 Y17.8750
G01 X33.1145 Y17.7825
G01 X33.1178 Y17.7718
G01 X33.1480 Y17.6873
G01 X33.1511 Y17.6795
G01 X33.1932 Y17.5909
G01 X33.2450 Y17.5043
G01 X33.3051 Y17.4233
G01 X33.3513 Y17.3722
G01 X33.3513 Y2.0540
G01 X33.3014 Y2.0086
G01 X33.2288 Y1.9286
G01 X33.2235 Y1.9221
G01 X33.1625 Y1.8398
G01 X33.1580 Y1.8328
G01 X33.1040 Y1.7424
G01 X33.0588 Y1.6473
G01 X33.0555 Y1.6396
G01 X33.0192 Y1.5378
G01 X32.9935 Y1.4358
G01 X32.9913 Y1.4249
G01 X32.9767 Y1.3262
G01 X32.9756 Y1.3151
G01 X32.9706 Y1.2100
G01 X32.9756 Y1.1049
G01 X32.9767 Y1.0938
G01 X32.9923 Y0.9897
G01 X33.0192 Y0.8822
G01 X33.0566 Y0.7778
G01 X33.1040 Y0.6776
G01 X33.1609 Y0.5825
G01 X33.2270 Y0.4935
G01 X33.3014 Y0.4114
G01 X33.3835 Y0.3370
G01 X33.4725 Y0.2709
G01 X33.5676 Y0.2140
G01 X33.6678 Y0.1666
G01 X33.7722 Y0.1292
G01 X33.8797 Y0.1023
G01 X33.9893 Y0.0860
G01 X34.1000 Y0.0806
G01 X34.2051 Y0.0856
G01 X34.2162 Y0.0867
G01 X34.3203 Y0.1023
G01 X34.4278 Y0.1292
G01 X34.5322 Y0.1666
G01 X34.6274 Y0.2115
G01 X34.6372 Y0.2167
G01 X34.7228 Y0.2680
G01 X34.7320 Y0.2741
G01 X34.8165 Y0.3370
G01 X34.8946 Y0.4076
G01 X34.9024 Y0.4154
G01 X34.9730 Y0.4935
G01 X35.0391 Y0.5825
G01 X35.0960 Y0.6776
G01 X35.1434 Y0.7778
G01 X35.1808 Y0.8822
G01 X35.2077 Y0.9897
G01 X35.2240 Y1.0993
G01 X35.2293 Y1.2044
G01 X35.2293 Y1.2156
G01 X35.2240 Y1.3207
G01 X35.2077 Y1.4303
G01 X35.1808 Y1.5378
G01 X35.1454 Y1.6370
G01 X35.1423 Y1.6448
G01 X35.0960 Y1.7424
G01 X35.0420 Y1.8328
G01 X35.0375 Y1.8398
G01 X34.9765 Y1.9221
G01 X34.9712 Y1.9286
G01 X34.8986 Y2.0086
G01 X34.8487 Y2.0540
G01 X34.8487 Y17.3722
G01 X34.8949 Y17.4233
G01 X34.9550 Y17.5043
G01 X35.0068 Y17.5909
G01 X35.0489 Y17.6795
G01 X35.0520 Y17.6873
G01 X35.0822 Y17.7718
G01 X35.0855 Y17.7825
G01 X35.1085 Y17.8750
G01 X35.1233 Y17.9748
G01 X35.1283 Y18.0756
G01 X35.1283 Y19.9044
G01 X35.1237 Y19.9996
G01 X35.1226 Y20.0107
G01 X35.1085 Y20.1050
G01 X35.0840 Y20.2029
G01 X35.0500 Y20.2979
G01 X35.0093 Y20.3841
G01 X35.0041 Y20.3940
G01 X34.9550 Y20.4757
G01 X34.8983 Y20.5523
G01 X34.8912 Y20.5609
G01 X34.8309 Y20.6275
G01 X34.8231 Y20.6353
G01 X34.7523 Y20.6993
G01 X34.6713 Y20.7594
G01 X34.5847 Y20.8112
G01 X34.4935 Y20.8544
G01 X34.3985 Y20.8884
G01 X34.3006 Y20.9129
G01 X34.2008 Y20.9277
G01 X34.1056 Y20.9325
G01 X34.0944 Y20.9325
G01 X33.9992 Y20.9277
G01 X33.8994 Y20.9129
G01 X33.8015 Y20.8884
G01 X33.7065 Y20.8544
G01 X33.6153 Y20.8112
G01 X33.5287 Y20.7594
G01 X33.4477 Y20.6993
G01 X33.3729 Y20.6315
G01 X33.3051 Y20.5567
G01 X33.2450 Y20.4757
G01 X33.1932 Y20.3891
G01 X33.1500 Y20.2979
G01 X33.1160 Y20.2029
G01 X33.0915 Y20.1050
G01 X33.0767 Y20.0052
G01 X33.0717 Y19.9044
G00 Z3.0000
G00 X27.9917 Y19.9044
G01 F60.00
G01 Z-0.0500
G01 F60.00
G01 X27.9917 Y18.0756
G01 X27.9967 Y17.9748
G01 X28.0115 Y17.8750
G01 X28.0345 Y17.7825
G01 X28.0378 Y17.7718
G01 X28.0680 Y17.6873
G01 X28.0711 Y17.6795
G01 X28.1132 Y17.5909
G01 X28.1650 Y17.5043
G01 X28.2251 Y17.4233
G01 X28.2713 Y17.3722
G01 X28.2713 Y2.0540
G01 X28.2214 Y2.0086
G01 X28.1488 Y1.9286
G01 X28.1435 Y1.9221
G01 X28.0825 Y1.8398
G01 X28.0780 Y1.8328
G01 X28.0240 Y1.7424
G01 X27.9788 Y1.6473
G01 X27.9755 Y1.6396
G01 X27.9392 Y1.5378
G01 X27.9135 Y1.4358
G01 X27.9113 Y1.4249
G01 X27.8967 Y1.3262
G01 X27.8956 Y1.3151
G01 X27.8906 Y1.2100
G01 X27.8956 Y1.1049
G01 X27.8967 Y1.0938
G01 X27.9123 Y0.9897
G01 X27.9392 Y0.8822
G01 X27.9766 Y0.7778
G01 X28.0240 Y0.6776
G01 X28.0809 Y0.5825
G01 X28.1470 Y0.4935
G01 X28.2214 Y0.4114
G01 X28.3035 Y0.3370
G01 X28.3925 Y0.2709
G01 X28.4876 Y0.2140
G01 X28.5878 Y0.1666
G01 X28.6922 Y0.1292
G01 X28.7997 Y0.1023
G01 X28.9093 Y0.0860
G01 X29.0200 Y0.0806
G01 X29.1251 Y0.0856
G01 X29.1362 Y0.0867
G01 X29.2403 Y0.1023
G01 X29.3478 Y0.1292
G01 X29.4522 Y0.1666
G01 X29.5474 Y0.2115
G01 X29.5572 Y0.2167
G01 X29.6428 Y0.2680
G01 X29.6520 Y0.2741
G01 X29.7365 Y0.3370
G01 X29.8146 Y0.4076
G01 X29.8224 Y0.4154
G01 X29.8930 Y0.4935
G01 X29.9591 Y0.5825
G01 X30.0160 Y0.6776
G01 X30.0634 Y0.7778
G01 X30.1008 Y0.8822
G01 X30.1277 Y0.9897
G01 X30.1440 Y1.0993
G01 X30.1493 Y1.2044
G01 X30.1493 Y1.2156
G01 X30.1440 Y1.3207
G01 X30.1277 Y1.4303
G01 X30.1008 Y1.5378
G01 X30.0654 Y1.6370
G01 X30.0623 Y1.6448
G01 X30.0160 Y1.7424
G01 X29.9620 Y1.8328
G01 X29.9575 Y1.8398
G01 X29.8965 Y1.9221
G01 X29.8912 Y1.9286
G01 X29.8186 Y2.0086
G01 X29.7687 Y2.0540
G01 X29.7687 Y17.3722
G01 X29.8149 Y17.4233
G01 X29.8750 Y17.5043
G01 X29.9268 Y17.5909
G01 X29.9689 Y17.6795
G01 X29.9720 Y17.6873
G01 X30.0022 Y17.7718
G01 X30.0055 Y17.7825
G01 X30.0285 Y17.8750
G01 X30.0433 Y17.9748
G01 X30.0483 Y18.0756
G01 X30.0483 Y19.9044
G01 X30.0437 Y19.9996
G01 X30.0426 Y20.0107
G01 X30.0285 Y20.1050
G01 X30.0040 Y20.2029
G01 X29.9700 Y20.2979
G01 X29.9293 Y20.3841
G01 X29.9241 Y20.3940
G01 X29.8750 Y20.4757
G01 X29.8183 Y20.5523
G01 X29.8112 Y20.5609
G01 X29.7509 Y20.6275
G01 X29.7431 Y20.6353
G01 X29.6723 Y20.6993
G01 X29.5913 Y20.7594
G01 X29.5047 Y20.8112
G01 X29.4135 Y20.8544
G01 X29.3185 Y20.8884
G01 X29.2206 Y20.9129
G01 X29.1208 Y20.9277
G01 X29.0256 Y20.9325
G01 X29.0144 Y20.9325
G01 X28.9192 Y20.9277
G01 X28.8194 Y20.9129
G01 X28.7215 Y20.8884
G01 X28.6265 Y20.8544
G01 X28.5353 Y20.8112
G01 X28.4487 Y20.7594
G01 X28.3677 Y20.6993
G01 X28.2929 Y20.6315
G01 X28.2251 Y20.5567
G01 X28.1650 Y20.4757
G01 X28.1132 Y20.3891
G01 X28.0700 Y20.2979
G01 X28.0360 Y20.2029
G01 X28.0115 Y20.1050
G01 X27.9967 Y20.0052
G01 X27.9917 Y19.9044
G00 Z3.0000
G00 X22.9117 Y19.9044
G01 F60.00
G01 Z-0.0500
G01 F60.00
G01 X22.9117 Y18.0756
G01 X22.9167 Y17.9748
G01 X22.9315 Y17.8750
G01 X22.9545 Y17.7825
G01 X22.9578 Y17.7718
G01 X22.9880 Y17.6873
G01 X22.9911 Y17.6795
G01 X23.0332 Y17.5909
G01 X23.0850 Y17.5043
G01 X23.1451 Y17.4233
G01 X23.1913 Y17.3722
G01 X23.1913 Y2.0540
G01 X23.1414 Y2.0086
G01 X23.0688 Y1.9286
G01 X23.0635 Y1.9221
G01 X23.0025 Y1.8398
G01 X22.9980 Y1.8328
G01 X22.9440 Y1.7424
G01 X22.8988 Y1.6473
G01 X22.8955 Y1.6396
G01 X22.8592 Y1.5378
G01 X22.8335 Y1.4358
G01 X22.8313 Y1.4249
G01 X22.8160 Y1.3207
G01 X22.8107 Y1.2156
G01 X22.8107 Y1.2044
G01 X22.8156 Y1.1049
G01 X22.8167 Y1.0938
G01 X22.8323 Y0.9897
G01 X22.8592 Y0.8822
G01 X22.8966 Y0.7778
G01 X22.9440 Y0.6776
G01 X23.0009 Y0.5825
G01 X23.0670 Y0.4935
G01 X23.1414 Y0.4114
G01 X23.2235 Y0.3370
G01 X23.3125 Y0.2709
G01 X23.4076 Y0.2140
G01 X23.5078 Y0.1666
G01 X23.6122 Y0.1292
G01 X23.7197 Y0.1023
G01 X23.8293 Y0.0860
G01 X23.9400 Y0.0806
G01 X24.0451 Y0.0856
G01 X24.0562 Y0.0867
G01 X24.1603 Y0.1023
G01 X24.2678 Y0.1292
G01 X24.3722 Y0.1666
G01 X24.4674 Y0.2115
G01 X24.4772 Y0.2167
G01 X24.5628 Y0.2680
G01 X24.5720 Y0.2741
G01 X24.6565 Y0.3370
G01 X24.7346 Y0.4076
G01 X24.7424 Y0.4154
G01 X24.8130 Y0.4935
G01 X24.8791 Y0.5825
G01 X24.9360 Y0.6776
G01 X24.9834 Y0.7778
G01 X25.0208 Y0.8822
G01 X25.0477 Y0.9897
G01 X25.0640 Y1.0993
G01 X25.0693 Y1.2044
G01 X25.0693 Y1.2156
G01 X25.0640 Y1.3207
G01 X25.0477 Y1.4303
G01 X25.0208 Y1.5378
G01 X24.9854 Y1.6370
G01 X24.9823 Y1.6448
G01 X24.9360 Y1.7424
G01 X24.8820 Y1.8328
G01 X24.8775 Y1.8398
G01 X24.8165 Y1.9221
G01 X24.8112 Y1.9286
G01 X24.7386 Y2.0086
G01 X24.6887 Y2.0540
G01 X24.6887 Y17.3722
G01 X24.7349 Y17.4233
G01 X24.7950 Y17.5043
G01 X24.8468 Y17.5909
G01 X24.8889 Y17.6795
G01 X24.8920 Y17.6873
G01 X24.9222 Y17.7718
G01 X24.9255 Y17.7825
G01 X24.9485 Y17.8750
G01 X24.9633 Y17.9748
G01 X24.9683 Y18.0756
G01 X24.9683 Y19.9044
G01 X24.9637 Y19.9996
G01 X24.9626 Y20.0107
G01 X24.9485 Y20.1050
G01 X24.9240 Y20.2029
G01 X24.8900 Y20.2979
G01 X24.8493 Y20.3841
G01 X24.8441 Y20.3940
G01 X24.7950 Y20.4757
G01 X24.7383 Y20.5523
G01 X24.7312 Y20.5609
G01 X24.6709 Y20.6275
G01 X24.6631 Y20.6353
G01 X24.5923 Y20.6993
G01 X24.5113 Y20.7594
G01 X24.4247 Y20.8112
G01 X24.3335 Y20.8544
G01 X24.2385 Y20.8884
G01 X24.1406 Y20.9129
G01 X24.0408 Y20.9277
G01 X23.9456 Y20.9325
G01 X23.9344 Y20.9325
G01 X23.8392 Y20.9277
G01 X23.7394 Y20.9129
G01 X23.6415 Y20.8884
G01 X23.5465 Y20.8544
G01 X23.4553 Y20.8112
G01 X23.3687 Y20.7594
G01 X23.2877 Y20.6993
G01 X23.2129 Y20.6315
G01 X23.1451 Y20.5567
G01 X23.0850 Y20.4757
G01 X23.0332 Y20.3891
G01 X22.9900 Y20.2979
G01 X22.9560 Y20.2029
G01 X22.9315 Y20.1050
G01 X22.9167 Y20.0052
G01 X22.9117 Y19.9044
G00 Z3.0000
G00 X17.8317 Y19.9044
G01 F60.00
G01 Z-0.0500
G01 F60.00
G01 X17.8317 Y18.0756
G01 X17.8367 Y17.9748
G01 X17.8515 Y17.8750
G01 X17.8745 Y17.7825
G01 X17.8778 Y17.7718
G01 X17.9080 Y17.6873
G01 X17.9111 Y17.6795
G01 X17.9532 Y17.5909
G01 X18.0050 Y17.5043
G01 X18.0651 Y17.4233
G01 X18.1113 Y17.3722
G01 X18.1113 Y2.0540
G01 X18.0614 Y2.0086
G01 X17.9888 Y1.9286
G01 X17.9835 Y1.9221
G01 X17.9225 Y1.8398
G01 X17.9180 Y1.8328
G01 X17.8640 Y1.7424
G01 X17.8188 Y1.6473
G01 X17.8155 Y1.6396
G01 X17.7792 Y1.5378
G01 X17.7535 Y1.4358
G01 X17.7513 Y1.4249
G01 X17.7367 Y1.3262
G01 X17.7356 Y1.3151
G01 X17.7306 Y1.2100
G01 X17.7356 Y1.1049
G01 X17.7367 Y1.0938
G01 X17.7523 Y0.9897
G01 X17.7792 Y0.8822
G01 X17.8166 Y0.7778
G01 X17.8640 Y0.6776
G01 X17.9209 Y0.5825
G01 X17.9870 Y0.4935
G01 X18.0614 Y0.4114
G01 X18.1435 Y0.3370
G01 X18.2325 Y0.2709
G01 X18.3276 Y0.2140
G01 X18.4278 Y0.1666
G01 X18.5322 Y0.1292
G01 X18.6397 Y0.1023
G01 X18.7493 Y0.0860
G01 X18.8600 Y0.0806
G01 X18.9651 Y0.0856
G01 X18.9762 Y0.0867
G01 X19.0803 Y0.1023
G01 X19.1878 Y0.1292
G01 X19.2922 Y0.1666
G01 X19.3874 Y0.2115
G01 X19.3972 Y0.2167
G01 X19.4828 Y0.2680
G01 X19.4920 Y0.2741
G01 X19.5765 Y0.3370
G01 X19.6546 Y0.4076
G01 X19.6624 Y0.4154
G01 X19.7330 Y0.4935
G01 X19.7991 Y0.5825
G01 X19.8560 Y0.6776
G01 X19.9034 Y0.7778
G01 X19.9408 Y0.8822
G01 X19.9677 Y0.9897
G01 X19.9840 Y1.0993
G01 X19.9893 Y1.2044
G01 X19.9893 Y1.2156
G01 X19.9840 Y1.3207
G01 X19.9677 Y1.4303
G01 X19.9408 Y1.5378
G01 X19.9054 Y1.6370
G01 X19.9023 Y1.6448
G01 X19.8560 Y1.7424
G01 X19.8020 Y1.8328
G01 X19.7975 Y1.8398
G01 X19.7365 Y1.9221
G01 X19.7312 Y1.9286
G01 X19.6586 Y2.0086
G01 X19.6087 Y2.0540
G01 X19.6087 Y17.3722
G01 X19.6549 Y17.4233
G01 X19.7150 Y17.5043
G01 X19.7668 Y17.5909
G01 X19.8089 Y17.6795
G01 X19.8120 Y17.6873
G01 X19.8422 Y17.7718
G01 X19.8455 Y17.7825
G01 X19.8685 Y17.8750
G01 X19.8833 Y17.9748
G01 X19.8883 Y18.0756
G01 X19.8883 Y19.9044
G01 X19.8837 Y19.9996
G01 X19.8826 Y20.0107
G01 X19.8685 Y20.1050
G01 X19.8440 Y20.2029
G01 X19.8100 Y20.2979
G01 X19.7693 Y20.3841
G01 X19.7641 Y20.3940
G01 X19.7150 Y20.4757
G01 X19.6583 Y20.5523
G01 X19.6512 Y20.5609
G01 X19.5909 Y20.6275
G01 X19.5831 Y20.6353
G01 X19.5123 Y20.6993
G01 X19.4313 Y20.7594
G01 X19.3447 Y20.8112
G01 X19.2535 Y20.8544
G01 X19.1585 Y20.8884
G01 X19.0606 Y20.9129
G01 X18.9608 Y20.9277
G01 X18.8656 Y20.9325
G01 X18.8544 Y20.9325
G01 X18.7592 Y20.9277
G01 X18.6594 Y20.9129
G01 X18.5615 Y20.8884
G01 X18.4665 Y20.8544
G01 X18.3753 Y20.8112
G01 X18.2887 Y20.7594
G01 X18.2077 Y20.6993
G01 X18.1329 Y20.6315
G01 X18.0651 Y20.5567
G01 X18.0050 Y20.4757
G01 X17.9532 Y20.3891
G01 X17.9100 Y20.2979
G01 X17.8760 Y20.2029
G01 X17.8515 Y20.1050
G01 X17.8367 Y20.0052
G01 X17.8317 Y19.9044
G00 Z3.0000
G00 X12.7517 Y19.9044
G01 F60.00
G01 Z-0.0500
G01 F60.00
G01 X12.7517 Y18.0756
G01 X12.7567 Y17.9748
G01 X12.7715 Y17.8750
G01 X12.7945 Y17.7825
G01 X12.7978 Y17.7718
G01 X12.8280 Y17.6873
G01 X12.8311 Y17.6795
G01 X12.8732 Y17.5909
G01 X12.9250 Y17.5043
G01 X12.9851 Y17.4233
G01 X13.0313 Y17.3722
G01 X13.0313 Y2.0540
G01 X12.9814 Y2.0086
G01 X12.9088 Y1.9286
G01 X12.9035 Y1.9221
G01 X12.8425 Y1.8398
G01 X12.8380 Y1.8328
G01 X12.7840 Y1.7424
G01 X12.7388 Y1.6473
G01 X12.7355 Y1.6396
G01 X12.6992 Y1.5378
G01 X12.6735 Y1.4358
G01 X12.6713 Y1.4249
G01 X12.6567 Y1.3262
G01 X12.6556 Y1.3151
G01 X12.6506 Y1.2100
G01 X12.6556 Y1.1049
G01 X12.6567 Y1.0938
G01 X12.6723 Y0.9897
G01 X12.6992 Y0.8822
G01 X12.7366 Y0.7778
G01 X12.7840 Y0.6776
G01 X12.8409 Y0.5825
G01 X12.9070 Y0.4935
G01 X12.9814 Y0.4114
G01 X13.0635 Y0.3370
G01 X13.1525 Y0.2709
G01 X13.2476 Y0.2140
G01 X13.3478 Y0.1666
G01 X13.4522 Y0.1292
G01 X13.5597 Y0.1023
G01 X13.6693 Y0.0860
G01 X13.7800 Y0.0806
G01 X13.8851 Y0.0856
G01 X13.8962 Y0.0867
G01 X14.0003 Y0.1023
G01 X14.1078 Y0.1292
G01 X14.2122 Y0.1666
G01 X14.3074 Y0.2115
G01 X14.3172 Y0.2167
G01 X14.4028 Y0.2680
G01 X14.4120 Y0.2741
G01 X14.4965 Y0.3370
G01 X14.5746 Y0.4076
G01 X14.5824 Y0.4154
G01 X14.6530 Y0.4935
G01 X14.7191 Y0.5825
G01 X14.7760 Y0.6776
G01 X14.8234 Y0.7778
G01 X14.8608 Y0.8822
G01 X14.8877 Y0.9897
G01 X14.9040 Y1.0993
G01 X14.9093 Y1.2044
G01 X14.9093 Y1.2156
G01 X14.9040 Y1.3207
G01 X14.8877 Y1.4303
G01 X14.8608 Y1.5378
G01 X14.8254 Y1.6370
G01 X14.8223 Y1.6448
G01 X14.7760 Y1.7424
G01 X14.7220 Y1.8328
G01 X14.7175 Y1.8398
G01 X14.6565 Y1.9221
G01 X14.6512 Y1.9286
G01 X14.5786 Y2.0086
G01 X14.5287 Y2.0540
G01 X14.5287 Y17.3722
G01 X14.5749 Y17.4233
G01 X14.6350 Y17.5043
G01 X14.6868 Y17.5909
G01 X14.7289 Y17.6795
G01 X14.7320 Y17.6873
G01 X14.7622 Y17.7718
G01 X14.7655 Y17.7825
G01 X14.7885 Y17.8750
G01 X14.8033 Y17.9748
G01 X14.8083 Y18.0756
G01 X14.8083 Y19.9044
G01 X14.8037 Y19.9996
G01 X14.8026 Y20.0107
G01 X14.7885 Y20.1050
G01 X14.7640 Y20.2029
G01 X14.7300 Y20.2979
G01 X14.6893 Y20.3841
G01 X14.6841 Y20.3940
G01 X14.6350 Y20.4757
G01 X14.5783 Y20.5523
G01 X14.5712 Y20.5609
G01 X14.5109 Y20.6275
G01 X14.5031 Y20.6353
G01 X14.4323 Y20.6993
G01 X14.3513 Y20.7594
G01 X14.2647 Y20.8112
G01 X14.1735 Y20.8544
G01 X14.0785 Y20.8884
G01 X13.9806 Y20.9129
G01 X13.8808 Y20.9277
G01 X13.7856 Y20.9325
G01 X13.7744 Y20.9325
G01 X13.6792 Y20.9277
G01 X13.5794 Y20.9129
G01 X13.4815 Y20.8884
G01 X13.3865 Y20.8544
G01 X13.2953 Y20.8112
G01 X13.2087 Y20.7594
G01 X13.1277 Y20.6993
G01 X13.0529 Y20.6315
G01 X12.9851 Y20.5567
G01 X12.9250 Y20.4757
G01 X12.8732 Y20.3891
G01 X12.8300 Y20.2979
G01 X12.7960 Y20.2029
G01 X12.7715 Y20.1050
G01 X12.7567 Y20.0052
G01 X12.7517 Y19.9044
G00 Z3.0000
G00 X25.7313 Y35.8478
G01 F60.00
G01 Z-0.0500
G01 F60.00
G01 X25.6851 Y35.7967
G01 X25.6250 Y35.7157
G01 X25.5732 Y35.6291
G01 X25.5311 Y35.5405
G01 X25.5280 Y35.5327
G01 X25.4978 Y35.4482
G01 X25.4945 Y35.4375
G01 X25.4715 Y35.3450
G01 X25.4574 Y35.2507
G01 X25.4565 Y35.2424
G01 X25.4517 Y35.1444
G01 X25.4518 Y33.3128
G01 X25.4567 Y33.2148
G01 X25.4705 Y33.1205
G01 X25.4727 Y33.1096
G01 X25.4960 Y33.0171
G01 X25.5300 Y32.9221
G01 X25.5732 Y32.8309
G01 X25.6250 Y32.7443
G01 X25.6851 Y32.6633
G01 X25.7529 Y32.5885
G01 X25.8277 Y32.5207
G01 X25.9087 Y32.4606
G01 X25.9953 Y32.4088
G01 X26.0865 Y32.3656
G01 X26.1815 Y32.3316
G01 X26.2794 Y32.3071
G01 X26.3792 Y32.2923
G01 X26.4800 Y32.2873
G01 X26.5808 Y32.2923
G01 X26.6806 Y32.3071
G01 X26.7785 Y32.3316
G01 X26.8735 Y32.3656
G01 X26.9597 Y32.4063
G01 X26.9696 Y32.4115
G01 X27.0513 Y32.4606
G01 X27.1323 Y32.5207
G01 X27.2031 Y32.5847
G01 X27.2109 Y32.5925
G01 X27.2749 Y32.6633
G01 X27.3350 Y32.7443
G01 X27.3841 Y32.8260
G01 X27.3893 Y32.8359
G01 X27.4300 Y32.9221
G01 X27.4622 Y33.0118
G01 X27.4655 Y33.0225
G01 X27.4885 Y33.1150
G01 X27.5026 Y33.2093
G01 X27.5037 Y33.2204
G01 X27.5083 Y33.3156
G01 X27.5083 Y35.1444
G01 X27.5035 Y35.2424
G01 X27.5026 Y35.2507
G01 X27.4885 Y35.3450
G01 X27.4655 Y35.4375
G01 X27.4622 Y35.4482
G01 X27.4320 Y35.5327
G01 X27.4289 Y35.5405
G01 X27.3868 Y35.6291
G01 X27.3350 Y35.7157
G01 X27.2749 Y35.7967
G01 X27.2287 Y35.8478
G01 X27.2287 Y37.2176
G01 X27.2633 Y37.2489
G01 X27.2692 Y37.2547
G01 X27.3389 Y37.3315
G01 X27.3441 Y37.3381
G01 X27.4042 Y37.4191
G01 X27.4087 Y37.4261
G01 X27.4619 Y37.5151
G01 X27.5076 Y37.6114
G01 X27.5107 Y37.6191
G01 X27.5455 Y37.7168
G01 X27.5720 Y37.8228
G01 X27.5880 Y37.9309
G01 X27.5934 Y38.0400
G01 X27.5884 Y38.1436
G01 X27.5874 Y38.1547
G01 X27.5720 Y38.2572
G01 X27.5455 Y38.3632
G01 X27.5086 Y38.4661
G01 X27.4644 Y38.5599
G01 X27.4592 Y38.5697
G01 X27.4087 Y38.6539
G01 X27.4026 Y38.6631
G01 X27.3407 Y38.7463
G01 X27.2673 Y38.8273
G01 X27.1863 Y38.9007
G01 X27.1031 Y38.9626
G01 X27.0939 Y38.9687
G01 X27.0097 Y39.0192
G01 X26.9999 Y39.0244
G01 X26.9061 Y39.0686
G01 X26.8059 Y39.1046
G01 X26.7978 Y39.1069
G01 X26.6972 Y39.1320
G01 X26.5891 Y39.1480
G01 X26.4800 Y39.1534
G01 X26.3709 Y39.1480
G01 X26.2628 Y39.1320
G01 X26.1568 Y39.1055
G01 X26.0539 Y39.0686
G01 X25.9551 Y39.0219
G01 X25.8614 Y38.9658
G01 X25.7737 Y38.9007
G01 X25.6927 Y38.8273
G01 X25.6193 Y38.7463
G01 X25.5542 Y38.6586
G01 X25.4981 Y38.5649
G01 X25.4514 Y38.4661
G01 X25.4154 Y38.3659
G01 X25.4131 Y38.3578
G01 X25.3892 Y38.2626
G01 X25.3870 Y38.2517
G01 X25.3720 Y38.1491
G01 X25.3666 Y38.0400
G01 X25.3716 Y37.9364
G01 X25.3726 Y37.9253
G01 X25.3880 Y37.8228
G01 X25.4138 Y37.7195
G01 X25.4163 Y37.7115
G01 X25.4493 Y37.6191
G01 X25.4536 Y37.6088
G01 X25.4981 Y37.5151
G01 X25.5527 Y37.4238
G01 X25.5574 Y37.4169
G01 X25.6159 Y37.3381
G01 X25.6211 Y37.3315
G01 X25.6908 Y37.2547
G01 X25.6967 Y37.2489
G01 X25.7313 Y37.2176
G01 X25.7313 Y35.8478
G00 Z3.0000
G00 X28.2713 Y35.8478
G01 F60.00
G01 Z-0.0500
G01 F60.00
G01 X28.2251 Y35.7967
G01 X28.1650 Y35.7157
G01 X28.1132 Y35.6291
G01 X28.0711 Y35.5405
G01 X28.0680 Y35.5327
G01 X28.0378 Y35.4482
G01 X28.0345 Y35.4375
G01 X28.0115 Y35.3450
G01 X27.9974 Y35.2507
G01 X27.9965 Y35.2424
G01 X27.9917 Y35.1444
G01 X27.9918 Y33.3128
G01 X27.9967 Y33.2148
G01 X28.0105 Y33.1205
G01 X28.0127 Y33.1096
G01 X28.0360 Y33.0171
G01 X28.0700 Y32.9221
G01 X28.1132 Y32.8309
G01 X28.1650 Y32.7443
G01 X28.2251 Y32.6633
G01 X28.2929 Y32.5885
G01 X28.3677 Y32.5207
G01 X28.4487 Y32.4606
G01 X28.5353 Y32.4088
G01 X28.6265 Y32.3656
G01 X28.7215 Y32.3316
G01 X28.8194 Y32.3071
G01 X28.9192 Y32.2923
G01 X29.0200 Y32.2873
G01 X29.1208 Y32.2923
G01 X29.2206 Y32.3071
G01 X29.3185 Y32.3316
G01 X29.4135 Y32.3656
G01 X29.4997 Y32.4063
G01 X29.5096 Y32.4115
G01 X29.5913 Y32.4606
G01 X29.6723 Y32.5207
G01 X29.7431 Y32.5847
G01 X29.7509 Y32.5925
G01 X29.8112 Y32.6591
G01 X29.8183 Y32.6677
G01 X29.8750 Y32.7443
G01 X29.9268 Y32.8309
G01 X29.9700 Y32.9221
G01 X30.0022 Y33.0118
G01 X30.0055 Y33.0225
G01 X30.0273 Y33.1096
G01 X30.0295 Y33.1205
G01 X30.0433 Y33.2148
G01 X30.0482 Y33.3128
G01 X30.0483 Y35.1444
G01 X30.0433 Y35.2452
G01 X30.0285 Y35.3450
G01 X30.0055 Y35.4375
G01 X30.0022 Y35.4482
G01 X29.9720 Y35.5327
G01 X29.9689 Y35.5405
G01 X29.9268 Y35.6291
G01 X29.8750 Y35.7157
G01 X29.8149 Y35.7967
G01 X29.7687 Y35.8478
G01 X29.7687 Y65.1576
G01 X29.8033 Y65.1889
G01 X29.8092 Y65.1947
G01 X29.8789 Y65.2715
G01 X29.8841 Y65.2781
G01 X29.9442 Y65.3591
G01 X29.9487 Y65.3661
G01 X30.0019 Y65.4551
G01 X30.0476 Y65.5514
G01 X30.0507 Y65.5591
G01 X30.0855 Y65.6568
G01 X30.1120 Y65.7628
G01 X30.1280 Y65.8709
G01 X30.1334 Y65.9800
G01 X30.1280 Y66.0891
G01 X30.1120 Y66.1972
G01 X30.0855 Y66.3032
G01 X30.0486 Y66.4061
G01 X30.0019 Y66.5049
G01 X29.9458 Y66.5986
G01 X29.8807 Y66.6863
G01 X29.8073 Y66.7673
G01 X29.7263 Y66.8407
G01 X29.6386 Y66.9058
G01 X29.5449 Y66.9619
G01 X29.4461 Y67.0086
G01 X29.3432 Y67.0455
G01 X29.2372 Y67.0720
G01 X29.1291 Y67.0880
G01 X29.0228 Y67.0934
G01 X29.0144 Y67.0933
G01 X28.9109 Y67.0880
G01 X28.8028 Y67.0720
G01 X28.6968 Y67.0455
G01 X28.5939 Y67.0086
G01 X28.4951 Y66.9619
G01 X28.4014 Y66.9058
G01 X28.3137 Y66.8407
G01 X28.2327 Y66.7673
G01 X28.1593 Y66.6863
G01 X28.0942 Y66.5986
G01 X28.0381 Y66.5049
G01 X27.9914 Y66.4061
G01 X27.9545 Y66.3032
G01 X27.9280 Y66.1972
G01 X27.9120 Y66.0891
G01 X27.9066 Y65.9828
G01 X27.9067 Y65.9744
G01 X27.9120 Y65.8709
G01 X27.9280 Y65.7628
G01 X27.9545 Y65.6568
G01 X27.9893 Y65.5591
G01 X27.9924 Y65.5514
G01 X28.0381 Y65.4551
G01 X28.0913 Y65.3661
G01 X28.0958 Y65.3591
G01 X28.1559 Y65.2781
G01 X28.1611 Y65.2715
G01 X28.2308 Y65.1947
G01 X28.2367 Y65.1889
G01 X28.2713 Y65.1576
G01 X28.2713 Y35.8478
G00 Z3.0000
G00 X30.5317 Y35.1444
G01 F60.00
G01 Z-0.0500
G01 F60.00
G01 X30.5317 Y33.3156
G01 X30.5363 Y33.2204
G01 X30.5374 Y33.2093
G01 X30.5515 Y33.1150
G01 X30.5760 Y33.0171
G01 X30.6100 Y32.9221
G01 X30.6507 Y32.8359
G01 X30.6545 Y32.8284
G01 X30.7050 Y32.7443
G01 X30.7651 Y32.6633
G01 X30.8329 Y32.5885
G01 X30.9077 Y32.5207
G01 X30.9887 Y32.4606
G01 X31.0753 Y32.4088
G01 X31.1665 Y32.3656
G01 X31.2615 Y32.3316
G01 X31.3594 Y32.3071
G01 X31.4592 Y32.2923
G01 X31.5600 Y32.2873
G01 X31.6608 Y32.2923
G01 X31.7606 Y32.3071
G01 X31.8585 Y32.3316
G01 X31.9535 Y32.3656
G01 X32.0397 Y32.4063
G01 X32.0472 Y32.4101
G01 X32.1313 Y32.4606
G01 X32.2079 Y32.5173
G01 X32.2165 Y32.5244
G01 X32.2871 Y32.5885
G01 X32.3512 Y32.6591
G01 X32.3583 Y32.6677
G01 X32.4150 Y32.7443
G01 X32.4641 Y32.8260
G01 X32.4693 Y32.8359
G01 X32.5100 Y32.9221
G01 X32.5422 Y33.0118
G01 X32.5455 Y33.0225
G01 X32.5685 Y33.1150
G01 X32.5826 Y33.2093
G01 X32.5837 Y33.2204
G01 X32.5882 Y33.3128
G01 X32.5883 Y35.1444
G01 X32.5833 Y35.2452
G01 X32.5685 Y35.3450
G01 X32.5455 Y35.4375
G01 X32.5422 Y35.4482
G01 X32.5120 Y35.5327
G01 X32.5089 Y35.5405
G01 X32.4668 Y35.6291
G01 X32.4150 Y35.7157
G01 X32.3549 Y35.7967
G01 X32.3087 Y35.8478
G01 X32.3087 Y62.6176
G01 X32.3433 Y62.6489
G01 X32.3492 Y62.6547
G01 X32.4189 Y62.7315
G01 X32.4241 Y62.7381
G01 X32.4842 Y62.8191
G01 X32.4887 Y62.8261
G01 X32.5419 Y62.9151
G01 X32.5876 Y63.0114
G01 X32.5907 Y63.0191
G01 X32.6255 Y63.1168
G01 X32.6520 Y63.2228
G01 X32.6680 Y63.3309
G01 X32.6733 Y63.4344
G01 X32.6734 Y63.4428
G01 X32.6680 Y63.5491
G01 X32.6520 Y63.6572
G01 X32.6255 Y63.7632
G01 X32.5886 Y63.8661
G01 X32.5419 Y63.9649
G01 X32.4858 Y64.0586
G01 X32.4207 Y64.1463
G01 X32.3473 Y64.2273
G01 X32.2663 Y64.3007
G01 X32.1786 Y64.3658
G01 X32.0849 Y64.4219
G01 X31.9861 Y64.4686
G01 X31.8832 Y64.5055
G01 X31.7772 Y64.5320
G01 X31.6691 Y64.5480
G01 X31.5628 Y64.5534
G01 X31.5544 Y64.5533
G01 X31.4509 Y64.5480
G01 X31.3428 Y64.5320
G01 X31.2368 Y64.5055
G01 X31.1339 Y64.4686
G01 X31.0351 Y64.4219
G01 X30.9414 Y64.3658
G01 X30.8537 Y64.3007
G01 X30.7727 Y64.2273
G01 X30.6993 Y64.1463
G01 X30.6342 Y64.0586
G01 X30.5781 Y63.9649
G01 X30.5314 Y63.8661
G01 X30.4945 Y63.7632
G01 X30.4680 Y63.6572
G01 X30.4520 Y63.5491
G01 X30.4466 Y63.4428
G01 X30.4467 Y63.4344
G01 X30.4520 Y63.3309
G01 X30.4680 Y63.2228
G01 X30.4945 Y63.1168
G01 X30.5293 Y63.0191
G01 X30.5324 Y63.0114
G01 X30.5781 Y62.9151
G01 X30.6313 Y62.8261
G01 X30.6358 Y62.8191
G01 X30.6959 Y62.7381
G01 X30.7011 Y62.7315
G01 X30.7708 Y62.6547
G01 X30.7767 Y62.6489
G01 X30.8113 Y62.6176
G01 X30.8113 Y35.8478
G01 X30.7651 Y35.7967
G01 X30.7082 Y35.7202
G01 X30.7035 Y35.7133
G01 X30.6532 Y35.6291
G01 X30.6123 Y35.5430
G01 X30.6090 Y35.5353
G01 X30.5760 Y35.4429
G01 X30.5515 Y35.3450
G01 X30.5367 Y35.2452
G01 X30.5317 Y35.1444
G00 Z3.0000
G00 X33.3513 Y35.8478
G01 F60.00
G01 Z-0.0500
G01 F60.00
G01 X33.3051 Y35.7967
G01 X33.2450 Y35.7157
G01 X33.1932 Y35.6291
G01 X33.1511 Y35.5405
G01 X33.1480 Y35.5327
G01 X33.1178 Y35.4482
G01 X33.1145 Y35.4375
G01 X33.0915 Y35.3450
G01 X33.0774 Y35.2507
G01 X33.0765 Y35.2424
G01 X33.0717 Y35.1444
G01 X33.0718 Y33.3128
G01 X33.0767 Y33.2148
G01 X33.0905 Y33.1205
G01 X33.0927 Y33.1096
G01 X33.1160 Y33.0171
G01 X33.1500 Y32.9221
G01 X33.1932 Y32.8309
G01 X33.2450 Y32.7443
G01 X33.3051 Y32.6633
G01 X33.3729 Y32.5885
G01 X33.4477 Y32.5207
G01 X33.5287 Y32.4606
G01 X33.6153 Y32.4088
G01 X33.7065 Y32.3656
G01 X33.8015 Y32.3316
G01 X33.8994 Y32.3071
G01 X33.9992 Y32.2923
G01 X34.1000 Y32.2873
G01 X34.2008 Y32.2923
G01 X34.3006 Y32.3071
G01 X34.3985 Y32.3316
G01 X34.4935 Y32.3656
G01 X34.5797 Y32.4063
G01 X34.5896 Y32.4115
G01 X34.6713 Y32.4606
G01 X34.7523 Y32.5207
G01 X34.8231 Y32.5847
G01 X34.8309 Y32.5925
G01 X34.8912 Y32.6591
G01 X34.8983 Y32.6677
G01 X34.9550 Y32.7443
G01 X35.0068 Y32.8309
G01 X35.0500 Y32.9221
G01 X35.0822 Y33.0118
G01 X35.0855 Y33.0225
G01 X35.1073 Y33.1096
G01 X35.1095 Y33.1205
G01 X35.1233 Y33.2148
G01 X35.1282 Y33.3128
G01 X35.1283 Y35.1444
G01 X35.1233 Y35.2452
G01 X35.1085 Y35.3450
G01 X35.0855 Y35.4375
G01 X35.0822 Y35.4482
G01 X35.0520 Y35.5327
G01 X35.0489 Y35.5405
G01 X35.0068 Y35.6291
G01 X34.9550 Y35.7157
G01 X34.8949 Y35.7967
G01 X34.8487 Y35.8478
G01 X34.8487 Y67.6976
G01 X34.8833 Y67.7289
G01 X34.8892 Y67.7347
G01 X34.9589 Y67.8115
G01 X34.9641 Y67.8181
