(G-CODE GENERATED BY FLATCAM v8.994 - www.flatcam.org - Version Date: 2020/11/7)

(Name: copper_bottom.gbr_iso_combined_cnc)
(Type: G-code from Geometry)
(Units: MM)

(Created on sexta, 04 fevereiro 2022 at 12:50)

(This preprocessor is the default preprocessor used by FlatCAM.)
(It is made to work with MACH3 compatible motion controllers.)

(TOOL DIAMETER: 0.2161 mm)
(Feedrate_XY: 40.0 mm/min)
(Feedrate_Z: 40.0 mm/min)
(Feedrate rapids 1500.0 mm/min)

(Z_Cut: -0.03 mm)
(Z_Move: 3.0 mm)
(Z Start: None mm)
(Z End: 15.0 mm)
(X,Y End: None mm)
(Steps per circle: 64)
(Preprocessor Geometry: default)

(X range:   -0.0440 ...  128.8234  mm)
(Y range:    0.0860 ...   74.3434  mm)

(Spindle Speed: 1000.0 RPM)
G21
G90
G94

G01 F40.00

M5
G00 Z15.0000
G00 X0.0000 Y0.0000
T1
M6    
(MSG, Change to Tool Dia = 0.2161)
M0
G00 Z15.0000

M03 S1000.0
G01 F40.00
G00 X0.3366 Y2.0516
G01 F40.00
G01 Z-0.0300
G01 F40.00
G01 X0.2890 Y2.0085
G01 X0.2833 Y2.0029
G01 X0.2146 Y1.9271
G01 X0.2094 Y1.9210
G01 X0.1454 Y1.8345
G01 X0.0913 Y1.7445
G01 X0.0875 Y1.7375
G01 X0.0415 Y1.6402
G01 X0.0044 Y1.5363
G01 X-0.0225 Y1.4293
G01 X-0.0380 Y1.3254
G01 X-0.0389 Y1.3175
G01 X-0.0440 Y1.2100
G01 X-0.0386 Y1.0998
G01 X-0.0225 Y0.9907
G01 X0.0044 Y0.8837
G01 X0.0415 Y0.7798
G01 X0.0887 Y0.6801
G01 X0.1454 Y0.5855
G01 X0.2078 Y0.5011
G01 X0.2128 Y0.4949
G01 X0.2852 Y0.4152
G01 X0.3669 Y0.3411
G01 X0.4555 Y0.2754
G01 X0.5501 Y0.2187
G01 X0.6498 Y0.1715
G01 X0.7537 Y0.1344
G01 X0.8607 Y0.1075
G01 X0.9698 Y0.0914
G01 X1.0800 Y0.0860
G01 X1.1902 Y0.0914
G01 X1.2993 Y0.1075
G01 X1.4063 Y0.1344
G01 X1.5102 Y0.1715
G01 X1.6099 Y0.2187
G01 X1.7045 Y0.2754
G01 X1.7889 Y0.3378
G01 X1.7951 Y0.3428
G01 X1.8748 Y0.4152
G01 X1.9454 Y0.4929
G01 X1.9522 Y0.5011
G01 X2.0116 Y0.5812
G01 X2.0175 Y0.5900
G01 X2.0713 Y0.6801
G01 X2.1163 Y0.7750
G01 X2.1204 Y0.7848
G01 X2.1556 Y0.8837
G01 X2.1825 Y0.9907
G01 X2.1986 Y1.0998
G01 X2.2040 Y1.2100
G01 X2.1986 Y1.3202
G01 X2.1825 Y1.4293
G01 X2.1556 Y1.5363
G01 X2.1204 Y1.6352
G01 X2.1174 Y1.6426
G01 X2.0713 Y1.7399
G01 X2.0175 Y1.8300
G01 X2.0131 Y1.8367
G01 X1.9522 Y1.9189
G01 X1.9472 Y1.9251
G01 X1.8748 Y2.0048
G01 X1.8234 Y2.0516
G01 X1.8234 Y44.9166
G01 X23.1966 Y44.9166
G01 X23.1966 Y35.8458
G01 X23.1493 Y35.7933
G01 X23.0895 Y35.7127
G01 X23.0379 Y35.6266
G01 X22.9960 Y35.5383
G01 X22.9930 Y35.5309
G01 X22.9628 Y35.4464
G01 X22.9597 Y35.4362
G01 X22.9367 Y35.3440
G01 X22.9220 Y35.2447
G01 X22.9171 Y35.1444
G01 X22.9171 Y33.3156
G01 X22.9218 Y33.2180
G01 X22.9227 Y33.2101
G01 X22.9367 Y33.1160
G01 X22.9611 Y33.0187
G01 X22.9950 Y32.9242
G01 X23.0379 Y32.8334
G01 X23.0895 Y32.7473
G01 X23.1493 Y32.6667
G01 X23.2167 Y32.5923
G01 X23.2911 Y32.5249
G01 X23.3717 Y32.4651
G01 X23.4578 Y32.4135
G01 X23.5486 Y32.3706
G01 X23.6431 Y32.3367
G01 X23.7404 Y32.3123
G01 X23.8397 Y32.2976
G01 X23.9400 Y32.2927
G01 X24.0376 Y32.2974
G01 X24.0455 Y32.2983
G01 X24.1396 Y32.3123
G01 X24.2369 Y32.3367
G01 X24.3314 Y32.3706
G01 X24.4175 Y32.4111
G01 X24.4268 Y32.4161
G01 X24.5038 Y32.4622
G01 X24.5126 Y32.4681
G01 X24.5889 Y32.5249
G01 X24.6595 Y32.5886
G01 X24.6670 Y32.5961
G01 X24.7307 Y32.6667
G01 X24.7905 Y32.7473
G01 X24.8421 Y32.8334
G01 X24.8850 Y32.9242
G01 X24.9189 Y33.0187
G01 X24.9433 Y33.1160
G01 X24.9580 Y33.2153
G01 X24.9629 Y33.3129
G01 X24.9629 Y35.1444
G01 X24.9580 Y35.2447
G01 X24.9433 Y35.3440
G01 X24.9203 Y35.4362
G01 X24.9172 Y35.4464
G01 X24.8870 Y35.5309
G01 X24.8840 Y35.5383
G01 X24.8421 Y35.6266
G01 X24.7905 Y35.7127
G01 X24.7307 Y35.7933
G01 X24.6834 Y35.8458
G01 X24.6834 Y45.6600
G01 X24.6802 Y45.7276
G01 X24.6791 Y45.7381
G01 X24.6691 Y45.8050
G01 X24.6528 Y45.8707
G01 X24.6497 Y45.8808
G01 X24.6268 Y45.9445
G01 X24.5980 Y46.0057
G01 X24.5930 Y46.0150
G01 X24.5581 Y46.0730
G01 X24.5146 Y46.1316
G01 X24.4693 Y46.1818
G01 X24.4618 Y46.1893
G01 X24.4116 Y46.2346
G01 X24.3573 Y46.2750
G01 X24.3485 Y46.2809
G01 X24.2904 Y46.3156
G01 X24.2293 Y46.3446
G01 X24.2195 Y46.3487
G01 X24.1558 Y46.3714
G01 X24.0902 Y46.3879
G01 X24.0798 Y46.3900
G01 X24.0129 Y46.3998
G01 X23.9400 Y46.4034
G01 X1.0773 Y46.4033
G01 X1.0071 Y46.3998
G01 X0.9402 Y46.3900
G01 X0.9298 Y46.3879
G01 X0.8642 Y46.3714
G01 X0.8005 Y46.3487
G01 X0.7907 Y46.3446
G01 X0.7296 Y46.3156
G01 X0.6715 Y46.2809
G01 X0.6627 Y46.2750
G01 X0.6084 Y46.2346
G01 X0.5582 Y46.1893
G01 X0.5507 Y46.1818
G01 X0.5054 Y46.1316
G01 X0.4650 Y46.0773
G01 X0.4591 Y46.0685
G01 X0.4244 Y46.0104
G01 X0.3954 Y45.9493
G01 X0.3913 Y45.9395
G01 X0.3686 Y45.8758
G01 X0.3521 Y45.8102
G01 X0.3500 Y45.7998
G01 X0.3402 Y45.7329
G01 X0.3366 Y45.6600
G01 X0.3366 Y2.0516
G00 Z3.0000
G00 X2.8766 Y2.0516
G01 F40.00
G01 Z-0.0300
G01 F40.00
G01 X2.8290 Y2.0085
G01 X2.8233 Y2.0029
G01 X2.7546 Y1.9271
G01 X2.7494 Y1.9210
G01 X2.6854 Y1.8345
G01 X2.6313 Y1.7445
G01 X2.6275 Y1.7375
G01 X2.5815 Y1.6402
G01 X2.5444 Y1.5363
G01 X2.5175 Y1.4293
G01 X2.5020 Y1.3254
G01 X2.5011 Y1.3175
G01 X2.4960 Y1.2100
G01 X2.5014 Y1.0998
G01 X2.5175 Y0.9907
G01 X2.5444 Y0.8837
G01 X2.5815 Y0.7798
G01 X2.6287 Y0.6801
G01 X2.6854 Y0.5855
G01 X2.7478 Y0.5011
G01 X2.7528 Y0.4949
G01 X2.8252 Y0.4152
G01 X2.9069 Y0.3411
G01 X2.9955 Y0.2754
G01 X3.0901 Y0.2187
G01 X3.1898 Y0.1715
G01 X3.2937 Y0.1344
G01 X3.4007 Y0.1075
G01 X3.5098 Y0.0914
G01 X3.6200 Y0.0860
G01 X3.7302 Y0.0914
G01 X3.8393 Y0.1075
G01 X3.9463 Y0.1344
G01 X4.0502 Y0.1715
G01 X4.1499 Y0.2187
G01 X4.2445 Y0.2754
G01 X4.3289 Y0.3378
G01 X4.3351 Y0.3428
G01 X4.4148 Y0.4152
G01 X4.4854 Y0.4929
G01 X4.4922 Y0.5011
G01 X4.5546 Y0.5855
G01 X4.6087 Y0.6755
G01 X4.6137 Y0.6849
G01 X4.6563 Y0.7750
G01 X4.6604 Y0.7848
G01 X4.6956 Y0.8837
G01 X4.7225 Y0.9907
G01 X4.7386 Y1.0998
G01 X4.7440 Y1.2100
G01 X4.7386 Y1.3202
G01 X4.7225 Y1.4293
G01 X4.6956 Y1.5363
G01 X4.6604 Y1.6352
G01 X4.6574 Y1.6426
G01 X4.6113 Y1.7399
G01 X4.5575 Y1.8300
G01 X4.5531 Y1.8367
G01 X4.4922 Y1.9189
G01 X4.4872 Y1.9251
G01 X4.4148 Y2.0048
G01 X4.3634 Y2.0516
G01 X4.3634 Y42.3766
G01 X20.6566 Y42.3766
G01 X20.6566 Y35.8458
G01 X20.6093 Y35.7933
G01 X20.5495 Y35.7127
G01 X20.4979 Y35.6266
G01 X20.4560 Y35.5383
G01 X20.4530 Y35.5309
G01 X20.4228 Y35.4464
G01 X20.4197 Y35.4362
G01 X20.3967 Y35.3440
G01 X20.3820 Y35.2447
G01 X20.3771 Y35.1444
G01 X20.3771 Y33.3156
G01 X20.3818 Y33.2180
G01 X20.3827 Y33.2101
G01 X20.3967 Y33.1160
G01 X20.4211 Y33.0187
G01 X20.4550 Y32.9242
G01 X20.4979 Y32.8334
G01 X20.5495 Y32.7473
G01 X20.6093 Y32.6667
G01 X20.6767 Y32.5923
G01 X20.7511 Y32.5249
G01 X20.8317 Y32.4651
G01 X20.9178 Y32.4135
G01 X21.0086 Y32.3706
G01 X21.1031 Y32.3367
G01 X21.2004 Y32.3123
G01 X21.2997 Y32.2976
G01 X21.4000 Y32.2927
G01 X21.4976 Y32.2974
G01 X21.5055 Y32.2983
G01 X21.5996 Y32.3123
G01 X21.6969 Y32.3367
G01 X21.7914 Y32.3706
G01 X21.8775 Y32.4111
G01 X21.8868 Y32.4161
G01 X21.9638 Y32.4622
G01 X21.9726 Y32.4681
G01 X22.0489 Y32.5249
G01 X22.1195 Y32.5886
G01 X22.1270 Y32.5961
G01 X22.1907 Y32.6667
G01 X22.2505 Y32.7473
G01 X22.3021 Y32.8334
G01 X22.3450 Y32.9242
G01 X22.3789 Y33.0187
G01 X22.4033 Y33.1160
G01 X22.4180 Y33.2153
G01 X22.4229 Y33.3129
G01 X22.4229 Y35.1444
G01 X22.4180 Y35.2447
G01 X22.4033 Y35.3440
G01 X22.3803 Y35.4362
G01 X22.3772 Y35.4464
G01 X22.3470 Y35.5309
G01 X22.3440 Y35.5383
G01 X22.3021 Y35.6266
G01 X22.2505 Y35.7127
G01 X22.1907 Y35.7933
G01 X22.1434 Y35.8458
G01 X22.1434 Y43.1200
G01 X22.1400 Y43.1902
G01 X22.1391 Y43.1981
G01 X22.1300 Y43.2598
G01 X22.1279 Y43.2702
G01 X22.1114 Y43.3358
G01 X22.0887 Y43.3995
G01 X22.0846 Y43.4093
G01 X22.0556 Y43.4704
G01 X22.0209 Y43.5285
G01 X22.0150 Y43.5373
G01 X21.9746 Y43.5916
G01 X21.9293 Y43.6418
G01 X21.9218 Y43.6493
G01 X21.8716 Y43.6946
G01 X21.8173 Y43.7350
G01 X21.8085 Y43.7409
G01 X21.7504 Y43.7756
G01 X21.6869 Y43.8057
G01 X21.6795 Y43.8087
G01 X21.6158 Y43.8314
G01 X21.5450 Y43.8491
G01 X21.4729 Y43.8598
G01 X21.4000 Y43.8634
G01 X3.6173 Y43.8633
G01 X3.5471 Y43.8598
G01 X3.4802 Y43.8500
G01 X3.4698 Y43.8479
G01 X3.4042 Y43.8314
G01 X3.3355 Y43.8068
G01 X3.2743 Y43.7780
G01 X3.2650 Y43.7730
G01 X3.2070 Y43.7381
G01 X3.1484 Y43.6946
G01 X3.0982 Y43.6493
G01 X3.0907 Y43.6418
G01 X3.0454 Y43.5916
G01 X3.0050 Y43.5373
G01 X2.9991 Y43.5285
G01 X2.9644 Y43.4704
G01 X2.9343 Y43.4069
G01 X2.9313 Y43.3995
G01 X2.9086 Y43.3358
G01 X2.8909 Y43.2650
G01 X2.8802 Y43.1929
G01 X2.8766 Y43.1200
G01 X2.8766 Y2.0516
G00 Z3.0000
G00 X5.4166 Y2.0516
G01 F40.00
G01 Z-0.0300
G01 F40.00
G01 X5.3690 Y2.0085
G01 X5.3633 Y2.0029
G01 X5.2946 Y1.9271
G01 X5.2894 Y1.9210
G01 X5.2254 Y1.8345
G01 X5.1713 Y1.7445
G01 X5.1675 Y1.7375
G01 X5.1215 Y1.6402
G01 X5.0844 Y1.5363
G01 X5.0575 Y1.4293
G01 X5.0420 Y1.3254
G01 X5.0411 Y1.3175
G01 X5.0360 Y1.2100
G01 X5.0414 Y1.0998
G01 X5.0575 Y0.9907
G01 X5.0844 Y0.8837
G01 X5.1215 Y0.7798
G01 X5.1687 Y0.6801
G01 X5.2254 Y0.5855
G01 X5.2878 Y0.5011
G01 X5.2928 Y0.4949
G01 X5.3652 Y0.4152
G01 X5.4469 Y0.3411
G01 X5.5355 Y0.2754
G01 X5.6301 Y0.2187
G01 X5.7298 Y0.1715
G01 X5.8337 Y0.1344
G01 X5.9407 Y0.1075
G01 X6.0498 Y0.0914
G01 X6.1600 Y0.0860
G01 X6.2702 Y0.0914
G01 X6.3793 Y0.1075
G01 X6.4863 Y0.1344
G01 X6.5902 Y0.1715
G01 X6.6899 Y0.2187
G01 X6.7845 Y0.2754
G01 X6.8689 Y0.3378
G01 X6.8751 Y0.3428
G01 X6.9548 Y0.4152
G01 X7.0254 Y0.4929
G01 X7.0322 Y0.5011
G01 X7.0946 Y0.5855
G01 X7.1487 Y0.6755
G01 X7.1537 Y0.6849
G01 X7.1963 Y0.7750
G01 X7.2004 Y0.7848
G01 X7.2356 Y0.8837
G01 X7.2625 Y0.9907
G01 X7.2786 Y1.0998
G01 X7.2840 Y1.2100
G01 X7.2786 Y1.3202
G01 X7.2625 Y1.4293
G01 X7.2356 Y1.5363
G01 X7.2004 Y1.6352
G01 X7.1974 Y1.6426
G01 X7.1513 Y1.7399
G01 X7.0975 Y1.8300
G01 X7.0931 Y1.8367
G01 X7.0322 Y1.9189
G01 X7.0272 Y1.9251
G01 X6.9548 Y2.0048
G01 X6.9034 Y2.0516
G01 X6.9034 Y39.8366
G01 X18.1166 Y39.8366
G01 X18.1166 Y35.8458
G01 X18.0693 Y35.7933
G01 X18.0095 Y35.7127
G01 X17.9579 Y35.6266
G01 X17.9160 Y35.5383
G01 X17.9130 Y35.5309
G01 X17.8828 Y35.4464
G01 X17.8797 Y35.4362
G01 X17.8567 Y35.3440
G01 X17.8420 Y35.2447
G01 X17.8371 Y35.1444
G01 X17.8371 Y33.3156
G01 X17.8416 Y33.2206
G01 X17.8423 Y33.2127
G01 X17.8567 Y33.1160
G01 X17.8811 Y33.0187
G01 X17.9150 Y32.9242
G01 X17.9579 Y32.8334
G01 X18.0095 Y32.7473
G01 X18.0693 Y32.6667
G01 X18.1367 Y32.5923
G01 X18.2111 Y32.5249
G01 X18.2917 Y32.4651
G01 X18.3778 Y32.4135
G01 X18.4686 Y32.3706
G01 X18.5631 Y32.3367
G01 X18.6604 Y32.3123
G01 X18.7597 Y32.2976
G01 X18.8600 Y32.2927
G01 X18.9550 Y32.2972
G01 X18.9629 Y32.2979
G01 X19.0596 Y32.3123
G01 X19.1569 Y32.3367
G01 X19.2514 Y32.3706
G01 X19.3422 Y32.4135
G01 X19.4283 Y32.4651
G01 X19.5089 Y32.5249
G01 X19.5833 Y32.5923
G01 X19.6473 Y32.6627
G01 X19.6540 Y32.6709
G01 X19.7105 Y32.7473
G01 X19.7595 Y32.8288
G01 X19.7645 Y32.8381
G01 X19.8029 Y32.9193
G01 X19.8070 Y32.9291
G01 X19.8389 Y33.0187
G01 X19.8633 Y33.1160
G01 X19.8780 Y33.2153
G01 X19.8829 Y33.3129
G01 X19.8829 Y35.1444
G01 X19.8780 Y35.2447
G01 X19.8633 Y35.3440
G01 X19.8403 Y35.4362
G01 X19.8372 Y35.4464
G01 X19.8070 Y35.5309
G01 X19.8040 Y35.5383
G01 X19.7621 Y35.6266
G01 X19.7105 Y35.7127
G01 X19.6507 Y35.7933
G01 X19.6034 Y35.8458
G01 X19.6034 Y40.5800
G01 X19.5998 Y40.6529
G01 X19.5891 Y40.7250
G01 X19.5728 Y40.7907
G01 X19.5697 Y40.8008
G01 X19.5468 Y40.8645
G01 X19.5180 Y40.9257
G01 X19.5130 Y40.9350
G01 X19.4781 Y40.9930
G01 X19.4346 Y41.0516
G01 X19.3893 Y41.1018
G01 X19.3818 Y41.1093
G01 X19.3316 Y41.1546
G01 X19.2730 Y41.1981
G01 X19.2150 Y41.2330
G01 X19.2057 Y41.2380
G01 X19.1445 Y41.2668
G01 X19.0808 Y41.2897
G01 X19.0707 Y41.2928
G01 X19.0102 Y41.3079
G01 X18.9998 Y41.3100
G01 X18.9329 Y41.3198
G01 X18.8600 Y41.3234
G01 X6.1573 Y41.3233
G01 X6.0871 Y41.3198
G01 X6.0202 Y41.3100
G01 X6.0098 Y41.3079
G01 X5.9442 Y41.2914
G01 X5.8755 Y41.2668
G01 X5.8143 Y41.2380
G01 X5.8050 Y41.2330
G01 X5.7515 Y41.2009
G01 X5.7427 Y41.1950
G01 X5.6884 Y41.1546
G01 X5.6344 Y41.1056
G01 X5.5854 Y41.0516
G01 X5.5450 Y40.9973
G01 X5.5391 Y40.9885
G01 X5.5070 Y40.9350
G01 X5.5020 Y40.9257
G01 X5.4732 Y40.8645
G01 X5.4503 Y40.8008
G01 X5.4472 Y40.7907
G01 X5.4321 Y40.7302
G01 X5.4300 Y40.7198
G01 X5.4202 Y40.6529
G01 X5.4166 Y40.5800
G01 X5.4166 Y2.0516
G00 Z3.0000
G00 X9.5958 Y1.8871
G01 F40.00
G01 Z-0.0300
G01 F40.00
G01 X9.5958 Y37.1442
G01 X15.5766 Y37.1442
G01 X15.5766 Y35.8458
G01 X15.5293 Y35.7933
G01 X15.4695 Y35.7127
G01 X15.4179 Y35.6266
G01 X15.3760 Y35.5383
G01 X15.3730 Y35.5309
G01 X15.3428 Y35.4464
G01 X15.3397 Y35.4362
G01 X15.3167 Y35.3440
G01 X15.3027 Y35.2499
G01 X15.3018 Y35.2420
G01 X15.2971 Y35.1444
G01 X15.2971 Y33.3156
G01 X15.3020 Y33.2153
G01 X15.3167 Y33.1160
G01 X15.3411 Y33.0187
G01 X15.3750 Y32.9242
G01 X15.4179 Y32.8334
G01 X15.4695 Y32.7473
G01 X15.5293 Y32.6667
G01 X15.5967 Y32.5923
G01 X15.6711 Y32.5249
G01 X15.7517 Y32.4651
G01 X15.8378 Y32.4135
G01 X15.9286 Y32.3706
G01 X16.0231 Y32.3367
G01 X16.1204 Y32.3123
G01 X16.2197 Y32.2976
G01 X16.3200 Y32.2927
G01 X16.4203 Y32.2976
G01 X16.5143 Y32.3114
G01 X16.5222 Y32.3129
G01 X16.6169 Y32.3367
G01 X16.7065 Y32.3686
G01 X16.7163 Y32.3727
G01 X16.8022 Y32.4135
G01 X16.8838 Y32.4622
G01 X16.8926 Y32.4681
G01 X16.9689 Y32.5249
G01 X17.0395 Y32.5886
G01 X17.0470 Y32.5961
G01 X17.1107 Y32.6667
G01 X17.1675 Y32.7430
G01 X17.1734 Y32.7518
G01 X17.2221 Y32.8334
G01 X17.2629 Y32.9193
G01 X17.2670 Y32.9291
G01 X17.2972 Y33.0136
G01 X17.2996 Y33.0212
G01 X17.3233 Y33.1160
G01 X17.3373 Y33.2101
G01 X17.3384 Y33.2206
G01 X17.3429 Y33.3129
G01 X17.3429 Y35.1444
G01 X17.3380 Y35.2447
G01 X17.3233 Y35.3440
G01 X17.2989 Y35.4413
G01 X17.2660 Y35.5334
G01 X17.2629 Y35.5407
G01 X17.2221 Y35.6266
G01 X17.1720 Y35.7105
G01 X17.1675 Y35.7170
G01 X17.1107 Y35.7933
G01 X17.0634 Y35.8458
G01 X17.0633 Y37.8903
G01 X17.0602 Y37.9552
G01 X17.0591 Y37.9657
G01 X17.0491 Y38.0326
G01 X17.0328 Y38.0983
G01 X17.0297 Y38.1084
G01 X17.0087 Y38.1671
G01 X17.0046 Y38.1769
G01 X16.9756 Y38.2380
G01 X16.9409 Y38.2961
G01 X16.9350 Y38.3049
G01 X16.8946 Y38.3592
G01 X16.8493 Y38.4094
G01 X16.8418 Y38.4169
G01 X16.7916 Y38.4622
G01 X16.7373 Y38.5026
G01 X16.7285 Y38.5085
G01 X16.6704 Y38.5432
G01 X16.6093 Y38.5722
G01 X16.5995 Y38.5763
G01 X16.5358 Y38.5990
G01 X16.4650 Y38.6167
G01 X16.3929 Y38.6274
G01 X16.3200 Y38.6310
G01 X8.8524 Y38.6310
G01 X8.7822 Y38.6276
G01 X8.7743 Y38.6267
G01 X8.7126 Y38.6176
G01 X8.7022 Y38.6155
G01 X8.6366 Y38.5990
G01 X8.5679 Y38.5744
G01 X8.5020 Y38.5432
G01 X8.4439 Y38.5085
G01 X8.4351 Y38.5026
G01 X8.3850 Y38.4655
G01 X8.3768 Y38.4588
G01 X8.3268 Y38.4132
G01 X8.2778 Y38.3592
G01 X8.2343 Y38.3006
G01 X8.1994 Y38.2426
G01 X8.1944 Y38.2333
G01 X8.1678 Y38.1769
G01 X8.1637 Y38.1671
G01 X8.1410 Y38.1034
G01 X8.1233 Y38.0326
G01 X8.1126 Y37.9605
G01 X8.1090 Y37.8876
G01 X8.1090 Y2.1649
G01 X8.0733 Y2.1431
G01 X7.9890 Y2.0806
G01 X7.9829 Y2.0754
G01 X7.9071 Y2.0067
G01 X7.9015 Y2.0010
G01 X7.8311 Y1.9231
G01 X7.7669 Y1.8367
G01 X7.7625 Y1.8300
G01 X7.7087 Y1.7399
G01 X7.6615 Y1.6402
G01 X7.6244 Y1.5363
G01 X7.5987 Y1.4345
G01 X7.5971 Y1.4267
G01 X7.5814 Y1.3202
G01 X7.5760 Y1.2100
G01 X7.5814 Y1.0998
G01 X7.5966 Y0.9959
G01 X7.5987 Y0.9855
G01 X7.6244 Y0.8837
G01 X7.6596 Y0.7848
G01 X7.6637 Y0.7750
G01 X7.7063 Y0.6849
G01 X7.7113 Y0.6755
G01 X7.7654 Y0.5855
G01 X7.8294 Y0.4990
G01 X7.8346 Y0.4929
G01 X7.9052 Y0.4152
G01 X7.9869 Y0.3411
G01 X8.0755 Y0.2754
G01 X8.1701 Y0.2187
G01 X8.2698 Y0.1715
G01 X8.3737 Y0.1344
G01 X8.4807 Y0.1075
G01 X8.5898 Y0.0914
G01 X8.7000 Y0.0860
G01 X8.8102 Y0.0914
G01 X8.9193 Y0.1075
G01 X9.0263 Y0.1344
G01 X9.1302 Y0.1715
G01 X9.2299 Y0.2187
G01 X9.3245 Y0.2754
G01 X9.4110 Y0.3394
G01 X9.4171 Y0.3446
G01 X9.4948 Y0.4152
G01 X9.5689 Y0.4969
G01 X9.6346 Y0.5855
G01 X9.6913 Y0.6801
G01 X9.7385 Y0.7798
G01 X9.7756 Y0.8837
G01 X9.8025 Y0.9907
G01 X9.8183 Y1.0972
G01 X9.8190 Y1.1051
G01 X9.8240 Y1.2100
G01 X9.8186 Y1.3202
G01 X9.8025 Y1.4293
G01 X9.7764 Y1.5337
G01 X9.7740 Y1.5413
G01 X9.7385 Y1.6402
G01 X9.6925 Y1.7375
G01 X9.6887 Y1.7445
G01 X9.6361 Y1.8323
G01 X9.6316 Y1.8388
G01 X9.5958 Y1.8871
G00 Z3.0000
G00 X10.4966 Y2.0516
G01 F40.00
G01 Z-0.0300
G01 F40.00
G01 X10.4490 Y2.0085
G01 X10.4433 Y2.0029
G01 X10.3746 Y1.9271
G01 X10.3694 Y1.9210
G01 X10.3054 Y1.8345
G01 X10.2513 Y1.7445
G01 X10.2475 Y1.7375
G01 X10.2015 Y1.6402
G01 X10.1644 Y1.5363
G01 X10.1375 Y1.4293
G01 X10.1220 Y1.3254
G01 X10.1211 Y1.3175
G01 X10.1160 Y1.2100
G01 X10.1214 Y1.0998
G01 X10.1375 Y0.9907
G01 X10.1644 Y0.8837
G01 X10.2015 Y0.7798
G01 X10.2487 Y0.6801
G01 X10.3054 Y0.5855
G01 X10.3678 Y0.5011
G01 X10.3728 Y0.4949
G01 X10.4452 Y0.4152
G01 X10.5269 Y0.3411
G01 X10.6155 Y0.2754
G01 X10.7101 Y0.2187
G01 X10.8098 Y0.1715
G01 X10.9137 Y0.1344
G01 X11.0207 Y0.1075
G01 X11.1298 Y0.0914
G01 X11.2400 Y0.0860
G01 X11.3502 Y0.0914
G01 X11.4593 Y0.1075
G01 X11.5663 Y0.1344
G01 X11.6702 Y0.1715
G01 X11.7699 Y0.2187
G01 X11.8645 Y0.2754
G01 X11.9489 Y0.3378
G01 X11.9551 Y0.3428
G01 X12.0348 Y0.4152
G01 X12.1054 Y0.4929
G01 X12.1122 Y0.5011
G01 X12.1746 Y0.5855
G01 X12.2287 Y0.6755
G01 X12.2337 Y0.6849
G01 X12.2763 Y0.7750
G01 X12.2804 Y0.7848
G01 X12.3156 Y0.8837
G01 X12.3425 Y0.9907
G01 X12.3586 Y1.0998
G01 X12.3640 Y1.2100
G01 X12.3586 Y1.3202
G01 X12.3425 Y1.4293
G01 X12.3156 Y1.5363
G01 X12.2804 Y1.6352
G01 X12.2774 Y1.6426
G01 X12.2313 Y1.7399
G01 X12.1775 Y1.8300
G01 X12.1731 Y1.8367
G01 X12.1122 Y1.9189
G01 X12.1072 Y1.9251
G01 X12.0348 Y2.0048
G01 X11.9834 Y2.0516
G01 X11.9834 Y33.4866
G01 X12.7571 Y33.4866
G01 X12.7571 Y33.3129
G01 X12.7616 Y33.2206
G01 X12.7627 Y33.2101
G01 X12.7758 Y33.1213
G01 X12.7773 Y33.1134
G01 X12.8011 Y33.0187
G01 X12.8350 Y32.9242
G01 X12.8779 Y32.8334
G01 X12.9280 Y32.7495
G01 X12.9325 Y32.7430
G01 X12.9893 Y32.6667
G01 X13.0567 Y32.5923
G01 X13.1311 Y32.5249
G01 X13.2074 Y32.4681
G01 X13.2162 Y32.4622
G01 X13.2932 Y32.4161
G01 X13.3025 Y32.4111
G01 X13.3886 Y32.3706
G01 X13.4780 Y32.3384
G01 X13.4856 Y32.3360
G01 X13.5804 Y32.3123
G01 X13.6745 Y32.2983
G01 X13.6850 Y32.2972
G01 X13.7800 Y32.2927
G01 X13.8803 Y32.2976
G01 X13.9743 Y32.3114
G01 X13.9847 Y32.3135
G01 X14.0718 Y32.3353
G01 X14.0820 Y32.3384
G01 X14.1714 Y32.3706
G01 X14.2622 Y32.4135
G01 X14.3483 Y32.4651
G01 X14.4247 Y32.5216
G01 X14.4329 Y32.5283
G01 X14.4995 Y32.5886
G01 X14.5070 Y32.5961
G01 X14.5707 Y32.6667
G01 X14.6290 Y32.7451
G01 X14.6334 Y32.7518
G01 X14.6795 Y32.8288
G01 X14.6845 Y32.8381
G01 X14.7250 Y32.9242
G01 X14.7572 Y33.0136
G01 X14.7603 Y33.0238
G01 X14.7833 Y33.1160
G01 X14.7973 Y33.2101
G01 X14.7984 Y33.2206
G01 X14.8029 Y33.3156
G01 X14.8029 Y35.1444
G01 X14.7980 Y35.2447
G01 X14.7842 Y35.3387
G01 X14.7827 Y35.3466
G01 X14.7589 Y35.4413
G01 X14.7270 Y35.5309
G01 X14.7229 Y35.5407
G01 X14.6845 Y35.6219
G01 X14.6795 Y35.6312
G01 X14.6305 Y35.7127
G01 X14.5707 Y35.7933
G01 X14.5033 Y35.8677
G01 X14.4329 Y35.9317
G01 X14.4247 Y35.9384
G01 X14.3526 Y35.9919
G01 X14.3438 Y35.9978
G01 X14.2622 Y36.0465
G01 X14.1714 Y36.0894
G01 X14.0769 Y36.1233
G01 X13.9847 Y36.1465
G01 X13.9743 Y36.1486
G01 X13.8803 Y36.1624
G01 X13.7800 Y36.1673
G01 X13.6850 Y36.1628
G01 X13.6745 Y36.1617
G01 X13.5857 Y36.1486
G01 X13.5753 Y36.1465
G01 X13.4831 Y36.1233
G01 X13.3935 Y36.0914
G01 X13.3837 Y36.0873
G01 X13.2978 Y36.0465
G01 X13.2117 Y35.9949
G01 X13.1311 Y35.9351
G01 X13.0605 Y35.8714
G01 X13.0548 Y35.8658
G01 X12.9893 Y35.7933
G01 X12.9325 Y35.7170
G01 X12.9266 Y35.7082
G01 X12.8779 Y35.6266
G01 X12.8371 Y35.5407
G01 X12.8330 Y35.5309
G01 X12.8019 Y35.4439
G01 X12.7997 Y35.4362
G01 X12.7767 Y35.3440
G01 X12.7620 Y35.2447
G01 X12.7571 Y35.1471
G01 X12.7571 Y34.9734
G01 X11.2373 Y34.9733
G01 X11.1671 Y34.9698
G01 X11.1002 Y34.9600
G01 X11.0898 Y34.9579
G01 X11.0242 Y34.9414
G01 X10.9555 Y34.9168
G01 X10.8943 Y34.8880
G01 X10.8850 Y34.8830
G01 X10.8270 Y34.8481
G01 X10.7684 Y34.8046
G01 X10.7182 Y34.7593
G01 X10.7107 Y34.7518
G01 X10.6654 Y34.7016
G01 X10.6219 Y34.6430
G01 X10.5870 Y34.5850
G01 X10.5820 Y34.5757
G01 X10.5532 Y34.5145
G01 X10.5303 Y34.4508
G01 X10.5272 Y34.4407
G01 X10.5109 Y34.3750
G01 X10.5002 Y34.3029
G01 X10.4966 Y34.2300
G01 X10.4966 Y2.0516
G00 Z3.0000
G00 X15.5766 Y2.0516
G01 F40.00
G01 Z-0.0300
G01 F40.00
G01 X15.5290 Y2.0085
G01 X15.5233 Y2.0029
G01 X15.4546 Y1.9271
G01 X15.4494 Y1.9210
G01 X15.3854 Y1.8345
G01 X15.3313 Y1.7445
G01 X15.3275 Y1.7375
G01 X15.2815 Y1.6402
G01 X15.2444 Y1.5363
G01 X15.2175 Y1.4293
G01 X15.2020 Y1.3254
G01 X15.2011 Y1.3175
G01 X15.1960 Y1.2100
G01 X15.2014 Y1.0998
G01 X15.2175 Y0.9907
G01 X15.2444 Y0.8837
G01 X15.2815 Y0.7798
G01 X15.3287 Y0.6801
G01 X15.3854 Y0.5855
G01 X15.4478 Y0.5011
G01 X15.4528 Y0.4949
G01 X15.5252 Y0.4152
G01 X15.6069 Y0.3411
G01 X15.6955 Y0.2754
G01 X15.7901 Y0.2187
G01 X15.8898 Y0.1715
G01 X15.9937 Y0.1344
G01 X16.1007 Y0.1075
G01 X16.2098 Y0.0914
G01 X16.3200 Y0.0860
G01 X16.4302 Y0.0914
G01 X16.5393 Y0.1075
G01 X16.6463 Y0.1344
G01 X16.7502 Y0.1715
G01 X16.8499 Y0.2187
G01 X16.9445 Y0.2754
G01 X17.0289 Y0.3378
G01 X17.0351 Y0.3428
G01 X17.1148 Y0.4152
G01 X17.1889 Y0.4969
G01 X17.2546 Y0.5855
G01 X17.3087 Y0.6755
G01 X17.3137 Y0.6849
G01 X17.3585 Y0.7798
G01 X17.3940 Y0.8787
G01 X17.3971 Y0.8888
G01 X17.4213 Y0.9855
G01 X17.4234 Y0.9959
G01 X17.4386 Y1.0998
G01 X17.4440 Y1.2073
G01 X17.4439 Y1.2153
G01 X17.4386 Y1.3202
G01 X17.4225 Y1.4293
G01 X17.3956 Y1.5363
G01 X17.3604 Y1.6352
G01 X17.3574 Y1.6426
G01 X17.3113 Y1.7399
G01 X17.2575 Y1.8300
G01 X17.2531 Y1.8367
G01 X17.1922 Y1.9189
G01 X17.1872 Y1.9251
G01 X17.1148 Y2.0048
G01 X17.0634 Y2.0516
G01 X17.0634 Y17.3742
G01 X17.1107 Y17.4267
G01 X17.1705 Y17.5073
G01 X17.2221 Y17.5934
G01 X17.2640 Y17.6817
G01 X17.2670 Y17.6891
G01 X17.2972 Y17.7736
G01 X17.3003 Y17.7838
G01 X17.3233 Y17.8760
G01 X17.3380 Y17.9753
G01 X17.3429 Y18.0756
G01 X17.3429 Y19.9071
G01 X17.3380 Y20.0047
G01 X17.3233 Y20.1040
G01 X17.2989 Y20.2013
G01 X17.2650 Y20.2958
G01 X17.2221 Y20.3866
G01 X17.1705 Y20.4727
G01 X17.1107 Y20.5533
G01 X17.0433 Y20.6277
G01 X16.9689 Y20.6951
G01 X16.8883 Y20.7549
G01 X16.8022 Y20.8065
G01 X16.7114 Y20.8494
G01 X16.6169 Y20.8833
G01 X16.5196 Y20.9077
G01 X16.4203 Y20.9224
G01 X16.3253 Y20.9272
G01 X16.3147 Y20.9272
G01 X16.2197 Y20.9224
G01 X16.1204 Y20.9077
G01 X16.0231 Y20.8833
G01 X15.9286 Y20.8494
G01 X15.8378 Y20.8065
G01 X15.7517 Y20.7549
G01 X15.6711 Y20.6951
G01 X15.5967 Y20.6277
G01 X15.5293 Y20.5533
G01 X15.4695 Y20.4727
G01 X15.4179 Y20.3866
G01 X15.3750 Y20.2958
G01 X15.3411 Y20.2013
G01 X15.3167 Y20.1040
G01 X15.3020 Y20.0047
G01 X15.2972 Y19.9097
G01 X15.2971 Y18.0756
G01 X15.3020 Y17.9753
G01 X15.3167 Y17.8760
G01 X15.3397 Y17.7838
G01 X15.3428 Y17.7736
G01 X15.3730 Y17.6891
G01 X15.3760 Y17.6817
G01 X15.4179 Y17.5934
G01 X15.4695 Y17.5073
G01 X15.5293 Y17.4267
G01 X15.5766 Y17.3742
G01 X15.5766 Y2.0516
G00 Z3.0000
G00 X20.6566 Y2.0516
G01 F40.00
G01 Z-0.0300
G01 F40.00
G01 X20.6090 Y2.0085
G01 X20.6033 Y2.0029
G01 X20.5346 Y1.9271
G01 X20.5294 Y1.9210
G01 X20.4654 Y1.8345
G01 X20.4113 Y1.7445
G01 X20.4075 Y1.7375
G01 X20.3615 Y1.6402
G01 X20.3244 Y1.5363
G01 X20.2975 Y1.4293
G01 X20.2820 Y1.3254
G01 X20.2811 Y1.3175
G01 X20.2760 Y1.2100
G01 X20.2814 Y1.0998
G01 X20.2975 Y0.9907
G01 X20.3244 Y0.8837
G01 X20.3615 Y0.7798
G01 X20.4087 Y0.6801
G01 X20.4654 Y0.5855
G01 X20.5278 Y0.5011
G01 X20.5328 Y0.4949
G01 X20.6052 Y0.4152
G01 X20.6869 Y0.3411
G01 X20.7755 Y0.2754
G01 X20.8701 Y0.2187
G01 X20.9698 Y0.1715
G01 X21.0737 Y0.1344
G01 X21.1807 Y0.1075
G01 X21.2898 Y0.0914
G01 X21.4000 Y0.0860
G01 X21.5102 Y0.0914
G01 X21.6193 Y0.1075
G01 X21.7263 Y0.1344
G01 X21.8302 Y0.1715
G01 X21.9299 Y0.2187
G01 X22.0245 Y0.2754
G01 X22.1089 Y0.3378
G01 X22.1151 Y0.3428
G01 X22.1948 Y0.4152
G01 X22.2689 Y0.4969
G01 X22.3346 Y0.5855
G01 X22.3887 Y0.6755
G01 X22.3937 Y0.6849
G01 X22.4385 Y0.7798
G01 X22.4740 Y0.8787
G01 X22.4771 Y0.8888
G01 X22.5013 Y0.9855
G01 X22.5034 Y0.9959
G01 X22.5186 Y1.0998
G01 X22.5240 Y1.2073
G01 X22.5239 Y1.2153
G01 X22.5186 Y1.3202
G01 X22.5025 Y1.4293
G01 X22.4756 Y1.5363
G01 X22.4404 Y1.6352
G01 X22.4374 Y1.6426
G01 X22.3913 Y1.7399
G01 X22.3375 Y1.8300
G01 X22.3331 Y1.8367
G01 X22.2722 Y1.9189
G01 X22.2672 Y1.9251
G01 X22.1948 Y2.0048
G01 X22.1434 Y2.0516
G01 X22.1434 Y17.3742
G01 X22.1907 Y17.4267
G01 X22.2505 Y17.5073
G01 X22.3021 Y17.5934
G01 X22.3440 Y17.6817
G01 X22.3470 Y17.6891
G01 X22.3772 Y17.7736
G01 X22.3803 Y17.7838
G01 X22.4033 Y17.8760
G01 X22.4180 Y17.9753
G01 X22.4229 Y18.0756
G01 X22.4229 Y19.9071
G01 X22.4180 Y20.0047
G01 X22.4033 Y20.1040
G01 X22.3789 Y20.2013
G01 X22.3450 Y20.2958
G01 X22.3021 Y20.3866
G01 X22.2505 Y20.4727
G01 X22.1907 Y20.5533
G01 X22.1233 Y20.6277
G01 X22.0489 Y20.6951
G01 X21.9683 Y20.7549
G01 X21.8822 Y20.8065
G01 X21.7914 Y20.8494
G01 X21.6969 Y20.8833
G01 X21.5996 Y20.9077
G01 X21.5003 Y20.9224
G01 X21.4053 Y20.9272
G01 X21.3947 Y20.9272
G01 X21.2997 Y20.9224
G01 X21.2004 Y20.9077
G01 X21.1031 Y20.8833
G01 X21.0086 Y20.8494
G01 X20.9178 Y20.8065
G01 X20.8317 Y20.7549
G01 X20.7511 Y20.6951
G01 X20.6767 Y20.6277
G01 X20.6093 Y20.5533
G01 X20.5495 Y20.4727
G01 X20.4979 Y20.3866
G01 X20.4550 Y20.2958
G01 X20.4211 Y20.2013
G01 X20.3967 Y20.1040
G01 X20.3820 Y20.0047
G01 X20.3772 Y19.9097
G01 X20.3771 Y18.0756
G01 X20.3820 Y17.9753
G01 X20.3967 Y17.8760
G01 X20.4197 Y17.7838
G01 X20.4228 Y17.7736
G01 X20.4530 Y17.6891
G01 X20.4560 Y17.6817
G01 X20.4979 Y17.5934
G01 X20.5495 Y17.5073
G01 X20.6093 Y17.4267
G01 X20.6566 Y17.3742
G01 X20.6566 Y2.0516
G00 Z3.0000
G00 X25.7366 Y2.0516
G01 F40.00
G01 Z-0.0300
G01 F40.00
G01 X25.6890 Y2.0085
G01 X25.6833 Y2.0029
G01 X25.6146 Y1.9271
G01 X25.6094 Y1.9210
G01 X25.5454 Y1.8345
G01 X25.4913 Y1.7445
G01 X25.4875 Y1.7375
G01 X25.4415 Y1.6402
G01 X25.4044 Y1.5363
G01 X25.3775 Y1.4293
G01 X25.3620 Y1.3254
G01 X25.3611 Y1.3175
G01 X25.3560 Y1.2100
G01 X25.3614 Y1.0998
G01 X25.3775 Y0.9907
G01 X25.4044 Y0.8837
G01 X25.4415 Y0.7798
G01 X25.4887 Y0.6801
G01 X25.5454 Y0.5855
G01 X25.6078 Y0.5011
G01 X25.6128 Y0.4949
G01 X25.6852 Y0.4152
G01 X25.7669 Y0.3411
G01 X25.8555 Y0.2754
G01 X25.9501 Y0.2187
G01 X26.0498 Y0.1715
G01 X26.1537 Y0.1344
G01 X26.2607 Y0.1075
G01 X26.3698 Y0.0914
G01 X26.4800 Y0.0860
G01 X26.5902 Y0.0914
G01 X26.6993 Y0.1075
G01 X26.8063 Y0.1344
G01 X26.9102 Y0.1715
G01 X27.0099 Y0.2187
G01 X27.1045 Y0.2754
G01 X27.1889 Y0.3378
G01 X27.1951 Y0.3428
G01 X27.2748 Y0.4152
G01 X27.3489 Y0.4969
G01 X27.4146 Y0.5855
G01 X27.4687 Y0.6755
G01 X27.4737 Y0.6849
G01 X27.5185 Y0.7798
G01 X27.5540 Y0.8787
G01 X27.5571 Y0.8888
G01 X27.5813 Y0.9855
G01 X27.5834 Y0.9959
G01 X27.5986 Y1.0998
G01 X27.6040 Y1.2073
G01 X27.6039 Y1.2153
G01 X27.5986 Y1.3202
G01 X27.5825 Y1.4293
G01 X27.5556 Y1.5363
G01 X27.5204 Y1.6352
G01 X27.5174 Y1.6426
G01 X27.4713 Y1.7399
G01 X27.4175 Y1.8300
G01 X27.4131 Y1.8367
G01 X27.3522 Y1.9189
G01 X27.3472 Y1.9251
G01 X27.2748 Y2.0048
G01 X27.2234 Y2.0516
G01 X27.2234 Y17.3742
G01 X27.2707 Y17.4267
G01 X27.3305 Y17.5073
G01 X27.3821 Y17.5934
G01 X27.4240 Y17.6817
G01 X27.4270 Y17.6891
G01 X27.4572 Y17.7736
G01 X27.4603 Y17.7838
G01 X27.4833 Y17.8760
G01 X27.4980 Y17.9753
G01 X27.5029 Y18.0756
G01 X27.5029 Y19.9071
G01 X27.4980 Y20.0047
G01 X27.4833 Y20.1040
G01 X27.4589 Y20.2013
G01 X27.4250 Y20.2958
G01 X27.3821 Y20.3866
G01 X27.3305 Y20.4727
G01 X27.2707 Y20.5533
G01 X27.2033 Y20.6277
G01 X27.1289 Y20.6951
G01 X27.0483 Y20.7549
G01 X26.9622 Y20.8065
G01 X26.8714 Y20.8494
G01 X26.7769 Y20.8833
G01 X26.6796 Y20.9077
G01 X26.5803 Y20.9224
G01 X26.4853 Y20.9272
G01 X26.4747 Y20.9272
G01 X26.3797 Y20.9224
G01 X26.2804 Y20.9077
G01 X26.1831 Y20.8833
G01 X26.0886 Y20.8494
G01 X25.9978 Y20.8065
G01 X25.9117 Y20.7549
G01 X25.8311 Y20.6951
G01 X25.7567 Y20.6277
G01 X25.6893 Y20.5533
G01 X25.6295 Y20.4727
G01 X25.5779 Y20.3866
G01 X25.5350 Y20.2958
G01 X25.5011 Y20.2013
G01 X25.4767 Y20.1040
G01 X25.4620 Y20.0047
G01 X25.4572 Y19.9097
G01 X25.4571 Y18.0756
G01 X25.4620 Y17.9753
G01 X25.4767 Y17.8760
G01 X25.4997 Y17.7838
G01 X25.5028 Y17.7736
G01 X25.5330 Y17.6891
G01 X25.5360 Y17.6817
G01 X25.5779 Y17.5934
G01 X25.6295 Y17.5073
G01 X25.6893 Y17.4267
G01 X25.7366 Y17.3742
G01 X25.7366 Y2.0516
G00 Z3.0000
G00 X30.8166 Y2.0516
G01 F40.00
G01 Z-0.0300
G01 F40.00
G01 X30.7690 Y2.0085
G01 X30.7633 Y2.0029
G01 X30.6946 Y1.9271
G01 X30.6894 Y1.9210
G01 X30.6254 Y1.8345
G01 X30.5713 Y1.7445
G01 X30.5675 Y1.7375
G01 X30.5215 Y1.6402
G01 X30.4844 Y1.5363
G01 X30.4575 Y1.4293
G01 X30.4420 Y1.3254
G01 X30.4411 Y1.3175
G01 X30.4360 Y1.2100
G01 X30.4414 Y1.0998
G01 X30.4575 Y0.9907
G01 X30.4844 Y0.8837
G01 X30.5215 Y0.7798
G01 X30.5687 Y0.6801
G01 X30.6254 Y0.5855
G01 X30.6878 Y0.5011
G01 X30.6928 Y0.4949
G01 X30.7652 Y0.4152
G01 X30.8469 Y0.3411
G01 X30.9355 Y0.2754
G01 X31.0301 Y0.2187
G01 X31.1298 Y0.1715
G01 X31.2337 Y0.1344
G01 X31.3407 Y0.1075
G01 X31.4498 Y0.0914
G01 X31.5600 Y0.0860
G01 X31.6702 Y0.0914
G01 X31.7793 Y0.1075
G01 X31.8863 Y0.1344
G01 X31.9902 Y0.1715
G01 X32.0899 Y0.2187
G01 X32.1845 Y0.2754
G01 X32.2689 Y0.3378
G01 X32.2751 Y0.3428
G01 X32.3548 Y0.4152
G01 X32.4289 Y0.4969
G01 X32.4946 Y0.5855
G01 X32.5487 Y0.6755
G01 X32.5537 Y0.6849
G01 X32.5963 Y0.7750
G01 X32.6004 Y0.7848
G01 X32.6356 Y0.8837
G01 X32.6613 Y0.9855
G01 X32.6634 Y0.9959
G01 X32.6786 Y1.0998
G01 X32.6840 Y1.2073
G01 X32.6839 Y1.2153
G01 X32.6786 Y1.3202
G01 X32.6625 Y1.4293
G01 X32.6356 Y1.5363
G01 X32.6004 Y1.6352
G01 X32.5974 Y1.6426
G01 X32.5513 Y1.7399
G01 X32.4975 Y1.8300
G01 X32.4931 Y1.8367
G01 X32.4322 Y1.9189
G01 X32.4272 Y1.9251
G01 X32.3548 Y2.0048
G01 X32.3034 Y2.0516
G01 X32.3034 Y17.3742
G01 X32.3507 Y17.4267
G01 X32.4105 Y17.5073
G01 X32.4621 Y17.5934
G01 X32.5040 Y17.6817
G01 X32.5070 Y17.6891
G01 X32.5372 Y17.7736
G01 X32.5403 Y17.7838
G01 X32.5633 Y17.8760
G01 X32.5780 Y17.9753
G01 X32.5829 Y18.0756
G01 X32.5829 Y19.9071
G01 X32.5780 Y20.0047
G01 X32.5633 Y20.1040
G01 X32.5389 Y20.2013
G01 X32.5050 Y20.2958
G01 X32.4621 Y20.3866
G01 X32.4105 Y20.4727
G01 X32.3507 Y20.5533
G01 X32.2833 Y20.6277
G01 X32.2089 Y20.6951
G01 X32.1283 Y20.7549
G01 X32.0422 Y20.8065
G01 X31.9514 Y20.8494
G01 X31.8569 Y20.8833
G01 X31.7596 Y20.9077
G01 X31.6603 Y20.9224
G01 X31.5653 Y20.9272
G01 X31.5547 Y20.9272
G01 X31.4597 Y20.9224
G01 X31.3604 Y20.9077
G01 X31.2631 Y20.8833
G01 X31.1686 Y20.8494
G01 X31.0778 Y20.8065
G01 X30.9917 Y20.7549
G01 X30.9111 Y20.6951
G01 X30.8367 Y20.6277
G01 X30.7693 Y20.5533
G01 X30.7095 Y20.4727
G01 X30.6579 Y20.3866
G01 X30.6150 Y20.2958
G01 X30.5811 Y20.2013
G01 X30.5567 Y20.1040
G01 X30.5420 Y20.0047
G01 X30.5372 Y19.9097
G01 X30.5371 Y18.0756
G01 X30.5420 Y17.9753
G01 X30.5567 Y17.8760
G01 X30.5797 Y17.7838
G01 X30.5828 Y17.7736
G01 X30.6130 Y17.6891
G01 X30.6160 Y17.6817
G01 X30.6579 Y17.5934
G01 X30.7095 Y17.5073
G01 X30.7693 Y17.4267
G01 X30.8166 Y17.3742
G01 X30.8166 Y2.0516
G00 Z3.0000
G00 X35.8966 Y2.0516
G01 F40.00
G01 Z-0.0300
G01 F40.00
G01 X35.8490 Y2.0085
G01 X35.8433 Y2.0029
G01 X35.7746 Y1.9271
G01 X35.7694 Y1.9210
G01 X35.7054 Y1.8345
G01 X35.6513 Y1.7445
G01 X35.6475 Y1.7375
G01 X35.6015 Y1.6402
G01 X35.5644 Y1.5363
G01 X35.5375 Y1.4293
G01 X35.5220 Y1.3254
G01 X35.5211 Y1.3175
G01 X35.5160 Y1.2100
G01 X35.5214 Y1.0998
G01 X35.5375 Y0.9907
G01 X35.5644 Y0.8837
G01 X35.6015 Y0.7798
G01 X35.6487 Y0.6801
G01 X35.7054 Y0.5855
G01 X35.7678 Y0.5011
G01 X35.7728 Y0.4949
G01 X35.8452 Y0.4152
G01 X35.9269 Y0.3411
G01 X36.0155 Y0.2754
G01 X36.1101 Y0.2187
G01 X36.2098 Y0.1715
G01 X36.3137 Y0.1344
G01 X36.4207 Y0.1075
G01 X36.5298 Y0.0914
G01 X36.6400 Y0.0860
G01 X36.7502 Y0.0914
G01 X36.8593 Y0.1075
G01 X36.9663 Y0.1344
G01 X37.0702 Y0.1715
G01 X37.1699 Y0.2187
G01 X37.2645 Y0.2754
G01 X37.3489 Y0.3378
G01 X37.3551 Y0.3428
G01 X37.4348 Y0.4152
G01 X37.5089 Y0.4969
G01 X37.5746 Y0.5855
G01 X37.6287 Y0.6755
G01 X37.6337 Y0.6849
G01 X37.6763 Y0.7750
G01 X37.6804 Y0.7848
G01 X37.7156 Y0.8837
G01 X37.7413 Y0.9855
G01 X37.7434 Y0.9959
G01 X37.7586 Y1.0998
G01 X37.7640 Y1.2073
G01 X37.7639 Y1.2153
G01 X37.7586 Y1.3202
G01 X37.7425 Y1.4293
G01 X37.7156 Y1.5363
G01 X37.6804 Y1.6352
G01 X37.6774 Y1.6426
G01 X37.6313 Y1.7399
G01 X37.5775 Y1.8300
G01 X37.5731 Y1.8367
G01 X37.5122 Y1.9189
G01 X37.5072 Y1.9251
G01 X37.4348 Y2.0048
G01 X37.3834 Y2.0516
G01 X37.3834 Y17.3742
G01 X37.4307 Y17.4267
G01 X37.4905 Y17.5073
G01 X37.5421 Y17.5934
G01 X37.5840 Y17.6817
G01 X37.5870 Y17.6891
G01 X37.6172 Y17.7736
G01 X37.6203 Y17.7838
G01 X37.6433 Y17.8760
G01 X37.6580 Y17.9753
G01 X37.6629 Y18.0756
G01 X37.6629 Y19.9071
G01 X37.6580 Y20.0047
G01 X37.6433 Y20.1040
G01 X37.6189 Y20.2013
G01 X37.5850 Y20.2958
G01 X37.5421 Y20.3866
G01 X37.4905 Y20.4727
G01 X37.4307 Y20.5533
G01 X37.3633 Y20.6277
G01 X37.2889 Y20.6951
G01 X37.2083 Y20.7549
G01 X37.1222 Y20.8065
G01 X37.0314 Y20.8494
G01 X36.9369 Y20.8833
G01 X36.8396 Y20.9077
G01 X36.7403 Y20.9224
G01 X36.6453 Y20.9272
G01 X36.6347 Y20.9272
G01 X36.5397 Y20.9224
G01 X36.4404 Y20.9077
G01 X36.3431 Y20.8833
G01 X36.2486 Y20.8494
G01 X36.1578 Y20.8065
G01 X36.0717 Y20.7549
G01 X35.9911 Y20.6951
G01 X35.9167 Y20.6277
G01 X35.8493 Y20.5533
G01 X35.7895 Y20.4727
G01 X35.7379 Y20.3866
G01 X35.6950 Y20.2958
G01 X35.6611 Y20.2013
G01 X35.6367 Y20.1040
G01 X35.6220 Y20.0047
G01 X35.6172 Y19.9097
G01 X35.6171 Y18.0756
G01 X35.6220 Y17.9753
G01 X35.6367 Y17.8760
G01 X35.6597 Y17.7838
G01 X35.6628 Y17.7736
G01 X35.6930 Y17.6891
G01 X35.6960 Y17.6817
G01 X35.7379 Y17.5934
G01 X35.7895 Y17.5073
G01 X35.8493 Y17.4267
G01 X35.8966 Y17.3742
G01 X35.8966 Y2.0516
G00 Z3.0000
G00 X40.9766 Y2.0516
G01 F40.00
G01 Z-0.0300
G01 F40.00
G01 X40.9290 Y2.0085
G01 X40.9233 Y2.0029
G01 X40.8546 Y1.9271
G01 X40.8494 Y1.9210
G01 X40.7854 Y1.8345
G01 X40.7313 Y1.7445
G01 X40.7275 Y1.7375
G01 X40.6815 Y1.6402
G01 X40.6444 Y1.5363
G01 X40.6175 Y1.4293
G01 X40.6020 Y1.3254
G01 X40.6011 Y1.3175
G01 X40.5960 Y1.2100
G01 X40.6014 Y1.0998
G01 X40.6175 Y0.9907
G01 X40.6444 Y0.8837
G01 X40.6815 Y0.7798
G01 X40.7287 Y0.6801
G01 X40.7854 Y0.5855
G01 X40.8478 Y0.5011
G01 X40.8528 Y0.4949
G01 X40.9252 Y0.4152
G01 X41.0069 Y0.3411
G01 X41.0955 Y0.2754
G01 X41.1901 Y0.2187
G01 X41.2898 Y0.1715
G01 X41.3937 Y0.1344
G01 X41.5007 Y0.1075
G01 X41.6098 Y0.0914
G01 X41.7200 Y0.0860
G01 X41.8302 Y0.0914
G01 X41.9393 Y0.1075
G01 X42.0463 Y0.1344
G01 X42.1502 Y0.1715
G01 X42.2499 Y0.2187
G01 X42.3445 Y0.2754
G01 X42.4289 Y0.3378
G01 X42.4351 Y0.3428
G01 X42.5148 Y0.4152
G01 X42.5889 Y0.4969
G01 X42.6546 Y0.5855
G01 X42.7087 Y0.6755
G01 X42.7137 Y0.6849
G01 X42.7563 Y0.7750
G01 X42.7604 Y0.7848
G01 X42.7956 Y0.8837
G01 X42.8213 Y0.9855
G01 X42.8234 Y0.9959
G01 X42.8386 Y1.0998
G01 X42.8440 Y1.2073
G01 X42.8439 Y1.2153
G01 X42.8386 Y1.3202
G01 X42.8225 Y1.4293
G01 X42.7956 Y1.5363
G01 X42.7604 Y1.6352
G01 X42.7574 Y1.6426
G01 X42.7113 Y1.7399
G01 X42.6575 Y1.8300
G01 X42.6531 Y1.8367
G01 X42.5922 Y1.9189
G01 X42.5872 Y1.9251
G01 X42.5148 Y2.0048
G01 X42.4634 Y2.0516
G01 X42.4634 Y9.2799
G01 X42.4997 Y9.3128
G01 X42.5054 Y9.3184
G01 X42.5748 Y9.3950
G01 X42.5798 Y9.4012
G01 X42.6398 Y9.4822
G01 X42.6441 Y9.4889
G01 X42.6972 Y9.5777
G01 X42.7427 Y9.6735
G01 X42.7456 Y9.6809
G01 X42.7803 Y9.7784
G01 X42.8068 Y9.8838
G01 X42.8227 Y9.9914
G01 X42.8280 Y10.1000
G01 X42.8227 Y10.2086
G01 X42.8068 Y10.3162
G01 X42.7803 Y10.4216
G01 X42.7456 Y10.5191
G01 X42.7427 Y10.5265
G01 X42.6972 Y10.6223
G01 X42.6441 Y10.7111
G01 X42.6398 Y10.7178
G01 X42.5798 Y10.7988
G01 X42.5748 Y10.8050
G01 X42.5054 Y10.8816
G01 X42.4997 Y10.8872
G01 X42.4634 Y10.9201
G01 X42.4634 Y17.3742
G01 X42.5107 Y17.4267
G01 X42.5705 Y17.5073
G01 X42.6221 Y17.5934
G01 X42.6640 Y17.6817
G01 X42.6670 Y17.6891
G01 X42.6972 Y17.7736
G01 X42.7003 Y17.7838
G01 X42.7233 Y17.8760
G01 X42.7380 Y17.9753
G01 X42.7429 Y18.0756
G01 X42.7429 Y19.9071
G01 X42.7380 Y20.0047
G01 X42.7233 Y20.1040
G01 X42.6989 Y20.2013
G01 X42.6650 Y20.2958
G01 X42.6221 Y20.3866
G01 X42.5705 Y20.4727
G01 X42.5107 Y20.5533
G01 X42.4433 Y20.6277
G01 X42.3689 Y20.6951
G01 X42.2883 Y20.7549
G01 X42.2022 Y20.8065
G01 X42.1114 Y20.8494
G01 X42.0169 Y20.8833
G01 X41.9196 Y20.9077
G01 X41.8203 Y20.9224
G01 X41.7253 Y20.9272
G01 X41.7147 Y20.9272
G01 X41.6197 Y20.9224
G01 X41.5204 Y20.9077
G01 X41.4231 Y20.8833
G01 X41.3286 Y20.8494
G01 X41.2378 Y20.8065
G01 X41.1517 Y20.7549
G01 X41.0711 Y20.6951
G01 X40.9967 Y20.6277
G01 X40.9293 Y20.5533
G01 X40.8695 Y20.4727
G01 X40.8179 Y20.3866
G01 X40.7750 Y20.2958
G01 X40.7411 Y20.2013
G01 X40.7167 Y20.1040
G01 X40.7020 Y20.0047
G01 X40.6972 Y19.9097
G01 X40.6971 Y18.0756
G01 X40.7020 Y17.9753
G01 X40.7167 Y17.8760
G01 X40.7397 Y17.7838
G01 X40.7428 Y17.7736
G01 X40.7730 Y17.6891
G01 X40.7760 Y17.6817
G01 X40.8179 Y17.5934
G01 X40.8695 Y17.5073
G01 X40.9293 Y17.4267
G01 X40.9766 Y17.3742
G01 X40.9766 Y10.9201
G01 X40.9403 Y10.8872
G01 X40.9346 Y10.8816
G01 X40.8652 Y10.8050
G01 X40.8602 Y10.7988
G01 X40.8002 Y10.7178
G01 X40.7959 Y10.7111
G01 X40.7428 Y10.6223
G01 X40.6973 Y10.5265
G01 X40.6944 Y10.5191
G01 X40.6597 Y10.4216
G01 X40.6332 Y10.3162
G01 X40.6173 Y10.2086
G01 X40.6120 Y10.1000
G01 X40.6173 Y9.9914
G01 X40.6332 Y9.8838
G01 X40.6597 Y9.7784
G01 X40.6944 Y9.6809
G01 X40.6973 Y9.6735
G01 X40.7428 Y9.5777
G01 X40.7959 Y9.4889
G01 X40.8002 Y9.4822
G01 X40.8602 Y9.4012
G01 X40.8652 Y9.3950
G01 X40.9346 Y9.3184
G01 X40.9403 Y9.3128
G01 X40.9766 Y9.2799
G01 X40.9766 Y2.0516
G00 Z3.0000
G00 X43.5166 Y2.0516
G01 F40.00
G01 Z-0.0300
G01 F40.00
G01 X43.4690 Y2.0085
G01 X43.4633 Y2.0029
G01 X43.3946 Y1.9271
G01 X43.3894 Y1.9210
G01 X43.3254 Y1.8345
G01 X43.2713 Y1.7445
G01 X43.2675 Y1.7375
G01 X43.2215 Y1.6402
G01 X43.1844 Y1.5363
G01 X43.1575 Y1.4293
G01 X43.1420 Y1.3254
G01 X43.1411 Y1.3175
G01 X43.1360 Y1.2100
G01 X43.1414 Y1.0998
G01 X43.1575 Y0.9907
G01 X43.1844 Y0.8837
G01 X43.2215 Y0.7798
G01 X43.2687 Y0.6801
G01 X43.3254 Y0.5855
G01 X43.3878 Y0.5011
G01 X43.3928 Y0.4949
G01 X43.4652 Y0.4152
G01 X43.5469 Y0.3411
G01 X43.6355 Y0.2754
G01 X43.7301 Y0.2187
G01 X43.8298 Y0.1715
G01 X43.9337 Y0.1344
G01 X44.0407 Y0.1075
G01 X44.1498 Y0.0914
G01 X44.2600 Y0.0860
G01 X44.3702 Y0.0914
G01 X44.4793 Y0.1075
G01 X44.5863 Y0.1344
G01 X44.6902 Y0.1715
G01 X44.7899 Y0.2187
G01 X44.8845 Y0.2754
G01 X44.9689 Y0.3378
G01 X44.9751 Y0.3428
G01 X45.0548 Y0.4152
G01 X45.1289 Y0.4969
G01 X45.1946 Y0.5855
G01 X45.2513 Y0.6801
G01 X45.2985 Y0.7798
G01 X45.3356 Y0.8837
G01 X45.3625 Y0.9907
G01 X45.3780 Y1.0946
G01 X45.3790 Y1.1051
G01 X45.3839 Y1.2047
G01 X45.3839 Y1.2153
G01 X45.3786 Y1.3202
G01 X45.3634 Y1.4241
G01 X45.3613 Y1.4345
G01 X45.3356 Y1.5363
G01 X45.2995 Y1.6377
G01 X45.2963 Y1.6450
G01 X45.2513 Y1.7399
G01 X45.1975 Y1.8300
G01 X45.1931 Y1.8367
G01 X45.1322 Y1.9189
G01 X45.1272 Y1.9251
G01 X45.0548 Y2.0048
G01 X45.0034 Y2.0516
G01 X45.0034 Y6.7399
G01 X45.0397 Y6.7728
G01 X45.0454 Y6.7784
G01 X45.1148 Y6.8550
G01 X45.1198 Y6.8612
G01 X45.1798 Y6.9422
G01 X45.1841 Y6.9489
G01 X45.2372 Y7.0377
G01 X45.2816 Y7.1311
G01 X45.2847 Y7.1384
G01 X45.3187 Y7.2333
G01 X45.3218 Y7.2435
G01 X45.3468 Y7.3438
G01 X45.3621 Y7.4461
G01 X45.3631 Y7.4567
G01 X45.3680 Y7.5600
G01 X45.3629 Y7.6660
G01 X45.3621 Y7.6739
G01 X45.3468 Y7.7762
G01 X45.3218 Y7.8765
G01 X45.3187 Y7.8867
G01 X45.2856 Y7.9791
G01 X45.2816 Y7.9889
G01 X45.2372 Y8.0823
G01 X45.1813 Y8.1756
G01 X45.1165 Y8.2629
G01 X45.0435 Y8.3435
G01 X44.9629 Y8.4165
G01 X44.8799 Y8.4783
G01 X44.8711 Y8.4841
G01 X44.7869 Y8.5346
G01 X44.7776 Y8.5396
G01 X44.6840 Y8.5837
G01 X44.5816 Y8.6203
G01 X44.4762 Y8.6468
G01 X44.3712 Y8.6624
G01 X44.3633 Y8.6631
G01 X44.2600 Y8.6680
G01 X44.1514 Y8.6627
G01 X44.0438 Y8.6468
G01 X43.9384 Y8.6203
G01 X43.8360 Y8.5837
G01 X43.7377 Y8.5372
G01 X43.6444 Y8.4813
G01 X43.5571 Y8.4165
G01 X43.4765 Y8.3435
G01 X43.4035 Y8.2629
G01 X43.3387 Y8.1756
G01 X43.2828 Y8.0823
G01 X43.2363 Y7.9840
G01 X43.1997 Y7.8816
G01 X43.1732 Y7.7762
G01 X43.1576 Y7.6712
G01 X43.1569 Y7.6633
G01 X43.1520 Y7.5600
G01 X43.1569 Y7.4567
G01 X43.1579 Y7.4461
G01 X43.1732 Y7.3438
G01 X43.1982 Y7.2435
G01 X43.2013 Y7.2333
G01 X43.2353 Y7.1384
G01 X43.2384 Y7.1311
G01 X43.2828 Y7.0377
G01 X43.3359 Y6.9489
G01 X43.3402 Y6.9422
G01 X43.4002 Y6.8612
G01 X43.4052 Y6.8550
G01 X43.4746 Y6.7784
G01 X43.4803 Y6.7728
G01 X43.5166 Y6.7399
G01 X43.5166 Y2.0516
G00 Z3.0000
G00 X46.0566 Y2.0516
G01 F40.00
G01 Z-0.0300
G01 F40.00
G01 X46.0090 Y2.0085
G01 X46.0033 Y2.0029
G01 X45.9346 Y1.9271
G01 X45.9294 Y1.9210
G01 X45.8654 Y1.8345
G01 X45.8113 Y1.7445
G01 X45.8075 Y1.7375
G01 X45.7615 Y1.6402
G01 X45.7244 Y1.5363
G01 X45.6975 Y1.4293
G01 X45.6820 Y1.3254
G01 X45.6811 Y1.3175
G01 X45.6760 Y1.2100
G01 X45.6814 Y1.0998
G01 X45.6975 Y0.9907
G01 X45.7244 Y0.8837
G01 X45.7615 Y0.7798
G01 X45.8087 Y0.6801
G01 X45.8654 Y0.5855
G01 X45.9278 Y0.5011
G01 X45.9328 Y0.4949
G01 X46.0052 Y0.4152
G01 X46.0869 Y0.3411
G01 X46.1755 Y0.2754
G01 X46.2701 Y0.2187
G01 X46.3698 Y0.1715
G01 X46.4737 Y0.1344
G01 X46.5807 Y0.1075
G01 X46.6898 Y0.0914
G01 X46.8000 Y0.0860
G01 X46.9102 Y0.0914
G01 X47.0193 Y0.1075
G01 X47.1263 Y0.1344
G01 X47.2302 Y0.1715
G01 X47.3299 Y0.2187
G01 X47.4245 Y0.2754
G01 X47.5089 Y0.3378
G01 X47.5151 Y0.3428
G01 X47.5948 Y0.4152
G01 X47.6689 Y0.4969
G01 X47.7346 Y0.5855
G01 X47.7887 Y0.6755
G01 X47.7937 Y0.6849
G01 X47.8363 Y0.7750
G01 X47.8404 Y0.7848
G01 X47.8756 Y0.8837
G01 X47.9013 Y0.9855
G01 X47.9034 Y0.9959
G01 X47.9186 Y1.0998
G01 X47.9240 Y1.2073
G01 X47.9239 Y1.2153
G01 X47.9186 Y1.3202
G01 X47.9025 Y1.4293
G01 X47.8756 Y1.5363
G01 X47.8404 Y1.6352
G01 X47.8374 Y1.6426
G01 X47.7913 Y1.7399
G01 X47.7375 Y1.8300
G01 X47.7331 Y1.8367
G01 X47.6722 Y1.9189
G01 X47.6672 Y1.9251
G01 X47.5948 Y2.0048
G01 X47.5434 Y2.0516
G01 X47.5434 Y17.3742
G01 X47.5907 Y17.4267
G01 X47.6505 Y17.5073
G01 X47.7021 Y17.5934
G01 X47.7440 Y17.6817
G01 X47.7470 Y17.6891
G01 X47.7772 Y17.7736
G01 X47.7803 Y17.7838
G01 X47.8033 Y17.8760
G01 X47.8180 Y17.9753
G01 X47.8229 Y18.0756
G01 X47.8229 Y19.9071
G01 X47.8180 Y20.0047
G01 X47.8033 Y20.1040
G01 X47.7789 Y20.2013
G01 X47.7450 Y20.2958
G01 X47.7021 Y20.3866
G01 X47.6505 Y20.4727
G01 X47.5907 Y20.5533
G01 X47.5233 Y20.6277
G01 X47.4489 Y20.6951
G01 X47.3683 Y20.7549
G01 X47.2822 Y20.8065
G01 X47.1914 Y20.8494
G01 X47.0969 Y20.8833
G01 X46.9996 Y20.9077
G01 X46.9003 Y20.9224
G01 X46.8053 Y20.9272
G01 X46.7947 Y20.9272
G01 X46.6997 Y20.9224
G01 X46.6004 Y20.9077
G01 X46.5031 Y20.8833
G01 X46.4086 Y20.8494
G01 X46.3178 Y20.8065
G01 X46.2317 Y20.7549
G01 X46.1511 Y20.6951
G01 X46.0767 Y20.6277
G01 X46.0093 Y20.5533
G01 X45.9495 Y20.4727
G01 X45.8979 Y20.3866
G01 X45.8550 Y20.2958
G01 X45.8211 Y20.2013
G01 X45.7967 Y20.1040
G01 X45.7820 Y20.0047
G01 X45.7772 Y19.9097
G01 X45.7771 Y18.0756
G01 X45.7820 Y17.9753
G01 X45.7967 Y17.8760
G01 X45.8197 Y17.7838
G01 X45.8228 Y17.7736
G01 X45.8530 Y17.6891
G01 X45.8560 Y17.6817
G01 X45.8979 Y17.5934
G01 X45.9495 Y17.5073
G01 X46.0093 Y17.4267
G01 X46.0566 Y17.3742
G01 X46.0566 Y2.0516
G00 Z3.0000
G00 X51.1366 Y2.0516
G01 F40.00
G01 Z-0.0300
G01 F40.00
G01 X51.0890 Y2.0085
G01 X51.0833 Y2.0029
G01 X51.0146 Y1.9271
G01 X51.0094 Y1.9210
G01 X50.9454 Y1.8345
G01 X50.8913 Y1.7445
G01 X50.8875 Y1.7375
G01 X50.8415 Y1.6402
G01 X50.8044 Y1.5363
G01 X50.7775 Y1.4293
G01 X50.7620 Y1.3254
G01 X50.7611 Y1.3175
G01 X50.7560 Y1.2100
G01 X50.7614 Y1.0998
G01 X50.7775 Y0.9907
G01 X50.8044 Y0.8837
G01 X50.8415 Y0.7798
G01 X50.8887 Y0.6801
G01 X50.9454 Y0.5855
G01 X51.0078 Y0.5011
G01 X51.0128 Y0.4949
G01 X51.0852 Y0.4152
G01 X51.1669 Y0.3411
G01 X51.2555 Y0.2754
G01 X51.3501 Y0.2187
G01 X51.4498 Y0.1715
G01 X51.5537 Y0.1344
G01 X51.6607 Y0.1075
G01 X51.7698 Y0.0914
G01 X51.8800 Y0.0860
G01 X51.9902 Y0.0914
G01 X52.0993 Y0.1075
G01 X52.2063 Y0.1344
G01 X52.3102 Y0.1715
G01 X52.4099 Y0.2187
G01 X52.5045 Y0.2754
G01 X52.5889 Y0.3378
G01 X52.5951 Y0.3428
G01 X52.6748 Y0.4152
G01 X52.7489 Y0.4969
G01 X52.8146 Y0.5855
G01 X52.8713 Y0.6801
G01 X52.9185 Y0.7798
G01 X52.9556 Y0.8837
G01 X52.9825 Y0.9907
G01 X52.9980 Y1.0946
G01 X52.9990 Y1.1051
G01 X53.0039 Y1.2047
G01 X53.0039 Y1.2153
G01 X52.9986 Y1.3202
G01 X52.9834 Y1.4241
G01 X52.9813 Y1.4345
G01 X52.9556 Y1.5363
G01 X52.9195 Y1.6377
G01 X52.9163 Y1.6450
G01 X52.8713 Y1.7399
G01 X52.8175 Y1.8300
G01 X52.8131 Y1.8367
G01 X52.7522 Y1.9189
G01 X52.7472 Y1.9251
G01 X52.6748 Y2.0048
G01 X52.6234 Y2.0516
G01 X52.6234 Y6.7399
G01 X52.6597 Y6.7728
G01 X52.6654 Y6.7784
G01 X52.7348 Y6.8550
G01 X52.7398 Y6.8612
G01 X52.7998 Y6.9422
G01 X52.8041 Y6.9489
G01 X52.8572 Y7.0377
G01 X52.9016 Y7.1311
G01 X52.9047 Y7.1384
G01 X52.9387 Y7.2333
G01 X52.9418 Y7.2435
G01 X52.9668 Y7.3438
G01 X52.9821 Y7.4461
G01 X52.9831 Y7.4567
G01 X52.9880 Y7.5600
G01 X52.9829 Y7.6660
G01 X52.9821 Y7.6739
G01 X52.9668 Y7.7762
G01 X52.9418 Y7.8765
G01 X52.9387 Y7.8867
G01 X52.9056 Y7.9791
G01 X52.9016 Y7.9889
G01 X52.8572 Y8.0823
G01 X52.8013 Y8.1756
G01 X52.7365 Y8.2629
G01 X52.6635 Y8.3435
G01 X52.5829 Y8.4165
G01 X52.4999 Y8.4783
G01 X52.4911 Y8.4841
G01 X52.4069 Y8.5346
G01 X52.3976 Y8.5396
G01 X52.3040 Y8.5837
G01 X52.2016 Y8.6203
G01 X52.0962 Y8.6468
G01 X51.9912 Y8.6624
G01 X51.9833 Y8.6631
G01 X51.8800 Y8.6680
G01 X51.7714 Y8.6627
G01 X51.6638 Y8.6468
G01 X51.5584 Y8.6203
G01 X51.4560 Y8.5837
G01 X51.3577 Y8.5372
G01 X51.2644 Y8.4813
G01 X51.1771 Y8.4165
G01 X51.0965 Y8.3435
G01 X51.0235 Y8.2629
G01 X50.9587 Y8.1756
G01 X50.9028 Y8.0823
G01 X50.8563 Y7.9840
G01 X50.8197 Y7.8816
G01 X50.7932 Y7.7762
G01 X50.7776 Y7.6712
G01 X50.7769 Y7.6633
G01 X50.7720 Y7.5600
G01 X50.7769 Y7.4567
G01 X50.7779 Y7.4461
G01 X50.7932 Y7.3438
G01 X50.8182 Y7.2435
G01 X50.8213 Y7.2333
G01 X50.8553 Y7.1384
G01 X50.8584 Y7.1311
G01 X50.9028 Y7.0377
G01 X50.9559 Y6.9489
G01 X50.9602 Y6.9422
G01 X51.0202 Y6.8612
G01 X51.0252 Y6.8550
G01 X51.0946 Y6.7784
G01 X51.1003 Y6.7728
G01 X51.1366 Y6.7399
G01 X51.1366 Y2.0516
G00 Z3.0000
G00 X53.6766 Y2.0516
G01 F40.00
G01 Z-0.0300
G01 F40.00
G01 X53.6290 Y2.0085
G01 X53.6233 Y2.0029
G01 X53.5546 Y1.9271
G01 X53.5494 Y1.9210
G01 X53.4854 Y1.8345
G01 X53.4313 Y1.7445
G01 X53.4275 Y1.7375
G01 X53.3815 Y1.6402
G01 X53.3444 Y1.5363
G01 X53.3175 Y1.4293
G01 X53.3020 Y1.3254
G01 X53.3011 Y1.3175
G01 X53.2960 Y1.2100
G01 X53.3014 Y1.0998
G01 X53.3175 Y0.9907
G01 X53.3444 Y0.8837
G01 X53.3815 Y0.7798
G01 X53.4287 Y0.6801
G01 X53.4854 Y0.5855
G01 X53.5478 Y0.5011
G01 X53.5528 Y0.4949
G01 X53.6252 Y0.4152
G01 X53.7069 Y0.3411
G01 X53.7955 Y0.2754
G01 X53.8901 Y0.2187
G01 X53.9898 Y0.1715
G01 X54.0937 Y0.1344
G01 X54.2007 Y0.1075
G01 X54.3098 Y0.0914
G01 X54.4200 Y0.0860
G01 X54.5302 Y0.0914
G01 X54.6393 Y0.1075
G01 X54.7463 Y0.1344
G01 X54.8502 Y0.1715
G01 X54.9499 Y0.2187
G01 X55.0445 Y0.2754
G01 X55.1289 Y0.3378
G01 X55.1351 Y0.3428
G01 X55.2148 Y0.4152
G01 X55.2889 Y0.4969
G01 X55.3546 Y0.5855
G01 X55.4113 Y0.6801
G01 X55.4585 Y0.7798
G01 X55.4956 Y0.8837
G01 X55.5225 Y0.9907
G01 X55.5380 Y1.0946
G01 X55.5390 Y1.1051
G01 X55.5439 Y1.2047
G01 X55.5439 Y1.2153
G01 X55.5386 Y1.3202
G01 X55.5234 Y1.4241
G01 X55.5213 Y1.4345
G01 X55.4956 Y1.5363
G01 X55.4595 Y1.6377
G01 X55.4563 Y1.6450
G01 X55.4113 Y1.7399
G01 X55.3575 Y1.8300
G01 X55.3531 Y1.8367
G01 X55.2922 Y1.9189
G01 X55.2872 Y1.9251
G01 X55.2148 Y2.0048
G01 X55.1634 Y2.0516
G01 X55.1634 Y6.7399
G01 X55.1997 Y6.7728
G01 X55.2054 Y6.7784
G01 X55.2748 Y6.8550
G01 X55.2798 Y6.8612
G01 X55.3398 Y6.9422
G01 X55.3441 Y6.9489
G01 X55.3972 Y7.0377
G01 X55.4416 Y7.1311
G01 X55.4447 Y7.1384
G01 X55.4787 Y7.2333
G01 X55.4818 Y7.2435
G01 X55.5068 Y7.3438
G01 X55.5221 Y7.4461
G01 X55.5231 Y7.4567
G01 X55.5280 Y7.5600
G01 X55.5229 Y7.6660
G01 X55.5221 Y7.6739
G01 X55.5068 Y7.7762
G01 X55.4818 Y7.8765
G01 X55.4787 Y7.8867
G01 X55.4456 Y7.9791
G01 X55.4416 Y7.9889
G01 X55.3972 Y8.0823
G01 X55.3413 Y8.1756
G01 X55.2765 Y8.2629
G01 X55.2035 Y8.3435
G01 X55.1229 Y8.4165
G01 X55.0399 Y8.4783
G01 X55.0311 Y8.4841
G01 X54.9469 Y8.5346
G01 X54.9376 Y8.5396
G01 X54.8440 Y8.5837
G01 X54.7416 Y8.6203
G01 X54.6362 Y8.6468
G01 X54.5312 Y8.6624
G01 X54.5233 Y8.6631
G01 X54.4200 Y8.6680
G01 X54.3114 Y8.6627
G01 X54.2038 Y8.6468
G01 X54.0984 Y8.6203
G01 X53.9960 Y8.5837
G01 X53.8977 Y8.5372
G01 X53.8044 Y8.4813
G01 X53.7171 Y8.4165
G01 X53.6365 Y8.3435
G01 X53.5635 Y8.2629
G01 X53.4987 Y8.1756
G01 X53.4428 Y8.0823
G01 X53.3963 Y7.9840
G01 X53.3597 Y7.8816
G01 X53.3332 Y7.7762
G01 X53.3176 Y7.6712
G01 X53.3169 Y7.6633
G01 X53.3120 Y7.5600
G01 X53.3169 Y7.4567
G01 X53.3179 Y7.4461
G01 X53.3332 Y7.3438
G01 X53.3582 Y7.2435
G01 X53.3613 Y7.2333
G01 X53.3953 Y7.1384
G01 X53.3984 Y7.1311
G01 X53.4428 Y7.0377
G01 X53.4959 Y6.9489
G01 X53.5002 Y6.9422
G01 X53.5602 Y6.8612
G01 X53.5652 Y6.8550
G01 X53.6346 Y6.7784
G01 X53.6403 Y6.7728
G01 X53.6766 Y6.7399
G01 X53.6766 Y2.0516
G00 Z3.0000
G00 X56.2166 Y2.0516
G01 F40.00
G01 Z-0.0300
G01 F40.00
G01 X56.1690 Y2.0085
G01 X56.1633 Y2.0029
G01 X56.0946 Y1.9271
G01 X56.0894 Y1.9210
G01 X56.0254 Y1.8345
G01 X55.9713 Y1.7445
G01 X55.9675 Y1.7375
G01 X55.9215 Y1.6402
G01 X55.8844 Y1.5363
G01 X55.8575 Y1.4293
G01 X55.8420 Y1.3254
G01 X55.8411 Y1.3175
G01 X55.8360 Y1.2100
G01 X55.8414 Y1.0998
G01 X55.8575 Y0.9907
G01 X55.8844 Y0.8837
G01 X55.9215 Y0.7798
G01 X55.9687 Y0.6801
G01 X56.0254 Y0.5855
G01 X56.0878 Y0.5011
G01 X56.0928 Y0.4949
G01 X56.1652 Y0.4152
G01 X56.2469 Y0.3411
G01 X56.3355 Y0.2754
G01 X56.4301 Y0.2187
G01 X56.5298 Y0.1715
G01 X56.6337 Y0.1344
G01 X56.7407 Y0.1075
G01 X56.8498 Y0.0914
G01 X56.9600 Y0.0860
G01 X57.0702 Y0.0914
G01 X57.1793 Y0.1075
G01 X57.2863 Y0.1344
G01 X57.3902 Y0.1715
G01 X57.4899 Y0.2187
G01 X57.5845 Y0.2754
G01 X57.6689 Y0.3378
G01 X57.6751 Y0.3428
G01 X57.7548 Y0.4152
G01 X57.8289 Y0.4969
G01 X57.8946 Y0.5855
G01 X57.9513 Y0.6801
G01 X57.9985 Y0.7798
G01 X58.0356 Y0.8837
G01 X58.0625 Y0.9907
G01 X58.0780 Y1.0946
G01 X58.0790 Y1.1051
G01 X58.0839 Y1.2047
G01 X58.0839 Y1.2153
G01 X58.0786 Y1.3202
G01 X58.0634 Y1.4241
G01 X58.0613 Y1.4345
G01 X58.0356 Y1.5363
G01 X57.9995 Y1.6377
G01 X57.9963 Y1.6450
G01 X57.9513 Y1.7399
G01 X57.8975 Y1.8300
G01 X57.8931 Y1.8367
G01 X57.8322 Y1.9189
G01 X57.8272 Y1.9251
G01 X57.7548 Y2.0048
G01 X57.7034 Y2.0516
G01 X57.7034 Y6.7399
G01 X57.7397 Y6.7728
G01 X57.7454 Y6.7784
G01 X57.8148 Y6.8550
G01 X57.8198 Y6.8612
G01 X57.8798 Y6.9422
G01 X57.8841 Y6.9489
G01 X57.9372 Y7.0377
G01 X57.9816 Y7.1311
G01 X57.9847 Y7.1384
G01 X58.0187 Y7.2333
G01 X58.0218 Y7.2435
G01 X58.0468 Y7.3438
G01 X58.0621 Y7.4461
G01 X58.0631 Y7.4567
G01 X58.0680 Y7.5600
G01 X58.0629 Y7.6660
G01 X58.0621 Y7.6739
G01 X58.0468 Y7.7762
G01 X58.0218 Y7.8765
G01 X58.0187 Y7.8867
G01 X57.9856 Y7.9791
G01 X57.9816 Y7.9889
G01 X57.9372 Y8.0823
G01 X57.8813 Y8.1756
G01 X57.8165 Y8.2629
G01 X57.7435 Y8.3435
G01 X57.6629 Y8.4165
G01 X57.5799 Y8.4783
G01 X57.5711 Y8.4841
G01 X57.4869 Y8.5346
G01 X57.4776 Y8.5396
G01 X57.3840 Y8.5837
G01 X57.2816 Y8.6203
G01 X57.1762 Y8.6468
G01 X57.0712 Y8.6624
G01 X57.0633 Y8.6631
G01 X56.9600 Y8.6680
G01 X56.8514 Y8.6627
G01 X56.7438 Y8.6468
G01 X56.6384 Y8.6203
G01 X56.5360 Y8.5837
G01 X56.4377 Y8.5372
G01 X56.3444 Y8.4813
G01 X56.2571 Y8.4165
G01 X56.1765 Y8.3435
G01 X56.1035 Y8.2629
G01 X56.0387 Y8.1756
G01 X55.9828 Y8.0823
G01 X55.9363 Y7.9840
G01 X55.8997 Y7.8816
G01 X55.8732 Y7.7762
G01 X55.8576 Y7.6712
G01 X55.8569 Y7.6633
G01 X55.8520 Y7.5600
G01 X55.8569 Y7.4567
G01 X55.8579 Y7.4461
G01 X55.8732 Y7.3438
G01 X55.8982 Y7.2435
G01 X55.9013 Y7.2333
G01 X55.9353 Y7.1384
G01 X55.9384 Y7.1311
G01 X55.9828 Y7.0377
G01 X56.0359 Y6.9489
G01 X56.0402 Y6.9422
G01 X56.1002 Y6.8612
G01 X56.1052 Y6.8550
G01 X56.1746 Y6.7784
G01 X56.1803 Y6.7728
G01 X56.2166 Y6.7399
G01 X56.2166 Y2.0516
G00 Z3.0000
G00 X61.2966 Y2.0516
G01 F40.00
G01 Z-0.0300
G01 F40.00
G01 X61.2490 Y2.0085
G01 X61.2433 Y2.0029
G01 X61.1746 Y1.9271
G01 X61.1694 Y1.9210
G01 X61.1054 Y1.8345
G01 X61.0513 Y1.7445
G01 X61.0475 Y1.7375
G01 X61.0015 Y1.6402
G01 X60.9644 Y1.5363
G01 X60.9375 Y1.4293
G01 X60.9220 Y1.3254
G01 X60.9211 Y1.3175
G01 X60.9160 Y1.2100
G01 X60.9214 Y1.0998
G01 X60.9375 Y0.9907
G01 X60.9644 Y0.8837
G01 X61.0015 Y0.7798
G01 X61.0487 Y0.6801
G01 X61.1054 Y0.5855
G01 X61.1678 Y0.5011
G01 X61.1728 Y0.4949
G01 X61.2452 Y0.4152
G01 X61.3269 Y0.3411
G01 X61.4155 Y0.2754
G01 X61.5101 Y0.2187
G01 X61.6098 Y0.1715
G01 X61.7137 Y0.1344
G01 X61.8207 Y0.1075
G01 X61.9298 Y0.0914
G01 X62.0400 Y0.0860
G01 X62.1502 Y0.0914
G01 X62.2593 Y0.1075
G01 X62.3663 Y0.1344
G01 X62.4702 Y0.1715
G01 X62.5699 Y0.2187
G01 X62.6645 Y0.2754
G01 X62.7489 Y0.3378
G01 X62.7551 Y0.3428
G01 X62.8348 Y0.4152
G01 X62.9089 Y0.4969
G01 X62.9746 Y0.5855
G01 X63.0287 Y0.6755
G01 X63.0337 Y0.6849
G01 X63.0785 Y0.7798
G01 X63.1140 Y0.8787
G01 X63.1171 Y0.8888
G01 X63.1413 Y0.9855
G01 X63.1434 Y0.9959
G01 X63.1586 Y1.0998
G01 X63.1640 Y1.2073
G01 X63.1639 Y1.2153
G01 X63.1586 Y1.3202
G01 X63.1425 Y1.4293
G01 X63.1156 Y1.5363
G01 X63.0804 Y1.6352
G01 X63.0774 Y1.6426
G01 X63.0313 Y1.7399
G01 X62.9775 Y1.8300
G01 X62.9731 Y1.8367
G01 X62.9122 Y1.9189
G01 X62.9072 Y1.9251
G01 X62.8348 Y2.0048
G01 X62.7834 Y2.0516
G01 X62.7834 Y17.3742
G01 X62.8307 Y17.4267
G01 X62.8905 Y17.5073
G01 X62.9421 Y17.5934
G01 X62.9840 Y17.6817
G01 X62.9870 Y17.6891
G01 X63.0172 Y17.7736
G01 X63.0203 Y17.7838
G01 X63.0433 Y17.8760
G01 X63.0580 Y17.9753
G01 X63.0629 Y18.0756
G01 X63.0629 Y19.9071
G01 X63.0580 Y20.0047
G01 X63.0433 Y20.1040
G01 X63.0189 Y20.2013
G01 X62.9850 Y20.2958
G01 X62.9421 Y20.3866
G01 X62.8905 Y20.4727
G01 X62.8307 Y20.5533
G01 X62.7633 Y20.6277
G01 X62.6889 Y20.6951
G01 X62.6083 Y20.7549
G01 X62.5222 Y20.8065
G01 X62.4314 Y20.8494
G01 X62.3369 Y20.8833
G01 X62.2396 Y20.9077
G01 X62.1403 Y20.9224
G01 X62.0453 Y20.9272
G01 X62.0347 Y20.9272
G01 X61.9397 Y20.9224
G01 X61.8404 Y20.9077
G01 X61.7431 Y20.8833
G01 X61.6486 Y20.8494
G01 X61.5578 Y20.8065
G01 X61.4717 Y20.7549
G01 X61.3911 Y20.6951
G01 X61.3167 Y20.6277
G01 X61.2493 Y20.5533
G01 X61.1895 Y20.4727
G01 X61.1379 Y20.3866
G01 X61.0950 Y20.2958
G01 X61.0611 Y20.2013
G01 X61.0367 Y20.1040
G01 X61.0220 Y20.0047
G01 X61.0172 Y19.9097
G01 X61.0171 Y18.0756
G01 X61.0220 Y17.9753
G01 X61.0367 Y17.8760
G01 X61.0597 Y17.7838
G01 X61.0628 Y17.7736
G01 X61.0930 Y17.6891
G01 X61.0960 Y17.6817
G01 X61.1379 Y17.5934
G01 X61.1895 Y17.5073
G01 X61.2493 Y17.4267
G01 X61.2966 Y17.3742
G01 X61.2966 Y2.0516
G00 Z3.0000
G00 X66.3766 Y2.0516
G01 F40.00
G01 Z-0.0300
G01 F40.00
G01 X66.3290 Y2.0085
G01 X66.3233 Y2.0029
G01 X66.2546 Y1.9271
G01 X66.2494 Y1.9210
G01 X66.1854 Y1.8345
G01 X66.1313 Y1.7445
G01 X66.1275 Y1.7375
G01 X66.0815 Y1.6402
G01 X66.0444 Y1.5363
G01 X66.0175 Y1.4293
G01 X66.0020 Y1.3254
G01 X66.0011 Y1.3175
G01 X65.9960 Y1.2100
G01 X66.0014 Y1.0998
G01 X66.0175 Y0.9907
G01 X66.0444 Y0.8837
G01 X66.0815 Y0.7798
G01 X66.1287 Y0.6801
G01 X66.1854 Y0.5855
G01 X66.2478 Y0.5011
G01 X66.2528 Y0.4949
G01 X66.3252 Y0.4152
G01 X66.4069 Y0.3411
G01 X66.4955 Y0.2754
G01 X66.5901 Y0.2187
G01 X66.6898 Y0.1715
G01 X66.7937 Y0.1344
G01 X66.9007 Y0.1075
G01 X67.0098 Y0.0914
G01 X67.1200 Y0.0860
G01 X67.2302 Y0.0914
G01 X67.3393 Y0.1075
G01 X67.4463 Y0.1344
G01 X67.5502 Y0.1715
G01 X67.6499 Y0.2187
G01 X67.7445 Y0.2754
G01 X67.8289 Y0.3378
G01 X67.8351 Y0.3428
G01 X67.9148 Y0.4152
G01 X67.9889 Y0.4969
G01 X68.0546 Y0.5855
G01 X68.1087 Y0.6755
G01 X68.1137 Y0.6849
G01 X68.1585 Y0.7798
G01 X68.1940 Y0.8787
G01 X68.1971 Y0.8888
G01 X68.2213 Y0.9855
G01 X68.2234 Y0.9959
G01 X68.2386 Y1.0998
G01 X68.2440 Y1.2073
G01 X68.2439 Y1.2153
G01 X68.2386 Y1.3202
G01 X68.2225 Y1.4293
G01 X68.1956 Y1.5363
G01 X68.1604 Y1.6352
G01 X68.1574 Y1.6426
G01 X68.1113 Y1.7399
G01 X68.0575 Y1.8300
G01 X68.0531 Y1.8367
G01 X67.9922 Y1.9189
G01 X67.9872 Y1.9251
G01 X67.9148 Y2.0048
G01 X67.8634 Y2.0516
G01 X67.8634 Y19.4399
G01 X67.8997 Y19.4728
G01 X67.9054 Y19.4784
G01 X67.9748 Y19.5550
G01 X67.9798 Y19.5612
G01 X68.0398 Y19.6422
G01 X68.0441 Y19.6489
G01 X68.0972 Y19.7377
G01 X68.1427 Y19.8335
G01 X68.1456 Y19.8409
G01 X68.1803 Y19.9384
G01 X68.2068 Y20.0438
G01 X68.2227 Y20.1514
G01 X68.2279 Y20.2547
G01 X68.2280 Y20.2627
G01 X68.2227 Y20.3686
G01 X68.2068 Y20.4762
G01 X68.1803 Y20.5816
G01 X68.1437 Y20.6840
G01 X68.0972 Y20.7823
G01 X68.0413 Y20.8756
G01 X67.9765 Y20.9629
G01 X67.9035 Y21.0435
G01 X67.8229 Y21.1165
G01 X67.7356 Y21.1813
G01 X67.6423 Y21.2372
G01 X67.5440 Y21.2837
G01 X67.4416 Y21.3203
G01 X67.3362 Y21.3468
G01 X67.2286 Y21.3627
G01 X67.1253 Y21.3679
G01 X67.1147 Y21.3679
G01 X67.0114 Y21.3627
G01 X66.9038 Y21.3468
G01 X66.7984 Y21.3203
G01 X66.6960 Y21.2837
G01 X66.5977 Y21.2372
G01 X66.5044 Y21.1813
G01 X66.4171 Y21.1165
G01 X66.3365 Y21.0435
G01 X66.2635 Y20.9629
G01 X66.1987 Y20.8756
G01 X66.1428 Y20.7823
G01 X66.0963 Y20.6840
G01 X66.0597 Y20.5816
G01 X66.0332 Y20.4762
G01 X66.0173 Y20.3686
G01 X66.0121 Y20.2653
G01 X66.0121 Y20.2547
G01 X66.0173 Y20.1514
G01 X66.0332 Y20.0438
G01 X66.0597 Y19.9384
G01 X66.0944 Y19.8409
G01 X66.0973 Y19.8335
G01 X66.1428 Y19.7377
G01 X66.1959 Y19.6489
G01 X66.2002 Y19.6422
G01 X66.2602 Y19.5612
G01 X66.2652 Y19.5550
G01 X66.3346 Y19.4784
G01 X66.3403 Y19.4728
G01 X66.3766 Y19.4399
G01 X66.3766 Y2.0516
G00 Z3.0000
G00 X56.2166 Y14.7301
G01 F40.00
G01 Z-0.0300
G01 F40.00
G01 X56.1803 Y14.6972
G01 X56.1746 Y14.6916
G01 X56.1052 Y14.6150
G01 X56.1002 Y14.6088
G01 X56.0402 Y14.5278
G01 X56.0359 Y14.5211
G01 X55.9828 Y14.4323
G01 X55.9373 Y14.3365
G01 X55.9344 Y14.3291
G01 X55.8997 Y14.2316
G01 X55.8732 Y14.1262
G01 X55.8573 Y14.0186
G01 X55.8520 Y13.9127
G01 X55.8521 Y13.9047
G01 X55.8573 Y13.8014
G01 X55.8732 Y13.6938
G01 X55.8997 Y13.5884
G01 X55.9363 Y13.4860
G01 X55.9828 Y13.3877
G01 X56.0387 Y13.2944
G01 X56.1035 Y13.2071
G01 X56.1746 Y13.1284
G01 X56.1803 Y13.1228
G01 X56.2571 Y13.0535
G01 X56.3444 Y12.9887
G01 X56.4377 Y12.9328
G01 X56.5360 Y12.8863
G01 X56.6384 Y12.8497
G01 X56.7438 Y12.8232
G01 X56.8514 Y12.8073
G01 X56.9600 Y12.8020
G01 X57.0686 Y12.8073
G01 X57.1762 Y12.8232
G01 X57.2816 Y12.8497
G01 X57.3840 Y12.8863
G01 X57.4823 Y12.9328
G01 X57.5756 Y12.9887
G01 X57.6629 Y13.0535
G01 X57.7416 Y13.1246
G01 X57.7472 Y13.1303
G01 X57.8165 Y13.2071
G01 X57.8813 Y13.2944
G01 X57.9372 Y13.3877
G01 X57.9837 Y13.4860
G01 X58.0203 Y13.5884
G01 X58.0468 Y13.6938
G01 X58.0627 Y13.8014
G01 X58.0680 Y13.9073
G01 X58.0679 Y13.9153
G01 X58.0627 Y14.0186
G01 X58.0468 Y14.1262
G01 X58.0203 Y14.2316
G01 X57.9856 Y14.3291
G01 X57.9827 Y14.3365
G01 X57.9372 Y14.4323
G01 X57.8841 Y14.5211
G01 X57.8798 Y14.5278
G01 X57.8198 Y14.6088
G01 X57.8148 Y14.6150
G01 X57.7454 Y14.6916
G01 X57.7397 Y14.6972
G01 X57.7034 Y14.7301
G01 X57.7034 Y17.3742
G01 X57.7507 Y17.4267
G01 X57.8105 Y17.5073
G01 X57.8621 Y17.5934
G01 X57.9040 Y17.6817
G01 X57.9070 Y17.6891
G01 X57.9372 Y17.7736
G01 X57.9403 Y17.7838
G01 X57.9633 Y17.8760
G01 X57.9780 Y17.9753
G01 X57.9829 Y18.0756
G01 X57.9829 Y19.9044
G01 X57.9780 Y20.0047
G01 X57.9633 Y20.1040
G01 X57.9389 Y20.2013
G01 X57.9050 Y20.2958
G01 X57.8645 Y20.3819
G01 X57.8595 Y20.3912
G01 X57.8134 Y20.4682
G01 X57.8075 Y20.4770
G01 X57.7507 Y20.5533
G01 X57.6833 Y20.6277
G01 X57.6089 Y20.6951
G01 X57.5326 Y20.7519
G01 X57.5238 Y20.7578
G01 X57.4468 Y20.8039
G01 X57.4375 Y20.8089
G01 X57.3514 Y20.8494
G01 X57.2569 Y20.8833
G01 X57.1596 Y20.9077
G01 X57.0655 Y20.9217
G01 X57.0550 Y20.9228
G01 X56.9600 Y20.9273
G01 X56.8597 Y20.9224
G01 X56.7604 Y20.9077
G01 X56.6631 Y20.8833
G01 X56.5686 Y20.8494
G01 X56.4778 Y20.8065
G01 X56.3917 Y20.7549
G01 X56.3111 Y20.6951
G01 X56.2367 Y20.6277
G01 X56.1693 Y20.5533
G01 X56.1095 Y20.4727
G01 X56.0579 Y20.3866
G01 X56.0150 Y20.2958
G01 X55.9811 Y20.2013
G01 X55.9567 Y20.1040
G01 X55.9427 Y20.0099
G01 X55.9416 Y19.9994
G01 X55.9371 Y19.9044
G01 X55.9371 Y18.0756
G01 X55.9420 Y17.9753
G01 X55.9567 Y17.8760
G01 X55.9797 Y17.7838
G01 X55.9828 Y17.7736
G01 X56.0130 Y17.6891
G01 X56.0160 Y17.6817
G01 X56.0579 Y17.5934
G01 X56.1095 Y17.5073
G01 X56.1693 Y17.4267
G01 X56.2166 Y17.3742
G01 X56.2166 Y14.7301
G00 Z3.0000
G00 X51.1366 Y14.7301
G01 F40.00
G01 Z-0.0300
G01 F40.00
G01 X51.1003 Y14.6972
G01 X51.0946 Y14.6916
G01 X51.0252 Y14.6150
G01 X51.0202 Y14.6088
G01 X50.9602 Y14.5278
G01 X50.9559 Y14.5211
G01 X50.9028 Y14.4323
G01 X50.8573 Y14.3365
G01 X50.8544 Y14.3291
G01 X50.8197 Y14.2316
G01 X50.7932 Y14.1262
G01 X50.7773 Y14.0186
G01 X50.7720 Y13.9127
G01 X50.7721 Y13.9047
G01 X50.7773 Y13.8014
G01 X50.7932 Y13.6938
G01 X50.8197 Y13.5884
G01 X50.8563 Y13.4860
G01 X50.9028 Y13.3877
G01 X50.9587 Y13.2944
G01 X51.0235 Y13.2071
G01 X51.0946 Y13.1284
G01 X51.1003 Y13.1228
G01 X51.1771 Y13.0535
G01 X51.2644 Y12.9887
G01 X51.3577 Y12.9328
G01 X51.4560 Y12.8863
G01 X51.5584 Y12.8497
G01 X51.6638 Y12.8232
G01 X51.7714 Y12.8073
G01 X51.8800 Y12.8020
G01 X51.9886 Y12.8073
G01 X52.0962 Y12.8232
G01 X52.2016 Y12.8497
G01 X52.3040 Y12.8863
G01 X52.4023 Y12.9328
G01 X52.4956 Y12.9887
G01 X52.5829 Y13.0535
G01 X52.6616 Y13.1246
G01 X52.6672 Y13.1303
G01 X52.7365 Y13.2071
G01 X52.8013 Y13.2944
G01 X52.8572 Y13.3877
G01 X52.9037 Y13.4860
G01 X52.9403 Y13.5884
G01 X52.9668 Y13.6938
G01 X52.9827 Y13.8014
G01 X52.9880 Y13.9073
G01 X52.9879 Y13.9153
G01 X52.9827 Y14.0186
G01 X52.9668 Y14.1262
G01 X52.9403 Y14.2316
G01 X52.9056 Y14.3291
G01 X52.9027 Y14.3365
G01 X52.8572 Y14.4323
G01 X52.8041 Y14.5211
G01 X52.7998 Y14.5278
G01 X52.7398 Y14.6088
G01 X52.7348 Y14.6150
G01 X52.6654 Y14.6916
G01 X52.6597 Y14.6972
G01 X52.6234 Y14.7301
G01 X52.6234 Y17.3742
G01 X52.6707 Y17.4267
G01 X52.7305 Y17.5073
G01 X52.7821 Y17.5934
G01 X52.8240 Y17.6817
G01 X52.8270 Y17.6891
G01 X52.8572 Y17.7736
G01 X52.8603 Y17.7838
G01 X52.8833 Y17.8760
G01 X52.8980 Y17.9753
G01 X52.9029 Y18.0756
G01 X52.9029 Y19.9044
G01 X52.8980 Y20.0047
G01 X52.8833 Y20.1040
G01 X52.8589 Y20.2013
G01 X52.8250 Y20.2958
G01 X52.7845 Y20.3819
G01 X52.7795 Y20.3912
G01 X52.7334 Y20.4682
G01 X52.7275 Y20.4770
G01 X52.6707 Y20.5533
G01 X52.6033 Y20.6277
G01 X52.5289 Y20.6951
G01 X52.4526 Y20.7519
G01 X52.4438 Y20.7578
G01 X52.3668 Y20.8039
G01 X52.3575 Y20.8089
G01 X52.2714 Y20.8494
G01 X52.1769 Y20.8833
G01 X52.0796 Y20.9077
G01 X51.9855 Y20.9217
G01 X51.9750 Y20.9228
G01 X51.8800 Y20.9273
G01 X51.7797 Y20.9224
G01 X51.6804 Y20.9077
G01 X51.5831 Y20.8833
G01 X51.4886 Y20.8494
G01 X51.3978 Y20.8065
G01 X51.3117 Y20.7549
G01 X51.2311 Y20.6951
G01 X51.1567 Y20.6277
G01 X51.0893 Y20.5533
G01 X51.0295 Y20.4727
G01 X50.9779 Y20.3866
G01 X50.9350 Y20.2958
G01 X50.9011 Y20.2013
G01 X50.8767 Y20.1040
G01 X50.8627 Y20.0099
G01 X50.8616 Y19.9994
G01 X50.8571 Y19.9044
G01 X50.8571 Y18.0756
G01 X50.8620 Y17.9753
G01 X50.8767 Y17.8760
G01 X50.8997 Y17.7838
G01 X50.9028 Y17.7736
G01 X50.9330 Y17.6891
G01 X50.9360 Y17.6817
G01 X50.9779 Y17.5934
G01 X51.0295 Y17.5073
G01 X51.0893 Y17.4267
G01 X51.1366 Y17.3742
G01 X51.1366 Y14.7301
G00 Z3.0000
G00 X53.3971 Y19.9044
G01 F40.00
G01 Z-0.0300
G01 F40.00
G01 X53.3971 Y18.0756
G01 X53.4020 Y17.9753
G01 X53.4167 Y17.8760
G01 X53.4397 Y17.7838
G01 X53.4428 Y17.7736
G01 X53.4730 Y17.6891
G01 X53.4760 Y17.6817
G01 X53.5179 Y17.5934
G01 X53.5695 Y17.5073
G01 X53.6293 Y17.4267
G01 X53.6766 Y17.3742
G01 X53.6766 Y14.7301
G01 X53.6403 Y14.6972
G01 X53.6346 Y14.6916
G01 X53.5652 Y14.6150
G01 X53.5602 Y14.6088
G01 X53.5017 Y14.5299
G01 X53.4972 Y14.5234
G01 X53.4454 Y14.4369
G01 X53.4404 Y14.4276
G01 X53.3963 Y14.3340
G01 X53.3605 Y14.2342
G01 X53.3582 Y14.2265
G01 X53.3332 Y14.1262
G01 X53.3179 Y14.0239
G01 X53.3169 Y14.0133
G01 X53.3120 Y13.9100
G01 X53.3169 Y13.8067
G01 X53.3179 Y13.7961
G01 X53.3328 Y13.6964
G01 X53.3344 Y13.6887
G01 X53.3597 Y13.5884
G01 X53.3963 Y13.4860
G01 X53.4428 Y13.3877
G01 X53.4987 Y13.2944
G01 X53.5635 Y13.2071
G01 X53.6365 Y13.1265
G01 X53.7171 Y13.0535
G01 X53.8044 Y12.9887
G01 X53.8977 Y12.9328
G01 X53.9960 Y12.8863
G01 X54.0984 Y12.8497
G01 X54.2038 Y12.8232
G01 X54.3114 Y12.8073
G01 X54.4200 Y12.8020
G01 X54.5286 Y12.8073
G01 X54.6336 Y12.8228
G01 X54.6413 Y12.8244
G01 X54.7365 Y12.8482
G01 X54.7467 Y12.8513
G01 X54.8440 Y12.8863
G01 X54.9423 Y12.9328
G01 X55.0356 Y12.9887
G01 X55.1188 Y13.0502
G01 X55.1270 Y13.0569
G01 X55.1997 Y13.1228
G01 X55.2072 Y13.1303
G01 X55.2765 Y13.2071
G01 X55.3413 Y13.2944
G01 X55.3972 Y13.3877
G01 X55.4416 Y13.4811
G01 X55.4456 Y13.4909
G01 X55.4787 Y13.5833
G01 X55.4818 Y13.5935
G01 X55.5068 Y13.6938
G01 X55.5227 Y13.8014
G01 X55.5280 Y13.9100
G01 X55.5231 Y14.0133
G01 X55.5221 Y14.0239
G01 X55.5068 Y14.1262
G01 X55.4818 Y14.2265
G01 X55.4787 Y14.2367
G01 X55.4447 Y14.3316
G01 X55.4416 Y14.3389
G01 X55.3972 Y14.4323
G01 X55.3441 Y14.5211
G01 X55.3398 Y14.5278
G01 X55.2798 Y14.6088
G01 X55.2748 Y14.6150
G01 X55.2054 Y14.6916
G01 X55.1997 Y14.6972
G01 X55.1634 Y14.7301
G01 X55.1634 Y17.3742
G01 X55.2107 Y17.4267
G01 X55.2705 Y17.5073
G01 X55.3221 Y17.5934
G01 X55.3640 Y17.6817
G01 X55.3670 Y17.6891
G01 X55.3972 Y17.7736
G01 X55.4003 Y17.7838
G01 X55.4233 Y17.8760
G01 X55.4380 Y17.9753
G01 X55.4429 Y18.0756
G01 X55.4429 Y19.9044
G01 X55.4380 Y20.0047
G01 X55.4237 Y20.1014
G01 X55.4221 Y20.1091
G01 X55.3989 Y20.2013
G01 X55.3650 Y20.2958
G01 X55.3221 Y20.3866
G01 X55.2734 Y20.4682
G01 X55.2675 Y20.4770
G01 X55.2140 Y20.5491
G01 X55.2073 Y20.5573
G01 X55.1433 Y20.6277
G01 X55.0729 Y20.6917
G01 X55.0647 Y20.6984
G01 X54.9883 Y20.7549
G01 X54.9022 Y20.8065
G01 X54.8114 Y20.8494
G01 X54.7169 Y20.8833
G01 X54.6196 Y20.9077
G01 X54.5203 Y20.9224
G01 X54.4200 Y20.9273
G01 X54.3197 Y20.9224
G01 X54.2204 Y20.9077
G01 X54.1231 Y20.8833
G01 X54.0286 Y20.8494
G01 X53.9378 Y20.8065
G01 X53.8517 Y20.7549
G01 X53.7711 Y20.6951
G01 X53.6967 Y20.6277
G01 X53.6327 Y20.5573
G01 X53.6260 Y20.5491
G01 X53.5695 Y20.4727
G01 X53.5205 Y20.3912
G01 X53.5155 Y20.3819
G01 X53.4771 Y20.3007
G01 X53.4730 Y20.2909
G01 X53.4411 Y20.2013
G01 X53.4167 Y20.1040
G01 X53.4020 Y20.0047
G01 X53.3971 Y19.9044
G00 Z3.0000
G00 X58.4771 Y19.9044
G01 F40.00
G01 Z-0.0300
G01 F40.00
G01 X58.4771 Y18.0756
G01 X58.4820 Y17.9753
G01 X58.4967 Y17.8760
G01 X58.5197 Y17.7838
G01 X58.5228 Y17.7736
G01 X58.5530 Y17.6891
G01 X58.5560 Y17.6817
G01 X58.5979 Y17.5934
G01 X58.6495 Y17.5073
G01 X58.7093 Y17.4267
G01 X58.7566 Y17.3742
G01 X58.7566 Y2.0516
G01 X58.7052 Y2.0048
G01 X58.6328 Y1.9251
G01 X58.6278 Y1.9189
G01 X58.5669 Y1.8367
G01 X58.5625 Y1.8300
G01 X58.5087 Y1.7399
G01 X58.4637 Y1.6450
G01 X58.4605 Y1.6377
G01 X58.4244 Y1.5363
G01 X58.3987 Y1.4345
G01 X58.3966 Y1.4241
G01 X58.3820 Y1.3254
G01 X58.3810 Y1.3149
G01 X58.3760 Y1.2100
G01 X58.3810 Y1.1051
G01 X58.3820 Y1.0946
G01 X58.3975 Y0.9907
G01 X58.4244 Y0.8837
G01 X58.4615 Y0.7798
G01 X58.5087 Y0.6801
G01 X58.5654 Y0.5855
G01 X58.6311 Y0.4969
G01 X58.7052 Y0.4152
G01 X58.7869 Y0.3411
G01 X58.8755 Y0.2754
G01 X58.9701 Y0.2187
G01 X59.0698 Y0.1715
G01 X59.1737 Y0.1344
G01 X59.2807 Y0.1075
G01 X59.3898 Y0.0914
G01 X59.5000 Y0.0860
G01 X59.6049 Y0.0910
G01 X59.6154 Y0.0920
G01 X59.7193 Y0.1075
G01 X59.8263 Y0.1344
G01 X59.9302 Y0.1715
G01 X60.0251 Y0.2163
G01 X60.0345 Y0.2213
G01 X60.1200 Y0.2725
G01 X60.1288 Y0.2784
G01 X60.2131 Y0.3411
G01 X60.2910 Y0.4115
G01 X60.2985 Y0.4190
G01 X60.3689 Y0.4969
G01 X60.4346 Y0.5855
G01 X60.4913 Y0.6801
G01 X60.5385 Y0.7798
G01 X60.5756 Y0.8837
G01 X60.6025 Y0.9907
G01 X60.6186 Y1.0998
G01 X60.6239 Y1.2047
G01 X60.6239 Y1.2153
G01 X60.6186 Y1.3202
G01 X60.6025 Y1.4293
G01 X60.5756 Y1.5363
G01 X60.5404 Y1.6352
G01 X60.5374 Y1.6426
G01 X60.4913 Y1.7399
G01 X60.4375 Y1.8300
G01 X60.4331 Y1.8367
G01 X60.3722 Y1.9189
G01 X60.3672 Y1.9251
G01 X60.2948 Y2.0048
G01 X60.2434 Y2.0516
G01 X60.2434 Y17.3742
G01 X60.2907 Y17.4267
G01 X60.3505 Y17.5073
G01 X60.4021 Y17.5934
G01 X60.4440 Y17.6817
G01 X60.4470 Y17.6891
G01 X60.4772 Y17.7736
G01 X60.4803 Y17.7838
G01 X60.5033 Y17.8760
G01 X60.5180 Y17.9753
G01 X60.5229 Y18.0756
G01 X60.5229 Y19.9044
G01 X60.5184 Y19.9994
G01 X60.5173 Y20.0099
G01 X60.5033 Y20.1040
G01 X60.4789 Y20.2013
G01 X60.4450 Y20.2958
G01 X60.4045 Y20.3819
G01 X60.3995 Y20.3912
G01 X60.3534 Y20.4682
G01 X60.3475 Y20.4770
G01 X60.2907 Y20.5533
G01 X60.2270 Y20.6239
G01 X60.2195 Y20.6314
G01 X60.1489 Y20.6951
G01 X60.0683 Y20.7549
G01 X59.9822 Y20.8065
G01 X59.8914 Y20.8494
G01 X59.7969 Y20.8833
G01 X59.6996 Y20.9077
G01 X59.6003 Y20.9224
G01 X59.5053 Y20.9272
G01 X59.4947 Y20.9272
G01 X59.3997 Y20.9224
G01 X59.3004 Y20.9077
G01 X59.2031 Y20.8833
G01 X59.1086 Y20.8494
G01 X59.0178 Y20.8065
G01 X58.9317 Y20.7549
G01 X58.8511 Y20.6951
G01 X58.7767 Y20.6277
G01 X58.7093 Y20.5533
G01 X58.6495 Y20.4727
G01 X58.5979 Y20.3866
G01 X58.5550 Y20.2958
G01 X58.5211 Y20.2013
G01 X58.4967 Y20.1040
G01 X58.4820 Y20.0047
G01 X58.4771 Y19.9044
G00 Z3.0000
G00 X48.3171 Y19.9044
G01 F40.00
G01 Z-0.0300
G01 F40.00
G01 X48.3171 Y18.0756
G01 X48.3220 Y17.9753
G01 X48.3367 Y17.8760
G01 X48.3597 Y17.7838
G01 X48.3628 Y17.7736
G01 X48.3930 Y17.6891
G01 X48.3960 Y17.6817
G01 X48.4379 Y17.5934
G01 X48.4895 Y17.5073
G01 X48.5493 Y17.4267
G01 X48.5966 Y17.3742
G01 X48.5966 Y2.0516
G01 X48.5452 Y2.0048
G01 X48.4728 Y1.9251
G01 X48.4678 Y1.9189
G01 X48.4069 Y1.8367
G01 X48.4025 Y1.8300
G01 X48.3487 Y1.7399
G01 X48.3037 Y1.6450
G01 X48.3005 Y1.6377
G01 X48.2644 Y1.5363
G01 X48.2387 Y1.4345
G01 X48.2366 Y1.4241
G01 X48.2220 Y1.3254
G01 X48.2210 Y1.3149
G01 X48.2160 Y1.2100
G01 X48.2210 Y1.1051
G01 X48.2220 Y1.0946
G01 X48.2375 Y0.9907
G01 X48.2644 Y0.8837
G01 X48.3015 Y0.7798
G01 X48.3487 Y0.6801
G01 X48.4054 Y0.5855
G01 X48.4711 Y0.4969
G01 X48.5452 Y0.4152
G01 X48.6269 Y0.3411
G01 X48.7155 Y0.2754
G01 X48.8101 Y0.2187
G01 X48.9098 Y0.1715
G01 X49.0137 Y0.1344
G01 X49.1207 Y0.1075
G01 X49.2298 Y0.0914
G01 X49.3400 Y0.0860
G01 X49.4449 Y0.0910
G01 X49.4554 Y0.0920
G01 X49.5593 Y0.1075
G01 X49.6663 Y0.1344
G01 X49.7702 Y0.1715
G01 X49.8651 Y0.2163
G01 X49.8745 Y0.2213
G01 X49.9600 Y0.2725
G01 X49.9688 Y0.2784
G01 X50.0531 Y0.3411
G01 X50.1310 Y0.4115
G01 X50.1385 Y0.4190
G01 X50.2089 Y0.4969
G01 X50.2746 Y0.5855
G01 X50.3313 Y0.6801
G01 X50.3785 Y0.7798
G01 X50.4156 Y0.8837
G01 X50.4425 Y0.9907
G01 X50.4586 Y1.0998
G01 X50.4639 Y1.2047
G01 X50.4639 Y1.2153
G01 X50.4586 Y1.3202
G01 X50.4425 Y1.4293
G01 X50.4156 Y1.5363
G01 X50.3804 Y1.6352
G01 X50.3774 Y1.6426
G01 X50.3313 Y1.7399
G01 X50.2775 Y1.8300
G01 X50.2731 Y1.8367
G01 X50.2122 Y1.9189
G01 X50.2072 Y1.9251
G01 X50.1348 Y2.0048
G01 X50.0834 Y2.0516
G01 X50.0834 Y17.3742
G01 X50.1307 Y17.4267
G01 X50.1905 Y17.5073
G01 X50.2421 Y17.5934
G01 X50.2840 Y17.6817
G01 X50.2870 Y17.6891
G01 X50.3172 Y17.7736
G01 X50.3203 Y17.7838
G01 X50.3433 Y17.8760
G01 X50.3580 Y17.9753
G01 X50.3629 Y18.0756
G01 X50.3629 Y19.9044
G01 X50.3584 Y19.9994
G01 X50.3573 Y20.0099
G01 X50.3433 Y20.1040
G01 X50.3189 Y20.2013
G01 X50.2850 Y20.2958
G01 X50.2445 Y20.3819
G01 X50.2395 Y20.3912
G01 X50.1905 Y20.4727
G01 X50.1340 Y20.5491
G01 X50.1273 Y20.5573
G01 X50.0670 Y20.6239
G01 X50.0595 Y20.6314
G01 X49.9889 Y20.6951
G01 X49.9083 Y20.7549
G01 X49.8222 Y20.8065
G01 X49.7314 Y20.8494
G01 X49.6369 Y20.8833
G01 X49.5396 Y20.9077
G01 X49.4403 Y20.9224
G01 X49.3453 Y20.9272
G01 X49.3347 Y20.9272
G01 X49.2397 Y20.9224
G01 X49.1404 Y20.9077
G01 X49.0431 Y20.8833
G01 X48.9486 Y20.8494
G01 X48.8578 Y20.8065
G01 X48.7717 Y20.7549
G01 X48.6911 Y20.6951
G01 X48.6167 Y20.6277
G01 X48.5493 Y20.5533
G01 X48.4895 Y20.4727
G01 X48.4379 Y20.3866
G01 X48.3950 Y20.2958
G01 X48.3611 Y20.2013
G01 X48.3367 Y20.1040
G01 X48.3220 Y20.0047
G01 X48.3171 Y19.9044
G00 Z3.0000
G00 X43.2371 Y19.9044
G01 F40.00
G01 Z-0.0300
G01 F40.00
G01 X43.2371 Y18.0756
G01 X43.2420 Y17.9753
G01 X43.2567 Y17.8760
G01 X43.2797 Y17.7838
G01 X43.2828 Y17.7736
G01 X43.3130 Y17.6891
G01 X43.3160 Y17.6817
G01 X43.3579 Y17.5934
G01 X43.4095 Y17.5073
G01 X43.4693 Y17.4267
G01 X43.5166 Y17.3742
G01 X43.5166 Y14.7301
G01 X43.4803 Y14.6972
G01 X43.4746 Y14.6916
G01 X43.4052 Y14.6150
G01 X43.4002 Y14.6088
G01 X43.3417 Y14.5299
G01 X43.3372 Y14.5234
G01 X43.2854 Y14.4369
G01 X43.2804 Y14.4276
G01 X43.2363 Y14.3340
G01 X43.2005 Y14.2342
G01 X43.1982 Y14.2265
G01 X43.1732 Y14.1262
G01 X43.1579 Y14.0239
G01 X43.1569 Y14.0133
G01 X43.1520 Y13.9100
G01 X43.1569 Y13.8067
G01 X43.1579 Y13.7961
G01 X43.1728 Y13.6964
G01 X43.1744 Y13.6887
G01 X43.1997 Y13.5884
G01 X43.2363 Y13.4860
G01 X43.2828 Y13.3877
G01 X43.3387 Y13.2944
G01 X43.4035 Y13.2071
G01 X43.4765 Y13.1265
G01 X43.5571 Y13.0535
G01 X43.6444 Y12.9887
G01 X43.7377 Y12.9328
G01 X43.8360 Y12.8863
G01 X43.9384 Y12.8497
G01 X44.0438 Y12.8232
G01 X44.1514 Y12.8073
G01 X44.2600 Y12.8020
G01 X44.3686 Y12.8073
G01 X44.4736 Y12.8228
G01 X44.4813 Y12.8244
G01 X44.5765 Y12.8482
G01 X44.5867 Y12.8513
G01 X44.6840 Y12.8863
G01 X44.7823 Y12.9328
G01 X44.8756 Y12.9887
G01 X44.9588 Y13.0502
G01 X44.9670 Y13.0569
G01 X45.0397 Y13.1228
G01 X45.0472 Y13.1303
G01 X45.1165 Y13.2071
G01 X45.1813 Y13.2944
G01 X45.2372 Y13.3877
G01 X45.2816 Y13.4811
G01 X45.2856 Y13.4909
G01 X45.3187 Y13.5833
G01 X45.3218 Y13.5935
G01 X45.3468 Y13.6938
G01 X45.3627 Y13.8014
G01 X45.3680 Y13.9100
G01 X45.3631 Y14.0133
G01 X45.3621 Y14.0239
G01 X45.3468 Y14.1262
G01 X45.3218 Y14.2265
G01 X45.3187 Y14.2367
G01 X45.2847 Y14.3316
G01 X45.2816 Y14.3389
G01 X45.2372 Y14.4323
G01 X45.1841 Y14.5211
G01 X45.1798 Y14.5278
G01 X45.1198 Y14.6088
G01 X45.1148 Y14.6150
G01 X45.0454 Y14.6916
G01 X45.0397 Y14.6972
G01 X45.0034 Y14.7301
G01 X45.0034 Y17.3742
G01 X45.0507 Y17.4267
G01 X45.1105 Y17.5073
G01 X45.1621 Y17.5934
G01 X45.2040 Y17.6817
G01 X45.2070 Y17.6891
G01 X45.2372 Y17.7736
G01 X45.2403 Y17.7838
G01 X45.2633 Y17.8760
G01 X45.2780 Y17.9753
G01 X45.2829 Y18.0756
G01 X45.2829 Y19.9044
G01 X45.2780 Y20.0047
G01 X45.2637 Y20.1014
G01 X45.2621 Y20.1091
G01 X45.2389 Y20.2013
G01 X45.2050 Y20.2958
G01 X45.1621 Y20.3866
G01 X45.1134 Y20.4682
G01 X45.1075 Y20.4770
G01 X45.0540 Y20.5491
G01 X45.0473 Y20.5573
G01 X44.9833 Y20.6277
G01 X44.9129 Y20.6917
G01 X44.9047 Y20.6984
G01 X44.8283 Y20.7549
G01 X44.7422 Y20.8065
G01 X44.6514 Y20.8494
G01 X44.5569 Y20.8833
G01 X44.4596 Y20.9077
G01 X44.3603 Y20.9224
G01 X44.2600 Y20.9273
G01 X44.1597 Y20.9224
G01 X44.0604 Y20.9077
G01 X43.9631 Y20.8833
G01 X43.8686 Y20.8494
G01 X43.7778 Y20.8065
G01 X43.6917 Y20.7549
G01 X43.6111 Y20.6951
G01 X43.5367 Y20.6277
G01 X43.4727 Y20.5573
G01 X43.4660 Y20.5491
G01 X43.4095 Y20.4727
G01 X43.3605 Y20.3912
G01 X43.3555 Y20.3819
G01 X43.3171 Y20.3007
G01 X43.3130 Y20.2909
G01 X43.2811 Y20.2013
G01 X43.2567 Y20.1040
G01 X43.2420 Y20.0047
G01 X43.2371 Y19.9044
G00 Z3.0000
G00 X38.1571 Y19.9044
G01 F40.00
G01 Z-0.0300
G01 F40.00
G01 X38.1571 Y18.0756
G01 X38.1620 Y17.9753
G01 X38.1767 Y17.8760
G01 X38.1997 Y17.7838
G01 X38.2028 Y17.7736
G01 X38.2330 Y17.6891
G01 X38.2360 Y17.6817
G01 X38.2779 Y17.5934
G01 X38.3295 Y17.5073
G01 X38.3893 Y17.4267
G01 X38.4366 Y17.3742
G01 X38.4366 Y2.0516
G01 X38.3852 Y2.0048
G01 X38.3128 Y1.9251
G01 X38.3078 Y1.9189
G01 X38.2469 Y1.8367
G01 X38.2425 Y1.8300
G01 X38.1887 Y1.7399
G01 X38.1437 Y1.6450
G01 X38.1405 Y1.6377
G01 X38.1044 Y1.5363
G01 X38.0787 Y1.4345
G01 X38.0766 Y1.4241
G01 X38.0620 Y1.3254
G01 X38.0610 Y1.3149
G01 X38.0560 Y1.2100
G01 X38.0610 Y1.1051
G01 X38.0620 Y1.0946
G01 X38.0775 Y0.9907
G01 X38.1044 Y0.8837
G01 X38.1415 Y0.7798
G01 X38.1887 Y0.6801
G01 X38.2454 Y0.5855
G01 X38.3111 Y0.4969
G01 X38.3852 Y0.4152
G01 X38.4669 Y0.3411
G01 X38.5555 Y0.2754
G01 X38.6501 Y0.2187
G01 X38.7498 Y0.1715
G01 X38.8537 Y0.1344
G01 X38.9607 Y0.1075
G01 X39.0698 Y0.0914
G01 X39.1800 Y0.0860
G01 X39.2849 Y0.0910
G01 X39.2954 Y0.0920
G01 X39.3993 Y0.1075
G01 X39.5063 Y0.1344
G01 X39.6102 Y0.1715
G01 X39.7051 Y0.2163
G01 X39.7145 Y0.2213
G01 X39.8000 Y0.2725
G01 X39.8088 Y0.2784
G01 X39.8931 Y0.3411
G01 X39.9710 Y0.4115
G01 X39.9785 Y0.4190
G01 X40.0489 Y0.4969
G01 X40.1146 Y0.5855
G01 X40.1713 Y0.6801
G01 X40.2185 Y0.7798
G01 X40.2556 Y0.8837
G01 X40.2825 Y0.9907
G01 X40.2986 Y1.0998
G01 X40.3039 Y1.2047
G01 X40.3039 Y1.2153
G01 X40.2986 Y1.3202
G01 X40.2825 Y1.4293
G01 X40.2556 Y1.5363
G01 X40.2204 Y1.6352
G01 X40.2174 Y1.6426
G01 X40.1713 Y1.7399
G01 X40.1175 Y1.8300
G01 X40.1131 Y1.8367
G01 X40.0522 Y1.9189
G01 X40.0472 Y1.9251
G01 X39.9748 Y2.0048
G01 X39.9234 Y2.0516
G01 X39.9234 Y17.3742
G01 X39.9707 Y17.4267
G01 X40.0305 Y17.5073
G01 X40.0821 Y17.5934
G01 X40.1240 Y17.6817
G01 X40.1270 Y17.6891
G01 X40.1572 Y17.7736
G01 X40.1603 Y17.7838
G01 X40.1833 Y17.8760
G01 X40.1980 Y17.9753
G01 X40.2029 Y18.0756
G01 X40.2029 Y19.9044
G01 X40.1984 Y19.9994
G01 X40.1973 Y20.0099
G01 X40.1833 Y20.1040
G01 X40.1589 Y20.2013
G01 X40.1250 Y20.2958
G01 X40.0845 Y20.3819
G01 X40.0795 Y20.3912
G01 X40.0305 Y20.4727
G01 X39.9740 Y20.5491
G01 X39.9673 Y20.5573
G01 X39.9070 Y20.6239
G01 X39.8995 Y20.6314
G01 X39.8289 Y20.6951
G01 X39.7483 Y20.7549
G01 X39.6622 Y20.8065
G01 X39.5714 Y20.8494
G01 X39.4769 Y20.8833
G01 X39.3796 Y20.9077
G01 X39.2803 Y20.9224
G01 X39.1853 Y20.9272
G01 X39.1747 Y20.9272
G01 X39.0797 Y20.9224
G01 X38.9804 Y20.9077
G01 X38.8831 Y20.8833
G01 X38.7886 Y20.8494
G01 X38.6978 Y20.8065
G01 X38.6117 Y20.7549
G01 X38.5311 Y20.6951
G01 X38.4567 Y20.6277
G01 X38.3893 Y20.5533
G01 X38.3295 Y20.4727
G01 X38.2779 Y20.3866
G01 X38.2350 Y20.2958
G01 X38.2011 Y20.2013
G01 X38.1767 Y20.1040
G01 X38.1620 Y20.0047
G01 X38.1571 Y19.9044
G00 Z3.0000
G00 X33.0771 Y19.9044
G01 F40.00
G01 Z-0.0300
G01 F40.00
G01 X33.0771 Y18.0756
G01 X33.0820 Y17.9753
G01 X33.0967 Y17.8760
G01 X33.1197 Y17.7838
G01 X33.1228 Y17.7736
G01 X33.1530 Y17.6891
G01 X33.1560 Y17.6817
G01 X33.1979 Y17.5934
G01 X33.2495 Y17.5073
G01 X33.3093 Y17.4267
G01 X33.3566 Y17.3742
G01 X33.3566 Y2.0516
G01 X33.3052 Y2.0048
G01 X33.2328 Y1.9251
G01 X33.2278 Y1.9189
G01 X33.1669 Y1.8367
G01 X33.1625 Y1.8300
G01 X33.1087 Y1.7399
G01 X33.0637 Y1.6450
G01 X33.0605 Y1.6377
G01 X33.0244 Y1.5363
G01 X32.9987 Y1.4345
G01 X32.9966 Y1.4241
G01 X32.9820 Y1.3254
G01 X32.9810 Y1.3149
G01 X32.9760 Y1.2100
G01 X32.9810 Y1.1051
G01 X32.9820 Y1.0946
G01 X32.9975 Y0.9907
G01 X33.0244 Y0.8837
G01 X33.0615 Y0.7798
G01 X33.1087 Y0.6801
G01 X33.1654 Y0.5855
G01 X33.2311 Y0.4969
G01 X33.3052 Y0.4152
G01 X33.3869 Y0.3411
G01 X33.4755 Y0.2754
G01 X33.5701 Y0.2187
G01 X33.6698 Y0.1715
G01 X33.7737 Y0.1344
G01 X33.8807 Y0.1075
G01 X33.9898 Y0.0914
G01 X34.1000 Y0.0860
G01 X34.2049 Y0.0910
G01 X34.2154 Y0.0920
G01 X34.3193 Y0.1075
G01 X34.4263 Y0.1344
G01 X34.5302 Y0.1715
G01 X34.6251 Y0.2163
G01 X34.6345 Y0.2213
G01 X34.7200 Y0.2725
G01 X34.7288 Y0.2784
G01 X34.8131 Y0.3411
G01 X34.8910 Y0.4115
G01 X34.8985 Y0.4190
G01 X34.9689 Y0.4969
G01 X35.0346 Y0.5855
G01 X35.0913 Y0.6801
G01 X35.1385 Y0.7798
G01 X35.1756 Y0.8837
G01 X35.2025 Y0.9907
G01 X35.2186 Y1.0998
G01 X35.2239 Y1.2047
G01 X35.2239 Y1.2153
G01 X35.2186 Y1.3202
G01 X35.2025 Y1.4293
G01 X35.1756 Y1.5363
G01 X35.1404 Y1.6352
G01 X35.1374 Y1.6426
G01 X35.0913 Y1.7399
G01 X35.0375 Y1.8300
G01 X35.0331 Y1.8367
G01 X34.9722 Y1.9189
G01 X34.9672 Y1.9251
G01 X34.8948 Y2.0048
G01 X34.8434 Y2.0516
G01 X34.8434 Y17.3742
G01 X34.8907 Y17.4267
G01 X34.9505 Y17.5073
G01 X35.0021 Y17.5934
G01 X35.0440 Y17.6817
G01 X35.0470 Y17.6891
G01 X35.0772 Y17.7736
G01 X35.0803 Y17.7838
G01 X35.1033 Y17.8760
G01 X35.1180 Y17.9753
G01 X35.1229 Y18.0756
G01 X35.1229 Y19.9044
G01 X35.1184 Y19.9994
G01 X35.1173 Y20.0099
G01 X35.1033 Y20.1040
G01 X35.0789 Y20.2013
G01 X35.0450 Y20.2958
G01 X35.0045 Y20.3819
G01 X34.9995 Y20.3912
G01 X34.9505 Y20.4727
G01 X34.8940 Y20.5491
G01 X34.8873 Y20.5573
G01 X34.8270 Y20.6239
G01 X34.8195 Y20.6314
G01 X34.7489 Y20.6951
G01 X34.6683 Y20.7549
G01 X34.5822 Y20.8065
G01 X34.4914 Y20.8494
G01 X34.3969 Y20.8833
G01 X34.2996 Y20.9077
G01 X34.2003 Y20.9224
G01 X34.1053 Y20.9272
G01 X34.0947 Y20.9272
G01 X33.9997 Y20.9224
G01 X33.9004 Y20.9077
G01 X33.8031 Y20.8833
G01 X33.7086 Y20.8494
G01 X33.6178 Y20.8065
G01 X33.5317 Y20.7549
G01 X33.4511 Y20.6951
G01 X33.3767 Y20.6277
G01 X33.3093 Y20.5533
G01 X33.2495 Y20.4727
G01 X33.1979 Y20.3866
G01 X33.1550 Y20.2958
G01 X33.1211 Y20.2013
G01 X33.0967 Y20.1040
G01 X33.0820 Y20.0047
G01 X33.0771 Y19.9044
G00 Z3.0000
G00 X27.9971 Y19.9044
G01 F40.00
G01 Z-0.0300
G01 F40.00
G01 X27.9971 Y18.0756
G01 X28.0020 Y17.9753
G01 X28.0167 Y17.8760
G01 X28.0397 Y17.7838
G01 X28.0428 Y17.7736
G01 X28.0730 Y17.6891
G01 X28.0760 Y17.6817
G01 X28.1179 Y17.5934
G01 X28.1695 Y17.5073
G01 X28.2293 Y17.4267
G01 X28.2766 Y17.3742
G01 X28.2766 Y2.0516
G01 X28.2252 Y2.0048
G01 X28.1528 Y1.9251
G01 X28.1478 Y1.9189
G01 X28.0869 Y1.8367
G01 X28.0825 Y1.8300
G01 X28.0287 Y1.7399
G01 X27.9837 Y1.6450
G01 X27.9805 Y1.6377
G01 X27.9444 Y1.5363
G01 X27.9187 Y1.4345
G01 X27.9166 Y1.4241
G01 X27.9020 Y1.3254
G01 X27.9010 Y1.3149
G01 X27.8960 Y1.2100
G01 X27.9010 Y1.1051
G01 X27.9020 Y1.0946
G01 X27.9175 Y0.9907
G01 X27.9444 Y0.8837
G01 X27.9815 Y0.7798
G01 X28.0287 Y0.6801
G01 X28.0854 Y0.5855
G01 X28.1511 Y0.4969
G01 X28.2252 Y0.4152
G01 X28.3069 Y0.3411
G01 X28.3955 Y0.2754
G01 X28.4901 Y0.2187
G01 X28.5898 Y0.1715
G01 X28.6937 Y0.1344
G01 X28.8007 Y0.1075
G01 X28.9098 Y0.0914
G01 X29.0200 Y0.0860
G01 X29.1249 Y0.0910
G01 X29.1354 Y0.0920
G01 X29.2393 Y0.1075
G01 X29.3463 Y0.1344
G01 X29.4502 Y0.1715
G01 X29.5451 Y0.2163
G01 X29.5545 Y0.2213
G01 X29.6400 Y0.2725
G01 X29.6488 Y0.2784
G01 X29.7331 Y0.3411
G01 X29.8110 Y0.4115
G01 X29.8185 Y0.4190
G01 X29.8889 Y0.4969
G01 X29.9546 Y0.5855
G01 X30.0113 Y0.6801
G01 X30.0585 Y0.7798
G01 X30.0956 Y0.8837
G01 X30.1225 Y0.9907
G01 X30.1386 Y1.0998
G01 X30.1439 Y1.2047
G01 X30.1439 Y1.2153
G01 X30.1386 Y1.3202
G01 X30.1225 Y1.4293
G01 X30.0956 Y1.5363
G01 X30.0604 Y1.6352
G01 X30.0574 Y1.6426
G01 X30.0113 Y1.7399
G01 X29.9575 Y1.8300
G01 X29.9531 Y1.8367
G01 X29.8922 Y1.9189
G01 X29.8872 Y1.9251
G01 X29.8148 Y2.0048
G01 X29.7634 Y2.0516
G01 X29.7634 Y17.3742
G01 X29.8107 Y17.4267
G01 X29.8705 Y17.5073
G01 X29.9221 Y17.5934
G01 X29.9640 Y17.6817
G01 X29.9670 Y17.6891
G01 X29.9972 Y17.7736
G01 X30.0003 Y17.7838
G01 X30.0233 Y17.8760
G01 X30.0380 Y17.9753
G01 X30.0429 Y18.0756
G01 X30.0429 Y19.9044
G01 X30.0384 Y19.9994
G01 X30.0373 Y20.0099
G01 X30.0233 Y20.1040
G01 X29.9989 Y20.2013
G01 X29.9650 Y20.2958
G01 X29.9245 Y20.3819
G01 X29.9195 Y20.3912
G01 X29.8705 Y20.4727
G01 X29.8140 Y20.5491
G01 X29.8073 Y20.5573
G01 X29.7470 Y20.6239
G01 X29.7395 Y20.6314
G01 X29.6689 Y20.6951
G01 X29.5883 Y20.7549
G01 X29.5022 Y20.8065
G01 X29.4114 Y20.8494
G01 X29.3169 Y20.8833
G01 X29.2196 Y20.9077
G01 X29.1203 Y20.9224
G01 X29.0253 Y20.9272
G01 X29.0147 Y20.9272
G01 X28.9197 Y20.9224
G01 X28.8204 Y20.9077
G01 X28.7231 Y20.8833
G01 X28.6286 Y20.8494
G01 X28.5378 Y20.8065
G01 X28.4517 Y20.7549
G01 X28.3711 Y20.6951
G01 X28.2967 Y20.6277
G01 X28.2293 Y20.5533
G01 X28.1695 Y20.4727
G01 X28.1179 Y20.3866
G01 X28.0750 Y20.2958
G01 X28.0411 Y20.2013
G01 X28.0167 Y20.1040
G01 X28.0020 Y20.0047
G01 X27.9971 Y19.9044
G00 Z3.0000
G00 X22.9171 Y19.9044
G01 F40.00
G01 Z-0.0300
G01 F40.00
G01 X22.9171 Y18.0756
G01 X22.9220 Y17.9753
G01 X22.9367 Y17.8760
G01 X22.9597 Y17.7838
G01 X22.9628 Y17.7736
G01 X22.9930 Y17.6891
G01 X22.9960 Y17.6817
G01 X23.0379 Y17.5934
G01 X23.0895 Y17.5073
G01 X23.1493 Y17.4267
G01 X23.1966 Y17.3742
G01 X23.1966 Y2.0516
G01 X23.1452 Y2.0048
G01 X23.0728 Y1.9251
G01 X23.0678 Y1.9189
G01 X23.0069 Y1.8367
G01 X23.0025 Y1.8300
G01 X22.9487 Y1.7399
G01 X22.9037 Y1.6450
G01 X22.9005 Y1.6377
G01 X22.8644 Y1.5363
G01 X22.8387 Y1.4345
G01 X22.8366 Y1.4241
G01 X22.8214 Y1.3202
G01 X22.8161 Y1.2153
G01 X22.8161 Y1.2047
G01 X22.8210 Y1.1051
G01 X22.8220 Y1.0946
G01 X22.8375 Y0.9907
G01 X22.8644 Y0.8837
G01 X22.9015 Y0.7798
G01 X22.9487 Y0.6801
G01 X23.0054 Y0.5855
G01 X23.0711 Y0.4969
G01 X23.1452 Y0.4152
G01 X23.2269 Y0.3411
G01 X23.3155 Y0.2754
G01 X23.4101 Y0.2187
G01 X23.5098 Y0.1715
G01 X23.6137 Y0.1344
G01 X23.7207 Y0.1075
G01 X23.8298 Y0.0914
G01 X23.9400 Y0.0860
G01 X24.0449 Y0.0910
G01 X24.0554 Y0.0920
G01 X24.1593 Y0.1075
G01 X24.2663 Y0.1344
G01 X24.3702 Y0.1715
G01 X24.4651 Y0.2163
G01 X24.4745 Y0.2213
G01 X24.5600 Y0.2725
G01 X24.5688 Y0.2784
G01 X24.6531 Y0.3411
G01 X24.7310 Y0.4115
G01 X24.7385 Y0.4190
G01 X24.8089 Y0.4969
G01 X24.8746 Y0.5855
G01 X24.9313 Y0.6801
G01 X24.9785 Y0.7798
G01 X25.0156 Y0.8837
G01 X25.0425 Y0.9907
G01 X25.0586 Y1.0998
G01 X25.0639 Y1.2047
G01 X25.0639 Y1.2153
G01 X25.0586 Y1.3202
G01 X25.0425 Y1.4293
G01 X25.0156 Y1.5363
G01 X24.9804 Y1.6352
G01 X24.9774 Y1.6426
G01 X24.9313 Y1.7399
G01 X24.8775 Y1.8300
G01 X24.8731 Y1.8367
G01 X24.8122 Y1.9189
G01 X24.8072 Y1.9251
G01 X24.7348 Y2.0048
G01 X24.6834 Y2.0516
G01 X24.6834 Y17.3742
G01 X24.7307 Y17.4267
G01 X24.7905 Y17.5073
G01 X24.8421 Y17.5934
G01 X24.8840 Y17.6817
G01 X24.8870 Y17.6891
G01 X24.9172 Y17.7736
G01 X24.9203 Y17.7838
G01 X24.9433 Y17.8760
G01 X24.9580 Y17.9753
G01 X24.9629 Y18.0756
G01 X24.9629 Y19.9044
G01 X24.9584 Y19.9994
G01 X24.9573 Y20.0099
G01 X24.9433 Y20.1040
G01 X24.9189 Y20.2013
G01 X24.8850 Y20.2958
G01 X24.8445 Y20.3819
G01 X24.8395 Y20.3912
G01 X24.7905 Y20.4727
G01 X24.7340 Y20.5491
G01 X24.7273 Y20.5573
G01 X24.6670 Y20.6239
G01 X24.6595 Y20.6314
G01 X24.5889 Y20.6951
G01 X24.5083 Y20.7549
G01 X24.4222 Y20.8065
G01 X24.3314 Y20.8494
G01 X24.2369 Y20.8833
G01 X24.1396 Y20.9077
G01 X24.0403 Y20.9224
G01 X23.9453 Y20.9272
G01 X23.9347 Y20.9272
G01 X23.8397 Y20.9224
G01 X23.7404 Y20.9077
G01 X23.6431 Y20.8833
G01 X23.5486 Y20.8494
G01 X23.4578 Y20.8065
G01 X23.3717 Y20.7549
G01 X23.2911 Y20.6951
G01 X23.2167 Y20.6277
G01 X23.1493 Y20.5533
G01 X23.0895 Y20.4727
G01 X23.0379 Y20.3866
G01 X22.9950 Y20.2958
G01 X22.9611 Y20.2013
G01 X22.9367 Y20.1040
G01 X22.9220 Y20.0047
G01 X22.9171 Y19.9044
G00 Z3.0000
G00 X17.8371 Y19.9044
G01 F40.00
G01 Z-0.0300
G01 F40.00
G01 X17.8371 Y18.0756
G01 X17.8420 Y17.9753
G01 X17.8567 Y17.8760
G01 X17.8797 Y17.7838
G01 X17.8828 Y17.7736
G01 X17.9130 Y17.6891
G01 X17.9160 Y17.6817
G01 X17.9579 Y17.5934
G01 X18.0095 Y17.5073
G01 X18.0693 Y17.4267
G01 X18.1166 Y17.3742
G01 X18.1166 Y2.0516
G01 X18.0652 Y2.0048
G01 X17.9928 Y1.9251
G01 X17.9878 Y1.9189
G01 X17.9269 Y1.8367
G01 X17.9225 Y1.8300
G01 X17.8687 Y1.7399
G01 X17.8237 Y1.6450
G01 X17.8205 Y1.6377
G01 X17.7844 Y1.5363
G01 X17.7587 Y1.4345
G01 X17.7566 Y1.4241
G01 X17.7420 Y1.3254
G01 X17.7410 Y1.3149
G01 X17.7360 Y1.2100
G01 X17.7410 Y1.1051
G01 X17.7420 Y1.0946
G01 X17.7575 Y0.9907
G01 X17.7844 Y0.8837
G01 X17.8215 Y0.7798
G01 X17.8687 Y0.6801
G01 X17.9254 Y0.5855
G01 X17.9911 Y0.4969
G01 X18.0652 Y0.4152
G01 X18.1469 Y0.3411
G01 X18.2355 Y0.2754
G01 X18.3301 Y0.2187
G01 X18.4298 Y0.1715
G01 X18.5337 Y0.1344
G01 X18.6407 Y0.1075
G01 X18.7498 Y0.0914
G01 X18.8600 Y0.0860
G01 X18.9649 Y0.0910
G01 X18.9754 Y0.0920
G01 X19.0793 Y0.1075
G01 X19.1863 Y0.1344
G01 X19.2902 Y0.1715
G01 X19.3851 Y0.2163
G01 X19.3945 Y0.2213
G01 X19.4800 Y0.2725
G01 X19.4888 Y0.2784
G01 X19.5731 Y0.3411
G01 X19.6510 Y0.4115
G01 X19.6585 Y0.4190
G01 X19.7289 Y0.4969
G01 X19.7946 Y0.5855
G01 X19.8513 Y0.6801
G01 X19.8985 Y0.7798
G01 X19.9356 Y0.8837
G01 X19.9625 Y0.9907
G01 X19.9786 Y1.0998
G01 X19.9839 Y1.2047
G01 X19.9839 Y1.2153
G01 X19.9786 Y1.3202
G01 X19.9625 Y1.4293
G01 X19.9356 Y1.5363
G01 X19.9004 Y1.6352
G01 X19.8974 Y1.6426
G01 X19.8513 Y1.7399
G01 X19.7975 Y1.8300
G01 X19.7931 Y1.8367
G01 X19.7322 Y1.9189
G01 X19.7272 Y1.9251
G01 X19.6548 Y2.0048
G01 X19.6034 Y2.0516
G01 X19.6034 Y17.3742
G01 X19.6507 Y17.4267
G01 X19.7105 Y17.5073
G01 X19.7621 Y17.5934
G01 X19.8040 Y17.6817
G01 X19.8070 Y17.6891
G01 X19.8372 Y17.7736
G01 X19.8403 Y17.7838
G01 X19.8633 Y17.8760
G01 X19.8780 Y17.9753
G01 X19.8829 Y18.0756
G01 X19.8829 Y19.9044
G01 X19.8784 Y19.9994
G01 X19.8773 Y20.0099
G01 X19.8633 Y20.1040
G01 X19.8389 Y20.2013
G01 X19.8050 Y20.2958
G01 X19.7645 Y20.3819
G01 X19.7595 Y20.3912
G01 X19.7105 Y20.4727
G01 X19.6540 Y20.5491
G01 X19.6473 Y20.5573
G01 X19.5870 Y20.6239
G01 X19.5795 Y20.6314
G01 X19.5089 Y20.6951
G01 X19.4283 Y20.7549
G01 X19.3422 Y20.8065
G01 X19.2514 Y20.8494
G01 X19.1569 Y20.8833
G01 X19.0596 Y20.9077
G01 X18.9603 Y20.9224
G01 X18.8653 Y20.9272
G01 X18.8547 Y20.9272
G01 X18.7597 Y20.9224
G01 X18.6604 Y20.9077
G01 X18.5631 Y20.8833
G01 X18.4686 Y20.8494
G01 X18.3778 Y20.8065
G01 X18.2917 Y20.7549
G01 X18.2111 Y20.6951
G01 X18.1367 Y20.6277
G01 X18.0693 Y20.5533
G01 X18.0095 Y20.4727
G01 X17.9579 Y20.3866
G01 X17.9150 Y20.2958
G01 X17.8811 Y20.2013
G01 X17.8567 Y20.1040
G01 X17.8420 Y20.0047
G01 X17.8371 Y19.9044
G00 Z3.0000
G00 X12.7571 Y19.9044
G01 F40.00
G01 Z-0.0300
G01 F40.00
G01 X12.7571 Y18.0756
G01 X12.7620 Y17.9753
G01 X12.7767 Y17.8760
G01 X12.7997 Y17.7838
G01 X12.8028 Y17.7736
G01 X12.8330 Y17.6891
G01 X12.8360 Y17.6817
G01 X12.8779 Y17.5934
G01 X12.9295 Y17.5073
G01 X12.9893 Y17.4267
G01 X13.0366 Y17.3742
G01 X13.0366 Y2.0516
G01 X12.9852 Y2.0048
G01 X12.9128 Y1.9251
G01 X12.9078 Y1.9189
G01 X12.8469 Y1.8367
G01 X12.8425 Y1.8300
G01 X12.7887 Y1.7399
G01 X12.7437 Y1.6450
G01 X12.7405 Y1.6377
G01 X12.7044 Y1.5363
G01 X12.6787 Y1.4345
G01 X12.6766 Y1.4241
G01 X12.6620 Y1.3254
G01 X12.6610 Y1.3149
G01 X12.6560 Y1.2100
G01 X12.6610 Y1.1051
G01 X12.6620 Y1.0946
G01 X12.6775 Y0.9907
G01 X12.7044 Y0.8837
G01 X12.7415 Y0.7798
G01 X12.7887 Y0.6801
G01 X12.8454 Y0.5855
G01 X12.9111 Y0.4969
G01 X12.9852 Y0.4152
G01 X13.0669 Y0.3411
G01 X13.1555 Y0.2754
G01 X13.2501 Y0.2187
G01 X13.3498 Y0.1715
G01 X13.4537 Y0.1344
G01 X13.5607 Y0.1075
G01 X13.6698 Y0.0914
G01 X13.7800 Y0.0860
G01 X13.8849 Y0.0910
G01 X13.8954 Y0.0920
G01 X13.9993 Y0.1075
G01 X14.1063 Y0.1344
G01 X14.2102 Y0.1715
G01 X14.3051 Y0.2163
G01 X14.3145 Y0.2213
G01 X14.4000 Y0.2725
G01 X14.4088 Y0.2784
G01 X14.4931 Y0.3411
G01 X14.5710 Y0.4115
G01 X14.5785 Y0.4190
G01 X14.6489 Y0.4969
G01 X14.7146 Y0.5855
G01 X14.7713 Y0.6801
G01 X14.8185 Y0.7798
G01 X14.8556 Y0.8837
G01 X14.8825 Y0.9907
G01 X14.8986 Y1.0998
G01 X14.9039 Y1.2047
G01 X14.9039 Y1.2153
G01 X14.8986 Y1.3202
G01 X14.8825 Y1.4293
G01 X14.8556 Y1.5363
G01 X14.8204 Y1.6352
G01 X14.8174 Y1.6426
G01 X14.7713 Y1.7399
G01 X14.7175 Y1.8300
G01 X14.7131 Y1.8367
G01 X14.6522 Y1.9189
G01 X14.6472 Y1.9251
G01 X14.5748 Y2.0048
G01 X14.5234 Y2.0516
G01 X14.5234 Y17.3742
G01 X14.5707 Y17.4267
G01 X14.6305 Y17.5073
G01 X14.6821 Y17.5934
G01 X14.7240 Y17.6817
G01 X14.7270 Y17.6891
G01 X14.7572 Y17.7736
G01 X14.7603 Y17.7838
G01 X14.7833 Y17.8760
G01 X14.7980 Y17.9753
G01 X14.8029 Y18.0756
G01 X14.8029 Y19.9044
G01 X14.7984 Y19.9994
G01 X14.7973 Y20.0099
G01 X14.7833 Y20.1040
G01 X14.7589 Y20.2013
G01 X14.7250 Y20.2958
G01 X14.6845 Y20.3819
G01 X14.6795 Y20.3912
G01 X14.6305 Y20.4727
G01 X14.5740 Y20.5491
G01 X14.5673 Y20.5573
G01 X14.5070 Y20.6239
G01 X14.4995 Y20.6314
G01 X14.4289 Y20.6951
G01 X14.3483 Y20.7549
G01 X14.2622 Y20.8065
G01 X14.1714 Y20.8494
G01 X14.0769 Y20.8833
G01 X13.9796 Y20.9077
G01 X13.8803 Y20.9224
G01 X13.7853 Y20.9272
G01 X13.7747 Y20.9272
G01 X13.6797 Y20.9224
G01 X13.5804 Y20.9077
G01 X13.4831 Y20.8833
G01 X13.3886 Y20.8494
G01 X13.2978 Y20.8065
G01 X13.2117 Y20.7549
G01 X13.1311 Y20.6951
G01 X13.0567 Y20.6277
G01 X12.9893 Y20.5533
G01 X12.9295 Y20.4727
G01 X12.8779 Y20.3866
G01 X12.8350 Y20.2958
G01 X12.8011 Y20.2013
G01 X12.7767 Y20.1040
G01 X12.7620 Y20.0047
G01 X12.7571 Y19.9044
G00 Z3.0000
G00 X25.7366 Y35.8458
G01 F40.00
G01 Z-0.0300
G01 F40.00
G01 X25.6893 Y35.7933
G01 X25.6295 Y35.7127
G01 X25.5779 Y35.6266
G01 X25.5360 Y35.5383
G01 X25.5330 Y35.5309
G01 X25.5028 Y35.4464
G01 X25.4997 Y35.4362
G01 X25.4767 Y35.3440
G01 X25.4627 Y35.2499
G01 X25.4618 Y35.2420
G01 X25.4571 Y35.1444
G01 X25.4571 Y33.3129
G01 X25.4620 Y33.2153
G01 X25.4758 Y33.1213
G01 X25.4779 Y33.1109
G01 X25.5011 Y33.0187
G01 X25.5350 Y32.9242
G01 X25.5779 Y32.8334
G01 X25.6295 Y32.7473
G01 X25.6893 Y32.6667
G01 X25.7567 Y32.5923
G01 X25.8311 Y32.5249
G01 X25.9117 Y32.4651
G01 X25.9978 Y32.4135
G01 X26.0886 Y32.3706
G01 X26.1831 Y32.3367
G01 X26.2804 Y32.3123
G01 X26.3797 Y32.2976
G01 X26.4800 Y32.2927
G01 X26.5803 Y32.2976
G01 X26.6796 Y32.3123
G01 X26.7769 Y32.3367
G01 X26.8714 Y32.3706
G01 X26.9575 Y32.4111
G01 X26.9668 Y32.4161
G01 X27.0483 Y32.4651
G01 X27.1289 Y32.5249
G01 X27.1995 Y32.5886
G01 X27.2070 Y32.5961
G01 X27.2707 Y32.6667
G01 X27.3305 Y32.7473
G01 X27.3795 Y32.8288
G01 X27.3845 Y32.8381
G01 X27.4250 Y32.9242
G01 X27.4572 Y33.0136
G01 X27.4603 Y33.0238
G01 X27.4833 Y33.1160
G01 X27.4973 Y33.2101
G01 X27.4984 Y33.2206
G01 X27.5029 Y33.3156
G01 X27.5029 Y35.1444
G01 X27.4982 Y35.2420
G01 X27.4973 Y35.2499
G01 X27.4833 Y35.3440
G01 X27.4603 Y35.4362
G01 X27.4572 Y35.4464
G01 X27.4270 Y35.5309
G01 X27.4240 Y35.5383
G01 X27.3821 Y35.6266
G01 X27.3305 Y35.7127
G01 X27.2707 Y35.7933
G01 X27.2234 Y35.8458
G01 X27.2234 Y37.2199
G01 X27.2597 Y37.2528
G01 X27.2654 Y37.2584
G01 X27.3348 Y37.3350
G01 X27.3398 Y37.3412
G01 X27.3998 Y37.4222
G01 X27.4041 Y37.4289
G01 X27.4572 Y37.5177
G01 X27.5027 Y37.6135
G01 X27.5056 Y37.6209
G01 X27.5403 Y37.7184
G01 X27.5668 Y37.8238
G01 X27.5827 Y37.9314
G01 X27.5880 Y38.0400
G01 X27.5831 Y38.1433
G01 X27.5821 Y38.1539
G01 X27.5668 Y38.2562
G01 X27.5403 Y38.3616
G01 X27.5037 Y38.4640
G01 X27.4596 Y38.5576
G01 X27.4546 Y38.5669
G01 X27.4041 Y38.6511
G01 X27.3983 Y38.6599
G01 X27.3365 Y38.7429
G01 X27.2635 Y38.8235
G01 X27.1829 Y38.8965
G01 X27.0999 Y38.9583
G01 X27.0911 Y38.9641
G01 X27.0069 Y39.0146
G01 X26.9976 Y39.0196
G01 X26.9040 Y39.0637
G01 X26.8042 Y39.0995
G01 X26.7965 Y39.1018
G01 X26.6962 Y39.1268
G01 X26.5886 Y39.1427
G01 X26.4800 Y39.1480
G01 X26.3714 Y39.1427
G01 X26.2638 Y39.1268
G01 X26.1584 Y39.1003
G01 X26.0560 Y39.0637
G01 X25.9577 Y39.0172
G01 X25.8644 Y38.9613
G01 X25.7771 Y38.8965
G01 X25.6965 Y38.8235
G01 X25.6235 Y38.7429
G01 X25.5587 Y38.6556
G01 X25.5028 Y38.5623
G01 X25.4563 Y38.4640
G01 X25.4205 Y38.3642
G01 X25.4182 Y38.3565
G01 X25.3944 Y38.2613
G01 X25.3923 Y38.2509
G01 X25.3773 Y38.1486
G01 X25.3720 Y38.0400
G01 X25.3769 Y37.9367
G01 X25.3779 Y37.9261
G01 X25.3932 Y37.8238
G01 X25.4189 Y37.7209
G01 X25.4213 Y37.7133
G01 X25.4544 Y37.6209
G01 X25.4584 Y37.6111
G01 X25.5028 Y37.5177
G01 X25.5572 Y37.4266
G01 X25.5617 Y37.4201
G01 X25.6202 Y37.3412
G01 X25.6252 Y37.3350
G01 X25.6946 Y37.2584
G01 X25.7003 Y37.2528
G01 X25.7366 Y37.2199
G01 X25.7366 Y35.8458
G00 Z3.0000
G00 X28.2766 Y35.8458
G01 F40.00
G01 Z-0.0300
G01 F40.00
G01 X28.2293 Y35.7933
G01 X28.1695 Y35.7127
G01 X28.1179 Y35.6266
G01 X28.0760 Y35.5383
G01 X28.0730 Y35.5309
G01 X28.0428 Y35.4464
G01 X28.0397 Y35.4362
G01 X28.0167 Y35.3440
G01 X28.0027 Y35.2499
G01 X28.0018 Y35.2420
G01 X27.9971 Y35.1444
G01 X27.9971 Y33.3129
G01 X28.0020 Y33.2153
G01 X28.0158 Y33.1213
G01 X28.0179 Y33.1109
G01 X28.0411 Y33.0187
G01 X28.0750 Y32.9242
G01 X28.1179 Y32.8334
G01 X28.1695 Y32.7473
G01 X28.2293 Y32.6667
G01 X28.2967 Y32.5923
G01 X28.3711 Y32.5249
G01 X28.4517 Y32.4651
G01 X28.5378 Y32.4135
G01 X28.6286 Y32.3706
G01 X28.7231 Y32.3367
G01 X28.8204 Y32.3123
G01 X28.9197 Y32.2976
G01 X29.0200 Y32.2927
G01 X29.1203 Y32.2976
G01 X29.2196 Y32.3123
G01 X29.3169 Y32.3367
G01 X29.4114 Y32.3706
G01 X29.4975 Y32.4111
G01 X29.5068 Y32.4161
G01 X29.5883 Y32.4651
G01 X29.6689 Y32.5249
G01 X29.7395 Y32.5886
G01 X29.7470 Y32.5961
G01 X29.8073 Y32.6627
G01 X29.8140 Y32.6709
G01 X29.8705 Y32.7473
G01 X29.9221 Y32.8334
G01 X29.9650 Y32.9242
G01 X29.9972 Y33.0136
G01 X30.0003 Y33.0238
G01 X30.0221 Y33.1109
G01 X30.0242 Y33.1213
G01 X30.0380 Y33.2153
G01 X30.0429 Y33.3129
G01 X30.0429 Y35.1444
G01 X30.0380 Y35.2447
G01 X30.0233 Y35.3440
G01 X30.0003 Y35.4362
G01 X29.9972 Y35.4464
G01 X29.9670 Y35.5309
G01 X29.9640 Y35.5383
G01 X29.9221 Y35.6266
G01 X29.8705 Y35.7127
G01 X29.8107 Y35.7933
G01 X29.7634 Y35.8458
G01 X29.7634 Y65.1599
G01 X29.7997 Y65.1928
G01 X29.8054 Y65.1984
G01 X29.8748 Y65.2750
G01 X29.8798 Y65.2812
G01 X29.9398 Y65.3622
G01 X29.9441 Y65.3689
G01 X29.9972 Y65.4577
G01 X30.0427 Y65.5535
G01 X30.0456 Y65.5609
G01 X30.0803 Y65.6584
G01 X30.1068 Y65.7638
G01 X30.1227 Y65.8714
G01 X30.1280 Y65.9800
G01 X30.1227 Y66.0886
G01 X30.1068 Y66.1962
G01 X30.0803 Y66.3016
G01 X30.0437 Y66.4040
G01 X29.9972 Y66.5023
G01 X29.9413 Y66.5956
G01 X29.8765 Y66.6829
G01 X29.8035 Y66.7635
G01 X29.7229 Y66.8365
G01 X29.6356 Y66.9013
G01 X29.5423 Y66.9572
G01 X29.4440 Y67.0037
G01 X29.3416 Y67.0403
G01 X29.2362 Y67.0668
G01 X29.1286 Y67.0827
G01 X29.0227 Y67.0880
G01 X29.0147 Y67.0879
G01 X28.9114 Y67.0827
G01 X28.8038 Y67.0668
G01 X28.6984 Y67.0403
G01 X28.5960 Y67.0037
G01 X28.4977 Y66.9572
G01 X28.4044 Y66.9013
G01 X28.3171 Y66.8365
G01 X28.2365 Y66.7635
G01 X28.1635 Y66.6829
G01 X28.0987 Y66.5956
G01 X28.0428 Y66.5023
G01 X27.9963 Y66.4040
G01 X27.9597 Y66.3016
G01 X27.9332 Y66.1962
G01 X27.9173 Y66.0886
G01 X27.9120 Y65.9827
G01 X27.9121 Y65.9747
G01 X27.9173 Y65.8714
G01 X27.9332 Y65.7638
G01 X27.9597 Y65.6584
G01 X27.9944 Y65.5609
G01 X27.9973 Y65.5535
G01 X28.0428 Y65.4577
G01 X28.0959 Y65.3689
G01 X28.1002 Y65.3622
G01 X28.1602 Y65.2812
G01 X28.1652 Y65.2750
G01 X28.2346 Y65.1984
G01 X28.2403 Y65.1928
G01 X28.2766 Y65.1599
G01 X28.2766 Y35.8458
G00 Z3.0000
G00 X30.5371 Y35.1444
G01 F40.00
G01 Z-0.0300
G01 F40.00
G01 X30.5371 Y33.3156
G01 X30.5416 Y33.2206
G01 X30.5427 Y33.2101
G01 X30.5567 Y33.1160
G01 X30.5811 Y33.0187
G01 X30.6150 Y32.9242
G01 X30.6555 Y32.8381
G01 X30.6592 Y32.8311
G01 X30.7095 Y32.7473
G01 X30.7693 Y32.6667
G01 X30.8367 Y32.5923
G01 X30.9111 Y32.5249
G01 X30.9917 Y32.4651
G01 X31.0778 Y32.4135
G01 X31.1686 Y32.3706
G01 X31.2631 Y32.3367
G01 X31.3604 Y32.3123
G01 X31.4597 Y32.2976
G01 X31.5600 Y32.2927
G01 X31.6603 Y32.2976
G01 X31.7596 Y32.3123
G01 X31.8569 Y32.3367
G01 X31.9514 Y32.3706
G01 X32.0375 Y32.4111
G01 X32.0445 Y32.4148
G01 X32.1283 Y32.4651
G01 X32.2047 Y32.5216
G01 X32.2129 Y32.5283
G01 X32.2833 Y32.5923
G01 X32.3473 Y32.6627
G01 X32.3540 Y32.6709
G01 X32.4105 Y32.7473
G01 X32.4595 Y32.8288
G01 X32.4645 Y32.8381
G01 X32.5050 Y32.9242
G01 X32.5372 Y33.0136
G01 X32.5403 Y33.0238
G01 X32.5633 Y33.1160
G01 X32.5773 Y33.2101
G01 X32.5784 Y33.2206
G01 X32.5829 Y33.3129
G01 X32.5829 Y35.1444
G01 X32.5780 Y35.2447
G01 X32.5633 Y35.3440
G01 X32.5403 Y35.4362
G01 X32.5372 Y35.4464
G01 X32.5070 Y35.5309
G01 X32.5040 Y35.5383
G01 X32.4621 Y35.6266
G01 X32.4105 Y35.7127
G01 X32.3507 Y35.7933
G01 X32.3034 Y35.8458
G01 X32.3034 Y62.6199
G01 X32.3397 Y62.6528
G01 X32.3454 Y62.6584
G01 X32.4148 Y62.7350
G01 X32.4198 Y62.7412
G01 X32.4798 Y62.8222
G01 X32.4841 Y62.8289
G01 X32.5372 Y62.9177
G01 X32.5827 Y63.0135
G01 X32.5856 Y63.0209
G01 X32.6203 Y63.1184
G01 X32.6468 Y63.2238
G01 X32.6627 Y63.3314
G01 X32.6679 Y63.4347
G01 X32.6680 Y63.4427
G01 X32.6627 Y63.5486
G01 X32.6468 Y63.6562
G01 X32.6203 Y63.7616
G01 X32.5837 Y63.8640
G01 X32.5372 Y63.9623
G01 X32.4813 Y64.0556
G01 X32.4165 Y64.1429
G01 X32.3435 Y64.2235
G01 X32.2629 Y64.2965
G01 X32.1756 Y64.3613
G01 X32.0823 Y64.4172
G01 X31.9840 Y64.4637
G01 X31.8816 Y64.5003
G01 X31.7762 Y64.5268
G01 X31.6686 Y64.5427
G01 X31.5627 Y64.5480
G01 X31.5547 Y64.5479
G01 X31.4514 Y64.5427
G01 X31.3438 Y64.5268
G01 X31.2384 Y64.5003
G01 X31.1360 Y64.4637
G01 X31.0377 Y64.4172
G01 X30.9444 Y64.3613
G01 X30.8571 Y64.2965
G01 X30.7765 Y64.2235
G01 X30.7035 Y64.1429
G01 X30.6387 Y64.0556
G01 X30.5828 Y63.9623
G01 X30.5363 Y63.8640
G01 X30.4997 Y63.7616
G01 X30.4732 Y63.6562
G01 X30.4573 Y63.5486
G01 X30.4520 Y63.4427
G01 X30.4521 Y63.4347
G01 X30.4573 Y63.3314
G01 X30.4732 Y63.2238
G01 X30.4997 Y63.1184
G01 X30.5344 Y63.0209
G01 X30.5373 Y63.0135
G01 X30.5828 Y62.9177
G01 X30.6359 Y62.8289
G01 X30.6402 Y62.8222
G01 X30.7002 Y62.7412
G01 X30.7052 Y62.7350
G01 X30.7746 Y62.6584
G01 X30.7803 Y62.6528
G01 X30.8166 Y62.6199
G01 X30.8166 Y35.8458
G01 X30.7693 Y35.7933
G01 X30.7125 Y35.7170
G01 X30.7080 Y35.7105
G01 X30.6579 Y35.6266
G01 X30.6171 Y35.5407
G01 X30.6140 Y35.5334
G01 X30.5811 Y35.4413
G01 X30.5567 Y35.3440
G01 X30.5420 Y35.2447
G01 X30.5371 Y35.1444
G00 Z3.0000
G00 X33.3566 Y35.8458
G01 F40.00
G01 Z-0.0300
G01 F40.00
G01 X33.3093 Y35.7933
G01 X33.2495 Y35.7127
G01 X33.1979 Y35.6266
G01 X33.1560 Y35.5383
G01 X33.1530 Y35.5309
G01 X33.1228 Y35.4464
G01 X33.1197 Y35.4362
G01 X33.0967 Y35.3440
G01 X33.0827 Y35.2499
G01 X33.0818 Y35.2420
G01 X33.0771 Y35.1444
G01 X33.0771 Y33.3129
G01 X33.0820 Y33.2153
G01 X33.0958 Y33.1213
G01 X33.0979 Y33.1109
G01 X33.1211 Y33.0187
G01 X33.1550 Y32.9242
G01 X33.1979 Y32.8334
G01 X33.2495 Y32.7473
G01 X33.3093 Y32.6667
G01 X33.3767 Y32.5923
G01 X33.4511 Y32.5249
G01 X33.5317 Y32.4651
G01 X33.6178 Y32.4135
G01 X33.7086 Y32.3706
G01 X33.8031 Y32.3367
G01 X33.9004 Y32.3123
G01 X33.9997 Y32.2976
G01 X34.1000 Y32.2927
G01 X34.2003 Y32.2976
G01 X34.2996 Y32.3123
G01 X34.3969 Y32.3367
G01 X34.4914 Y32.3706
G01 X34.5775 Y32.4111
G01 X34.5868 Y32.4161
G01 X34.6683 Y32.4651
G01 X34.7489 Y32.5249
G01 X34.8195 Y32.5886
G01 X34.8270 Y32.5961
G01 X34.8873 Y32.6627
G01 X34.8940 Y32.6709
G01 X34.9505 Y32.7473
G01 X35.0021 Y32.8334
G01 X35.0450 Y32.9242
G01 X35.0772 Y33.0136
G01 X35.0803 Y33.0238
G01 X35.1021 Y33.1109
G01 X35.1042 Y33.1213
G01 X35.1180 Y33.2153
G01 X35.1229 Y33.3129
G01 X35.1229 Y35.1444
G01 X35.1180 Y35.2447
G01 X35.1033 Y35.3440
G01 X35.0803 Y35.4362
G01 X35.0772 Y35.4464
G01 X35.0470 Y35.5309
G01 X35.0440 Y35.5383
G01 X35.0021 Y35.6266
G01 X34.9505 Y35.7127
G01 X34.8907 Y35.7933
G01 X34.8434 Y35.8458
G01 X34.8434 Y67.6999
G01 X34.8797 Y67.7328
G01 X34.8854 Y67.7384
G01 X34.9548 Y67.8150
