(G-CODE GENERATED BY FLATCAM v8.994 - www.flatcam.org - Version Date: 2020/11/7)

(Name: copper_bottom.gbr_iso_combined_cnc)
(Type: G-code from Geometry)
(Units: MM)

(Created on sábado, 26 fevereiro 2022 at 15:14)

(This preprocessor is the default preprocessor used by FlatCAM.)
(It is made to work with MACH3 compatible motion controllers.)

(TOOL DIAMETER: 0.2268 mm)
(Feedrate_XY: 90.0 mm/min)
(Feedrate_Z: 60.0 mm/min)
(Feedrate rapids 1500.0 mm/min)

(Z_Cut: -0.05 mm)
(Z_Move: 3.0 mm)
(Z Start: None mm)
(Z End: 15.0 mm)
(X,Y End: None mm)
(Steps per circle: 64)
(Preprocessor Geometry: default)

(X range:    0.3766 ...  145.9259  mm)
(Y range:    0.2401 ...   88.2584  mm)

(Spindle Speed: 1000.0 RPM)
G21
G90
G94

G01 F90.00

M5
G00 Z15.0000
G00 X0.0000 Y0.0000
T1
M6    
(MSG, Change to Tool Dia = 0.2268)
M0
G00 Z15.0000

M03 S1000.0
G01 F90.00
G00 X2.6699 Y1.3700
G01 F60.00
G01 Z-0.0500
G01 F90.00
G01 X2.6699 Y3.4020
G01 X2.6649 Y3.5072
G01 X2.6638 Y3.5183
G01 X2.6482 Y3.6224
G01 X2.6213 Y3.7300
G01 X2.5839 Y3.8344
G01 X2.5365 Y3.9346
G01 X2.4795 Y4.0297
G01 X2.4134 Y4.1188
G01 X2.3390 Y4.2010
G01 X2.2568 Y4.2754
G01 X2.1677 Y4.3415
G01 X2.0726 Y4.3985
G01 X1.9724 Y4.4459
G01 X1.8680 Y4.4833
G01 X1.7604 Y4.5102
G01 X1.6508 Y4.5265
G01 X1.5400 Y4.5319
G01 X1.4292 Y4.5265
G01 X1.3196 Y4.5102
G01 X1.2120 Y4.4833
G01 X1.1076 Y4.4459
G01 X1.0074 Y4.3985
G01 X0.9170 Y4.3445
G01 X0.9077 Y4.3383
G01 X0.8232 Y4.2754
G01 X0.7451 Y4.2048
G01 X0.7372 Y4.1969
G01 X0.6666 Y4.1188
G01 X0.6005 Y4.0297
G01 X0.5435 Y3.9346
G01 X0.4984 Y3.8395
G01 X0.4941 Y3.8292
G01 X0.4587 Y3.7300
G01 X0.4330 Y3.6279
G01 X0.4309 Y3.6170
G01 X0.4158 Y3.5155
G01 X0.4151 Y3.5072
G01 X0.4101 Y3.4020
G01 X0.4102 Y1.3644
G01 X0.4151 Y1.2648
G01 X0.4162 Y1.2537
G01 X0.4318 Y1.1496
G01 X0.4573 Y1.0474
G01 X0.4605 Y1.0367
G01 X0.4961 Y0.9376
G01 X0.5435 Y0.8374
G01 X0.6005 Y0.7423
G01 X0.6666 Y0.6532
G01 X0.7410 Y0.5710
G01 X0.8190 Y0.5002
G01 X0.8276 Y0.4931
G01 X0.9077 Y0.4337
G01 X0.9170 Y0.4275
G01 X1.0074 Y0.3735
G01 X1.1076 Y0.3261
G01 X1.2120 Y0.2887
G01 X1.3141 Y0.2630
G01 X1.3250 Y0.2609
G01 X1.4237 Y0.2462
G01 X1.4348 Y0.2451
G01 X1.5400 Y0.2401
G01 X1.6508 Y0.2455
G01 X1.7604 Y0.2618
G01 X1.8626 Y0.2873
G01 X1.8733 Y0.2905
G01 X1.9672 Y0.3241
G01 X1.9775 Y0.3284
G01 X2.0726 Y0.3735
G01 X2.1677 Y0.4305
G01 X2.2568 Y0.4966
G01 X2.3349 Y0.5672
G01 X2.3428 Y0.5751
G01 X2.4098 Y0.6490
G01 X2.4169 Y0.6576
G01 X2.4795 Y0.7423
G01 X2.5365 Y0.8374
G01 X2.5839 Y0.9376
G01 X2.6195 Y1.0367
G01 X2.6227 Y1.0474
G01 X2.6470 Y1.1441
G01 X2.6491 Y1.1550
G01 X2.6645 Y1.2592
G01 X2.6699 Y1.3700
G00 Z3.0000
G00 X2.9501 Y3.4020
G01 F60.00
G01 Z-0.0500
G01 F90.00
G01 X2.9501 Y1.3700
G01 X2.9551 Y1.2648
G01 X2.9562 Y1.2537
G01 X2.9718 Y1.1496
G01 X2.9987 Y1.0420
G01 X3.0361 Y0.9376
G01 X3.0835 Y0.8374
G01 X3.1405 Y0.7423
G01 X3.2066 Y0.6532
G01 X3.2810 Y0.5710
G01 X3.3632 Y0.4966
G01 X3.4523 Y0.4305
G01 X3.5474 Y0.3735
G01 X3.6476 Y0.3261
G01 X3.7520 Y0.2887
G01 X3.8596 Y0.2618
G01 X3.9692 Y0.2455
G01 X4.0800 Y0.2401
G01 X4.1908 Y0.2455
G01 X4.3004 Y0.2618
G01 X4.4080 Y0.2887
G01 X4.5124 Y0.3261
G01 X4.6126 Y0.3735
G01 X4.7077 Y0.4305
G01 X4.7924 Y0.4931
G01 X4.8010 Y0.5002
G01 X4.8790 Y0.5710
G01 X4.9498 Y0.6490
G01 X4.9569 Y0.6576
G01 X5.0195 Y0.7423
G01 X5.0765 Y0.8374
G01 X5.1216 Y0.9325
G01 X5.1259 Y0.9428
G01 X5.1613 Y1.0420
G01 X5.1870 Y1.1441
G01 X5.1891 Y1.1550
G01 X5.2042 Y1.2565
G01 X5.2049 Y1.2648
G01 X5.2099 Y1.3700
G01 X5.2098 Y3.4076
G01 X5.2049 Y3.5072
G01 X5.2038 Y3.5183
G01 X5.1882 Y3.6224
G01 X5.1627 Y3.7246
G01 X5.1595 Y3.7353
G01 X5.1239 Y3.8344
G01 X5.0765 Y3.9346
G01 X5.0195 Y4.0297
G01 X4.9534 Y4.1188
G01 X4.8790 Y4.2010
G01 X4.8010 Y4.2718
G01 X4.7924 Y4.2789
G01 X4.7123 Y4.3383
G01 X4.7030 Y4.3445
G01 X4.6126 Y4.3985
G01 X4.5124 Y4.4459
G01 X4.4080 Y4.4833
G01 X4.3059 Y4.5090
G01 X4.2950 Y4.5111
G01 X4.1963 Y4.5258
G01 X4.1852 Y4.5269
G01 X4.0800 Y4.5319
G01 X3.9692 Y4.5265
G01 X3.8596 Y4.5102
G01 X3.7574 Y4.4847
G01 X3.7467 Y4.4815
G01 X3.6528 Y4.4479
G01 X3.6425 Y4.4436
G01 X3.5474 Y4.3985
G01 X3.4523 Y4.3415
G01 X3.3632 Y4.2754
G01 X3.2851 Y4.2048
G01 X3.2772 Y4.1969
G01 X3.2102 Y4.1230
G01 X3.2031 Y4.1144
G01 X3.1405 Y4.0297
G01 X3.0835 Y3.9346
G01 X3.0361 Y3.8344
G01 X3.0005 Y3.7353
G01 X2.9973 Y3.7246
G01 X2.9730 Y3.6279
G01 X2.9709 Y3.6170
G01 X2.9555 Y3.5128
G01 X2.9501 Y3.4020
G00 Z3.0000
G00 X0.7913 Y7.3398
G01 F60.00
G01 Z-0.0500
G01 F90.00
G01 X0.7174 Y7.2726
G01 X0.6407 Y7.1881
G01 X0.5727 Y7.0964
G01 X0.5140 Y6.9984
G01 X0.4652 Y6.8952
G01 X0.4267 Y6.7877
G01 X0.3990 Y6.6770
G01 X0.3822 Y6.5640
G01 X0.3766 Y6.4500
G01 X0.3822 Y6.3360
G01 X0.3990 Y6.2230
G01 X0.4267 Y6.1123
G01 X0.4652 Y6.0048
G01 X0.5140 Y5.9016
G01 X0.5727 Y5.8036
G01 X0.6407 Y5.7119
G01 X0.7174 Y5.6274
G01 X0.8019 Y5.5507
G01 X0.8936 Y5.4827
G01 X0.9916 Y5.4240
G01 X1.0948 Y5.3752
G01 X1.2023 Y5.3367
G01 X1.3130 Y5.3090
G01 X1.4260 Y5.2922
G01 X1.5400 Y5.2866
G01 X1.6540 Y5.2922
G01 X1.7670 Y5.3090
G01 X1.8777 Y5.3367
G01 X1.9852 Y5.3752
G01 X2.0884 Y5.4240
G01 X2.1864 Y5.4827
G01 X2.2781 Y5.5507
G01 X2.3626 Y5.6274
G01 X2.4393 Y5.7119
G01 X2.5073 Y5.8036
G01 X2.5633 Y5.8967
G01 X2.5685 Y5.9065
G01 X2.6126 Y5.9997
G01 X2.6168 Y6.0100
G01 X2.6533 Y6.1123
G01 X2.6798 Y6.2176
G01 X2.6820 Y6.2285
G01 X2.6978 Y6.3360
G01 X2.7034 Y6.4500
G01 X2.6978 Y6.5640
G01 X2.6810 Y6.6770
G01 X2.6533 Y6.7877
G01 X2.6168 Y6.8900
G01 X2.6126 Y6.9003
G01 X2.5660 Y6.9984
G01 X2.5103 Y7.0916
G01 X2.5041 Y7.1009
G01 X2.4427 Y7.1837
G01 X2.4357 Y7.1923
G01 X2.3626 Y7.2726
G01 X2.2887 Y7.3398
G01 X2.2887 Y52.0563
G01 X35.4822 Y52.0563
G01 X35.5333 Y52.0101
G01 X35.6143 Y51.9500
G01 X35.7009 Y51.8982
G01 X35.7895 Y51.8561
G01 X35.7973 Y51.8530
G01 X35.8818 Y51.8228
G01 X35.8925 Y51.8195
G01 X35.9850 Y51.7965
G01 X36.0848 Y51.7817
G01 X36.1856 Y51.7767
G01 X38.0200 Y51.7769
G01 X38.1152 Y51.7817
G01 X38.2095 Y51.7955
G01 X38.2204 Y51.7977
G01 X38.3129 Y51.8210
G01 X38.4079 Y51.8550
G01 X38.4941 Y51.8957
G01 X38.5040 Y51.9009
G01 X38.5810 Y51.9471
G01 X38.5902 Y51.9532
G01 X38.6667 Y52.0101
G01 X38.7375 Y52.0741
G01 X38.7453 Y52.0819
G01 X38.8056 Y52.1485
G01 X38.8127 Y52.1571
G01 X38.8694 Y52.2337
G01 X38.9212 Y52.3203
G01 X38.9644 Y52.4115
G01 X38.9966 Y52.5012
G01 X38.9999 Y52.5119
G01 X39.0217 Y52.5990
G01 X39.0239 Y52.6099
G01 X39.0377 Y52.7042
G01 X39.0427 Y52.8050
G01 X39.0377 Y52.9058
G01 X39.0239 Y53.0001
G01 X39.0217 Y53.0110
G01 X38.9984 Y53.1035
G01 X38.9664 Y53.1933
G01 X38.9621 Y53.2036
G01 X38.9212 Y53.2897
G01 X38.8694 Y53.3763
G01 X38.8093 Y53.4573
G01 X38.7453 Y53.5281
G01 X38.7375 Y53.5359
G01 X38.6667 Y53.5999
G01 X38.5857 Y53.6600
G01 X38.5040 Y53.7091
G01 X38.4941 Y53.7143
G01 X38.4079 Y53.7550
G01 X38.3182 Y53.7872
G01 X38.3075 Y53.7905
G01 X38.2150 Y53.8135
G01 X38.1152 Y53.8283
G01 X38.0144 Y53.8333
G01 X36.1856 Y53.8333
G01 X36.0848 Y53.8283
G01 X35.9850 Y53.8135
G01 X35.8871 Y53.7890
G01 X35.7947 Y53.7560
G01 X35.7870 Y53.7527
G01 X35.7009 Y53.7118
G01 X35.6167 Y53.6615
G01 X35.6098 Y53.6568
G01 X35.5333 Y53.5999
G01 X35.4822 Y53.5537
G01 X1.5400 Y53.5537
G01 X1.4666 Y53.5501
G01 X1.3939 Y53.5393
G01 X1.3227 Y53.5215
G01 X1.2587 Y53.4987
G01 X1.2484 Y53.4945
G01 X1.1920 Y53.4678
G01 X1.1822 Y53.4626
G01 X1.1240 Y53.4275
G01 X1.0694 Y53.3872
G01 X1.0608 Y53.3801
G01 X1.0106 Y53.3344
G01 X0.9612 Y53.2800
G01 X0.9175 Y53.2210
G01 X0.8797 Y53.1579
G01 X0.8483 Y53.0915
G01 X0.8253 Y53.0276
G01 X0.8227 Y53.0197
G01 X0.8201 Y53.0094
G01 X0.8069 Y52.9565
G01 X0.8047 Y52.9456
G01 X0.7949 Y52.8784
G01 X0.7913 Y52.8050
G01 X0.7913 Y7.3398
G00 Z3.0000
G00 X4.6013 Y11.1498
G01 F60.00
G01 Z-0.0500
G01 F90.00
G01 X4.5274 Y11.0826
G01 X4.4507 Y10.9981
G01 X4.3827 Y10.9064
G01 X4.3240 Y10.8084
G01 X4.2752 Y10.7052
G01 X4.2367 Y10.5977
G01 X4.2090 Y10.4870
G01 X4.1922 Y10.3740
G01 X4.1866 Y10.2600
G01 X4.1922 Y10.1460
G01 X4.2090 Y10.0330
G01 X4.2367 Y9.9223
G01 X4.2752 Y9.8148
G01 X4.3240 Y9.7116
G01 X4.3827 Y9.6136
G01 X4.4507 Y9.5219
G01 X4.5274 Y9.4374
G01 X4.6119 Y9.3607
G01 X4.7036 Y9.2927
G01 X4.8016 Y9.2340
G01 X4.9048 Y9.1852
G01 X5.0123 Y9.1467
G01 X5.1230 Y9.1190
G01 X5.2360 Y9.1022
G01 X5.3500 Y9.0966
G01 X5.4640 Y9.1022
G01 X5.5770 Y9.1190
G01 X5.6877 Y9.1467
G01 X5.7952 Y9.1852
G01 X5.8984 Y9.2340
G01 X5.9964 Y9.2927
G01 X6.0881 Y9.3607
G01 X6.1726 Y9.4374
G01 X6.2493 Y9.5219
G01 X6.3173 Y9.6136
G01 X6.3733 Y9.7067
G01 X6.3785 Y9.7165
G01 X6.4226 Y9.8097
G01 X6.4268 Y9.8200
G01 X6.4633 Y9.9223
G01 X6.4898 Y10.0276
G01 X6.4920 Y10.0385
G01 X6.5078 Y10.1460
G01 X6.5134 Y10.2600
G01 X6.5078 Y10.3740
G01 X6.4910 Y10.4870
G01 X6.4633 Y10.5977
G01 X6.4268 Y10.7000
G01 X6.4226 Y10.7103
G01 X6.3760 Y10.8084
G01 X6.3203 Y10.9016
G01 X6.3141 Y10.9109
G01 X6.2527 Y10.9937
G01 X6.2457 Y11.0023
G01 X6.1726 Y11.0826
G01 X6.0987 Y11.1498
G01 X6.0987 Y49.5163
G01 X35.4822 Y49.5163
G01 X35.5333 Y49.4701
G01 X35.6143 Y49.4100
G01 X35.7009 Y49.3582
G01 X35.7895 Y49.3161
G01 X35.7973 Y49.3130
G01 X35.8818 Y49.2828
G01 X35.8925 Y49.2795
G01 X35.9850 Y49.2565
G01 X36.0848 Y49.2417
G01 X36.1856 Y49.2367
G01 X38.0200 Y49.2369
G01 X38.1152 Y49.2417
G01 X38.2095 Y49.2555
G01 X38.2204 Y49.2577
G01 X38.3129 Y49.2810
G01 X38.4079 Y49.3150
G01 X38.4941 Y49.3557
G01 X38.5040 Y49.3609
G01 X38.5810 Y49.4071
G01 X38.5902 Y49.4132
G01 X38.6667 Y49.4701
G01 X38.7375 Y49.5341
G01 X38.7453 Y49.5419
G01 X38.8056 Y49.6085
G01 X38.8127 Y49.6171
G01 X38.8694 Y49.6937
G01 X38.9212 Y49.7803
G01 X38.9644 Y49.8715
G01 X38.9966 Y49.9612
G01 X38.9999 Y49.9719
G01 X39.0217 Y50.0590
G01 X39.0239 Y50.0699
G01 X39.0377 Y50.1642
G01 X39.0427 Y50.2650
G01 X39.0377 Y50.3658
G01 X39.0239 Y50.4601
G01 X39.0217 Y50.4710
G01 X38.9984 Y50.5635
G01 X38.9664 Y50.6533
G01 X38.9621 Y50.6636
G01 X38.9212 Y50.7497
G01 X38.8694 Y50.8363
G01 X38.8127 Y50.9129
G01 X38.8056 Y50.9215
G01 X38.7415 Y50.9921
G01 X38.6688 Y51.0581
G01 X38.6623 Y51.0633
G01 X38.5902 Y51.1168
G01 X38.5810 Y51.1229
G01 X38.4991 Y51.1718
G01 X38.4079 Y51.2150
G01 X38.3182 Y51.2472
G01 X38.3075 Y51.2505
G01 X38.2150 Y51.2735
G01 X38.1152 Y51.2883
G01 X38.0144 Y51.2933
G01 X36.1856 Y51.2933
G01 X36.0848 Y51.2883
G01 X35.9850 Y51.2735
G01 X35.8871 Y51.2490
G01 X35.7947 Y51.2160
G01 X35.7870 Y51.2127
G01 X35.7009 Y51.1718
G01 X35.6167 Y51.1215
G01 X35.6098 Y51.1168
G01 X35.5333 Y51.0599
G01 X35.4822 Y51.0137
G01 X5.3500 Y51.0137
G01 X5.2766 Y51.0101
G01 X5.2039 Y50.9993
G01 X5.1327 Y50.9815
G01 X5.0687 Y50.9587
G01 X5.0584 Y50.9545
G01 X5.0020 Y50.9278
G01 X4.9922 Y50.9226
G01 X4.9340 Y50.8875
G01 X4.8794 Y50.8472
G01 X4.8708 Y50.8401
G01 X4.8206 Y50.7944
G01 X4.7730 Y50.7421
G01 X4.7678 Y50.7356
G01 X4.7275 Y50.6810
G01 X4.6924 Y50.6228
G01 X4.6872 Y50.6130
G01 X4.6605 Y50.5566
G01 X4.6563 Y50.5463
G01 X4.6335 Y50.4823
G01 X4.6157 Y50.4111
G01 X4.6049 Y50.3384
G01 X4.6013 Y50.2650
G01 X4.6013 Y11.1498
G00 Z3.0000
G00 X7.7763 Y15.5948
G01 F60.00
G01 Z-0.0500
G01 F90.00
G01 X7.7024 Y15.5276
G01 X7.6257 Y15.4431
G01 X7.5577 Y15.3514
G01 X7.4990 Y15.2534
G01 X7.4502 Y15.1502
G01 X7.4117 Y15.0427
G01 X7.3840 Y14.9320
G01 X7.3672 Y14.8190
G01 X7.3616 Y14.7050
G01 X7.3672 Y14.5910
G01 X7.3840 Y14.4780
G01 X7.4117 Y14.3673
G01 X7.4502 Y14.2598
G01 X7.4990 Y14.1566
G01 X7.5577 Y14.0586
G01 X7.6257 Y13.9669
G01 X7.7024 Y13.8824
G01 X7.7869 Y13.8057
G01 X7.8786 Y13.7377
G01 X7.9766 Y13.6790
G01 X8.0798 Y13.6302
G01 X8.1873 Y13.5917
G01 X8.2980 Y13.5640
G01 X8.4110 Y13.5472
G01 X8.5250 Y13.5416
G01 X8.6390 Y13.5472
G01 X8.7520 Y13.5640
G01 X8.8627 Y13.5917
G01 X8.9702 Y13.6302
G01 X9.0734 Y13.6790
G01 X9.1714 Y13.7377
G01 X9.2631 Y13.8057
G01 X9.3476 Y13.8824
G01 X9.4243 Y13.9669
G01 X9.4923 Y14.0586
G01 X9.5483 Y14.1517
G01 X9.5535 Y14.1615
G01 X9.5976 Y14.2547
G01 X9.6018 Y14.2650
G01 X9.6383 Y14.3673
G01 X9.6648 Y14.4726
G01 X9.6670 Y14.4835
G01 X9.6828 Y14.5910
G01 X9.6884 Y14.7050
G01 X9.6828 Y14.8190
G01 X9.6660 Y14.9320
G01 X9.6383 Y15.0427
G01 X9.6018 Y15.1450
G01 X9.5976 Y15.1553
G01 X9.5510 Y15.2534
G01 X9.4953 Y15.3466
G01 X9.4891 Y15.3559
G01 X9.4277 Y15.4387
G01 X9.4207 Y15.4473
G01 X9.3476 Y15.5276
G01 X9.2737 Y15.5948
G01 X9.2737 Y41.8963
G01 X35.4822 Y41.8963
G01 X35.5333 Y41.8501
G01 X35.6143 Y41.7900
G01 X35.7009 Y41.7382
G01 X35.7895 Y41.6961
G01 X35.7973 Y41.6930
G01 X35.8818 Y41.6628
G01 X35.8925 Y41.6595
G01 X35.9850 Y41.6365
G01 X36.0848 Y41.6217
G01 X36.1856 Y41.6167
G01 X38.0200 Y41.6169
G01 X38.1152 Y41.6217
G01 X38.2095 Y41.6355
G01 X38.2204 Y41.6377
G01 X38.3129 Y41.6610
G01 X38.4027 Y41.6930
G01 X38.4130 Y41.6973
G01 X38.4991 Y41.7382
G01 X38.5857 Y41.7900
G01 X38.6667 Y41.8501
G01 X38.7375 Y41.9141
G01 X38.7453 Y41.9219
G01 X38.8093 Y41.9927
G01 X38.8662 Y42.0692
G01 X38.8723 Y42.0784
G01 X38.9212 Y42.1603
G01 X38.9621 Y42.2464
G01 X38.9664 Y42.2567
G01 X38.9966 Y42.3412
G01 X38.9999 Y42.3519
G01 X39.0229 Y42.4444
G01 X39.0370 Y42.5387
G01 X39.0381 Y42.5498
G01 X39.0427 Y42.6450
G01 X39.0381 Y42.7402
G01 X39.0370 Y42.7513
G01 X39.0229 Y42.8456
G01 X38.9999 Y42.9381
G01 X38.9966 Y42.9488
G01 X38.9644 Y43.0385
G01 X38.9212 Y43.1297
G01 X38.8723 Y43.2116
G01 X38.8662 Y43.2208
G01 X38.8127 Y43.2929
G01 X38.8056 Y43.3015
G01 X38.7415 Y43.3721
G01 X38.6667 Y43.4399
G01 X38.5857 Y43.5000
G01 X38.4991 Y43.5518
G01 X38.4079 Y43.5950
G01 X38.3129 Y43.6290
G01 X38.2150 Y43.6535
G01 X38.1207 Y43.6676
G01 X38.1096 Y43.6687
G01 X38.0144 Y43.6733
G01 X36.1856 Y43.6733
G01 X36.0848 Y43.6683
G01 X35.9850 Y43.6535
G01 X35.8871 Y43.6290
G01 X35.7947 Y43.5960
G01 X35.7870 Y43.5927
G01 X35.7009 Y43.5518
G01 X35.6167 Y43.5015
G01 X35.6098 Y43.4968
G01 X35.5333 Y43.4399
G01 X35.4822 Y43.3937
G01 X8.5250 Y43.3937
G01 X8.4516 Y43.3901
G01 X8.3789 Y43.3793
G01 X8.3077 Y43.3615
G01 X8.2437 Y43.3387
G01 X8.2334 Y43.3345
G01 X8.1721 Y43.3053
G01 X8.1137 Y43.2705
G01 X8.1045 Y43.2643
G01 X8.0544 Y43.2272
G01 X8.0458 Y43.2201
G01 X7.9996 Y43.1783
G01 X7.9936 Y43.1724
G01 X7.9480 Y43.1221
G01 X7.9303 Y43.0987
G01 X7.9025 Y43.0610
G01 X7.8674 Y43.0028
G01 X7.8622 Y42.9930
G01 X7.8355 Y42.9366
G01 X7.8313 Y42.9263
G01 X7.8085 Y42.8623
G01 X7.7907 Y42.7911
G01 X7.7799 Y42.7184
G01 X7.7763 Y42.6450
G01 X7.7763 Y15.5948
G00 Z3.0000
G00 X10.9513 Y18.7698
G01 F60.00
G01 Z-0.0500
G01 F90.00
G01 X10.8774 Y18.7026
G01 X10.8007 Y18.6181
G01 X10.7327 Y18.5264
G01 X10.6740 Y18.4284
G01 X10.6252 Y18.3252
G01 X10.5867 Y18.2177
G01 X10.5590 Y18.1070
G01 X10.5422 Y17.9940
G01 X10.5366 Y17.8800
G01 X10.5422 Y17.7660
G01 X10.5590 Y17.6530
G01 X10.5867 Y17.5423
G01 X10.6252 Y17.4348
G01 X10.6740 Y17.3316
G01 X10.7327 Y17.2336
G01 X10.8007 Y17.1419
G01 X10.8774 Y17.0574
G01 X10.9619 Y16.9807
G01 X11.0536 Y16.9127
G01 X11.1516 Y16.8540
G01 X11.2548 Y16.8052
G01 X11.3623 Y16.7667
G01 X11.4730 Y16.7390
G01 X11.5860 Y16.7222
G01 X11.7000 Y16.7166
G01 X11.8140 Y16.7222
G01 X11.9270 Y16.7390
G01 X12.0377 Y16.7667
G01 X12.1452 Y16.8052
G01 X12.2484 Y16.8540
G01 X12.3464 Y16.9127
G01 X12.4381 Y16.9807
G01 X12.5226 Y17.0574
G01 X12.5993 Y17.1419
G01 X12.6673 Y17.2336
G01 X12.7233 Y17.3267
G01 X12.7285 Y17.3365
G01 X12.7726 Y17.4297
G01 X12.7768 Y17.4400
G01 X12.8133 Y17.5423
G01 X12.8398 Y17.6476
G01 X12.8420 Y17.6585
G01 X12.8578 Y17.7660
G01 X12.8634 Y17.8800
G01 X12.8578 Y17.9940
G01 X12.8410 Y18.1070
G01 X12.8133 Y18.2177
G01 X12.7768 Y18.3200
G01 X12.7726 Y18.3303
G01 X12.7260 Y18.4284
G01 X12.6703 Y18.5216
G01 X12.6641 Y18.5309
G01 X12.6027 Y18.6137
G01 X12.5957 Y18.6223
G01 X12.5226 Y18.7026
G01 X12.4487 Y18.7698
G01 X12.4487 Y39.3563
G01 X35.4822 Y39.3563
G01 X35.5333 Y39.3101
G01 X35.6143 Y39.2500
G01 X35.7009 Y39.1982
G01 X35.7895 Y39.1561
G01 X35.7973 Y39.1530
G01 X35.8818 Y39.1228
G01 X35.8925 Y39.1195
G01 X35.9850 Y39.0965
G01 X36.0848 Y39.0817
G01 X36.1856 Y39.0767
G01 X38.0144 Y39.0767
G01 X38.1096 Y39.0813
G01 X38.1207 Y39.0824
G01 X38.2095 Y39.0955
G01 X38.2204 Y39.0977
G01 X38.3129 Y39.1210
G01 X38.4027 Y39.1530
G01 X38.4130 Y39.1573
G01 X38.4991 Y39.1982
G01 X38.5810 Y39.2471
G01 X38.5902 Y39.2532
G01 X38.6667 Y39.3101
G01 X38.7375 Y39.3741
G01 X38.7453 Y39.3819
G01 X38.8093 Y39.4527
G01 X38.8694 Y39.5337
G01 X38.9185 Y39.6154
G01 X38.9237 Y39.6253
G01 X38.9644 Y39.7115
G01 X38.9966 Y39.8012
G01 X38.9999 Y39.8119
G01 X39.0229 Y39.9044
G01 X39.0370 Y39.9987
G01 X39.0381 Y40.0098
G01 X39.0427 Y40.1050
G01 X39.0381 Y40.2002
G01 X39.0370 Y40.2113
G01 X39.0229 Y40.3056
G01 X38.9999 Y40.3981
G01 X38.9966 Y40.4088
G01 X38.9644 Y40.4985
G01 X38.9237 Y40.5847
G01 X38.9185 Y40.5946
G01 X38.8694 Y40.6763
G01 X38.8110 Y40.7551
G01 X38.8056 Y40.7615
G01 X38.7415 Y40.8321
G01 X38.6667 Y40.8999
G01 X38.5857 Y40.9600
G01 X38.4991 Y41.0118
G01 X38.4079 Y41.0550
G01 X38.3129 Y41.0890
G01 X38.2150 Y41.1135
G01 X38.1207 Y41.1276
G01 X38.1096 Y41.1287
G01 X38.0144 Y41.1333
G01 X36.1856 Y41.1333
G01 X36.0848 Y41.1283
G01 X35.9850 Y41.1135
G01 X35.8871 Y41.0890
G01 X35.7947 Y41.0560
G01 X35.7870 Y41.0527
G01 X35.7009 Y41.0118
G01 X35.6167 Y40.9615
G01 X35.6098 Y40.9568
G01 X35.5333 Y40.8999
G01 X35.4822 Y40.8537
G01 X11.7000 Y40.8537
G01 X11.6266 Y40.8501
G01 X11.5594 Y40.8403
G01 X11.5485 Y40.8381
G01 X11.4918 Y40.8239
G01 X11.4774 Y40.8197
G01 X11.4135 Y40.7967
G01 X11.3471 Y40.7653
G01 X11.2840 Y40.7275
G01 X11.2272 Y40.6855
G01 X11.2208 Y40.6801
G01 X11.1706 Y40.6344
G01 X11.1212 Y40.5800
G01 X11.0775 Y40.5210
G01 X11.0424 Y40.4628
G01 X11.0372 Y40.4530
G01 X11.0083 Y40.3915
G01 X10.9853 Y40.3276
G01 X10.9820 Y40.3170
G01 X10.9669 Y40.2565
G01 X10.9647 Y40.2456
G01 X10.9549 Y40.1784
G01 X10.9513 Y40.1078
G01 X10.9513 Y18.7698
G00 Z3.0000
G00 X17.9363 Y9.2448
G01 F60.00
G01 Z-0.0500
G01 F90.00
G01 X17.8624 Y9.1776
G01 X17.7857 Y9.0931
G01 X17.7177 Y9.0014
G01 X17.6590 Y8.9034
G01 X17.6102 Y8.8002
G01 X17.5717 Y8.6927
G01 X17.5440 Y8.5820
G01 X17.5272 Y8.4690
G01 X17.5216 Y8.3550
G01 X17.5272 Y8.2410
G01 X17.5440 Y8.1280
G01 X17.5717 Y8.0173
G01 X17.6102 Y7.9098
G01 X17.6590 Y7.8066
G01 X17.7177 Y7.7086
G01 X17.7857 Y7.6169
G01 X17.8624 Y7.5324
G01 X17.9469 Y7.4557
G01 X18.0386 Y7.3877
G01 X18.1366 Y7.3290
G01 X18.2398 Y7.2802
G01 X18.3473 Y7.2417
G01 X18.4580 Y7.2140
G01 X18.5710 Y7.1972
G01 X18.6850 Y7.1916
G01 X18.7990 Y7.1972
G01 X18.9120 Y7.2140
G01 X19.0227 Y7.2417
G01 X19.1302 Y7.2802
G01 X19.2334 Y7.3290
G01 X19.3314 Y7.3877
G01 X19.4231 Y7.4557
G01 X19.5076 Y7.5324
G01 X19.5843 Y7.6169
G01 X19.6523 Y7.7086
G01 X19.7083 Y7.8017
G01 X19.7135 Y7.8115
G01 X19.7576 Y7.9047
G01 X19.7618 Y7.9150
G01 X19.7983 Y8.0173
G01 X19.8248 Y8.1226
G01 X19.8270 Y8.1335
G01 X19.8428 Y8.2410
G01 X19.8484 Y8.3550
G01 X19.8428 Y8.4690
G01 X19.8260 Y8.5820
G01 X19.7983 Y8.6927
G01 X19.7618 Y8.7950
G01 X19.7576 Y8.8053
G01 X19.7110 Y8.9034
G01 X19.6553 Y8.9966
G01 X19.6491 Y9.0059
G01 X19.5877 Y9.0887
G01 X19.5807 Y9.0973
G01 X19.5076 Y9.1776
G01 X19.4337 Y9.2448
G01 X19.4337 Y34.2763
G01 X35.4822 Y34.2763
G01 X35.5333 Y34.2301
G01 X35.6143 Y34.1700
G01 X35.7009 Y34.1182
G01 X35.7895 Y34.0761
G01 X35.7973 Y34.0730
G01 X35.8818 Y34.0428
G01 X35.8925 Y34.0395
G01 X35.9850 Y34.0165
G01 X36.0848 Y34.0017
G01 X36.1856 Y33.9967
G01 X38.0144 Y33.9967
G01 X38.1124 Y34.0015
G01 X38.1207 Y34.0024
G01 X38.2095 Y34.0155
G01 X38.2204 Y34.0177
G01 X38.3129 Y34.0410
G01 X38.4079 Y34.0750
G01 X38.4991 Y34.1182
G01 X38.5810 Y34.1671
G01 X38.5902 Y34.1732
G01 X38.6667 Y34.2301
G01 X38.7415 Y34.2979
G01 X38.8056 Y34.3685
G01 X38.8127 Y34.3771
G01 X38.8694 Y34.4537
G01 X38.9212 Y34.5403
G01 X38.9621 Y34.6264
G01 X38.9664 Y34.6367
G01 X38.9984 Y34.7265
G01 X39.0229 Y34.8244
G01 X39.0370 Y34.9187
G01 X39.0381 Y34.9298
G01 X39.0427 Y35.0250
G01 X39.0377 Y35.1258
G01 X39.0239 Y35.2201
G01 X39.0217 Y35.2310
G01 X38.9984 Y35.3235
G01 X38.9664 Y35.4133
G01 X38.9621 Y35.4236
G01 X38.9212 Y35.5097
G01 X38.8694 Y35.5963
G01 X38.8093 Y35.6773
G01 X38.7453 Y35.7481
G01 X38.7375 Y35.7559
G01 X38.6709 Y35.8162
G01 X38.6645 Y35.8216
G01 X38.5857 Y35.8800
G01 X38.5040 Y35.9291
G01 X38.4941 Y35.9343
G01 X38.4079 Y35.9750
G01 X38.3182 Y36.0072
G01 X38.3075 Y36.0105
G01 X38.2150 Y36.0335
G01 X38.1152 Y36.0483
G01 X38.0144 Y36.0533
G01 X36.1828 Y36.0532
G01 X36.0848 Y36.0483
G01 X35.9850 Y36.0335
G01 X35.8871 Y36.0090
G01 X35.7947 Y35.9760
G01 X35.7870 Y35.9727
G01 X35.7009 Y35.9318
G01 X35.6167 Y35.8815
G01 X35.6098 Y35.8768
G01 X35.5333 Y35.8199
G01 X35.4822 Y35.7737
G01 X18.6822 Y35.7737
G01 X18.6116 Y35.7701
G01 X18.5444 Y35.7603
G01 X18.5335 Y35.7581
G01 X18.4703 Y35.7423
G01 X18.4519 Y35.7360
G01 X18.3985 Y35.7167
G01 X18.3370 Y35.6878
G01 X18.3272 Y35.6826
G01 X18.2690 Y35.6475
G01 X18.2100 Y35.6038
G01 X18.1556 Y35.5544
G01 X18.1099 Y35.5042
G01 X18.1045 Y35.4978
G01 X18.0625 Y35.4410
G01 X18.0247 Y35.3779
G01 X17.9933 Y35.3115
G01 X17.9703 Y35.2476
G01 X17.9670 Y35.2370
G01 X17.9519 Y35.1765
G01 X17.9497 Y35.1656
G01 X17.9399 Y35.0984
G01 X17.9363 Y35.0250
G01 X17.9363 Y9.2448
G00 Z3.0000
G00 X18.1901 Y3.4020
G01 F60.00
G01 Z-0.0500
G01 F90.00
G01 X18.1901 Y1.3700
G01 X18.1951 Y1.2648
G01 X18.1962 Y1.2537
G01 X18.2118 Y1.1496
G01 X18.2387 Y1.0420
G01 X18.2761 Y0.9376
G01 X18.3235 Y0.8374
G01 X18.3805 Y0.7423
G01 X18.4466 Y0.6532
G01 X18.5210 Y0.5710
G01 X18.6032 Y0.4966
G01 X18.6923 Y0.4305
G01 X18.7874 Y0.3735
G01 X18.8876 Y0.3261
G01 X18.9920 Y0.2887
G01 X19.0996 Y0.2618
G01 X19.2092 Y0.2455
G01 X19.3200 Y0.2401
G01 X19.4308 Y0.2455
G01 X19.5404 Y0.2618
G01 X19.6480 Y0.2887
G01 X19.7524 Y0.3261
G01 X19.8526 Y0.3735
G01 X19.9430 Y0.4275
G01 X19.9523 Y0.4337
G01 X20.0368 Y0.4966
G01 X20.1149 Y0.5672
G01 X20.1228 Y0.5751
G01 X20.1934 Y0.6532
G01 X20.2595 Y0.7423
G01 X20.3165 Y0.8374
G01 X20.3616 Y0.9325
G01 X20.3659 Y0.9428
G01 X20.4013 Y1.0420
G01 X20.4270 Y1.1441
G01 X20.4291 Y1.1550
G01 X20.4442 Y1.2565
G01 X20.4449 Y1.2648
G01 X20.4499 Y1.3700
G01 X20.4498 Y3.4076
G01 X20.4449 Y3.5072
G01 X20.4438 Y3.5183
G01 X20.4282 Y3.6224
G01 X20.4027 Y3.7246
G01 X20.3995 Y3.7353
G01 X20.3639 Y3.8344
G01 X20.3165 Y3.9346
G01 X20.2595 Y4.0297
G01 X20.1969 Y4.1144
G01 X20.1898 Y4.1230
G01 X20.1228 Y4.1969
G01 X20.1149 Y4.2048
G01 X20.0368 Y4.2754
G01 X19.9477 Y4.3415
G01 X19.8526 Y4.3985
G01 X19.7524 Y4.4459
G01 X19.6480 Y4.4833
G01 X19.5459 Y4.5090
G01 X19.5350 Y4.5111
G01 X19.4363 Y4.5258
G01 X19.4252 Y4.5269
G01 X19.3200 Y4.5319
G01 X19.2092 Y4.5265
G01 X19.0996 Y4.5102
G01 X18.9974 Y4.4847
G01 X18.9867 Y4.4815
G01 X18.8928 Y4.4479
G01 X18.8825 Y4.4436
G01 X18.7874 Y4.3985
G01 X18.6923 Y4.3415
G01 X18.6032 Y4.2754
G01 X18.5251 Y4.2048
G01 X18.5172 Y4.1969
G01 X18.4502 Y4.1230
G01 X18.4431 Y4.1144
G01 X18.3805 Y4.0297
G01 X18.3235 Y3.9346
G01 X18.2761 Y3.8344
G01 X18.2405 Y3.7353
G01 X18.2373 Y3.7246
G01 X18.2130 Y3.6279
G01 X18.2109 Y3.6170
G01 X18.1955 Y3.5128
G01 X18.1901 Y3.4020
G00 Z3.0000
G00 X17.9099 Y1.3700
G01 F60.00
G01 Z-0.0500
G01 F90.00
G01 X17.9099 Y3.4020
G01 X17.9049 Y3.5072
G01 X17.9038 Y3.5183
G01 X17.8882 Y3.6224
G01 X17.8613 Y3.7300
G01 X17.8239 Y3.8344
G01 X17.7765 Y3.9346
G01 X17.7195 Y4.0297
G01 X17.6534 Y4.1188
G01 X17.5790 Y4.2010
G01 X17.4968 Y4.2754
G01 X17.4077 Y4.3415
G01 X17.3126 Y4.3985
G01 X17.2124 Y4.4459
G01 X17.1080 Y4.4833
G01 X17.0004 Y4.5102
G01 X16.8908 Y4.5265
G01 X16.7800 Y4.5319
G01 X16.6692 Y4.5265
G01 X16.5596 Y4.5102
G01 X16.4520 Y4.4833
G01 X16.3476 Y4.4459
G01 X16.2474 Y4.3985
G01 X16.1570 Y4.3445
G01 X16.1477 Y4.3383
G01 X16.0632 Y4.2754
G01 X15.9851 Y4.2048
G01 X15.9772 Y4.1969
G01 X15.9066 Y4.1188
G01 X15.8405 Y4.0297
G01 X15.7835 Y3.9346
G01 X15.7384 Y3.8395
G01 X15.7341 Y3.8292
G01 X15.6987 Y3.7300
G01 X15.6730 Y3.6279
G01 X15.6709 Y3.6170
G01 X15.6558 Y3.5155
G01 X15.6551 Y3.5072
G01 X15.6501 Y3.4020
G01 X15.6502 Y1.3644
G01 X15.6551 Y1.2648
G01 X15.6562 Y1.2537
G01 X15.6718 Y1.1496
G01 X15.6973 Y1.0474
G01 X15.7005 Y1.0367
G01 X15.7361 Y0.9376
G01 X15.7835 Y0.8374
G01 X15.8405 Y0.7423
G01 X15.9031 Y0.6576
G01 X15.9102 Y0.6490
G01 X15.9772 Y0.5751
G01 X15.9851 Y0.5672
G01 X16.0632 Y0.4966
G01 X16.1523 Y0.4305
G01 X16.2474 Y0.3735
G01 X16.3476 Y0.3261
G01 X16.4520 Y0.2887
G01 X16.5541 Y0.2630
G01 X16.5650 Y0.2609
G01 X16.6637 Y0.2462
G01 X16.6748 Y0.2451
G01 X16.7800 Y0.2401
G01 X16.8908 Y0.2455
G01 X17.0004 Y0.2618
G01 X17.1026 Y0.2873
G01 X17.1133 Y0.2905
G01 X17.2072 Y0.3241
G01 X17.2175 Y0.3284
G01 X17.3126 Y0.3735
G01 X17.4077 Y0.4305
G01 X17.4968 Y0.4966
G01 X17.5749 Y0.5672
G01 X17.5828 Y0.5751
G01 X17.6498 Y0.6490
G01 X17.6569 Y0.6576
G01 X17.7195 Y0.7423
G01 X17.7765 Y0.8374
G01 X17.8239 Y0.9376
G01 X17.8595 Y1.0367
G01 X17.8627 Y1.0474
G01 X17.8870 Y1.1441
G01 X17.8891 Y1.1550
G01 X17.9045 Y1.2592
G01 X17.9099 Y1.3700
G00 Z3.0000
G00 X21.1113 Y4.2467
G01 F60.00
G01 Z-0.0500
G01 F90.00
G01 X21.0651 Y4.2048
G01 X21.0591 Y4.1990
G01 X20.9902 Y4.1230
G01 X20.9848 Y4.1166
G01 X20.9205 Y4.0297
G01 X20.8663 Y3.9395
G01 X20.8622 Y3.9322
G01 X20.8161 Y3.8344
G01 X20.7787 Y3.7300
G01 X20.7518 Y3.6224
G01 X20.7355 Y3.5128
G01 X20.7301 Y3.4020
G01 X20.7301 Y1.3672
G01 X20.7351 Y1.2648
G01 X20.7362 Y1.2537
G01 X20.7518 Y1.1496
G01 X20.7780 Y1.0447
G01 X20.7805 Y1.0367
G01 X20.8161 Y0.9376
G01 X20.8635 Y0.8374
G01 X20.9205 Y0.7423
G01 X20.9866 Y0.6532
G01 X21.0610 Y0.5710
G01 X21.1432 Y0.4966
G01 X21.2323 Y0.4305
G01 X21.3274 Y0.3735
G01 X21.4276 Y0.3261
G01 X21.5320 Y0.2887
G01 X21.6396 Y0.2618
G01 X21.7492 Y0.2455
G01 X21.8600 Y0.2401
G01 X21.9708 Y0.2455
G01 X22.0804 Y0.2618
G01 X22.1853 Y0.2880
G01 X22.1933 Y0.2905
G01 X22.2872 Y0.3241
G01 X22.2975 Y0.3284
G01 X22.3926 Y0.3735
G01 X22.4877 Y0.4305
G01 X22.5768 Y0.4966
G01 X22.6549 Y0.5672
G01 X22.6628 Y0.5751
G01 X22.7298 Y0.6490
G01 X22.7369 Y0.6576
G01 X22.7995 Y0.7423
G01 X22.8565 Y0.8374
G01 X22.9039 Y0.9376
G01 X22.9395 Y1.0367
G01 X22.9427 Y1.0474
G01 X22.9670 Y1.1441
G01 X22.9691 Y1.1550
G01 X22.9845 Y1.2592
G01 X22.9899 Y1.3672
G01 X22.9899 Y3.4020
G01 X22.9849 Y3.5072
G01 X22.9842 Y3.5155
G01 X22.9682 Y3.6224
G01 X22.9413 Y3.7300
G01 X22.9039 Y3.8344
G01 X22.8578 Y3.9322
G01 X22.8537 Y3.9395
G01 X22.7995 Y4.0297
G01 X22.7352 Y4.1166
G01 X22.7298 Y4.1230
G01 X22.6609 Y4.1990
G01 X22.6549 Y4.2048
G01 X22.6087 Y4.2467
G01 X22.6087 Y17.5322
G01 X22.6549 Y17.5833
G01 X22.7150 Y17.6643
G01 X22.7668 Y17.7509
G01 X22.8089 Y17.8395
G01 X22.8120 Y17.8473
G01 X22.8422 Y17.9318
G01 X22.8455 Y17.9425
G01 X22.8685 Y18.0350
G01 X22.8833 Y18.1348
G01 X22.8883 Y18.2356
G01 X22.8882 Y20.0672
G01 X22.8833 Y20.1652
G01 X22.8685 Y20.2650
G01 X22.8440 Y20.3629
G01 X22.8100 Y20.4579
G01 X22.7668 Y20.5491
G01 X22.7150 Y20.6357
G01 X22.6549 Y20.7167
G01 X22.5871 Y20.7915
G01 X22.5123 Y20.8593
G01 X22.4313 Y20.9194
G01 X22.3447 Y20.9712
G01 X22.2535 Y21.0144
G01 X22.1585 Y21.0484
G01 X22.0606 Y21.0729
G01 X21.9608 Y21.0877
G01 X21.8656 Y21.0925
G01 X21.8544 Y21.0925
G01 X21.7592 Y21.0877
G01 X21.6594 Y21.0729
G01 X21.5615 Y21.0484
G01 X21.4665 Y21.0144
G01 X21.3753 Y20.9712
G01 X21.2887 Y20.9194
G01 X21.2077 Y20.8593
G01 X21.1329 Y20.7915
G01 X21.0651 Y20.7167
G01 X21.0050 Y20.6357
G01 X20.9532 Y20.5491
G01 X20.9100 Y20.4579
G01 X20.8760 Y20.3629
G01 X20.8515 Y20.2650
G01 X20.8367 Y20.1652
G01 X20.8319 Y20.0700
G01 X20.8317 Y18.2356
G01 X20.8367 Y18.1348
G01 X20.8515 Y18.0350
G01 X20.8745 Y17.9425
G01 X20.8778 Y17.9318
G01 X20.9080 Y17.8473
G01 X20.9111 Y17.8395
G01 X20.9532 Y17.7509
G01 X21.0050 Y17.6643
G01 X21.0651 Y17.5833
G01 X21.1113 Y17.5322
G01 X21.1113 Y4.2467
G00 Z3.0000
G00 X23.2701 Y3.4020
G01 F60.00
G01 Z-0.0500
G01 F90.00
G01 X23.2701 Y1.3700
G01 X23.2751 Y1.2648
G01 X23.2762 Y1.2537
G01 X23.2918 Y1.1496
G01 X23.3187 Y1.0420
G01 X23.3561 Y0.9376
G01 X23.4035 Y0.8374
G01 X23.4605 Y0.7423
G01 X23.5266 Y0.6532
G01 X23.6010 Y0.5710
G01 X23.6832 Y0.4966
G01 X23.7723 Y0.4305
G01 X23.8674 Y0.3735
G01 X23.9676 Y0.3261
G01 X24.0720 Y0.2887
G01 X24.1796 Y0.2618
G01 X24.2892 Y0.2455
G01 X24.4000 Y0.2401
G01 X24.5108 Y0.2455
G01 X24.6204 Y0.2618
G01 X24.7280 Y0.2887
G01 X24.8324 Y0.3261
G01 X24.9326 Y0.3735
G01 X25.0230 Y0.4275
G01 X25.0323 Y0.4337
G01 X25.1168 Y0.4966
G01 X25.1949 Y0.5672
G01 X25.2028 Y0.5751
G01 X25.2734 Y0.6532
G01 X25.3363 Y0.7377
G01 X25.3425 Y0.7470
G01 X25.3965 Y0.8374
G01 X25.4416 Y0.9325
G01 X25.4459 Y0.9428
G01 X25.4813 Y1.0420
G01 X25.5070 Y1.1441
G01 X25.5091 Y1.1550
G01 X25.5245 Y1.2592
G01 X25.5299 Y1.3672
G01 X25.5299 Y3.4020
G01 X25.5249 Y3.5072
G01 X25.5242 Y3.5155
G01 X25.5082 Y3.6224
G01 X25.4813 Y3.7300
G01 X25.4439 Y3.8344
G01 X25.3978 Y3.9322
G01 X25.3937 Y3.9395
G01 X25.3395 Y4.0297
G01 X25.2752 Y4.1166
G01 X25.2698 Y4.1230
G01 X25.2009 Y4.1990
G01 X25.1949 Y4.2048
G01 X25.1487 Y4.2467
G01 X25.1487 Y17.5322
G01 X25.1949 Y17.5833
G01 X25.2550 Y17.6643
G01 X25.3068 Y17.7509
G01 X25.3489 Y17.8395
G01 X25.3520 Y17.8473
G01 X25.3822 Y17.9318
G01 X25.3855 Y17.9425
G01 X25.4085 Y18.0350
G01 X25.4233 Y18.1348
G01 X25.4283 Y18.2356
G01 X25.4282 Y20.0672
G01 X25.4233 Y20.1652
G01 X25.4085 Y20.2650
G01 X25.3840 Y20.3629
G01 X25.3500 Y20.4579
G01 X25.3068 Y20.5491
G01 X25.2550 Y20.6357
G01 X25.1949 Y20.7167
G01 X25.1309 Y20.7875
G01 X25.1231 Y20.7953
G01 X25.0523 Y20.8593
G01 X24.9758 Y20.9162
G01 X24.9666 Y20.9223
G01 X24.8896 Y20.9685
G01 X24.8797 Y20.9737
G01 X24.7935 Y21.0144
G01 X24.6985 Y21.0484
G01 X24.6006 Y21.0729
G01 X24.5063 Y21.0870
G01 X24.4980 Y21.0879
G01 X24.4000 Y21.0927
G01 X24.2992 Y21.0877
G01 X24.1994 Y21.0729
G01 X24.1015 Y21.0484
G01 X24.0065 Y21.0144
G01 X23.9153 Y20.9712
G01 X23.8287 Y20.9194
G01 X23.7477 Y20.8593
G01 X23.6729 Y20.7915
G01 X23.6051 Y20.7167
G01 X23.5450 Y20.6357
G01 X23.4932 Y20.5491
G01 X23.4500 Y20.4579
G01 X23.4160 Y20.3629
G01 X23.3915 Y20.2650
G01 X23.3774 Y20.1707
G01 X23.3765 Y20.1624
G01 X23.3717 Y20.0644
G01 X23.3717 Y18.2356
G01 X23.3767 Y18.1348
G01 X23.3915 Y18.0350
G01 X23.4145 Y17.9425
G01 X23.4178 Y17.9318
G01 X23.4480 Y17.8473
G01 X23.4511 Y17.8395
G01 X23.4932 Y17.7509
G01 X23.5450 Y17.6643
G01 X23.6051 Y17.5833
G01 X23.6513 Y17.5322
G01 X23.6513 Y4.2467
G01 X23.6010 Y4.2010
G01 X23.5284 Y4.1209
G01 X23.5231 Y4.1144
G01 X23.4621 Y4.0320
G01 X23.4575 Y4.0250
G01 X23.4035 Y3.9346
G01 X23.3572 Y3.8370
G01 X23.3541 Y3.8292
G01 X23.3187 Y3.7300
G01 X23.2918 Y3.6224
G01 X23.2755 Y3.5128
G01 X23.2701 Y3.4020
G00 Z3.0000
G00 X26.1913 Y4.2467
G01 F60.00
G01 Z-0.0500
G01 F90.00
G01 X26.1451 Y4.2048
G01 X26.1391 Y4.1990
G01 X26.0702 Y4.1230
G01 X26.0648 Y4.1166
G01 X26.0005 Y4.0297
G01 X25.9463 Y3.9395
G01 X25.9422 Y3.9322
G01 X25.8961 Y3.8344
G01 X25.8587 Y3.7300
G01 X25.8318 Y3.6224
G01 X25.8155 Y3.5128
G01 X25.8101 Y3.4020
G01 X25.8101 Y1.3672
G01 X25.8151 Y1.2648
G01 X25.8162 Y1.2537
G01 X25.8318 Y1.1496
G01 X25.8580 Y1.0447
G01 X25.8605 Y1.0367
G01 X25.8961 Y0.9376
G01 X25.9435 Y0.8374
G01 X26.0005 Y0.7423
G01 X26.0666 Y0.6532
G01 X26.1410 Y0.5710
G01 X26.2232 Y0.4966
G01 X26.3123 Y0.4305
G01 X26.4074 Y0.3735
G01 X26.5076 Y0.3261
G01 X26.6120 Y0.2887
G01 X26.7196 Y0.2618
G01 X26.8292 Y0.2455
G01 X26.9400 Y0.2401
G01 X27.0508 Y0.2455
G01 X27.1604 Y0.2618
G01 X27.2653 Y0.2880
G01 X27.2733 Y0.2905
G01 X27.3672 Y0.3241
G01 X27.3775 Y0.3284
G01 X27.4726 Y0.3735
G01 X27.5677 Y0.4305
G01 X27.6568 Y0.4966
G01 X27.7349 Y0.5672
G01 X27.7428 Y0.5751
G01 X27.8098 Y0.6490
G01 X27.8169 Y0.6576
G01 X27.8795 Y0.7423
G01 X27.9365 Y0.8374
G01 X27.9839 Y0.9376
G01 X28.0195 Y1.0367
G01 X28.0227 Y1.0474
G01 X28.0470 Y1.1441
G01 X28.0491 Y1.1550
G01 X28.0645 Y1.2592
G01 X28.0699 Y1.3672
G01 X28.0699 Y3.4020
G01 X28.0649 Y3.5072
G01 X28.0642 Y3.5155
G01 X28.0482 Y3.6224
G01 X28.0213 Y3.7300
G01 X27.9839 Y3.8344
G01 X27.9378 Y3.9322
G01 X27.9337 Y3.9395
G01 X27.8795 Y4.0297
G01 X27.8152 Y4.1166
G01 X27.8098 Y4.1230
G01 X27.7409 Y4.1990
G01 X27.7349 Y4.2048
G01 X27.6887 Y4.2467
G01 X27.6887 Y17.5322
G01 X27.7349 Y17.5833
G01 X27.7950 Y17.6643
G01 X27.8468 Y17.7509
G01 X27.8889 Y17.8395
G01 X27.8920 Y17.8473
G01 X27.9222 Y17.9318
G01 X27.9255 Y17.9425
G01 X27.9485 Y18.0350
G01 X27.9633 Y18.1348
G01 X27.9683 Y18.2356
G01 X27.9682 Y20.0672
G01 X27.9633 Y20.1652
G01 X27.9485 Y20.2650
G01 X27.9240 Y20.3629
G01 X27.8900 Y20.4579
G01 X27.8468 Y20.5491
G01 X27.7950 Y20.6357
G01 X27.7349 Y20.7167
G01 X27.6671 Y20.7915
G01 X27.5923 Y20.8593
G01 X27.5113 Y20.9194
G01 X27.4247 Y20.9712
G01 X27.3335 Y21.0144
G01 X27.2385 Y21.0484
G01 X27.1406 Y21.0729
G01 X27.0408 Y21.0877
G01 X26.9456 Y21.0925
G01 X26.9344 Y21.0925
G01 X26.8392 Y21.0877
G01 X26.7394 Y21.0729
G01 X26.6415 Y21.0484
G01 X26.5465 Y21.0144
G01 X26.4553 Y20.9712
G01 X26.3687 Y20.9194
G01 X26.2877 Y20.8593
G01 X26.2129 Y20.7915
G01 X26.1451 Y20.7167
G01 X26.0850 Y20.6357
G01 X26.0332 Y20.5491
G01 X25.9900 Y20.4579
G01 X25.9560 Y20.3629
G01 X25.9315 Y20.2650
G01 X25.9167 Y20.1652
G01 X25.9119 Y20.0700
G01 X25.9117 Y18.2356
G01 X25.9167 Y18.1348
G01 X25.9315 Y18.0350
G01 X25.9545 Y17.9425
G01 X25.9578 Y17.9318
G01 X25.9880 Y17.8473
G01 X25.9911 Y17.8395
G01 X26.0332 Y17.7509
G01 X26.0850 Y17.6643
G01 X26.1451 Y17.5833
G01 X26.1913 Y17.5322
G01 X26.1913 Y4.2467
G00 Z3.0000
G00 X28.3501 Y3.4020
G01 F60.00
G01 Z-0.0500
G01 F90.00
G01 X28.3501 Y1.3700
G01 X28.3551 Y1.2648
G01 X28.3562 Y1.2537
G01 X28.3718 Y1.1496
G01 X28.3987 Y1.0420
G01 X28.4361 Y0.9376
G01 X28.4835 Y0.8374
G01 X28.5405 Y0.7423
G01 X28.6066 Y0.6532
G01 X28.6810 Y0.5710
G01 X28.7632 Y0.4966
G01 X28.8523 Y0.4305
G01 X28.9474 Y0.3735
G01 X29.0476 Y0.3261
G01 X29.1520 Y0.2887
G01 X29.2596 Y0.2618
G01 X29.3692 Y0.2455
G01 X29.4800 Y0.2401
G01 X29.5908 Y0.2455
G01 X29.7004 Y0.2618
G01 X29.8080 Y0.2887
G01 X29.9124 Y0.3261
G01 X30.0126 Y0.3735
G01 X30.1030 Y0.4275
G01 X30.1123 Y0.4337
G01 X30.1968 Y0.4966
G01 X30.2749 Y0.5672
G01 X30.2828 Y0.5751
G01 X30.3534 Y0.6532
G01 X30.4163 Y0.7377
G01 X30.4225 Y0.7470
G01 X30.4765 Y0.8374
G01 X30.5216 Y0.9325
G01 X30.5259 Y0.9428
G01 X30.5613 Y1.0420
G01 X30.5870 Y1.1441
G01 X30.5891 Y1.1550
G01 X30.6045 Y1.2592
G01 X30.6099 Y1.3672
G01 X30.6099 Y3.4020
G01 X30.6049 Y3.5072
G01 X30.6042 Y3.5155
G01 X30.5882 Y3.6224
G01 X30.5613 Y3.7300
G01 X30.5239 Y3.8344
G01 X30.4778 Y3.9322
G01 X30.4737 Y3.9395
G01 X30.4195 Y4.0297
G01 X30.3552 Y4.1166
G01 X30.3498 Y4.1230
G01 X30.2809 Y4.1990
G01 X30.2749 Y4.2048
G01 X30.2287 Y4.2467
G01 X30.2287 Y17.5322
G01 X30.2749 Y17.5833
G01 X30.3350 Y17.6643
G01 X30.3868 Y17.7509
G01 X30.4289 Y17.8395
G01 X30.4320 Y17.8473
G01 X30.4622 Y17.9318
G01 X30.4655 Y17.9425
G01 X30.4885 Y18.0350
G01 X30.5033 Y18.1348
G01 X30.5083 Y18.2356
G01 X30.5082 Y20.0672
G01 X30.5033 Y20.1652
G01 X30.4885 Y20.2650
G01 X30.4640 Y20.3629
G01 X30.4300 Y20.4579
G01 X30.3868 Y20.5491
G01 X30.3350 Y20.6357
G01 X30.2749 Y20.7167
G01 X30.2109 Y20.7875
G01 X30.2031 Y20.7953
G01 X30.1323 Y20.8593
G01 X30.0558 Y20.9162
G01 X30.0466 Y20.9223
G01 X29.9696 Y20.9685
G01 X29.9597 Y20.9737
G01 X29.8735 Y21.0144
G01 X29.7785 Y21.0484
G01 X29.6806 Y21.0729
G01 X29.5863 Y21.0870
G01 X29.5780 Y21.0879
G01 X29.4800 Y21.0927
G01 X29.3792 Y21.0877
G01 X29.2794 Y21.0729
G01 X29.1815 Y21.0484
G01 X29.0865 Y21.0144
G01 X28.9953 Y20.9712
G01 X28.9087 Y20.9194
G01 X28.8277 Y20.8593
G01 X28.7529 Y20.7915
G01 X28.6851 Y20.7167
G01 X28.6250 Y20.6357
G01 X28.5732 Y20.5491
G01 X28.5300 Y20.4579
G01 X28.4960 Y20.3629
G01 X28.4715 Y20.2650
G01 X28.4574 Y20.1707
G01 X28.4565 Y20.1624
G01 X28.4517 Y20.0644
G01 X28.4517 Y18.2356
G01 X28.4567 Y18.1348
G01 X28.4715 Y18.0350
G01 X28.4945 Y17.9425
G01 X28.4978 Y17.9318
G01 X28.5280 Y17.8473
G01 X28.5311 Y17.8395
G01 X28.5732 Y17.7509
G01 X28.6250 Y17.6643
G01 X28.6851 Y17.5833
G01 X28.7313 Y17.5322
G01 X28.7313 Y4.2467
G01 X28.6810 Y4.2010
G01 X28.6084 Y4.1209
G01 X28.6031 Y4.1144
G01 X28.5421 Y4.0320
G01 X28.5375 Y4.0250
G01 X28.4835 Y3.9346
G01 X28.4372 Y3.8370
G01 X28.4341 Y3.8292
G01 X28.3987 Y3.7300
G01 X28.3718 Y3.6224
G01 X28.3555 Y3.5128
G01 X28.3501 Y3.4020
G00 Z3.0000
G00 X31.2713 Y4.2467
G01 F60.00
G01 Z-0.0500
G01 F90.00
G01 X31.2251 Y4.2048
G01 X31.2191 Y4.1990
G01 X31.1502 Y4.1230
G01 X31.1448 Y4.1166
G01 X31.0805 Y4.0297
G01 X31.0263 Y3.9395
G01 X31.0222 Y3.9322
G01 X30.9761 Y3.8344
G01 X30.9387 Y3.7300
G01 X30.9118 Y3.6224
G01 X30.8955 Y3.5128
G01 X30.8901 Y3.4020
G01 X30.8901 Y1.3672
G01 X30.8951 Y1.2648
G01 X30.8962 Y1.2537
G01 X30.9118 Y1.1496
G01 X30.9380 Y1.0447
G01 X30.9405 Y1.0367
G01 X30.9761 Y0.9376
G01 X31.0235 Y0.8374
G01 X31.0805 Y0.7423
G01 X31.1466 Y0.6532
G01 X31.2210 Y0.5710
G01 X31.3032 Y0.4966
G01 X31.3923 Y0.4305
G01 X31.4874 Y0.3735
G01 X31.5876 Y0.3261
G01 X31.6920 Y0.2887
G01 X31.7996 Y0.2618
G01 X31.9092 Y0.2455
G01 X32.0200 Y0.2401
G01 X32.1308 Y0.2455
G01 X32.2404 Y0.2618
G01 X32.3453 Y0.2880
G01 X32.3533 Y0.2905
G01 X32.4472 Y0.3241
G01 X32.4575 Y0.3284
G01 X32.5526 Y0.3735
G01 X32.6477 Y0.4305
G01 X32.7368 Y0.4966
G01 X32.8149 Y0.5672
G01 X32.8228 Y0.5751
G01 X32.8898 Y0.6490
G01 X32.8969 Y0.6576
G01 X32.9595 Y0.7423
G01 X33.0165 Y0.8374
G01 X33.0639 Y0.9376
G01 X33.0995 Y1.0367
G01 X33.1027 Y1.0474
G01 X33.1270 Y1.1441
G01 X33.1291 Y1.1550
G01 X33.1445 Y1.2592
G01 X33.1499 Y1.3672
G01 X33.1499 Y3.4020
G01 X33.1449 Y3.5072
G01 X33.1442 Y3.5155
G01 X33.1282 Y3.6224
G01 X33.1013 Y3.7300
G01 X33.0639 Y3.8344
G01 X33.0178 Y3.9322
G01 X33.0137 Y3.9395
G01 X32.9595 Y4.0297
G01 X32.8952 Y4.1166
G01 X32.8898 Y4.1230
G01 X32.8209 Y4.1990
G01 X32.8149 Y4.2048
G01 X32.7687 Y4.2467
G01 X32.7687 Y17.5322
G01 X32.8149 Y17.5833
G01 X32.8750 Y17.6643
G01 X32.9268 Y17.7509
G01 X32.9689 Y17.8395
G01 X32.9720 Y17.8473
G01 X33.0022 Y17.9318
G01 X33.0055 Y17.9425
G01 X33.0285 Y18.0350
G01 X33.0433 Y18.1348
G01 X33.0483 Y18.2356
G01 X33.0482 Y20.0672
G01 X33.0433 Y20.1652
G01 X33.0285 Y20.2650
G01 X33.0040 Y20.3629
G01 X32.9700 Y20.4579
G01 X32.9268 Y20.5491
G01 X32.8750 Y20.6357
G01 X32.8149 Y20.7167
G01 X32.7471 Y20.7915
G01 X32.6723 Y20.8593
G01 X32.5913 Y20.9194
G01 X32.5047 Y20.9712
G01 X32.4135 Y21.0144
G01 X32.3185 Y21.0484
G01 X32.2206 Y21.0729
G01 X32.1208 Y21.0877
G01 X32.0256 Y21.0925
G01 X32.0144 Y21.0925
G01 X31.9192 Y21.0877
G01 X31.8194 Y21.0729
G01 X31.7215 Y21.0484
G01 X31.6265 Y21.0144
G01 X31.5353 Y20.9712
G01 X31.4487 Y20.9194
G01 X31.3677 Y20.8593
G01 X31.2929 Y20.7915
G01 X31.2251 Y20.7167
G01 X31.1650 Y20.6357
G01 X31.1132 Y20.5491
G01 X31.0700 Y20.4579
G01 X31.0360 Y20.3629
G01 X31.0115 Y20.2650
G01 X30.9967 Y20.1652
G01 X30.9919 Y20.0700
G01 X30.9917 Y18.2356
G01 X30.9967 Y18.1348
G01 X31.0115 Y18.0350
G01 X31.0345 Y17.9425
G01 X31.0378 Y17.9318
G01 X31.0680 Y17.8473
G01 X31.0711 Y17.8395
G01 X31.1132 Y17.7509
G01 X31.1650 Y17.6643
G01 X31.2251 Y17.5833
G01 X31.2713 Y17.5322
G01 X31.2713 Y4.2467
G00 Z3.0000
G00 X33.4301 Y3.4020
G01 F60.00
G01 Z-0.0500
G01 F90.00
G01 X33.4301 Y1.3700
G01 X33.4351 Y1.2648
G01 X33.4362 Y1.2537
G01 X33.4518 Y1.1496
G01 X33.4787 Y1.0420
G01 X33.5161 Y0.9376
G01 X33.5635 Y0.8374
G01 X33.6205 Y0.7423
G01 X33.6866 Y0.6532
G01 X33.7610 Y0.5710
G01 X33.8432 Y0.4966
G01 X33.9323 Y0.4305
G01 X34.0274 Y0.3735
G01 X34.1276 Y0.3261
G01 X34.2320 Y0.2887
G01 X34.3396 Y0.2618
G01 X34.4492 Y0.2455
G01 X34.5600 Y0.2401
G01 X34.6708 Y0.2455
G01 X34.7804 Y0.2618
G01 X34.8880 Y0.2887
G01 X34.9924 Y0.3261
G01 X35.0926 Y0.3735
G01 X35.1830 Y0.4275
G01 X35.1923 Y0.4337
G01 X35.2768 Y0.4966
G01 X35.3549 Y0.5672
G01 X35.3628 Y0.5751
G01 X35.4334 Y0.6532
G01 X35.4963 Y0.7377
G01 X35.5025 Y0.7470
G01 X35.5565 Y0.8374
G01 X35.6016 Y0.9325
G01 X35.6059 Y0.9428
G01 X35.6413 Y1.0420
G01 X35.6670 Y1.1441
G01 X35.6691 Y1.1550
G01 X35.6845 Y1.2592
G01 X35.6899 Y1.3672
G01 X35.6899 Y3.4020
G01 X35.6849 Y3.5072
G01 X35.6842 Y3.5155
G01 X35.6682 Y3.6224
G01 X35.6413 Y3.7300
G01 X35.6039 Y3.8344
G01 X35.5578 Y3.9322
G01 X35.5537 Y3.9395
G01 X35.4995 Y4.0297
G01 X35.4352 Y4.1166
G01 X35.4298 Y4.1230
G01 X35.3609 Y4.1990
G01 X35.3549 Y4.2048
G01 X35.3087 Y4.2467
G01 X35.3087 Y17.5322
G01 X35.3549 Y17.5833
G01 X35.4150 Y17.6643
G01 X35.4668 Y17.7509
G01 X35.5089 Y17.8395
G01 X35.5120 Y17.8473
G01 X35.5422 Y17.9318
G01 X35.5455 Y17.9425
G01 X35.5685 Y18.0350
G01 X35.5833 Y18.1348
G01 X35.5883 Y18.2356
G01 X35.5882 Y20.0672
G01 X35.5833 Y20.1652
G01 X35.5685 Y20.2650
G01 X35.5440 Y20.3629
G01 X35.5100 Y20.4579
G01 X35.4668 Y20.5491
G01 X35.4150 Y20.6357
G01 X35.3549 Y20.7167
G01 X35.2909 Y20.7875
G01 X35.2831 Y20.7953
G01 X35.2123 Y20.8593
G01 X35.1358 Y20.9162
G01 X35.1266 Y20.9223
G01 X35.0496 Y20.9685
G01 X35.0397 Y20.9737
G01 X34.9535 Y21.0144
G01 X34.8585 Y21.0484
G01 X34.7606 Y21.0729
G01 X34.6663 Y21.0870
G01 X34.6580 Y21.0879
G01 X34.5600 Y21.0927
G01 X34.4592 Y21.0877
G01 X34.3594 Y21.0729
G01 X34.2615 Y21.0484
G01 X34.1665 Y21.0144
G01 X34.0753 Y20.9712
G01 X33.9887 Y20.9194
G01 X33.9077 Y20.8593
G01 X33.8329 Y20.7915
G01 X33.7651 Y20.7167
G01 X33.7050 Y20.6357
G01 X33.6532 Y20.5491
G01 X33.6100 Y20.4579
G01 X33.5760 Y20.3629
G01 X33.5515 Y20.2650
G01 X33.5374 Y20.1707
G01 X33.5365 Y20.1624
G01 X33.5317 Y20.0644
G01 X33.5317 Y18.2356
G01 X33.5367 Y18.1348
G01 X33.5515 Y18.0350
G01 X33.5745 Y17.9425
G01 X33.5778 Y17.9318
G01 X33.6080 Y17.8473
G01 X33.6111 Y17.8395
G01 X33.6532 Y17.7509
G01 X33.7050 Y17.6643
G01 X33.7651 Y17.5833
G01 X33.8113 Y17.5322
G01 X33.8113 Y4.2467
G01 X33.7610 Y4.2010
G01 X33.6884 Y4.1209
G01 X33.6831 Y4.1144
G01 X33.6221 Y4.0320
G01 X33.6175 Y4.0250
G01 X33.5635 Y3.9346
G01 X33.5172 Y3.8370
G01 X33.5141 Y3.8292
G01 X33.4787 Y3.7300
G01 X33.4518 Y3.6224
G01 X33.4355 Y3.5128
G01 X33.4301 Y3.4020
G00 Z3.0000
G00 X36.3513 Y4.2467
G01 F60.00
G01 Z-0.0500
G01 F90.00
G01 X36.3051 Y4.2048
G01 X36.2991 Y4.1990
G01 X36.2302 Y4.1230
G01 X36.2248 Y4.1166
G01 X36.1605 Y4.0297
G01 X36.1063 Y3.9395
G01 X36.1022 Y3.9322
G01 X36.0561 Y3.8344
G01 X36.0187 Y3.7300
G01 X35.9918 Y3.6224
G01 X35.9755 Y3.5128
G01 X35.9701 Y3.4020
G01 X35.9701 Y1.3672
G01 X35.9751 Y1.2648
G01 X35.9762 Y1.2537
G01 X35.9918 Y1.1496
G01 X36.0180 Y1.0447
G01 X36.0205 Y1.0367
G01 X36.0561 Y0.9376
G01 X36.1035 Y0.8374
G01 X36.1605 Y0.7423
G01 X36.2266 Y0.6532
G01 X36.3010 Y0.5710
G01 X36.3832 Y0.4966
G01 X36.4723 Y0.4305
G01 X36.5674 Y0.3735
G01 X36.6676 Y0.3261
G01 X36.7720 Y0.2887
G01 X36.8796 Y0.2618
G01 X36.9892 Y0.2455
G01 X37.1000 Y0.2401
G01 X37.2108 Y0.2455
G01 X37.3204 Y0.2618
G01 X37.4253 Y0.2880
G01 X37.4333 Y0.2905
G01 X37.5272 Y0.3241
G01 X37.5375 Y0.3284
G01 X37.6326 Y0.3735
G01 X37.7277 Y0.4305
G01 X37.8168 Y0.4966
G01 X37.8949 Y0.5672
G01 X37.9028 Y0.5751
G01 X37.9734 Y0.6532
G01 X38.0363 Y0.7377
G01 X38.0425 Y0.7470
G01 X38.0965 Y0.8374
G01 X38.1439 Y0.9376
G01 X38.1813 Y1.0420
G01 X38.2070 Y1.1441
G01 X38.2091 Y1.1550
G01 X38.2238 Y1.2537
G01 X38.2249 Y1.2648
G01 X38.2299 Y1.3700
G01 X38.2299 Y3.4020
G01 X38.2249 Y3.5072
G01 X38.2242 Y3.5155
G01 X38.2082 Y3.6224
G01 X38.1813 Y3.7300
G01 X38.1439 Y3.8344
G01 X38.0978 Y3.9322
G01 X38.0937 Y3.9395
G01 X38.0395 Y4.0297
G01 X37.9752 Y4.1166
G01 X37.9698 Y4.1230
G01 X37.9009 Y4.1990
G01 X37.8949 Y4.2048
G01 X37.8487 Y4.2467
G01 X37.8487 Y13.1802
G01 X37.9226 Y13.2474
G01 X37.9957 Y13.3277
G01 X38.0027 Y13.3363
G01 X38.0641 Y13.4191
G01 X38.0703 Y13.4284
G01 X38.1260 Y13.5216
G01 X38.1726 Y13.6197
G01 X38.1768 Y13.6300
G01 X38.2133 Y13.7323
G01 X38.2410 Y13.8430
G01 X38.2578 Y13.9560
G01 X38.2633 Y14.0644
G01 X38.2634 Y14.0728
G01 X38.2578 Y14.1840
G01 X38.2410 Y14.2970
G01 X38.2133 Y14.4077
G01 X38.1748 Y14.5152
G01 X38.1260 Y14.6184
G01 X38.0673 Y14.7164
G01 X37.9993 Y14.8081
G01 X37.9265 Y14.8886
G01 X37.9186 Y14.8965
G01 X37.8423 Y14.9657
G01 X37.8337 Y14.9727
G01 X37.7464 Y15.0373
G01 X37.6533 Y15.0933
G01 X37.6435 Y15.0985
G01 X37.5452 Y15.1448
G01 X37.4377 Y15.1833
G01 X37.3270 Y15.2110
G01 X37.2196 Y15.2271
G01 X37.2113 Y15.2280
G01 X37.1000 Y15.2334
G01 X36.9860 Y15.2278
G01 X36.8730 Y15.2110
G01 X36.7623 Y15.1833
G01 X36.6548 Y15.1448
G01 X36.5516 Y15.0960
G01 X36.4536 Y15.0373
G01 X36.3619 Y14.9693
G01 X36.2774 Y14.8926
G01 X36.2007 Y14.8081
G01 X36.1327 Y14.7164
G01 X36.0740 Y14.6184
G01 X36.0252 Y14.5152
G01 X35.9867 Y14.4077
G01 X35.9590 Y14.2970
G01 X35.9429 Y14.1896
G01 X35.9420 Y14.1813
G01 X35.9367 Y14.0756
G01 X35.9367 Y14.0644
G01 X35.9422 Y13.9560
G01 X35.9580 Y13.8485
G01 X35.9602 Y13.8376
G01 X35.9867 Y13.7323
G01 X36.0252 Y13.6248
G01 X36.0740 Y13.5216
G01 X36.1297 Y13.4284
G01 X36.1359 Y13.4191
G01 X36.1973 Y13.3363
G01 X36.2043 Y13.3277
G01 X36.2774 Y13.2474
G01 X36.3513 Y13.1802
G01 X36.3513 Y4.2467
G00 Z3.0000
G00 X38.5101 Y3.4020
G01 F60.00
G01 Z-0.0500
G01 F90.00
G01 X38.5101 Y1.3700
G01 X38.5151 Y1.2648
G01 X38.5162 Y1.2537
G01 X38.5318 Y1.1496
G01 X38.5587 Y1.0420
G01 X38.5961 Y0.9376
G01 X38.6435 Y0.8374
G01 X38.7005 Y0.7423
G01 X38.7666 Y0.6532
G01 X38.8410 Y0.5710
G01 X38.9232 Y0.4966
G01 X39.0123 Y0.4305
G01 X39.1074 Y0.3735
G01 X39.2076 Y0.3261
G01 X39.3120 Y0.2887
G01 X39.4196 Y0.2618
G01 X39.5292 Y0.2455
G01 X39.6400 Y0.2401
G01 X39.7508 Y0.2455
G01 X39.8604 Y0.2618
G01 X39.9680 Y0.2887
G01 X40.0724 Y0.3261
G01 X40.1726 Y0.3735
G01 X40.2630 Y0.4275
G01 X40.2723 Y0.4337
G01 X40.3568 Y0.4966
G01 X40.4349 Y0.5672
G01 X40.4428 Y0.5751
G01 X40.5134 Y0.6532
G01 X40.5795 Y0.7423
G01 X40.6337 Y0.8325
G01 X40.6390 Y0.8423
G01 X40.6839 Y0.9376
G01 X40.7195 Y1.0367
G01 X40.7227 Y1.0474
G01 X40.7482 Y1.1496
G01 X40.7638 Y1.2537
G01 X40.7649 Y1.2648
G01 X40.7699 Y1.3700
G01 X40.7699 Y3.4020
G01 X40.7649 Y3.5072
G01 X40.7642 Y3.5155
G01 X40.7482 Y3.6224
G01 X40.7213 Y3.7300
G01 X40.6839 Y3.8344
G01 X40.6378 Y3.9322
G01 X40.6337 Y3.9395
G01 X40.5795 Y4.0297
G01 X40.5152 Y4.1166
G01 X40.5098 Y4.1230
G01 X40.4409 Y4.1990
G01 X40.4349 Y4.2048
G01 X40.3887 Y4.2467
G01 X40.3887 Y10.6402
G01 X40.4626 Y10.7074
G01 X40.5357 Y10.7877
G01 X40.5427 Y10.7963
G01 X40.6041 Y10.8791
G01 X40.6103 Y10.8884
G01 X40.6660 Y10.9816
G01 X40.7126 Y11.0797
G01 X40.7168 Y11.0900
G01 X40.7533 Y11.1923
G01 X40.7810 Y11.3030
G01 X40.7978 Y11.4160
G01 X40.8033 Y11.5244
G01 X40.8034 Y11.5328
G01 X40.7978 Y11.6440
G01 X40.7810 Y11.7570
G01 X40.7533 Y11.8677
G01 X40.7168 Y11.9700
G01 X40.7126 Y11.9803
G01 X40.6660 Y12.0784
G01 X40.6103 Y12.1716
G01 X40.6041 Y12.1809
G01 X40.5427 Y12.2637
G01 X40.5357 Y12.2723
G01 X40.4626 Y12.3526
G01 X40.3781 Y12.4293
G01 X40.2864 Y12.4973
G01 X40.1884 Y12.5560
G01 X40.0852 Y12.6048
G01 X39.9777 Y12.6433
G01 X39.8670 Y12.6710
G01 X39.7568 Y12.6875
G01 X39.7485 Y12.6882
G01 X39.6400 Y12.6934
G01 X39.5260 Y12.6878
G01 X39.4130 Y12.6710
G01 X39.3023 Y12.6433
G01 X39.1948 Y12.6048
G01 X39.0916 Y12.5560
G01 X38.9936 Y12.4973
G01 X38.9019 Y12.4293
G01 X38.8174 Y12.3526
G01 X38.7407 Y12.2681
G01 X38.6727 Y12.1764
G01 X38.6140 Y12.0784
G01 X38.5652 Y11.9752
G01 X38.5267 Y11.8677
G01 X38.4990 Y11.7570
G01 X38.4825 Y11.6468
G01 X38.4818 Y11.6385
G01 X38.4766 Y11.5300
G01 X38.4818 Y11.4215
G01 X38.4829 Y11.4104
G01 X38.4990 Y11.3030
G01 X38.5252 Y11.1976
G01 X38.5284 Y11.1870
G01 X38.5652 Y11.0848
G01 X38.6140 Y10.9816
G01 X38.6697 Y10.8884
G01 X38.6759 Y10.8791
G01 X38.7373 Y10.7963
G01 X38.7443 Y10.7877
G01 X38.8174 Y10.7074
G01 X38.8913 Y10.6402
G01 X38.8913 Y4.2467
G01 X38.8410 Y4.2010
G01 X38.7684 Y4.1209
G01 X38.7631 Y4.1144
G01 X38.7021 Y4.0320
G01 X38.6975 Y4.0250
G01 X38.6435 Y3.9346
G01 X38.5972 Y3.8370
G01 X38.5941 Y3.8292
G01 X38.5587 Y3.7300
G01 X38.5318 Y3.6224
G01 X38.5155 Y3.5128
G01 X38.5101 Y3.4020
G00 Z3.0000
G00 X43.5901 Y3.4020
G01 F60.00
G01 Z-0.0500
G01 F90.00
G01 X43.5901 Y1.3700
G01 X43.5951 Y1.2648
G01 X43.5962 Y1.2537
G01 X43.6118 Y1.1496
G01 X43.6387 Y1.0420
G01 X43.6761 Y0.9376
G01 X43.7235 Y0.8374
G01 X43.7805 Y0.7423
G01 X43.8466 Y0.6532
G01 X43.9210 Y0.5710
G01 X44.0032 Y0.4966
G01 X44.0923 Y0.4305
G01 X44.1874 Y0.3735
G01 X44.2876 Y0.3261
G01 X44.3920 Y0.2887
G01 X44.4996 Y0.2618
G01 X44.6092 Y0.2455
G01 X44.7200 Y0.2401
G01 X44.8308 Y0.2455
G01 X44.9404 Y0.2618
G01 X45.0480 Y0.2887
G01 X45.1524 Y0.3261
G01 X45.2526 Y0.3735
G01 X45.3430 Y0.4275
G01 X45.3523 Y0.4337
G01 X45.4368 Y0.4966
G01 X45.5149 Y0.5672
G01 X45.5228 Y0.5751
G01 X45.5934 Y0.6532
G01 X45.6563 Y0.7377
G01 X45.6625 Y0.7470
G01 X45.7165 Y0.8374
G01 X45.7616 Y0.9325
G01 X45.7659 Y0.9428
G01 X45.8013 Y1.0420
G01 X45.8270 Y1.1441
G01 X45.8291 Y1.1550
G01 X45.8445 Y1.2592
G01 X45.8499 Y1.3672
G01 X45.8499 Y3.4020
G01 X45.8449 Y3.5072
G01 X45.8442 Y3.5155
G01 X45.8282 Y3.6224
G01 X45.8013 Y3.7300
G01 X45.7639 Y3.8344
G01 X45.7178 Y3.9322
G01 X45.7137 Y3.9395
G01 X45.6595 Y4.0297
G01 X45.5952 Y4.1166
G01 X45.5898 Y4.1230
G01 X45.5209 Y4.1990
G01 X45.5149 Y4.2048
G01 X45.4687 Y4.2467
G01 X45.4687 Y30.9602
G01 X45.5426 Y31.0274
G01 X45.6157 Y31.1077
G01 X45.6227 Y31.1163
G01 X45.6841 Y31.1991
G01 X45.6903 Y31.2084
G01 X45.7460 Y31.3016
G01 X45.7926 Y31.3997
G01 X45.7968 Y31.4100
G01 X45.8333 Y31.5123
G01 X45.8610 Y31.6230
G01 X45.8778 Y31.7360
G01 X45.8833 Y31.8444
G01 X45.8834 Y31.8528
G01 X45.8778 Y31.9640
G01 X45.8610 Y32.0770
G01 X45.8333 Y32.1877
G01 X45.7948 Y32.2952
G01 X45.7460 Y32.3984
G01 X45.6873 Y32.4964
G01 X45.6193 Y32.5881
G01 X45.5426 Y32.6726
G01 X45.4581 Y32.7493
G01 X45.3664 Y32.8173
G01 X45.2684 Y32.8760
G01 X45.1652 Y32.9248
G01 X45.0577 Y32.9633
G01 X44.9470 Y32.9910
G01 X44.8340 Y33.0078
G01 X44.7256 Y33.0133
G01 X44.7144 Y33.0133
G01 X44.6060 Y33.0078
G01 X44.4930 Y32.9910
G01 X44.3823 Y32.9633
G01 X44.2748 Y32.9248
G01 X44.1716 Y32.8760
G01 X44.0736 Y32.8173
G01 X43.9819 Y32.7493
G01 X43.8974 Y32.6726
G01 X43.8207 Y32.5881
G01 X43.7527 Y32.4964
G01 X43.6940 Y32.3984
G01 X43.6452 Y32.2952
G01 X43.6067 Y32.1877
G01 X43.5790 Y32.0770
G01 X43.5622 Y31.9640
G01 X43.5567 Y31.8556
G01 X43.5567 Y31.8444
G01 X43.5622 Y31.7360
G01 X43.5790 Y31.6230
G01 X43.6067 Y31.5123
G01 X43.6432 Y31.4100
G01 X43.6474 Y31.3997
G01 X43.6940 Y31.3016
G01 X43.7497 Y31.2084
G01 X43.7559 Y31.1991
G01 X43.8173 Y31.1163
G01 X43.8243 Y31.1077
G01 X43.8974 Y31.0274
G01 X43.9713 Y30.9602
G01 X43.9713 Y4.2467
G01 X43.9210 Y4.2010
G01 X43.8484 Y4.1209
G01 X43.8431 Y4.1144
G01 X43.7821 Y4.0320
G01 X43.7775 Y4.0250
G01 X43.7235 Y3.9346
G01 X43.6772 Y3.8370
G01 X43.6741 Y3.8292
G01 X43.6387 Y3.7300
G01 X43.6118 Y3.6224
G01 X43.5955 Y3.5128
G01 X43.5901 Y3.4020
G00 Z3.0000
G00 X46.5113 Y4.2467
G01 F60.00
G01 Z-0.0500
G01 F90.00
G01 X46.4651 Y4.2048
G01 X46.4591 Y4.1990
G01 X46.3902 Y4.1230
G01 X46.3848 Y4.1166
G01 X46.3205 Y4.0297
G01 X46.2663 Y3.9395
G01 X46.2622 Y3.9322
G01 X46.2161 Y3.8344
G01 X46.1787 Y3.7300
G01 X46.1518 Y3.6224
G01 X46.1355 Y3.5128
G01 X46.1301 Y3.4020
G01 X46.1301 Y1.3672
G01 X46.1351 Y1.2648
G01 X46.1362 Y1.2537
G01 X46.1518 Y1.1496
G01 X46.1780 Y1.0447
G01 X46.1805 Y1.0367
G01 X46.2161 Y0.9376
G01 X46.2635 Y0.8374
G01 X46.3205 Y0.7423
G01 X46.3866 Y0.6532
G01 X46.4610 Y0.5710
G01 X46.5432 Y0.4966
G01 X46.6323 Y0.4305
G01 X46.7274 Y0.3735
G01 X46.8276 Y0.3261
G01 X46.9320 Y0.2887
G01 X47.0396 Y0.2618
G01 X47.1492 Y0.2455
G01 X47.2600 Y0.2401
G01 X47.3708 Y0.2455
G01 X47.4804 Y0.2618
G01 X47.5853 Y0.2880
G01 X47.5933 Y0.2905
G01 X47.6872 Y0.3241
G01 X47.6975 Y0.3284
G01 X47.7926 Y0.3735
G01 X47.8877 Y0.4305
G01 X47.9768 Y0.4966
G01 X48.0549 Y0.5672
G01 X48.0628 Y0.5751
G01 X48.1298 Y0.6490
G01 X48.1369 Y0.6576
G01 X48.1995 Y0.7423
G01 X48.2565 Y0.8374
G01 X48.3039 Y0.9376
G01 X48.3395 Y1.0367
G01 X48.3427 Y1.0474
G01 X48.3670 Y1.1441
G01 X48.3691 Y1.1550
G01 X48.3845 Y1.2592
G01 X48.3898 Y1.3644
G01 X48.3899 Y3.4020
G01 X48.3849 Y3.5072
G01 X48.3842 Y3.5155
G01 X48.3682 Y3.6224
G01 X48.3413 Y3.7300
G01 X48.3039 Y3.8344
G01 X48.2578 Y3.9322
G01 X48.2537 Y3.9395
G01 X48.1995 Y4.0297
G01 X48.1352 Y4.1166
G01 X48.1298 Y4.1230
G01 X48.0609 Y4.1990
G01 X48.0549 Y4.2048
G01 X48.0087 Y4.2467
G01 X48.0087 Y20.8002
G01 X48.0826 Y20.8674
G01 X48.1557 Y20.9477
G01 X48.1627 Y20.9563
G01 X48.2241 Y21.0391
G01 X48.2303 Y21.0484
G01 X48.2860 Y21.1416
G01 X48.3326 Y21.2397
G01 X48.3368 Y21.2500
G01 X48.3733 Y21.3523
G01 X48.4010 Y21.4630
G01 X48.4178 Y21.5760
G01 X48.4233 Y21.6844
G01 X48.4234 Y21.6928
G01 X48.4178 Y21.8040
G01 X48.4010 Y21.9170
G01 X48.3733 Y22.0277
G01 X48.3348 Y22.1352
G01 X48.2860 Y22.2384
G01 X48.2273 Y22.3364
G01 X48.1593 Y22.4281
G01 X48.0826 Y22.5126
G01 X47.9981 Y22.5893
G01 X47.9064 Y22.6573
G01 X47.8084 Y22.7160
G01 X47.7052 Y22.7648
G01 X47.5977 Y22.8033
G01 X47.4870 Y22.8310
G01 X47.3740 Y22.8478
G01 X47.2656 Y22.8533
G01 X47.2544 Y22.8533
G01 X47.1460 Y22.8478
G01 X47.0330 Y22.8310
G01 X46.9223 Y22.8033
G01 X46.8148 Y22.7648
G01 X46.7116 Y22.7160
G01 X46.6136 Y22.6573
G01 X46.5219 Y22.5893
G01 X46.4374 Y22.5126
G01 X46.3607 Y22.4281
G01 X46.2927 Y22.3364
G01 X46.2340 Y22.2384
G01 X46.1852 Y22.1352
G01 X46.1467 Y22.0277
G01 X46.1190 Y21.9170
G01 X46.1022 Y21.8040
G01 X46.0967 Y21.6956
G01 X46.0967 Y21.6844
G01 X46.1022 Y21.5760
G01 X46.1190 Y21.4630
G01 X46.1467 Y21.3523
G01 X46.1832 Y21.2500
G01 X46.1874 Y21.2397
G01 X46.2340 Y21.1416
G01 X46.2897 Y21.0484
G01 X46.2959 Y21.0391
G01 X46.3573 Y20.9563
G01 X46.3643 Y20.9477
G01 X46.4374 Y20.8674
G01 X46.5113 Y20.8002
G01 X46.5113 Y4.2467
G00 Z3.0000
G00 X53.7501 Y3.4020
G01 F60.00
G01 Z-0.0500
G01 F90.00
G01 X53.7501 Y1.3700
G01 X53.7551 Y1.2648
G01 X53.7562 Y1.2537
G01 X53.7718 Y1.1496
G01 X53.7987 Y1.0420
G01 X53.8361 Y0.9376
G01 X53.8835 Y0.8374
G01 X53.9405 Y0.7423
G01 X54.0066 Y0.6532
G01 X54.0810 Y0.5710
G01 X54.1632 Y0.4966
G01 X54.2523 Y0.4305
G01 X54.3474 Y0.3735
G01 X54.4476 Y0.3261
G01 X54.5520 Y0.2887
G01 X54.6596 Y0.2618
G01 X54.7692 Y0.2455
G01 X54.8800 Y0.2401
G01 X54.9908 Y0.2455
G01 X55.1004 Y0.2618
G01 X55.2080 Y0.2887
G01 X55.3124 Y0.3261
G01 X55.4126 Y0.3735
G01 X55.5030 Y0.4275
G01 X55.5123 Y0.4337
G01 X55.5968 Y0.4966
G01 X55.6749 Y0.5672
G01 X55.6828 Y0.5751
G01 X55.7534 Y0.6532
G01 X55.8195 Y0.7423
G01 X55.8765 Y0.8374
G01 X55.9216 Y0.9325
G01 X55.9259 Y0.9428
G01 X55.9613 Y1.0420
G01 X55.9870 Y1.1441
G01 X55.9891 Y1.1550
G01 X56.0042 Y1.2565
G01 X56.0049 Y1.2648
G01 X56.0099 Y1.3700
G01 X56.0098 Y3.4076
G01 X56.0049 Y3.5072
G01 X56.0038 Y3.5183
G01 X55.9882 Y3.6224
G01 X55.9627 Y3.7246
G01 X55.9595 Y3.7353
G01 X55.9239 Y3.8344
G01 X55.8765 Y3.9346
G01 X55.8195 Y4.0297
G01 X55.7534 Y4.1188
G01 X55.6790 Y4.2010
G01 X55.6010 Y4.2718
G01 X55.5924 Y4.2789
G01 X55.5123 Y4.3383
G01 X55.5030 Y4.3445
G01 X55.4126 Y4.3985
G01 X55.3124 Y4.4459
G01 X55.2080 Y4.4833
G01 X55.1059 Y4.5090
G01 X55.0950 Y4.5111
G01 X54.9963 Y4.5258
G01 X54.9852 Y4.5269
G01 X54.8800 Y4.5319
G01 X54.7692 Y4.5265
G01 X54.6596 Y4.5102
G01 X54.5574 Y4.4847
G01 X54.5467 Y4.4815
G01 X54.4528 Y4.4479
G01 X54.4425 Y4.4436
G01 X54.3474 Y4.3985
G01 X54.2523 Y4.3415
G01 X54.1632 Y4.2754
G01 X54.0851 Y4.2048
G01 X54.0772 Y4.1969
G01 X54.0102 Y4.1230
G01 X54.0031 Y4.1144
G01 X53.9405 Y4.0297
G01 X53.8835 Y3.9346
G01 X53.8361 Y3.8344
G01 X53.8005 Y3.7353
G01 X53.7973 Y3.7246
G01 X53.7730 Y3.6279
G01 X53.7709 Y3.6170
G01 X53.7555 Y3.5128
G01 X53.7501 Y3.4020
G00 Z3.0000
G00 X53.4699 Y1.3700
G01 F60.00
G01 Z-0.0500
G01 F90.00
G01 X53.4699 Y3.4020
G01 X53.4649 Y3.5072
G01 X53.4638 Y3.5183
G01 X53.4482 Y3.6224
G01 X53.4213 Y3.7300
G01 X53.3839 Y3.8344
G01 X53.3365 Y3.9346
G01 X53.2795 Y4.0297
G01 X53.2134 Y4.1188
G01 X53.1390 Y4.2010
G01 X53.0568 Y4.2754
G01 X52.9677 Y4.3415
G01 X52.8726 Y4.3985
G01 X52.7724 Y4.4459
G01 X52.6680 Y4.4833
G01 X52.5604 Y4.5102
G01 X52.4508 Y4.5265
G01 X52.3400 Y4.5319
G01 X52.2292 Y4.5265
G01 X52.1196 Y4.5102
G01 X52.0120 Y4.4833
G01 X51.9076 Y4.4459
G01 X51.8074 Y4.3985
G01 X51.7170 Y4.3445
G01 X51.7077 Y4.3383
G01 X51.6232 Y4.2754
G01 X51.5451 Y4.2048
G01 X51.5372 Y4.1969
G01 X51.4666 Y4.1188
G01 X51.4005 Y4.0297
G01 X51.3435 Y3.9346
G01 X51.2984 Y3.8395
G01 X51.2941 Y3.8292
G01 X51.2587 Y3.7300
G01 X51.2330 Y3.6279
G01 X51.2309 Y3.6170
G01 X51.2158 Y3.5155
G01 X51.2151 Y3.5072
G01 X51.2101 Y3.4020
G01 X51.2102 Y1.3644
G01 X51.2151 Y1.2648
G01 X51.2162 Y1.2537
G01 X51.2318 Y1.1496
G01 X51.2573 Y1.0474
G01 X51.2605 Y1.0367
G01 X51.2961 Y0.9376
G01 X51.3435 Y0.8374
G01 X51.4005 Y0.7423
G01 X51.4666 Y0.6532
G01 X51.5410 Y0.5710
G01 X51.6190 Y0.5002
G01 X51.6276 Y0.4931
G01 X51.7077 Y0.4337
G01 X51.7170 Y0.4275
G01 X51.8074 Y0.3735
G01 X51.9076 Y0.3261
G01 X52.0120 Y0.2887
G01 X52.1141 Y0.2630
G01 X52.1250 Y0.2609
G01 X52.2237 Y0.2462
G01 X52.2348 Y0.2451
G01 X52.3400 Y0.2401
G01 X52.4508 Y0.2455
G01 X52.5604 Y0.2618
G01 X52.6626 Y0.2873
G01 X52.6733 Y0.2905
G01 X52.7672 Y0.3241
G01 X52.7775 Y0.3284
G01 X52.8726 Y0.3735
G01 X52.9677 Y0.4305
G01 X53.0568 Y0.4966
G01 X53.1349 Y0.5672
G01 X53.1428 Y0.5751
G01 X53.2098 Y0.6490
G01 X53.2169 Y0.6576
G01 X53.2795 Y0.7423
G01 X53.3365 Y0.8374
G01 X53.3839 Y0.9376
G01 X53.4195 Y1.0367
G01 X53.4227 Y1.0474
G01 X53.4470 Y1.1441
G01 X53.4491 Y1.1550
G01 X53.4645 Y1.2592
G01 X53.4699 Y1.3700
G00 Z3.0000
G00 X58.5499 Y1.3700
G01 F60.00
G01 Z-0.0500
G01 F90.00
G01 X58.5499 Y3.4020
G01 X58.5449 Y3.5072
G01 X58.5438 Y3.5183
G01 X58.5282 Y3.6224
G01 X58.5013 Y3.7300
G01 X58.4639 Y3.8344
G01 X58.4165 Y3.9346
G01 X58.3595 Y4.0297
G01 X58.2934 Y4.1188
G01 X58.2190 Y4.2010
G01 X58.1368 Y4.2754
G01 X58.0477 Y4.3415
G01 X57.9526 Y4.3985
G01 X57.8524 Y4.4459
G01 X57.7480 Y4.4833
G01 X57.6404 Y4.5102
G01 X57.5308 Y4.5265
G01 X57.4200 Y4.5319
G01 X57.3092 Y4.5265
G01 X57.1996 Y4.5102
G01 X57.0920 Y4.4833
G01 X56.9876 Y4.4459
G01 X56.8874 Y4.3985
G01 X56.7970 Y4.3445
G01 X56.7877 Y4.3383
G01 X56.7032 Y4.2754
G01 X56.6251 Y4.2048
G01 X56.6172 Y4.1969
G01 X56.5466 Y4.1188
G01 X56.4805 Y4.0297
G01 X56.4235 Y3.9346
G01 X56.3784 Y3.8395
G01 X56.3741 Y3.8292
G01 X56.3387 Y3.7300
G01 X56.3130 Y3.6279
G01 X56.3109 Y3.6170
G01 X56.2958 Y3.5155
G01 X56.2951 Y3.5072
G01 X56.2901 Y3.4020
G01 X56.2902 Y1.3644
G01 X56.2951 Y1.2648
G01 X56.2962 Y1.2537
G01 X56.3118 Y1.1496
G01 X56.3373 Y1.0474
G01 X56.3405 Y1.0367
G01 X56.3761 Y0.9376
G01 X56.4235 Y0.8374
G01 X56.4805 Y0.7423
G01 X56.5466 Y0.6532
G01 X56.6210 Y0.5710
G01 X56.6990 Y0.5002
G01 X56.7076 Y0.4931
G01 X56.7877 Y0.4337
G01 X56.7970 Y0.4275
G01 X56.8874 Y0.3735
G01 X56.9876 Y0.3261
G01 X57.0920 Y0.2887
G01 X57.1941 Y0.2630
G01 X57.2050 Y0.2609
G01 X57.3037 Y0.2462
G01 X57.3148 Y0.2451
G01 X57.4200 Y0.2401
G01 X57.5308 Y0.2455
G01 X57.6404 Y0.2618
G01 X57.7426 Y0.2873
G01 X57.7533 Y0.2905
G01 X57.8472 Y0.3241
G01 X57.8575 Y0.3284
G01 X57.9526 Y0.3735
G01 X58.0477 Y0.4305
G01 X58.1368 Y0.4966
G01 X58.2149 Y0.5672
G01 X58.2228 Y0.5751
G01 X58.2898 Y0.6490
G01 X58.2969 Y0.6576
G01 X58.3595 Y0.7423
G01 X58.4165 Y0.8374
G01 X58.4639 Y0.9376
G01 X58.4995 Y1.0367
G01 X58.5027 Y1.0474
G01 X58.5270 Y1.1441
G01 X58.5291 Y1.1550
G01 X58.5445 Y1.2592
G01 X58.5499 Y1.3700
G00 Z3.0000
G00 X58.8301 Y3.4020
G01 F60.00
G01 Z-0.0500
G01 F90.00
G01 X58.8301 Y1.3700
G01 X58.8351 Y1.2648
G01 X58.8362 Y1.2537
G01 X58.8518 Y1.1496
G01 X58.8787 Y1.0420
G01 X58.9161 Y0.9376
G01 X58.9635 Y0.8374
G01 X59.0205 Y0.7423
G01 X59.0866 Y0.6532
G01 X59.1610 Y0.5710
G01 X59.2432 Y0.4966
G01 X59.3323 Y0.4305
G01 X59.4274 Y0.3735
G01 X59.5276 Y0.3261
G01 X59.6320 Y0.2887
G01 X59.7396 Y0.2618
G01 X59.8492 Y0.2455
G01 X59.9600 Y0.2401
G01 X60.0708 Y0.2455
G01 X60.1804 Y0.2618
G01 X60.2880 Y0.2887
G01 X60.3924 Y0.3261
G01 X60.4926 Y0.3735
G01 X60.5830 Y0.4275
G01 X60.5923 Y0.4337
G01 X60.6768 Y0.4966
G01 X60.7549 Y0.5672
G01 X60.7628 Y0.5751
G01 X60.8334 Y0.6532
G01 X60.8963 Y0.7377
G01 X60.9025 Y0.7470
G01 X60.9565 Y0.8374
G01 X61.0016 Y0.9325
G01 X61.0059 Y0.9428
G01 X61.0413 Y1.0420
G01 X61.0670 Y1.1441
G01 X61.0691 Y1.1550
G01 X61.0845 Y1.2592
G01 X61.0898 Y1.3644
G01 X61.0899 Y3.4020
G01 X61.0849 Y3.5072
G01 X61.0842 Y3.5155
G01 X61.0682 Y3.6224
G01 X61.0413 Y3.7300
G01 X61.0039 Y3.8344
G01 X60.9578 Y3.9322
G01 X60.9537 Y3.9395
G01 X60.8995 Y4.0297
G01 X60.8352 Y4.1166
G01 X60.8298 Y4.1230
G01 X60.7609 Y4.1990
G01 X60.7549 Y4.2048
G01 X60.7087 Y4.2467
G01 X60.7087 Y14.4502
G01 X60.7826 Y14.5174
G01 X60.8557 Y14.5977
G01 X60.8627 Y14.6063
G01 X60.9241 Y14.6891
G01 X60.9303 Y14.6984
G01 X60.9860 Y14.7916
G01 X61.0326 Y14.8897
G01 X61.0368 Y14.9000
G01 X61.0733 Y15.0023
G01 X61.1010 Y15.1130
G01 X61.1178 Y15.2260
G01 X61.1233 Y15.3344
G01 X61.1234 Y15.3428
G01 X61.1178 Y15.4540
G01 X61.1010 Y15.5670
G01 X61.0733 Y15.6777
G01 X61.0348 Y15.7852
G01 X60.9860 Y15.8884
G01 X60.9273 Y15.9864
G01 X60.8593 Y16.0781
G01 X60.7865 Y16.1586
G01 X60.7786 Y16.1665
G01 X60.7023 Y16.2357
G01 X60.6937 Y16.2427
G01 X60.6064 Y16.3073
G01 X60.5133 Y16.3633
G01 X60.5035 Y16.3685
G01 X60.4052 Y16.4148
G01 X60.2977 Y16.4533
G01 X60.1870 Y16.4810
G01 X60.0740 Y16.4978
G01 X59.9600 Y16.5034
G01 X59.8460 Y16.4978
G01 X59.7330 Y16.4810
G01 X59.6223 Y16.4533
G01 X59.5148 Y16.4148
G01 X59.4116 Y16.3660
G01 X59.3136 Y16.3073
G01 X59.2219 Y16.2393
G01 X59.1374 Y16.1626
G01 X59.0607 Y16.0781
G01 X58.9927 Y15.9864
G01 X58.9340 Y15.8884
G01 X58.8852 Y15.7852
G01 X58.8467 Y15.6777
G01 X58.8190 Y15.5670
G01 X58.8022 Y15.4540
G01 X58.7967 Y15.3456
G01 X58.7967 Y15.3344
G01 X58.8022 Y15.2260
G01 X58.8180 Y15.1185
G01 X58.8202 Y15.1076
G01 X58.8467 Y15.0023
G01 X58.8852 Y14.8948
G01 X58.9340 Y14.7916
G01 X58.9897 Y14.6984
G01 X58.9959 Y14.6891
G01 X59.0573 Y14.6063
G01 X59.0643 Y14.5977
G01 X59.1374 Y14.5174
G01 X59.2113 Y14.4502
G01 X59.2113 Y4.2467
G01 X59.1610 Y4.2010
G01 X59.0884 Y4.1209
G01 X59.0831 Y4.1144
G01 X59.0221 Y4.0320
G01 X59.0175 Y4.0250
G01 X58.9635 Y3.9346
G01 X58.9172 Y3.8370
G01 X58.9141 Y3.8292
G01 X58.8787 Y3.7300
G01 X58.8518 Y3.6224
G01 X58.8355 Y3.5128
G01 X58.8301 Y3.4020
G00 Z3.0000
G00 X63.9101 Y3.4020
G01 F60.00
G01 Z-0.0500
G01 F90.00
G01 X63.9101 Y1.3700
G01 X63.9151 Y1.2648
G01 X63.9162 Y1.2537
G01 X63.9318 Y1.1496
G01 X63.9587 Y1.0420
G01 X63.9961 Y0.9376
G01 X64.0435 Y0.8374
G01 X64.1005 Y0.7423
G01 X64.1666 Y0.6532
G01 X64.2410 Y0.5710
G01 X64.3232 Y0.4966
G01 X64.4123 Y0.4305
G01 X64.5074 Y0.3735
G01 X64.6076 Y0.3261
G01 X64.7120 Y0.2887
G01 X64.8196 Y0.2618
G01 X64.9292 Y0.2455
G01 X65.0400 Y0.2401
G01 X65.1508 Y0.2455
G01 X65.2604 Y0.2618
G01 X65.3680 Y0.2887
G01 X65.4724 Y0.3261
G01 X65.5726 Y0.3735
G01 X65.6630 Y0.4275
G01 X65.6723 Y0.4337
G01 X65.7568 Y0.4966
G01 X65.8349 Y0.5672
G01 X65.8428 Y0.5751
G01 X65.9134 Y0.6532
G01 X65.9763 Y0.7377
G01 X65.9825 Y0.7470
G01 X66.0365 Y0.8374
G01 X66.0816 Y0.9325
G01 X66.0859 Y0.9428
G01 X66.1213 Y1.0420
G01 X66.1470 Y1.1441
G01 X66.1491 Y1.1550
G01 X66.1645 Y1.2592
G01 X66.1699 Y1.3672
G01 X66.1699 Y3.4020
G01 X66.1649 Y3.5072
G01 X66.1642 Y3.5155
G01 X66.1482 Y3.6224
G01 X66.1213 Y3.7300
G01 X66.0839 Y3.8344
G01 X66.0378 Y3.9322
G01 X66.0337 Y3.9395
G01 X65.9795 Y4.0297
G01 X65.9152 Y4.1166
G01 X65.9098 Y4.1230
G01 X65.8409 Y4.1990
G01 X65.8349 Y4.2048
G01 X65.7887 Y4.2467
G01 X65.7887 Y18.8952
G01 X65.8626 Y18.9624
G01 X65.9357 Y19.0427
G01 X65.9427 Y19.0513
G01 X66.0041 Y19.1341
G01 X66.0103 Y19.1434
G01 X66.0660 Y19.2366
G01 X66.1126 Y19.3347
G01 X66.1168 Y19.3450
G01 X66.1533 Y19.4473
G01 X66.1810 Y19.5580
G01 X66.1978 Y19.6710
G01 X66.2033 Y19.7794
G01 X66.2034 Y19.7878
G01 X66.1978 Y19.8990
G01 X66.1810 Y20.0120
G01 X66.1533 Y20.1227
G01 X66.1148 Y20.2302
G01 X66.0660 Y20.3334
G01 X66.0073 Y20.4314
G01 X65.9393 Y20.5231
G01 X65.8665 Y20.6036
G01 X65.8586 Y20.6115
G01 X65.7781 Y20.6843
G01 X65.6909 Y20.7491
G01 X65.6816 Y20.7553
G01 X65.5933 Y20.8083
G01 X65.5835 Y20.8135
G01 X65.4852 Y20.8598
G01 X65.3777 Y20.8983
G01 X65.2670 Y20.9260
G01 X65.1596 Y20.9421
G01 X65.1513 Y20.9430
G01 X65.0400 Y20.9484
G01 X64.9260 Y20.9428
G01 X64.8130 Y20.9260
G01 X64.7023 Y20.8983
G01 X64.5948 Y20.8598
G01 X64.4916 Y20.8110
G01 X64.3936 Y20.7523
G01 X64.3019 Y20.6843
G01 X64.2174 Y20.6076
G01 X64.1407 Y20.5231
G01 X64.0727 Y20.4314
G01 X64.0140 Y20.3334
G01 X63.9652 Y20.2302
G01 X63.9267 Y20.1227
G01 X63.8990 Y20.0120
G01 X63.8829 Y19.9046
G01 X63.8820 Y19.8963
G01 X63.8767 Y19.7906
G01 X63.8767 Y19.7794
G01 X63.8822 Y19.6710
G01 X63.8980 Y19.5635
G01 X63.9002 Y19.5526
G01 X63.9267 Y19.4473
G01 X63.9652 Y19.3398
G01 X64.0140 Y19.2366
G01 X64.0697 Y19.1434
G01 X64.0759 Y19.1341
G01 X64.1373 Y19.0513
G01 X64.1443 Y19.0427
G01 X64.2174 Y18.9624
G01 X64.2913 Y18.8952
G01 X64.2913 Y4.2467
G01 X64.2410 Y4.2010
G01 X64.1684 Y4.1209
G01 X64.1631 Y4.1144
G01 X64.1021 Y4.0320
G01 X64.0975 Y4.0250
G01 X64.0435 Y3.9346
G01 X63.9972 Y3.8370
G01 X63.9941 Y3.8292
G01 X63.9587 Y3.7300
G01 X63.9318 Y3.6224
G01 X63.9155 Y3.5128
G01 X63.9101 Y3.4020
G00 Z3.0000
G00 X63.6299 Y1.3700
G01 F60.00
G01 Z-0.0500
G01 F90.00
G01 X63.6299 Y3.4020
G01 X63.6249 Y3.5072
G01 X63.6238 Y3.5183
G01 X63.6082 Y3.6224
G01 X63.5813 Y3.7300
G01 X63.5439 Y3.8344
G01 X63.4965 Y3.9346
G01 X63.4395 Y4.0297
G01 X63.3734 Y4.1188
G01 X63.2990 Y4.2010
G01 X63.2168 Y4.2754
G01 X63.1277 Y4.3415
G01 X63.0326 Y4.3985
G01 X62.9324 Y4.4459
G01 X62.8280 Y4.4833
G01 X62.7204 Y4.5102
G01 X62.6108 Y4.5265
G01 X62.5000 Y4.5319
G01 X62.3892 Y4.5265
G01 X62.2796 Y4.5102
G01 X62.1720 Y4.4833
G01 X62.0676 Y4.4459
G01 X61.9674 Y4.3985
G01 X61.8770 Y4.3445
G01 X61.8677 Y4.3383
G01 X61.7832 Y4.2754
G01 X61.7051 Y4.2048
G01 X61.6972 Y4.1969
G01 X61.6266 Y4.1188
G01 X61.5605 Y4.0297
G01 X61.5035 Y3.9346
G01 X61.4584 Y3.8395
G01 X61.4541 Y3.8292
G01 X61.4187 Y3.7300
G01 X61.3930 Y3.6279
G01 X61.3909 Y3.6170
G01 X61.3758 Y3.5155
G01 X61.3751 Y3.5072
G01 X61.3701 Y3.4020
G01 X61.3702 Y1.3644
G01 X61.3751 Y1.2648
G01 X61.3762 Y1.2537
G01 X61.3918 Y1.1496
G01 X61.4173 Y1.0474
G01 X61.4205 Y1.0367
G01 X61.4561 Y0.9376
G01 X61.5035 Y0.8374
G01 X61.5605 Y0.7423
G01 X61.6266 Y0.6532
G01 X61.7010 Y0.5710
G01 X61.7790 Y0.5002
G01 X61.7876 Y0.4931
G01 X61.8677 Y0.4337
G01 X61.8770 Y0.4275
G01 X61.9674 Y0.3735
G01 X62.0676 Y0.3261
G01 X62.1720 Y0.2887
G01 X62.2741 Y0.2630
G01 X62.2850 Y0.2609
G01 X62.3837 Y0.2462
G01 X62.3948 Y0.2451
G01 X62.5000 Y0.2401
G01 X62.6108 Y0.2455
G01 X62.7204 Y0.2618
G01 X62.8226 Y0.2873
G01 X62.8333 Y0.2905
G01 X62.9272 Y0.3241
G01 X62.9375 Y0.3284
G01 X63.0326 Y0.3735
G01 X63.1277 Y0.4305
G01 X63.2168 Y0.4966
G01 X63.2949 Y0.5672
G01 X63.3028 Y0.5751
G01 X63.3698 Y0.6490
G01 X63.3769 Y0.6576
G01 X63.4395 Y0.7423
G01 X63.4965 Y0.8374
G01 X63.5439 Y0.9376
G01 X63.5795 Y1.0367
G01 X63.5827 Y1.0474
G01 X63.6070 Y1.1441
G01 X63.6091 Y1.1550
G01 X63.6245 Y1.2592
G01 X63.6299 Y1.3700
G00 Z3.0000
G00 X68.9901 Y3.4020
G01 F60.00
G01 Z-0.0500
G01 F90.00
G01 X68.9901 Y1.3700
G01 X68.9951 Y1.2648
G01 X68.9962 Y1.2537
G01 X69.0118 Y1.1496
G01 X69.0387 Y1.0420
G01 X69.0761 Y0.9376
G01 X69.1235 Y0.8374
G01 X69.1805 Y0.7423
G01 X69.2466 Y0.6532
G01 X69.3210 Y0.5710
G01 X69.4032 Y0.4966
G01 X69.4923 Y0.4305
G01 X69.5874 Y0.3735
G01 X69.6876 Y0.3261
G01 X69.7920 Y0.2887
G01 X69.8996 Y0.2618
G01 X70.0092 Y0.2455
G01 X70.1200 Y0.2401
G01 X70.2308 Y0.2455
G01 X70.3404 Y0.2618
G01 X70.4480 Y0.2887
G01 X70.5524 Y0.3261
G01 X70.6526 Y0.3735
G01 X70.7430 Y0.4275
G01 X70.7523 Y0.4337
G01 X70.8368 Y0.4966
G01 X70.9190 Y0.5710
G01 X70.9898 Y0.6490
G01 X70.9969 Y0.6576
G01 X71.0595 Y0.7423
G01 X71.1137 Y0.8325
G01 X71.1190 Y0.8423
G01 X71.1639 Y0.9376
G01 X71.1995 Y1.0367
G01 X71.2027 Y1.0474
G01 X71.2282 Y1.1496
G01 X71.2438 Y1.2537
G01 X71.2449 Y1.2648
G01 X71.2499 Y1.3700
G01 X71.2499 Y3.4020
G01 X71.2449 Y3.5072
G01 X71.2442 Y3.5155
G01 X71.2282 Y3.6224
G01 X71.2013 Y3.7300
G01 X71.1639 Y3.8344
G01 X71.1178 Y3.9322
G01 X71.1137 Y3.9395
G01 X71.0595 Y4.0297
G01 X70.9952 Y4.1166
G01 X70.9898 Y4.1230
G01 X70.9209 Y4.1990
G01 X70.9149 Y4.2048
G01 X70.8687 Y4.2467
G01 X70.8687 Y49.3752
G01 X70.9426 Y49.4424
G01 X71.0157 Y49.5227
G01 X71.0227 Y49.5313
G01 X71.0841 Y49.6141
G01 X71.0903 Y49.6234
G01 X71.1460 Y49.7166
G01 X71.1926 Y49.8147
G01 X71.1968 Y49.8250
G01 X71.2333 Y49.9273
G01 X71.2610 Y50.0380
G01 X71.2778 Y50.1510
G01 X71.2834 Y50.2650
G01 X71.2778 Y50.3790
G01 X71.2610 Y50.4920
G01 X71.2333 Y50.6027
G01 X71.1968 Y50.7050
G01 X71.1926 Y50.7153
G01 X71.1460 Y50.8134
G01 X71.0903 Y50.9066
G01 X71.0841 Y50.9159
G01 X71.0227 Y50.9987
G01 X71.0157 Y51.0073
G01 X70.9426 Y51.0876
G01 X70.8687 Y51.1548
G01 X70.8687 Y53.1852
G01 X70.9426 Y53.2524
G01 X71.0157 Y53.3327
G01 X71.0227 Y53.3413
G01 X71.0841 Y53.4241
G01 X71.0903 Y53.4334
G01 X71.1460 Y53.5266
G01 X71.1926 Y53.6247
G01 X71.1968 Y53.6350
G01 X71.2333 Y53.7373
G01 X71.2610 Y53.8480
G01 X71.2778 Y53.9610
G01 X71.2834 Y54.0750
G01 X71.2778 Y54.1890
G01 X71.2610 Y54.3020
G01 X71.2333 Y54.4127
G01 X71.1948 Y54.5202
G01 X71.1460 Y54.6234
G01 X71.0873 Y54.7214
G01 X71.0193 Y54.8131
G01 X70.9426 Y54.8976
G01 X70.8581 Y54.9743
G01 X70.7664 Y55.0423
G01 X70.6684 Y55.1010
G01 X70.5652 Y55.1498
G01 X70.4577 Y55.1883
G01 X70.3470 Y55.2160
G01 X70.2340 Y55.2328
G01 X70.1228 Y55.2384
G01 X70.1144 Y55.2383
G01 X70.0060 Y55.2328
G01 X69.8930 Y55.2160
G01 X69.7823 Y55.1883
G01 X69.6748 Y55.1498
G01 X69.5716 Y55.1010
G01 X69.4736 Y55.0423
G01 X69.3819 Y54.9743
G01 X69.2974 Y54.8976
G01 X69.2207 Y54.8131
G01 X69.1527 Y54.7214
G01 X69.0940 Y54.6234
G01 X69.0452 Y54.5202
G01 X69.0067 Y54.4127
G01 X68.9790 Y54.3020
G01 X68.9622 Y54.1890
G01 X68.9566 Y54.0778
G01 X68.9567 Y54.0694
G01 X68.9622 Y53.9610
G01 X68.9790 Y53.8480
G01 X69.0067 Y53.7373
G01 X69.0432 Y53.6350
G01 X69.0474 Y53.6247
G01 X69.0940 Y53.5266
G01 X69.1497 Y53.4334
G01 X69.1559 Y53.4241
G01 X69.2173 Y53.3413
G01 X69.2243 Y53.3327
G01 X69.2974 Y53.2524
G01 X69.3713 Y53.1852
G01 X69.3713 Y51.1548
G01 X69.2974 Y51.0876
G01 X69.2243 Y51.0073
G01 X69.2173 Y50.9987
G01 X69.1559 Y50.9159
G01 X69.1497 Y50.9066
G01 X69.0940 Y50.8134
G01 X69.0474 Y50.7153
G01 X69.0432 Y50.7050
G01 X69.0067 Y50.6027
G01 X68.9790 Y50.4920
G01 X68.9622 Y50.3790
G01 X68.9566 Y50.2650
G01 X68.9622 Y50.1510
G01 X68.9790 Y50.0380
G01 X69.0067 Y49.9273
G01 X69.0432 Y49.8250
G01 X69.0474 Y49.8147
G01 X69.0940 Y49.7166
G01 X69.1497 Y49.6234
G01 X69.1559 Y49.6141
G01 X69.2173 Y49.5313
G01 X69.2243 Y49.5227
G01 X69.2974 Y49.4424
G01 X69.3713 Y49.3752
G01 X69.3713 Y4.2467
G01 X69.3210 Y4.2010
G01 X69.2484 Y4.1209
G01 X69.2431 Y4.1144
G01 X69.1821 Y4.0320
G01 X69.1775 Y4.0250
G01 X69.1235 Y3.9346
G01 X69.0772 Y3.8370
G01 X69.0741 Y3.8292
G01 X69.0387 Y3.7300
G01 X69.0118 Y3.6224
G01 X68.9955 Y3.5128
G01 X68.9901 Y3.4020
G00 Z3.0000
G00 X74.0701 Y3.4020
G01 F60.00
G01 Z-0.0500
G01 F90.00
G01 X74.0701 Y1.3700
G01 X74.0751 Y1.2648
G01 X74.0762 Y1.2537
G01 X74.0918 Y1.1496
G01 X74.1187 Y1.0420
G01 X74.1561 Y0.9376
G01 X74.2035 Y0.8374
G01 X74.2605 Y0.7423
G01 X74.3266 Y0.6532
G01 X74.4010 Y0.5710
G01 X74.4832 Y0.4966
G01 X74.5723 Y0.4305
G01 X74.6674 Y0.3735
G01 X74.7676 Y0.3261
G01 X74.8720 Y0.2887
G01 X74.9796 Y0.2618
G01 X75.0892 Y0.2455
G01 X75.2000 Y0.2401
G01 X75.3108 Y0.2455
G01 X75.4204 Y0.2618
G01 X75.5280 Y0.2887
G01 X75.6324 Y0.3261
G01 X75.7326 Y0.3735
G01 X75.8230 Y0.4275
G01 X75.8323 Y0.4337
G01 X75.9168 Y0.4966
G01 X75.9949 Y0.5672
G01 X76.0028 Y0.5751
G01 X76.0734 Y0.6532
G01 X76.1363 Y0.7377
G01 X76.1425 Y0.7470
G01 X76.1965 Y0.8374
G01 X76.2416 Y0.9325
G01 X76.2459 Y0.9428
G01 X76.2813 Y1.0420
G01 X76.3070 Y1.1441
G01 X76.3091 Y1.1550
G01 X76.3245 Y1.2592
G01 X76.3299 Y1.3672
G01 X76.3299 Y3.4020
G01 X76.3249 Y3.5072
G01 X76.3242 Y3.5155
G01 X76.3082 Y3.6224
G01 X76.2813 Y3.7300
G01 X76.2439 Y3.8344
G01 X76.1978 Y3.9322
G01 X76.1937 Y3.9395
G01 X76.1395 Y4.0297
G01 X76.0752 Y4.1166
G01 X76.0698 Y4.1230
G01 X76.0009 Y4.1990
G01 X75.9949 Y4.2048
G01 X75.9487 Y4.2467
G01 X75.9487 Y39.2152
G01 X76.0226 Y39.2824
G01 X76.0957 Y39.3627
G01 X76.1027 Y39.3713
G01 X76.1641 Y39.4541
G01 X76.1703 Y39.4634
G01 X76.2260 Y39.5566
G01 X76.2726 Y39.6547
G01 X76.2768 Y39.6650
G01 X76.3133 Y39.7673
G01 X76.3410 Y39.8780
G01 X76.3578 Y39.9910
G01 X76.3634 Y40.1050
G01 X76.3578 Y40.2190
G01 X76.3410 Y40.3320
G01 X76.3133 Y40.4427
G01 X76.2768 Y40.5450
G01 X76.2726 Y40.5553
G01 X76.2260 Y40.6534
G01 X76.1703 Y40.7466
G01 X76.1641 Y40.7559
G01 X76.1027 Y40.8387
G01 X76.0957 Y40.8473
G01 X76.0226 Y40.9276
G01 X75.9487 Y40.9948
G01 X75.9487 Y49.3752
G01 X76.0226 Y49.4424
G01 X76.0957 Y49.5227
G01 X76.1027 Y49.5313
G01 X76.1641 Y49.6141
G01 X76.1703 Y49.6234
G01 X76.2260 Y49.7166
G01 X76.2726 Y49.8147
G01 X76.2768 Y49.8250
G01 X76.3133 Y49.9273
G01 X76.3410 Y50.0380
G01 X76.3578 Y50.1510
G01 X76.3634 Y50.2650
G01 X76.3578 Y50.3790
G01 X76.3410 Y50.4920
G01 X76.3133 Y50.6027
G01 X76.2748 Y50.7102
G01 X76.2260 Y50.8134
G01 X76.1673 Y50.9114
G01 X76.0993 Y51.0031
G01 X76.0226 Y51.0876
G01 X75.9381 Y51.1643
G01 X75.8464 Y51.2323
G01 X75.7484 Y51.2910
G01 X75.6452 Y51.3398
G01 X75.5377 Y51.3783
G01 X75.4270 Y51.4060
G01 X75.3140 Y51.4228
G01 X75.2028 Y51.4284
G01 X75.1944 Y51.4283
G01 X75.0860 Y51.4228
G01 X74.9730 Y51.4060
G01 X74.8623 Y51.3783
G01 X74.7548 Y51.3398
G01 X74.6516 Y51.2910
G01 X74.5536 Y51.2323
G01 X74.4619 Y51.1643
G01 X74.3774 Y51.0876
G01 X74.3007 Y51.0031
G01 X74.2327 Y50.9114
G01 X74.1740 Y50.8134
G01 X74.1252 Y50.7102
G01 X74.0867 Y50.6027
G01 X74.0590 Y50.4920
G01 X74.0422 Y50.3790
G01 X74.0366 Y50.2678
G01 X74.0367 Y50.2594
G01 X74.0422 Y50.1510
G01 X74.0590 Y50.0380
G01 X74.0867 Y49.9273
G01 X74.1232 Y49.8250
G01 X74.1274 Y49.8147
G01 X74.1740 Y49.7166
G01 X74.2297 Y49.6234
G01 X74.2359 Y49.6141
G01 X74.2973 Y49.5313
G01 X74.3043 Y49.5227
G01 X74.3774 Y49.4424
G01 X74.4513 Y49.3752
G01 X74.4513 Y40.9948
G01 X74.3774 Y40.9276
G01 X74.3043 Y40.8473
G01 X74.2973 Y40.8387
G01 X74.2359 Y40.7559
G01 X74.2297 Y40.7466
G01 X74.1740 Y40.6534
G01 X74.1274 Y40.5553
G01 X74.1232 Y40.5450
G01 X74.0867 Y40.4427
G01 X74.0590 Y40.3320
G01 X74.0422 Y40.2190
G01 X74.0366 Y40.1050
G01 X74.0422 Y39.9910
G01 X74.0590 Y39.8780
G01 X74.0867 Y39.7673
G01 X74.1232 Y39.6650
G01 X74.1274 Y39.6547
G01 X74.1740 Y39.5566
G01 X74.2297 Y39.4634
G01 X74.2359 Y39.4541
G01 X74.2973 Y39.3713
G01 X74.3043 Y39.3627
G01 X74.3774 Y39.2824
G01 X74.4513 Y39.2152
G01 X74.4513 Y4.2467
G01 X74.4010 Y4.2010
G01 X74.3284 Y4.1209
G01 X74.3231 Y4.1144
G01 X74.2621 Y4.0320
G01 X74.2575 Y4.0250
G01 X74.2035 Y3.9346
G01 X74.1572 Y3.8370
G01 X74.1541 Y3.8292
G01 X74.1187 Y3.7300
G01 X74.0918 Y3.6224
G01 X74.0755 Y3.5128
G01 X74.0701 Y3.4020
G00 Z3.0000
G00 X79.1501 Y3.4020
G01 F60.00
G01 Z-0.0500
G01 F90.00
G01 X79.1501 Y1.3700
G01 X79.1551 Y1.2648
G01 X79.1562 Y1.2537
G01 X79.1718 Y1.1496
G01 X79.1987 Y1.0420
G01 X79.2361 Y0.9376
G01 X79.2835 Y0.8374
G01 X79.3405 Y0.7423
G01 X79.4066 Y0.6532
G01 X79.4810 Y0.5710
G01 X79.5632 Y0.4966
G01 X79.6523 Y0.4305
G01 X79.7474 Y0.3735
G01 X79.8476 Y0.3261
G01 X79.9520 Y0.2887
G01 X80.0596 Y0.2618
G01 X80.1692 Y0.2455
G01 X80.2800 Y0.2401
G01 X80.3908 Y0.2455
G01 X80.5004 Y0.2618
G01 X80.6080 Y0.2887
G01 X80.7124 Y0.3261
G01 X80.8126 Y0.3735
G01 X80.9030 Y0.4275
G01 X80.9123 Y0.4337
G01 X80.9968 Y0.4966
G01 X81.0749 Y0.5672
G01 X81.0828 Y0.5751
G01 X81.1534 Y0.6532
G01 X81.2163 Y0.7377
G01 X81.2225 Y0.7470
G01 X81.2765 Y0.8374
G01 X81.3216 Y0.9325
G01 X81.3259 Y0.9428
G01 X81.3613 Y1.0420
G01 X81.3870 Y1.1441
G01 X81.3891 Y1.1550
G01 X81.4045 Y1.2592
G01 X81.4099 Y1.3672
G01 X81.4099 Y3.4020
G01 X81.4049 Y3.5072
G01 X81.4042 Y3.5155
G01 X81.3882 Y3.6224
G01 X81.3613 Y3.7300
G01 X81.3239 Y3.8344
G01 X81.2778 Y3.9322
G01 X81.2737 Y3.9395
G01 X81.2195 Y4.0297
G01 X81.1552 Y4.1166
G01 X81.1498 Y4.1230
G01 X81.0809 Y4.1990
G01 X81.0749 Y4.2048
G01 X81.0287 Y4.2467
G01 X81.0287 Y11.9102
G01 X81.1026 Y11.9774
G01 X81.1757 Y12.0577
G01 X81.1827 Y12.0663
G01 X81.2441 Y12.1491
G01 X81.2503 Y12.1584
G01 X81.3060 Y12.2516
G01 X81.3526 Y12.3497
G01 X81.3568 Y12.3600
G01 X81.3933 Y12.4623
G01 X81.4210 Y12.5730
G01 X81.4378 Y12.6860
G01 X81.4434 Y12.8000
G01 X81.4378 Y12.9140
G01 X81.4210 Y13.0270
G01 X81.3933 Y13.1377
G01 X81.3568 Y13.2400
G01 X81.3526 Y13.2503
G01 X81.3060 Y13.3484
G01 X81.2503 Y13.4416
G01 X81.2441 Y13.4509
G01 X81.1827 Y13.5337
G01 X81.1757 Y13.5423
G01 X81.1026 Y13.6226
G01 X81.0287 Y13.6898
G01 X81.0287 Y49.3752
G01 X81.1026 Y49.4424
G01 X81.1757 Y49.5227
G01 X81.1827 Y49.5313
G01 X81.2441 Y49.6141
G01 X81.2503 Y49.6234
G01 X81.3060 Y49.7166
G01 X81.3526 Y49.8147
G01 X81.3568 Y49.8250
G01 X81.3933 Y49.9273
G01 X81.4210 Y50.0380
G01 X81.4378 Y50.1510
G01 X81.4434 Y50.2650
G01 X81.4378 Y50.3790
G01 X81.4210 Y50.4920
G01 X81.3933 Y50.6027
G01 X81.3548 Y50.7102
G01 X81.3060 Y50.8134
G01 X81.2473 Y50.9114
G01 X81.1793 Y51.0031
G01 X81.1026 Y51.0876
G01 X81.0181 Y51.1643
G01 X80.9264 Y51.2323
G01 X80.8284 Y51.2910
G01 X80.7252 Y51.3398
G01 X80.6177 Y51.3783
G01 X80.5070 Y51.4060
G01 X80.3940 Y51.4228
G01 X80.2828 Y51.4284
G01 X80.2744 Y51.4283
G01 X80.1660 Y51.4228
G01 X80.0530 Y51.4060
G01 X79.9423 Y51.3783
G01 X79.8348 Y51.3398
G01 X79.7316 Y51.2910
G01 X79.6336 Y51.2323
G01 X79.5419 Y51.1643
G01 X79.4574 Y51.0876
G01 X79.3807 Y51.0031
G01 X79.3127 Y50.9114
G01 X79.2540 Y50.8134
G01 X79.2052 Y50.7102
G01 X79.1667 Y50.6027
G01 X79.1390 Y50.4920
G01 X79.1222 Y50.3790
G01 X79.1166 Y50.2678
G01 X79.1167 Y50.2594
G01 X79.1222 Y50.1510
G01 X79.1390 Y50.0380
G01 X79.1667 Y49.9273
G01 X79.2032 Y49.8250
G01 X79.2074 Y49.8147
G01 X79.2540 Y49.7166
G01 X79.3097 Y49.6234
G01 X79.3159 Y49.6141
G01 X79.3773 Y49.5313
G01 X79.3843 Y49.5227
G01 X79.4574 Y49.4424
G01 X79.5313 Y49.3752
G01 X79.5313 Y13.6898
G01 X79.4574 Y13.6226
G01 X79.3843 Y13.5423
G01 X79.3773 Y13.5337
G01 X79.3159 Y13.4509
G01 X79.3097 Y13.4416
G01 X79.2540 Y13.3484
G01 X79.2074 Y13.2503
G01 X79.2032 Y13.2400
G01 X79.1667 Y13.1377
G01 X79.1390 Y13.0270
G01 X79.1222 Y12.9140
G01 X79.1166 Y12.8000
G01 X79.1222 Y12.6860
G01 X79.1390 Y12.5730
G01 X79.1667 Y12.4623
G01 X79.2032 Y12.3600
G01 X79.2074 Y12.3497
G01 X79.2540 Y12.2516
G01 X79.3097 Y12.1584
G01 X79.3159 Y12.1491
G01 X79.3773 Y12.0663
G01 X79.3843 Y12.0577
G01 X79.4574 Y11.9774
G01 X79.5313 Y11.9102
G01 X79.5313 Y4.2467
G01 X79.4810 Y4.2010
G01 X79.4084 Y4.1209
G01 X79.4031 Y4.1144
G01 X79.3421 Y4.0320
G01 X79.3375 Y4.0250
G01 X79.2835 Y3.9346
G01 X79.2372 Y3.8370
G01 X79.2341 Y3.8292
G01 X79.1987 Y3.7300
G01 X79.1718 Y3.6224
G01 X79.1555 Y3.5128
G01 X79.1501 Y3.4020
G00 Z3.0000
G00 X84.2301 Y3.4020
G01 F60.00
G01 Z-0.0500
G01 F90.00
G01 X84.2301 Y1.3700
G01 X84.2351 Y1.2648
G01 X84.2362 Y1.2537
G01 X84.2518 Y1.1496
G01 X84.2787 Y1.0420
G01 X84.3161 Y0.9376
G01 X84.3635 Y0.8374
G01 X84.4205 Y0.7423
G01 X84.4866 Y0.6532
G01 X84.5610 Y0.5710
G01 X84.6432 Y0.4966
G01 X84.7323 Y0.4305
G01 X84.8274 Y0.3735
G01 X84.9276 Y0.3261
G01 X85.0320 Y0.2887
G01 X85.1396 Y0.2618
G01 X85.2492 Y0.2455
G01 X85.3600 Y0.2401
G01 X85.4708 Y0.2455
G01 X85.5804 Y0.2618
G01 X85.6880 Y0.2887
G01 X85.7924 Y0.3261
G01 X85.8926 Y0.3735
G01 X85.9830 Y0.4275
G01 X85.9923 Y0.4337
G01 X86.0768 Y0.4966
G01 X86.1549 Y0.5672
G01 X86.1628 Y0.5751
G01 X86.2334 Y0.6532
G01 X86.2963 Y0.7377
G01 X86.3025 Y0.7470
G01 X86.3565 Y0.8374
G01 X86.4016 Y0.9325
G01 X86.4059 Y0.9428
G01 X86.4413 Y1.0420
G01 X86.4670 Y1.1441
G01 X86.4691 Y1.1550
G01 X86.4845 Y1.2592
G01 X86.4899 Y1.3672
G01 X86.4899 Y3.4020
G01 X86.4849 Y3.5072
G01 X86.4842 Y3.5155
G01 X86.4682 Y3.6224
G01 X86.4413 Y3.7300
G01 X86.4039 Y3.8344
G01 X86.3578 Y3.9322
G01 X86.3537 Y3.9395
G01 X86.2995 Y4.0297
G01 X86.2352 Y4.1166
G01 X86.2298 Y4.1230
G01 X86.1609 Y4.1990
G01 X86.1549 Y4.2048
G01 X86.1087 Y4.2467
G01 X86.1087 Y5.5602
G01 X86.1826 Y5.6274
G01 X86.2557 Y5.7077
G01 X86.2627 Y5.7163
G01 X86.3241 Y5.7991
G01 X86.3303 Y5.8084
G01 X86.3860 Y5.9016
G01 X86.4326 Y5.9997
G01 X86.4368 Y6.0100
G01 X86.4733 Y6.1123
G01 X86.5010 Y6.2230
G01 X86.5178 Y6.3360
G01 X86.5234 Y6.4500
G01 X86.5178 Y6.5640
G01 X86.5010 Y6.6770
G01 X86.4733 Y6.7877
G01 X86.4368 Y6.8900
G01 X86.4326 Y6.9003
G01 X86.3860 Y6.9984
G01 X86.3303 Y7.0916
G01 X86.3241 Y7.1009
G01 X86.2627 Y7.1837
G01 X86.2557 Y7.1923
G01 X86.1826 Y7.2726
G01 X86.1087 Y7.3398
G01 X86.1087 Y49.3752
G01 X86.1826 Y49.4424
G01 X86.2557 Y49.5227
G01 X86.2627 Y49.5313
G01 X86.3241 Y49.6141
G01 X86.3303 Y49.6234
G01 X86.3860 Y49.7166
G01 X86.4326 Y49.8147
G01 X86.4368 Y49.8250
G01 X86.4733 Y49.9273
G01 X86.5010 Y50.0380
G01 X86.5178 Y50.1510
G01 X86.5234 Y50.2650
G01 X86.5178 Y50.3790
G01 X86.5010 Y50.4920
G01 X86.4733 Y50.6027
G01 X86.4348 Y50.7102
G01 X86.3860 Y50.8134
G01 X86.3273 Y50.9114
G01 X86.2593 Y51.0031
G01 X86.1826 Y51.0876
G01 X86.0981 Y51.1643
G01 X86.0064 Y51.2323
G01 X85.9084 Y51.2910
G01 X85.8052 Y51.3398
G01 X85.6977 Y51.3783
G01 X85.5870 Y51.4060
G01 X85.4740 Y51.4228
G01 X85.3628 Y51.4284
G01 X85.3544 Y51.4283
G01 X85.2460 Y51.4228
G01 X85.1330 Y51.4060
G01 X85.0223 Y51.3783
G01 X84.9148 Y51.3398
G01 X84.8116 Y51.2910
G01 X84.7136 Y51.2323
G01 X84.6219 Y51.1643
G01 X84.5374 Y51.0876
G01 X84.4607 Y51.0031
G01 X84.3927 Y50.9114
G01 X84.3340 Y50.8134
G01 X84.2852 Y50.7102
G01 X84.2467 Y50.6027
G01 X84.2190 Y50.4920
G01 X84.2022 Y50.3790
G01 X84.1966 Y50.2678
G01 X84.1967 Y50.2594
G01 X84.2022 Y50.1510
G01 X84.2190 Y50.0380
G01 X84.2467 Y49.9273
G01 X84.2832 Y49.8250
G01 X84.2874 Y49.8147
G01 X84.3340 Y49.7166
G01 X84.3897 Y49.6234
G01 X84.3959 Y49.6141
G01 X84.4573 Y49.5313
G01 X84.4643 Y49.5227
G01 X84.5374 Y49.4424
G01 X84.6113 Y49.3752
G01 X84.6113 Y7.3398
G01 X84.5374 Y7.2726
G01 X84.4643 Y7.1923
G01 X84.4573 Y7.1837
G01 X84.3959 Y7.1009
G01 X84.3897 Y7.0916
G01 X84.3340 Y6.9984
G01 X84.2874 Y6.9003
G01 X84.2832 Y6.8900
G01 X84.2467 Y6.7877
G01 X84.2190 Y6.6770
G01 X84.2022 Y6.5640
G01 X84.1966 Y6.4500
G01 X84.2022 Y6.3360
G01 X84.2190 Y6.2230
G01 X84.2467 Y6.1123
G01 X84.2832 Y6.0100
G01 X84.2874 Y5.9997
G01 X84.3340 Y5.9016
G01 X84.3897 Y5.8084
G01 X84.3959 Y5.7991
G01 X84.4573 Y5.7163
G01 X84.4643 Y5.7077
G01 X84.5374 Y5.6274
G01 X84.6113 Y5.5602
G01 X84.6113 Y4.2467
G01 X84.5610 Y4.2010
G01 X84.4884 Y4.1209
G01 X84.4831 Y4.1144
G01 X84.4221 Y4.0320
G01 X84.4175 Y4.0250
G01 X84.3635 Y3.9346
G01 X84.3172 Y3.8370
G01 X84.3141 Y3.8292
G01 X84.2787 Y3.7300
G01 X84.2518 Y3.6224
G01 X84.2355 Y3.5128
G01 X84.2301 Y3.4020
G00 Z3.0000
G00 X89.3101 Y3.4020
G01 F60.00
G01 Z-0.0500
G01 F90.00
G01 X89.3101 Y1.3700
G01 X89.3151 Y1.2648
G01 X89.3162 Y1.2537
G01 X89.3318 Y1.1496
G01 X89.3587 Y1.0420
G01 X89.3961 Y0.9376
G01 X89.4435 Y0.8374
G01 X89.5005 Y0.7423
G01 X89.5666 Y0.6532
G01 X89.6410 Y0.5710
G01 X89.7232 Y0.4966
G01 X89.8123 Y0.4305
G01 X89.9074 Y0.3735
G01 X90.0076 Y0.3261
G01 X90.1120 Y0.2887
G01 X90.2196 Y0.2618
G01 X90.3292 Y0.2455
G01 X90.4400 Y0.2401
G01 X90.5508 Y0.2455
G01 X90.6604 Y0.2618
G01 X90.7680 Y0.2887
G01 X90.8724 Y0.3261
G01 X90.9726 Y0.3735
G01 X91.0630 Y0.4275
G01 X91.0723 Y0.4337
G01 X91.1568 Y0.4966
G01 X91.2349 Y0.5672
G01 X91.2428 Y0.5751
G01 X91.3134 Y0.6532
G01 X91.3795 Y0.7423
G01 X91.4365 Y0.8374
G01 X91.4816 Y0.9325
G01 X91.4859 Y0.9428
G01 X91.5213 Y1.0420
G01 X91.5470 Y1.1441
G01 X91.5491 Y1.1550
G01 X91.5642 Y1.2565
G01 X91.5649 Y1.2648
G01 X91.5699 Y1.3700
G01 X91.5698 Y3.4076
G01 X91.5649 Y3.5072
G01 X91.5638 Y3.5183
G01 X91.5482 Y3.6224
G01 X91.5227 Y3.7246
G01 X91.5195 Y3.7353
G01 X91.4839 Y3.8344
G01 X91.4365 Y3.9346
G01 X91.3795 Y4.0297
G01 X91.3169 Y4.1144
G01 X91.3098 Y4.1230
G01 X91.2428 Y4.1969
G01 X91.2349 Y4.2048
G01 X91.1568 Y4.2754
G01 X91.0677 Y4.3415
G01 X90.9726 Y4.3985
G01 X90.8724 Y4.4459
G01 X90.7680 Y4.4833
G01 X90.6659 Y4.5090
G01 X90.6550 Y4.5111
G01 X90.5563 Y4.5258
G01 X90.5452 Y4.5269
G01 X90.4400 Y4.5319
G01 X90.3292 Y4.5265
G01 X90.2196 Y4.5102
G01 X90.1174 Y4.4847
G01 X90.1067 Y4.4815
G01 X90.0128 Y4.4479
G01 X90.0025 Y4.4436
G01 X89.9074 Y4.3985
G01 X89.8123 Y4.3415
G01 X89.7232 Y4.2754
G01 X89.6451 Y4.2048
G01 X89.6372 Y4.1969
G01 X89.5702 Y4.1230
G01 X89.5631 Y4.1144
G01 X89.5005 Y4.0297
G01 X89.4435 Y3.9346
G01 X89.3961 Y3.8344
G01 X89.3605 Y3.7353
G01 X89.3573 Y3.7246
G01 X89.3330 Y3.6279
G01 X89.3309 Y3.6170
G01 X89.3155 Y3.5128
G01 X89.3101 Y3.4020
G00 Z3.0000
G00 X89.0299 Y1.3700
G01 F60.00
G01 Z-0.0500
G01 F90.00
G01 X89.0299 Y3.4020
G01 X89.0249 Y3.5072
G01 X89.0238 Y3.5183
G01 X89.0082 Y3.6224
G01 X88.9813 Y3.7300
G01 X88.9439 Y3.8344
G01 X88.8965 Y3.9346
G01 X88.8395 Y4.0297
G01 X88.7734 Y4.1188
G01 X88.6990 Y4.2010
G01 X88.6168 Y4.2754
G01 X88.5277 Y4.3415
G01 X88.4326 Y4.3985
G01 X88.3324 Y4.4459
G01 X88.2280 Y4.4833
G01 X88.1204 Y4.5102
G01 X88.0108 Y4.5265
G01 X87.9000 Y4.5319
G01 X87.7892 Y4.5265
G01 X87.6796 Y4.5102
G01 X87.5720 Y4.4833
G01 X87.4676 Y4.4459
G01 X87.3674 Y4.3985
G01 X87.2770 Y4.3445
G01 X87.2677 Y4.3383
G01 X87.1832 Y4.2754
G01 X87.1051 Y4.2048
G01 X87.0972 Y4.1969
G01 X87.0266 Y4.1188
G01 X86.9605 Y4.0297
G01 X86.9035 Y3.9346
G01 X86.8584 Y3.8395
G01 X86.8541 Y3.8292
G01 X86.8187 Y3.7300
G01 X86.7930 Y3.6279
G01 X86.7909 Y3.6170
G01 X86.7758 Y3.5155
G01 X86.7751 Y3.5072
G01 X86.7701 Y3.4020
G01 X86.7702 Y1.3644
G01 X86.7751 Y1.2648
G01 X86.7762 Y1.2537
G01 X86.7918 Y1.1496
G01 X86.8173 Y1.0474
G01 X86.8205 Y1.0367
G01 X86.8561 Y0.9376
G01 X86.9035 Y0.8374
G01 X86.9605 Y0.7423
G01 X87.0231 Y0.6576
G01 X87.0302 Y0.6490
G01 X87.0972 Y0.5751
G01 X87.1051 Y0.5672
G01 X87.1832 Y0.4966
G01 X87.2723 Y0.4305
G01 X87.3674 Y0.3735
G01 X87.4676 Y0.3261
G01 X87.5720 Y0.2887
G01 X87.6741 Y0.2630
G01 X87.6850 Y0.2609
G01 X87.7837 Y0.2462
G01 X87.7948 Y0.2451
G01 X87.9000 Y0.2401
G01 X88.0108 Y0.2455
G01 X88.1204 Y0.2618
G01 X88.2226 Y0.2873
G01 X88.2333 Y0.2905
G01 X88.3272 Y0.3241
G01 X88.3375 Y0.3284
G01 X88.4326 Y0.3735
G01 X88.5277 Y0.4305
G01 X88.6168 Y0.4966
G01 X88.6949 Y0.5672
G01 X88.7028 Y0.5751
G01 X88.7698 Y0.6490
G01 X88.7769 Y0.6576
G01 X88.8395 Y0.7423
G01 X88.8965 Y0.8374
G01 X88.9439 Y0.9376
G01 X88.9795 Y1.0367
G01 X88.9827 Y1.0474
G01 X89.0070 Y1.1441
G01 X89.0091 Y1.1550
G01 X89.0245 Y1.2592
G01 X89.0299 Y1.3700
G00 Z3.0000
G00 X94.1099 Y1.3700
G01 F60.00
G01 Z-0.0500
G01 F90.00
G01 X94.1099 Y3.4020
G01 X94.1049 Y3.5072
G01 X94.1038 Y3.5183
G01 X94.0882 Y3.6224
G01 X94.0613 Y3.7300
G01 X94.0239 Y3.8344
G01 X93.9765 Y3.9346
G01 X93.9195 Y4.0297
G01 X93.8534 Y4.1188
G01 X93.7790 Y4.2010
G01 X93.6968 Y4.2754
G01 X93.6077 Y4.3415
G01 X93.5126 Y4.3985
G01 X93.4124 Y4.4459
G01 X93.3080 Y4.4833
G01 X93.2004 Y4.5102
G01 X93.0908 Y4.5265
G01 X92.9800 Y4.5319
G01 X92.8692 Y4.5265
G01 X92.7596 Y4.5102
G01 X92.6520 Y4.4833
G01 X92.5476 Y4.4459
G01 X92.4474 Y4.3985
G01 X92.3570 Y4.3445
G01 X92.3477 Y4.3383
G01 X92.2632 Y4.2754
G01 X92.1851 Y4.2048
G01 X92.1772 Y4.1969
G01 X92.1066 Y4.1188
G01 X92.0405 Y4.0297
G01 X91.9835 Y3.9346
G01 X91.9384 Y3.8395
G01 X91.9341 Y3.8292
G01 X91.8987 Y3.7300
G01 X91.8730 Y3.6279
G01 X91.8709 Y3.6170
G01 X91.8558 Y3.5155
G01 X91.8551 Y3.5072
G01 X91.8501 Y3.4020
G01 X91.8502 Y1.3644
G01 X91.8551 Y1.2648
G01 X91.8562 Y1.2537
G01 X91.8718 Y1.1496
G01 X91.8973 Y1.0474
G01 X91.9005 Y1.0367
G01 X91.9361 Y0.9376
G01 X91.9835 Y0.8374
G01 X92.0405 Y0.7423
G01 X92.1031 Y0.6576
G01 X92.1102 Y0.6490
G01 X92.1772 Y0.5751
G01 X92.1851 Y0.5672
G01 X92.2632 Y0.4966
G01 X92.3523 Y0.4305
G01 X92.4474 Y0.3735
G01 X92.5476 Y0.3261
G01 X92.6520 Y0.2887
G01 X92.7541 Y0.2630
G01 X92.7650 Y0.2609
G01 X92.8637 Y0.2462
G01 X92.8748 Y0.2451
G01 X92.9800 Y0.2401
G01 X93.0908 Y0.2455
G01 X93.2004 Y0.2618
G01 X93.3026 Y0.2873
G01 X93.3133 Y0.2905
G01 X93.4072 Y0.3241
G01 X93.4175 Y0.3284
G01 X93.5126 Y0.3735
G01 X93.6077 Y0.4305
G01 X93.6968 Y0.4966
G01 X93.7749 Y0.5672
G01 X93.7828 Y0.5751
G01 X93.8498 Y0.6490
G01 X93.8569 Y0.6576
G01 X93.9195 Y0.7423
G01 X93.9765 Y0.8374
G01 X94.0239 Y0.9376
G01 X94.0595 Y1.0367
G01 X94.0627 Y1.0474
G01 X94.0870 Y1.1441
G01 X94.0891 Y1.1550
G01 X94.1045 Y1.2592
G01 X94.1099 Y1.3700
G00 Z3.0000
G00 X94.3901 Y3.4020
G01 F60.00
G01 Z-0.0500
G01 F90.00
G01 X94.3901 Y1.3700
G01 X94.3951 Y1.2648
G01 X94.3962 Y1.2537
G01 X94.4118 Y1.1496
G01 X94.4387 Y1.0420
G01 X94.4761 Y0.9376
G01 X94.5235 Y0.8374
G01 X94.5805 Y0.7423
G01 X94.6466 Y0.6532
G01 X94.7210 Y0.5710
G01 X94.8032 Y0.4966
G01 X94.8923 Y0.4305
G01 X94.9874 Y0.3735
G01 X95.0876 Y0.3261
G01 X95.1920 Y0.2887
G01 X95.2996 Y0.2618
G01 X95.4092 Y0.2455
G01 X95.5200 Y0.2401
G01 X95.6308 Y0.2455
G01 X95.7404 Y0.2618
G01 X95.8480 Y0.2887
G01 X95.9524 Y0.3261
G01 X96.0526 Y0.3735
G01 X96.1430 Y0.4275
G01 X96.1523 Y0.4337
G01 X96.2368 Y0.4966
G01 X96.3149 Y0.5672
G01 X96.3228 Y0.5751
G01 X96.3934 Y0.6532
G01 X96.4595 Y0.7423
G01 X96.5165 Y0.8374
G01 X96.5616 Y0.9325
G01 X96.5659 Y0.9428
G01 X96.6013 Y1.0420
G01 X96.6270 Y1.1441
G01 X96.6291 Y1.1550
G01 X96.6442 Y1.2565
G01 X96.6449 Y1.2648
G01 X96.6499 Y1.3700
G01 X96.6498 Y3.4076
G01 X96.6449 Y3.5072
G01 X96.6438 Y3.5183
G01 X96.6282 Y3.6224
G01 X96.6027 Y3.7246
G01 X96.5995 Y3.7353
G01 X96.5639 Y3.8344
G01 X96.5165 Y3.9346
G01 X96.4595 Y4.0297
G01 X96.3969 Y4.1144
G01 X96.3898 Y4.1230
G01 X96.3228 Y4.1969
G01 X96.3149 Y4.2048
G01 X96.2368 Y4.2754
G01 X96.1477 Y4.3415
G01 X96.0526 Y4.3985
G01 X95.9524 Y4.4459
G01 X95.8480 Y4.4833
G01 X95.7459 Y4.5090
G01 X95.7350 Y4.5111
G01 X95.6363 Y4.5258
G01 X95.6252 Y4.5269
G01 X95.5200 Y4.5319
G01 X95.4092 Y4.5265
G01 X95.2996 Y4.5102
G01 X95.1974 Y4.4847
G01 X95.1867 Y4.4815
G01 X95.0928 Y4.4479
G01 X95.0825 Y4.4436
G01 X94.9874 Y4.3985
G01 X94.8923 Y4.3415
G01 X94.8032 Y4.2754
G01 X94.7251 Y4.2048
G01 X94.7172 Y4.1969
G01 X94.6502 Y4.1230
G01 X94.6431 Y4.1144
G01 X94.5805 Y4.0297
G01 X94.5235 Y3.9346
G01 X94.4761 Y3.8344
G01 X94.4405 Y3.7353
G01 X94.4373 Y3.7246
G01 X94.4130 Y3.6279
G01 X94.4109 Y3.6170
G01 X94.3955 Y3.5128
G01 X94.3901 Y3.4020
G00 Z3.0000
G00 X99.4701 Y3.4020
G01 F60.00
G01 Z-0.0500
G01 F90.00
G01 X99.4701 Y1.3700
G01 X99.4751 Y1.2648
G01 X99.4762 Y1.2537
G01 X99.4918 Y1.1496
G01 X99.5187 Y1.0420
G01 X99.5561 Y0.9376
G01 X99.6035 Y0.8374
G01 X99.6605 Y0.7423
G01 X99.7266 Y0.6532
G01 X99.8010 Y0.5710
G01 X99.8832 Y0.4966
G01 X99.9723 Y0.4305
G01 X100.0674 Y0.3735
G01 X100.1676 Y0.3261
G01 X100.2720 Y0.2887
G01 X100.3796 Y0.2618
G01 X100.4892 Y0.2455
G01 X100.6000 Y0.2401
G01 X100.7108 Y0.2455
G01 X100.8204 Y0.2618
G01 X100.9280 Y0.2887
G01 X101.0324 Y0.3261
G01 X101.1326 Y0.3735
G01 X101.2230 Y0.4275
G01 X101.2323 Y0.4337
G01 X101.3168 Y0.4966
G01 X101.3949 Y0.5672
G01 X101.4028 Y0.5751
G01 X101.4734 Y0.6532
G01 X101.5395 Y0.7423
G01 X101.5965 Y0.8374
G01 X101.6416 Y0.9325
G01 X101.6459 Y0.9428
G01 X101.6813 Y1.0420
G01 X101.7070 Y1.1441
G01 X101.7091 Y1.1550
G01 X101.7242 Y1.2565
G01 X101.7249 Y1.2648
G01 X101.7299 Y1.3700
G01 X101.7298 Y3.4076
G01 X101.7249 Y3.5072
G01 X101.7238 Y3.5183
G01 X101.7082 Y3.6224
G01 X101.6827 Y3.7246
G01 X101.6795 Y3.7353
G01 X101.6439 Y3.8344
G01 X101.5965 Y3.9346
G01 X101.5395 Y4.0297
G01 X101.4769 Y4.1144
G01 X101.4698 Y4.1230
G01 X101.4028 Y4.1969
G01 X101.3949 Y4.2048
G01 X101.3168 Y4.2754
G01 X101.2277 Y4.3415
G01 X101.1326 Y4.3985
G01 X101.0324 Y4.4459
G01 X100.9280 Y4.4833
G01 X100.8259 Y4.5090
G01 X100.8150 Y4.5111
G01 X100.7163 Y4.5258
G01 X100.7052 Y4.5269
G01 X100.6000 Y4.5319
G01 X100.4892 Y4.5265
G01 X100.3796 Y4.5102
G01 X100.2774 Y4.4847
G01 X100.2667 Y4.4815
G01 X100.1728 Y4.4479
G01 X100.1625 Y4.4436
G01 X100.0674 Y4.3985
G01 X99.9723 Y4.3415
G01 X99.8832 Y4.2754
G01 X99.8051 Y4.2048
G01 X99.7972 Y4.1969
G01 X99.7302 Y4.1230
G01 X99.7231 Y4.1144
G01 X99.6605 Y4.0297
G01 X99.6035 Y3.9346
G01 X99.5561 Y3.8344
G01 X99.5205 Y3.7353
G01 X99.5173 Y3.7246
G01 X99.4930 Y3.6279
G01 X99.4909 Y3.6170
G01 X99.4755 Y3.5128
G01 X99.4701 Y3.4020
G00 Z3.0000
G00 X99.1899 Y1.3700
G01 F60.00
G01 Z-0.0500
G01 F90.00
G01 X99.1899 Y3.4020
G01 X99.1849 Y3.5072
G01 X99.1838 Y3.5183
G01 X99.1682 Y3.6224
G01 X99.1413 Y3.7300
G01 X99.1039 Y3.8344
G01 X99.0565 Y3.9346
G01 X98.9995 Y4.0297
G01 X98.9334 Y4.1188
G01 X98.8590 Y4.2010
G01 X98.7768 Y4.2754
G01 X98.6877 Y4.3415
G01 X98.5926 Y4.3985
G01 X98.4924 Y4.4459
G01 X98.3880 Y4.4833
G01 X98.2804 Y4.5102
G01 X98.1708 Y4.5265
G01 X98.0600 Y4.5319
G01 X97.9492 Y4.5265
G01 X97.8396 Y4.5102
G01 X97.7320 Y4.4833
G01 X97.6276 Y4.4459
G01 X97.5274 Y4.3985
G01 X97.4370 Y4.3445
G01 X97.4277 Y4.3383
G01 X97.3432 Y4.2754
G01 X97.2651 Y4.2048
G01 X97.2572 Y4.1969
G01 X97.1866 Y4.1188
G01 X97.1205 Y4.0297
G01 X97.0635 Y3.9346
G01 X97.0184 Y3.8395
G01 X97.0141 Y3.8292
G01 X96.9787 Y3.7300
G01 X96.9530 Y3.6279
G01 X96.9509 Y3.6170
G01 X96.9358 Y3.5155
G01 X96.9351 Y3.5072
G01 X96.9301 Y3.4020
G01 X96.9302 Y1.3644
G01 X96.9351 Y1.2648
G01 X96.9362 Y1.2537
G01 X96.9518 Y1.1496
G01 X96.9773 Y1.0474
G01 X96.9805 Y1.0367
G01 X97.0161 Y0.9376
G01 X97.0635 Y0.8374
G01 X97.1205 Y0.7423
G01 X97.1831 Y0.6576
G01 X97.1902 Y0.6490
G01 X97.2572 Y0.5751
G01 X97.2651 Y0.5672
G01 X97.3432 Y0.4966
G01 X97.4323 Y0.4305
G01 X97.5274 Y0.3735
G01 X97.6276 Y0.3261
G01 X97.7320 Y0.2887
G01 X97.8341 Y0.2630
G01 X97.8450 Y0.2609
G01 X97.9437 Y0.2462
G01 X97.9548 Y0.2451
G01 X98.0600 Y0.2401
G01 X98.1708 Y0.2455
G01 X98.2804 Y0.2618
G01 X98.3826 Y0.2873
G01 X98.3933 Y0.2905
G01 X98.4872 Y0.3241
G01 X98.4975 Y0.3284
G01 X98.5926 Y0.3735
G01 X98.6877 Y0.4305
G01 X98.7768 Y0.4966
G01 X98.8549 Y0.5672
G01 X98.8628 Y0.5751
G01 X98.9298 Y0.6490
G01 X98.9369 Y0.6576
G01 X98.9995 Y0.7423
G01 X99.0565 Y0.8374
G01 X99.1039 Y0.9376
G01 X99.1395 Y1.0367
G01 X99.1427 Y1.0474
G01 X99.1670 Y1.1441
G01 X99.1691 Y1.1550
G01 X99.1845 Y1.2592
G01 X99.1899 Y1.3700
G00 Z3.0000
G00 X100.6998 Y7.1964
G01 F60.00
G01 Z-0.0500
G01 F90.00
G01 X107.0576 Y0.8386
G01 X107.1100 Y0.7912
G01 X107.1690 Y0.7475
G01 X107.2321 Y0.7097
G01 X107.2934 Y0.6805
G01 X107.3037 Y0.6763
G01 X107.3624 Y0.6553
G01 X107.3730 Y0.6520
G01 X107.4389 Y0.6357
G01 X107.5061 Y0.6256
G01 X107.5144 Y0.6246
G01 X107.5850 Y0.6213
G01 X135.5250 Y0.6213
G01 X135.5984 Y0.6249
G01 X135.6656 Y0.6347
G01 X135.6765 Y0.6369
G01 X135.7423 Y0.6535
G01 X135.8115 Y0.6783
G01 X135.8779 Y0.7097
G01 X135.9363 Y0.7445
G01 X135.9455 Y0.7507
G01 X135.9956 Y0.7878
G01 X136.0042 Y0.7949
G01 X136.0544 Y0.8406
G01 X136.1038 Y0.8950
G01 X136.1475 Y0.9540
G01 X136.1826 Y1.0122
G01 X136.1878 Y1.0220
G01 X136.2145 Y1.0784
G01 X136.2187 Y1.0887
G01 X136.2415 Y1.1527
G01 X136.2581 Y1.2185
G01 X136.2603 Y1.2294
G01 X136.2701 Y1.2966
G01 X136.2737 Y1.3700
G01 X136.2737 Y3.6965
G01 X136.3735 Y3.7963
G01 X137.2165 Y3.7963
G01 X137.5680 Y3.4450
G01 X137.5744 Y3.4396
G01 X137.5835 Y3.4332
G01 X137.5932 Y3.4277
G01 X137.6008 Y3.4242
G01 X137.6112 Y3.4205
G01 X137.6193 Y3.4184
G01 X137.6275 Y3.4168
G01 X137.6386 Y3.4157
G01 X138.4858 Y3.4156
G01 X138.4942 Y3.4159
G01 X138.5025 Y3.4168
G01 X138.5107 Y3.4184
G01 X138.5188 Y3.4205
G01 X138.5292 Y3.4242
G01 X138.5417 Y3.4303
G01 X138.5534 Y3.4379
G01 X138.5640 Y3.4469
G01 X138.9135 Y3.7963
G01 X139.7565 Y3.7963
G01 X140.1080 Y3.4450
G01 X140.1144 Y3.4396
G01 X140.1235 Y3.4332
G01 X140.1307 Y3.4290
G01 X140.1382 Y3.4253
G01 X140.1460 Y3.4222
G01 X140.1566 Y3.4190
G01 X140.1675 Y3.4168
G01 X140.1758 Y3.4159
G01 X140.1842 Y3.4156
G01 X141.0258 Y3.4156
G01 X141.0370 Y3.4161
G01 X141.0452 Y3.4173
G01 X141.0534 Y3.4190
G01 X141.0614 Y3.4213
G01 X141.0692 Y3.4242
G01 X141.0768 Y3.4277
G01 X141.0888 Y3.4347
G01 X141.0956 Y3.4396
G01 X141.1020 Y3.4450
G01 X141.4535 Y3.7963
G01 X142.2965 Y3.7963
G01 X142.6460 Y3.4469
G01 X142.6544 Y3.4396
G01 X142.6659 Y3.4317
G01 X142.6782 Y3.4253
G01 X142.6912 Y3.4205
G01 X142.6993 Y3.4184
G01 X142.7075 Y3.4168
G01 X142.7158 Y3.4159
G01 X142.7242 Y3.4156
G01 X143.5714 Y3.4157
G01 X143.5825 Y3.4168
G01 X143.5934 Y3.4190
G01 X143.6040 Y3.4222
G01 X143.6118 Y3.4253
G01 X143.6193 Y3.4290
G01 X143.6288 Y3.4347
G01 X143.6378 Y3.4413
G01 X143.6460 Y3.4488
G01 X144.2431 Y4.0460
G01 X144.2487 Y4.0522
G01 X144.2553 Y4.0612
G01 X144.2610 Y4.0707
G01 X144.2647 Y4.0782
G01 X144.2687 Y4.0886
G01 X144.2710 Y4.0966
G01 X144.2727 Y4.1048
G01 X144.2741 Y4.1158
G01 X144.2744 Y4.1242
G01 X144.2744 Y4.9658
G01 X144.2735 Y4.9797
G01 X144.2716 Y4.9907
G01 X144.2687 Y5.0014
G01 X144.2647 Y5.0118
G01 X144.2597 Y5.0217
G01 X144.2553 Y5.0288
G01 X144.2487 Y5.0378
G01 X144.2412 Y5.0460
G01 X143.6440 Y5.6431
G01 X143.6378 Y5.6487
G01 X143.6311 Y5.6537
G01 X143.6241 Y5.6583
G01 X143.6168 Y5.6623
G01 X143.6092 Y5.6658
G01 X143.6014 Y5.6687
G01 X143.5934 Y5.6710
G01 X143.5852 Y5.6727
G01 X143.5770 Y5.6739
G01 X143.5658 Y5.6744
G01 X142.7242 Y5.6744
G01 X142.7130 Y5.6739
G01 X142.7048 Y5.6727
G01 X142.6966 Y5.6710
G01 X142.6886 Y5.6687
G01 X142.6808 Y5.6658
G01 X142.6732 Y5.6623
G01 X142.6612 Y5.6553
G01 X142.6544 Y5.6504
G01 X142.6480 Y5.6450
G01 X142.2965 Y5.2937
G01 X141.4535 Y5.2937
G01 X141.1040 Y5.6431
G01 X141.0956 Y5.6504
G01 X141.0841 Y5.6583
G01 X141.0718 Y5.6647
G01 X141.0588 Y5.6695
G01 X141.0507 Y5.6716
G01 X141.0425 Y5.6732
G01 X141.0342 Y5.6741
G01 X141.0258 Y5.6744
G01 X140.1842 Y5.6744
G01 X140.1758 Y5.6741
G01 X140.1675 Y5.6732
G01 X140.1593 Y5.6716
G01 X140.1512 Y5.6695
G01 X140.1408 Y5.6658
G01 X140.1307 Y5.6610
G01 X140.1235 Y5.6568
G01 X140.1144 Y5.6504
G01 X140.1080 Y5.6450
G01 X139.7565 Y5.2937
G01 X138.9135 Y5.2937
G01 X138.5640 Y5.6431
G01 X138.5556 Y5.6504
G01 X138.5441 Y5.6583
G01 X138.5318 Y5.6647
G01 X138.5188 Y5.6695
G01 X138.5107 Y5.6716
G01 X138.5025 Y5.6732
G01 X138.4942 Y5.6741
G01 X138.4858 Y5.6744
G01 X137.6386 Y5.6743
G01 X137.6275 Y5.6732
G01 X137.6193 Y5.6716
G01 X137.6112 Y5.6695
G01 X137.6008 Y5.6658
G01 X137.5907 Y5.6610
G01 X137.5835 Y5.6568
G01 X137.5744 Y5.6504
G01 X137.5680 Y5.6450
G01 X137.2165 Y5.2937
G01 X136.3735 Y5.2937
G01 X136.0240 Y5.6431
G01 X136.0134 Y5.6521
G01 X136.0017 Y5.6597
G01 X135.9918 Y5.6647
G01 X135.9788 Y5.6695
G01 X135.9707 Y5.6716
G01 X135.9625 Y5.6732
G01 X135.9542 Y5.6741
G01 X135.9458 Y5.6744
G01 X135.0986 Y5.6743
G01 X135.0903 Y5.6735
G01 X135.0793 Y5.6716
G01 X135.0686 Y5.6687
G01 X135.0582 Y5.6647
G01 X135.0507 Y5.6610
G01 X135.0412 Y5.6553
G01 X135.0322 Y5.6487
G01 X135.0240 Y5.6412
G01 X134.4269 Y5.0440
G01 X134.4213 Y5.0378
G01 X134.4163 Y5.0311
G01 X134.4117 Y5.0241
G01 X134.4065 Y5.0143
G01 X134.4032 Y5.0067
G01 X134.3997 Y4.9961
G01 X134.3973 Y4.9852
G01 X134.3961 Y4.9770
G01 X134.3956 Y4.9658
G01 X134.3956 Y4.1242
G01 X134.3959 Y4.1158
G01 X134.3968 Y4.1075
G01 X134.3984 Y4.0993
G01 X134.4005 Y4.0912
G01 X134.4053 Y4.0782
G01 X134.4117 Y4.0659
G01 X134.4196 Y4.0544
G01 X134.4269 Y4.0460
G01 X134.7763 Y3.6965
G01 X134.7763 Y2.1187
G01 X107.8951 Y2.1187
G01 X101.7586 Y8.2552
G01 X101.7634 Y8.3550
G01 X101.7582 Y8.4635
G01 X101.7571 Y8.4746
G01 X101.7420 Y8.5765
G01 X101.7398 Y8.5874
G01 X101.7133 Y8.6927
G01 X101.6768 Y8.7950
G01 X101.6726 Y8.8053
G01 X101.6260 Y8.9034
G01 X101.5673 Y9.0014
G01 X101.4993 Y9.0931
G01 X101.4226 Y9.1776
G01 X101.3381 Y9.2543
G01 X101.2464 Y9.3223
G01 X101.1484 Y9.3810
G01 X101.0503 Y9.4276
G01 X101.0400 Y9.4318
G01 X100.9377 Y9.4683
G01 X100.8324 Y9.4948
G01 X100.8215 Y9.4970
G01 X100.7196 Y9.5121
G01 X100.7085 Y9.5132
G01 X100.6000 Y9.5184
G01 X100.4860 Y9.5128
G01 X100.3730 Y9.4960
G01 X100.2623 Y9.4683
G01 X100.1548 Y9.4298
G01 X100.0516 Y9.3810
G01 X99.9536 Y9.3223
G01 X99.8619 Y9.2543
G01 X99.7774 Y9.1776
G01 X99.7007 Y9.0931
G01 X99.6327 Y9.0014
G01 X99.5740 Y8.9034
G01 X99.5252 Y8.8002
G01 X99.4867 Y8.6927
G01 X99.4590 Y8.5820
G01 X99.4422 Y8.4690
G01 X99.4366 Y8.3550
G01 X99.4422 Y8.2410
G01 X99.4590 Y8.1280
G01 X99.4867 Y8.0173
G01 X99.5252 Y7.9098
G01 X99.5740 Y7.8066
G01 X99.6327 Y7.7086
G01 X99.7007 Y7.6169
G01 X99.7774 Y7.5324
G01 X99.8619 Y7.4557
G01 X99.9536 Y7.3877
G01 X100.0516 Y7.3290
G01 X100.1548 Y7.2802
G01 X100.2623 Y7.2417
G01 X100.3730 Y7.2140
G01 X100.4860 Y7.1972
G01 X100.6000 Y7.1916
G01 X100.6998 Y7.1964
G00 Z3.0000
G00 X104.2963 Y16.2298
G01 F60.00
G01 Z-0.0500
G01 F90.00
G01 X104.2224 Y16.1626
G01 X104.1457 Y16.0781
G01 X104.0777 Y15.9864
G01 X104.0190 Y15.8884
G01 X103.9702 Y15.7852
G01 X103.9317 Y15.6777
G01 X103.9040 Y15.5670
G01 X103.8872 Y15.4540
G01 X103.8816 Y15.3400
G01 X103.8872 Y15.2260
G01 X103.9040 Y15.1130
G01 X103.9317 Y15.0023
G01 X103.9702 Y14.8948
G01 X104.0190 Y14.7916
G01 X104.0777 Y14.6936
G01 X104.1457 Y14.6019
G01 X104.2224 Y14.5174
G01 X104.3069 Y14.4407
G01 X104.3986 Y14.3727
G01 X104.4966 Y14.3140
G01 X104.5998 Y14.2652
G01 X104.7073 Y14.2267
G01 X104.8180 Y14.1990
G01 X104.9310 Y14.1822
G01 X105.0450 Y14.1766
G01 X105.1590 Y14.1822
G01 X105.2720 Y14.1990
G01 X105.3827 Y14.2267
G01 X105.4902 Y14.2652
G01 X105.5934 Y14.3140
G01 X105.6914 Y14.3727
G01 X105.7831 Y14.4407
G01 X105.8676 Y14.5174
G01 X105.9443 Y14.6019
G01 X106.0123 Y14.6936
G01 X106.0683 Y14.7867
G01 X106.0735 Y14.7965
G01 X106.1176 Y14.8897
G01 X106.1218 Y14.9000
G01 X106.1583 Y15.0023
G01 X106.1848 Y15.1076
G01 X106.1870 Y15.1185
G01 X106.2028 Y15.2260
G01 X106.2084 Y15.3400
G01 X106.2028 Y15.4540
G01 X106.1860 Y15.5670
G01 X106.1583 Y15.6777
G01 X106.1218 Y15.7800
G01 X106.1176 Y15.7903
G01 X106.0710 Y15.8884
G01 X106.0153 Y15.9816
G01 X106.0091 Y15.9909
G01 X105.9477 Y16.0737
G01 X105.9407 Y16.0823
G01 X105.8676 Y16.1626
G01 X105.7937 Y16.2298
G01 X105.7937 Y23.4813
G01 X127.1563 Y23.4813
G01 X127.1563 Y20.7678
G01 X127.1101 Y20.7167
G01 X127.0500 Y20.6357
G01 X126.9982 Y20.5491
G01 X126.9561 Y20.4605
G01 X126.9530 Y20.4527
G01 X126.9228 Y20.3682
G01 X126.9195 Y20.3575
G01 X126.8965 Y20.2650
G01 X126.8817 Y20.1652
G01 X126.8767 Y20.0644
G01 X126.8767 Y18.2356
G01 X126.8817 Y18.1348
G01 X126.8960 Y18.0377
G01 X126.8977 Y18.0296
G01 X126.9210 Y17.9371
G01 X126.9550 Y17.8421
G01 X126.9982 Y17.7509
G01 X127.0471 Y17.6690
G01 X127.0532 Y17.6598
G01 X127.1101 Y17.5833
G01 X127.1741 Y17.5125
G01 X127.1819 Y17.5047
G01 X127.2527 Y17.4407
G01 X127.3292 Y17.3838
G01 X127.3384 Y17.3777
G01 X127.4154 Y17.3315
G01 X127.4253 Y17.3263
G01 X127.5115 Y17.2856
G01 X127.6065 Y17.2516
G01 X127.7044 Y17.2271
G01 X127.8042 Y17.2123
G01 X127.9050 Y17.2073
G01 X128.0058 Y17.2123
G01 X128.1056 Y17.2271
G01 X128.1981 Y17.2501
G01 X128.2061 Y17.2525
