(G-CODE GENERATED BY FLATCAM v8.994 - www.flatcam.org - Version Date: 2020/11/7)

(Name: copper_bottom.gbr_iso_combined_cnc)
(Type: G-code from Geometry)
(Units: MM)

(Created on sábado, 26 fevereiro 2022 at 12:58)

(This preprocessor is the default preprocessor used by FlatCAM.)
(It is made to work with MACH3 compatible motion controllers.)

(TOOL DIAMETER: 0.2161 mm)
(Feedrate_XY: 90.0 mm/min)
(Feedrate_Z: 60.0 mm/min)
(Feedrate rapids 1500.0 mm/min)

(Z_Cut: -0.03 mm)
(Z_Move: 3.0 mm)
(Z Start: None mm)
(Z End: 15.0 mm)
(X,Y End: None mm)
(Steps per circle: 64)
(Preprocessor Geometry: default)

(X range:    0.3820 ...  145.9206  mm)
(Y range:    0.2454 ...   88.2530  mm)

(Spindle Speed: 1000.0 RPM)
G21
G90
G94

G01 F90.00

M5
G00 Z15.0000
G00 X0.0000 Y0.0000
T1
M6    
(MSG, Change to Tool Dia = 0.2161)
M0
G00 Z15.0000

M03 S1000.0
G01 F90.00
G00 X2.6646 Y1.3700
G01 F60.00
G01 Z-0.0300
G01 F90.00
G01 X2.6646 Y3.4020
G01 X2.6595 Y3.5069
G01 X2.6585 Y3.5175
G01 X2.6430 Y3.6214
G01 X2.6161 Y3.7284
G01 X2.5790 Y3.8323
G01 X2.5318 Y3.9321
G01 X2.4750 Y4.0268
G01 X2.4093 Y4.1154
G01 X2.3352 Y4.1972
G01 X2.2534 Y4.2713
G01 X2.1648 Y4.3370
G01 X2.0701 Y4.3938
G01 X1.9703 Y4.4410
G01 X1.8664 Y4.4781
G01 X1.7594 Y4.5050
G01 X1.6502 Y4.5211
G01 X1.5400 Y4.5266
G01 X1.4298 Y4.5211
G01 X1.3206 Y4.5050
G01 X1.2136 Y4.4781
G01 X1.1097 Y4.4410
G01 X1.0099 Y4.3938
G01 X0.9197 Y4.3399
G01 X0.9109 Y4.3340
G01 X0.8266 Y4.2713
G01 X0.7487 Y4.2008
G01 X0.7412 Y4.1933
G01 X0.6707 Y4.1154
G01 X0.6050 Y4.0268
G01 X0.5482 Y3.9321
G01 X0.5032 Y3.8372
G01 X0.4991 Y3.8274
G01 X0.4639 Y3.7284
G01 X0.4382 Y3.6266
G01 X0.4361 Y3.6162
G01 X0.4211 Y3.5149
G01 X0.4205 Y3.5069
G01 X0.4154 Y3.4020
G01 X0.4156 Y1.3647
G01 X0.4205 Y1.2651
G01 X0.4215 Y1.2545
G01 X0.4370 Y1.1506
G01 X0.4625 Y1.0487
G01 X0.4655 Y1.0385
G01 X0.5010 Y0.9397
G01 X0.5482 Y0.8399
G01 X0.6050 Y0.7452
G01 X0.6707 Y0.6566
G01 X0.7448 Y0.5748
G01 X0.8226 Y0.5042
G01 X0.8308 Y0.4974
G01 X0.9109 Y0.4380
G01 X0.9197 Y0.4321
G01 X1.0099 Y0.3782
G01 X1.1097 Y0.3310
G01 X1.2136 Y0.2939
G01 X1.3154 Y0.2682
G01 X1.3258 Y0.2661
G01 X1.4245 Y0.2515
G01 X1.4351 Y0.2505
G01 X1.5400 Y0.2454
G01 X1.6502 Y0.2509
G01 X1.7594 Y0.2670
G01 X1.8613 Y0.2925
G01 X1.8715 Y0.2955
G01 X1.9654 Y0.3291
G01 X1.9752 Y0.3332
G01 X2.0701 Y0.3782
G01 X2.1648 Y0.4350
G01 X2.2534 Y0.5007
G01 X2.3313 Y0.5712
G01 X2.3388 Y0.5787
G01 X2.4058 Y0.6526
G01 X2.4126 Y0.6608
G01 X2.4750 Y0.7452
G01 X2.5318 Y0.8399
G01 X2.5790 Y0.9397
G01 X2.6145 Y1.0385
G01 X2.6175 Y1.0487
G01 X2.6418 Y1.1454
G01 X2.6439 Y1.1558
G01 X2.6591 Y1.2598
G01 X2.6646 Y1.3700
G00 Z3.0000
G00 X2.9554 Y3.4020
G01 F60.00
G01 Z-0.0300
G01 F90.00
G01 X2.9554 Y1.3700
G01 X2.9605 Y1.2651
G01 X2.9615 Y1.2545
G01 X2.9770 Y1.1506
G01 X3.0039 Y1.0436
G01 X3.0410 Y0.9397
G01 X3.0882 Y0.8399
G01 X3.1450 Y0.7452
G01 X3.2107 Y0.6566
G01 X3.2848 Y0.5748
G01 X3.3666 Y0.5007
G01 X3.4552 Y0.4350
G01 X3.5499 Y0.3782
G01 X3.6497 Y0.3310
G01 X3.7536 Y0.2939
G01 X3.8606 Y0.2670
G01 X3.9698 Y0.2509
G01 X4.0800 Y0.2454
G01 X4.1902 Y0.2509
G01 X4.2994 Y0.2670
G01 X4.4064 Y0.2939
G01 X4.5103 Y0.3310
G01 X4.6101 Y0.3782
G01 X4.7048 Y0.4350
G01 X4.7892 Y0.4974
G01 X4.7974 Y0.5042
G01 X4.8752 Y0.5748
G01 X4.9458 Y0.6526
G01 X4.9526 Y0.6608
G01 X5.0150 Y0.7452
G01 X5.0718 Y0.8399
G01 X5.1168 Y0.9348
G01 X5.1209 Y0.9446
G01 X5.1561 Y1.0436
G01 X5.1818 Y1.1454
G01 X5.1839 Y1.1558
G01 X5.1989 Y1.2571
G01 X5.1995 Y1.2651
G01 X5.2046 Y1.3700
G01 X5.2044 Y3.4073
G01 X5.1995 Y3.5069
G01 X5.1985 Y3.5175
G01 X5.1830 Y3.6214
G01 X5.1575 Y3.7233
G01 X5.1545 Y3.7335
G01 X5.1190 Y3.8323
G01 X5.0718 Y3.9321
G01 X5.0150 Y4.0268
G01 X4.9493 Y4.1154
G01 X4.8752 Y4.1972
G01 X4.7974 Y4.2678
G01 X4.7892 Y4.2746
G01 X4.7091 Y4.3340
G01 X4.7003 Y4.3399
G01 X4.6101 Y4.3938
G01 X4.5103 Y4.4410
G01 X4.4064 Y4.4781
G01 X4.3046 Y4.5038
G01 X4.2942 Y4.5059
G01 X4.1955 Y4.5205
G01 X4.1849 Y4.5215
G01 X4.0800 Y4.5266
G01 X3.9698 Y4.5211
G01 X3.8606 Y4.5050
G01 X3.7587 Y4.4795
G01 X3.7485 Y4.4765
G01 X3.6546 Y4.4429
G01 X3.6448 Y4.4388
G01 X3.5499 Y4.3938
G01 X3.4552 Y4.3370
G01 X3.3666 Y4.2713
G01 X3.2887 Y4.2008
G01 X3.2812 Y4.1933
G01 X3.2142 Y4.1194
G01 X3.2074 Y4.1112
G01 X3.1450 Y4.0268
G01 X3.0882 Y3.9321
G01 X3.0410 Y3.8323
G01 X3.0055 Y3.7335
G01 X3.0025 Y3.7233
G01 X2.9782 Y3.6266
G01 X2.9761 Y3.6162
G01 X2.9609 Y3.5122
G01 X2.9554 Y3.4020
G00 Z3.0000
G00 X0.7966 Y7.3375
G01 F60.00
G01 Z-0.0300
G01 F90.00
G01 X0.7211 Y7.2689
G01 X0.6448 Y7.1847
G01 X0.5771 Y7.0934
G01 X0.5187 Y6.9959
G01 X0.4701 Y6.8932
G01 X0.4318 Y6.7862
G01 X0.4042 Y6.6759
G01 X0.3875 Y6.5635
G01 X0.3820 Y6.4500
G01 X0.3875 Y6.3365
G01 X0.4042 Y6.2241
G01 X0.4318 Y6.1138
G01 X0.4701 Y6.0068
G01 X0.5187 Y5.9041
G01 X0.5771 Y5.8066
G01 X0.6448 Y5.7153
G01 X0.7211 Y5.6311
G01 X0.8053 Y5.5548
G01 X0.8966 Y5.4871
G01 X0.9941 Y5.4287
G01 X1.0968 Y5.3801
G01 X1.2038 Y5.3418
G01 X1.3141 Y5.3142
G01 X1.4265 Y5.2975
G01 X1.5400 Y5.2920
G01 X1.6535 Y5.2975
G01 X1.7659 Y5.3142
G01 X1.8762 Y5.3418
G01 X1.9832 Y5.3801
G01 X2.0859 Y5.4287
G01 X2.1834 Y5.4871
G01 X2.2747 Y5.5548
G01 X2.3589 Y5.6311
G01 X2.4352 Y5.7153
G01 X2.5029 Y5.8066
G01 X2.5587 Y5.8995
G01 X2.5637 Y5.9088
G01 X2.6077 Y6.0020
G01 X2.6118 Y6.0118
G01 X2.6482 Y6.1138
G01 X2.6746 Y6.2189
G01 X2.6767 Y6.2293
G01 X2.6925 Y6.3365
G01 X2.6980 Y6.4500
G01 X2.6925 Y6.5635
G01 X2.6758 Y6.6759
G01 X2.6482 Y6.7862
G01 X2.6118 Y6.8882
G01 X2.6077 Y6.8980
G01 X2.5613 Y6.9959
G01 X2.5057 Y7.0889
G01 X2.4998 Y7.0977
G01 X2.4384 Y7.1805
G01 X2.4317 Y7.1887
G01 X2.3589 Y7.2689
G01 X2.2834 Y7.3375
G01 X2.2834 Y52.0616
G01 X35.4842 Y52.0616
G01 X35.5367 Y52.0143
G01 X35.6173 Y51.9545
G01 X35.7034 Y51.9029
G01 X35.7917 Y51.8610
G01 X35.7991 Y51.8580
G01 X35.8836 Y51.8278
G01 X35.8938 Y51.8247
G01 X35.9860 Y51.8017
G01 X36.0853 Y51.7870
G01 X36.1856 Y51.7821
G01 X38.0197 Y51.7822
G01 X38.1147 Y51.7870
G01 X38.2087 Y51.8008
G01 X38.2191 Y51.8029
G01 X38.3113 Y51.8261
G01 X38.4058 Y51.8600
G01 X38.4919 Y51.9005
G01 X38.5012 Y51.9055
G01 X38.5782 Y51.9516
G01 X38.5870 Y51.9575
G01 X38.6633 Y52.0143
G01 X38.7339 Y52.0780
G01 X38.7414 Y52.0855
G01 X38.8017 Y52.1521
G01 X38.8084 Y52.1603
G01 X38.8649 Y52.2367
G01 X38.9165 Y52.3228
G01 X38.9594 Y52.4136
G01 X38.9916 Y52.5030
G01 X38.9947 Y52.5132
G01 X39.0165 Y52.6003
G01 X39.0186 Y52.6107
G01 X39.0324 Y52.7047
G01 X39.0373 Y52.8050
G01 X39.0324 Y52.9053
G01 X39.0186 Y52.9993
G01 X39.0165 Y53.0097
G01 X38.9933 Y53.1019
G01 X38.9614 Y53.1915
G01 X38.9573 Y53.2013
G01 X38.9165 Y53.2872
G01 X38.8649 Y53.3733
G01 X38.8051 Y53.4539
G01 X38.7414 Y53.5245
G01 X38.7339 Y53.5320
G01 X38.6633 Y53.5957
G01 X38.5827 Y53.6555
G01 X38.5012 Y53.7045
G01 X38.4919 Y53.7095
G01 X38.4058 Y53.7500
G01 X38.3164 Y53.7822
G01 X38.3062 Y53.7853
G01 X38.2140 Y53.8083
G01 X38.1147 Y53.8230
G01 X38.0144 Y53.8279
G01 X36.1856 Y53.8279
G01 X36.0853 Y53.8230
G01 X35.9860 Y53.8083
G01 X35.8887 Y53.7839
G01 X35.7966 Y53.7510
G01 X35.7893 Y53.7479
G01 X35.7034 Y53.7071
G01 X35.6195 Y53.6570
G01 X35.6130 Y53.6525
G01 X35.5367 Y53.5957
G01 X35.4842 Y53.5484
G01 X1.5400 Y53.5484
G01 X1.4671 Y53.5448
G01 X1.3950 Y53.5341
G01 X1.3242 Y53.5164
G01 X1.2605 Y53.4937
G01 X1.2507 Y53.4896
G01 X1.1943 Y53.4630
G01 X1.1850 Y53.4580
G01 X1.1270 Y53.4231
G01 X1.0726 Y53.3829
G01 X1.0644 Y53.3762
G01 X1.0144 Y53.3306
G01 X0.9654 Y53.2766
G01 X0.9219 Y53.2180
G01 X0.8844 Y53.1554
G01 X0.8532 Y53.0895
G01 X0.8303 Y53.0258
G01 X0.8279 Y53.0182
G01 X0.8253 Y53.0081
G01 X0.8121 Y52.9552
G01 X0.8100 Y52.9448
G01 X0.8002 Y52.8779
G01 X0.7966 Y52.8050
G01 X0.7966 Y7.3375
G00 Z3.0000
G00 X4.6066 Y11.1475
G01 F60.00
G01 Z-0.0300
G01 F90.00
G01 X4.5311 Y11.0789
G01 X4.4548 Y10.9947
G01 X4.3871 Y10.9034
G01 X4.3287 Y10.8059
G01 X4.2801 Y10.7032
G01 X4.2418 Y10.5962
G01 X4.2142 Y10.4859
G01 X4.1975 Y10.3735
G01 X4.1920 Y10.2600
G01 X4.1975 Y10.1465
G01 X4.2142 Y10.0341
G01 X4.2418 Y9.9238
G01 X4.2801 Y9.8168
G01 X4.3287 Y9.7141
G01 X4.3871 Y9.6166
G01 X4.4548 Y9.5253
G01 X4.5311 Y9.4411
G01 X4.6153 Y9.3648
G01 X4.7066 Y9.2971
G01 X4.8041 Y9.2387
G01 X4.9068 Y9.1901
G01 X5.0138 Y9.1518
G01 X5.1241 Y9.1242
G01 X5.2365 Y9.1075
G01 X5.3500 Y9.1020
G01 X5.4635 Y9.1075
G01 X5.5759 Y9.1242
G01 X5.6862 Y9.1518
G01 X5.7932 Y9.1901
G01 X5.8959 Y9.2387
G01 X5.9934 Y9.2971
G01 X6.0847 Y9.3648
G01 X6.1689 Y9.4411
G01 X6.2452 Y9.5253
G01 X6.3129 Y9.6166
G01 X6.3687 Y9.7095
G01 X6.3737 Y9.7188
G01 X6.4177 Y9.8120
G01 X6.4218 Y9.8218
G01 X6.4582 Y9.9238
G01 X6.4846 Y10.0289
G01 X6.4867 Y10.0393
G01 X6.5025 Y10.1465
G01 X6.5080 Y10.2600
G01 X6.5025 Y10.3735
G01 X6.4858 Y10.4859
G01 X6.4582 Y10.5962
G01 X6.4218 Y10.6982
G01 X6.4177 Y10.7080
G01 X6.3713 Y10.8059
G01 X6.3157 Y10.8989
G01 X6.3098 Y10.9077
G01 X6.2484 Y10.9905
G01 X6.2417 Y10.9987
G01 X6.1689 Y11.0789
G01 X6.0934 Y11.1475
G01 X6.0934 Y49.5216
G01 X35.4842 Y49.5216
G01 X35.5367 Y49.4743
G01 X35.6173 Y49.4145
G01 X35.7034 Y49.3629
G01 X35.7917 Y49.3210
G01 X35.7991 Y49.3180
G01 X35.8836 Y49.2878
G01 X35.8938 Y49.2847
G01 X35.9860 Y49.2617
G01 X36.0853 Y49.2470
G01 X36.1856 Y49.2421
G01 X38.0197 Y49.2422
G01 X38.1147 Y49.2470
G01 X38.2087 Y49.2608
G01 X38.2191 Y49.2629
G01 X38.3113 Y49.2861
G01 X38.4058 Y49.3200
G01 X38.4919 Y49.3605
G01 X38.5012 Y49.3655
G01 X38.5782 Y49.4116
G01 X38.5870 Y49.4175
G01 X38.6633 Y49.4743
G01 X38.7339 Y49.5380
G01 X38.7414 Y49.5455
G01 X38.8017 Y49.6121
G01 X38.8084 Y49.6203
G01 X38.8649 Y49.6967
G01 X38.9165 Y49.7828
G01 X38.9594 Y49.8736
G01 X38.9916 Y49.9630
G01 X38.9947 Y49.9732
G01 X39.0165 Y50.0603
G01 X39.0186 Y50.0707
G01 X39.0324 Y50.1647
G01 X39.0373 Y50.2650
G01 X39.0324 Y50.3653
G01 X39.0186 Y50.4593
G01 X39.0165 Y50.4697
G01 X38.9933 Y50.5619
G01 X38.9614 Y50.6515
G01 X38.9573 Y50.6613
G01 X38.9165 Y50.7472
G01 X38.8649 Y50.8333
G01 X38.8084 Y50.9097
G01 X38.8017 Y50.9179
G01 X38.7377 Y50.9883
G01 X38.6654 Y51.0540
G01 X38.6591 Y51.0590
G01 X38.5870 Y51.1125
G01 X38.5782 Y51.1184
G01 X38.4966 Y51.1671
G01 X38.4058 Y51.2100
G01 X38.3164 Y51.2422
G01 X38.3062 Y51.2453
G01 X38.2140 Y51.2683
G01 X38.1147 Y51.2830
G01 X38.0144 Y51.2879
G01 X36.1856 Y51.2879
G01 X36.0853 Y51.2830
G01 X35.9860 Y51.2683
G01 X35.8887 Y51.2439
G01 X35.7966 Y51.2110
G01 X35.7893 Y51.2079
G01 X35.7034 Y51.1671
G01 X35.6195 Y51.1170
G01 X35.6130 Y51.1125
G01 X35.5367 Y51.0557
G01 X35.4842 Y51.0084
G01 X5.3500 Y51.0084
G01 X5.2771 Y51.0048
G01 X5.2050 Y50.9941
G01 X5.1342 Y50.9764
G01 X5.0705 Y50.9537
G01 X5.0607 Y50.9496
G01 X5.0043 Y50.9230
G01 X4.9950 Y50.9180
G01 X4.9370 Y50.8831
G01 X4.8826 Y50.8429
G01 X4.8744 Y50.8362
G01 X4.8244 Y50.7906
G01 X4.7771 Y50.7386
G01 X4.7721 Y50.7324
G01 X4.7319 Y50.6780
G01 X4.6970 Y50.6200
G01 X4.6920 Y50.6107
G01 X4.6654 Y50.5543
G01 X4.6613 Y50.5445
G01 X4.6386 Y50.4808
G01 X4.6209 Y50.4100
G01 X4.6102 Y50.3379
G01 X4.6066 Y50.2650
G01 X4.6066 Y11.1475
G00 Z3.0000
G00 X7.7816 Y15.5925
G01 F60.00
G01 Z-0.0300
G01 F90.00
G01 X7.7061 Y15.5239
G01 X7.6298 Y15.4397
G01 X7.5621 Y15.3484
G01 X7.5037 Y15.2509
G01 X7.4551 Y15.1482
G01 X7.4168 Y15.0412
G01 X7.3892 Y14.9309
G01 X7.3725 Y14.8185
G01 X7.3670 Y14.7050
G01 X7.3725 Y14.5915
G01 X7.3892 Y14.4791
G01 X7.4168 Y14.3688
G01 X7.4551 Y14.2618
G01 X7.5037 Y14.1591
G01 X7.5621 Y14.0616
G01 X7.6298 Y13.9703
G01 X7.7061 Y13.8861
G01 X7.7903 Y13.8098
G01 X7.8816 Y13.7421
G01 X7.9791 Y13.6837
G01 X8.0818 Y13.6351
G01 X8.1888 Y13.5968
G01 X8.2991 Y13.5692
G01 X8.4115 Y13.5525
G01 X8.5250 Y13.5470
G01 X8.6385 Y13.5525
G01 X8.7509 Y13.5692
G01 X8.8612 Y13.5968
G01 X8.9682 Y13.6351
G01 X9.0709 Y13.6837
G01 X9.1684 Y13.7421
G01 X9.2597 Y13.8098
G01 X9.3439 Y13.8861
G01 X9.4202 Y13.9703
G01 X9.4879 Y14.0616
G01 X9.5437 Y14.1545
G01 X9.5487 Y14.1638
G01 X9.5927 Y14.2570
G01 X9.5968 Y14.2668
G01 X9.6332 Y14.3688
G01 X9.6596 Y14.4739
G01 X9.6617 Y14.4843
G01 X9.6775 Y14.5915
G01 X9.6830 Y14.7050
G01 X9.6775 Y14.8185
G01 X9.6608 Y14.9309
G01 X9.6332 Y15.0412
G01 X9.5968 Y15.1432
G01 X9.5927 Y15.1530
G01 X9.5463 Y15.2509
G01 X9.4907 Y15.3439
G01 X9.4848 Y15.3527
G01 X9.4234 Y15.4355
G01 X9.4167 Y15.4437
G01 X9.3439 Y15.5239
G01 X9.2684 Y15.5925
G01 X9.2684 Y41.9016
G01 X35.4842 Y41.9016
G01 X35.5367 Y41.8543
G01 X35.6173 Y41.7945
G01 X35.7034 Y41.7429
G01 X35.7917 Y41.7010
G01 X35.7991 Y41.6980
G01 X35.8836 Y41.6678
G01 X35.8938 Y41.6647
G01 X35.9860 Y41.6417
G01 X36.0853 Y41.6270
G01 X36.1856 Y41.6221
G01 X38.0197 Y41.6222
G01 X38.1147 Y41.6270
G01 X38.2087 Y41.6408
G01 X38.2191 Y41.6429
G01 X38.3113 Y41.6661
G01 X38.4009 Y41.6980
G01 X38.4107 Y41.7021
G01 X38.4966 Y41.7429
G01 X38.5827 Y41.7945
G01 X38.6633 Y41.8543
G01 X38.7339 Y41.9180
G01 X38.7414 Y41.9255
G01 X38.8051 Y41.9961
G01 X38.8619 Y42.0724
G01 X38.8678 Y42.0812
G01 X38.9165 Y42.1628
G01 X38.9573 Y42.2487
G01 X38.9614 Y42.2585
G01 X38.9916 Y42.3430
G01 X38.9947 Y42.3532
G01 X39.0177 Y42.4454
G01 X39.0317 Y42.5395
G01 X39.0328 Y42.5500
G01 X39.0373 Y42.6450
G01 X39.0328 Y42.7400
G01 X39.0317 Y42.7505
G01 X39.0177 Y42.8446
G01 X38.9947 Y42.9368
G01 X38.9916 Y42.9470
G01 X38.9594 Y43.0364
G01 X38.9165 Y43.1272
G01 X38.8678 Y43.2088
G01 X38.8619 Y43.2176
G01 X38.8084 Y43.2897
G01 X38.8017 Y43.2979
G01 X38.7377 Y43.3683
G01 X38.6633 Y43.4357
G01 X38.5827 Y43.4955
G01 X38.4966 Y43.5471
G01 X38.4058 Y43.5900
G01 X38.3113 Y43.6239
G01 X38.2140 Y43.6483
G01 X38.1199 Y43.6623
G01 X38.1094 Y43.6634
G01 X38.0144 Y43.6679
G01 X36.1856 Y43.6679
G01 X36.0853 Y43.6630
G01 X35.9860 Y43.6483
G01 X35.8887 Y43.6239
G01 X35.7966 Y43.5910
G01 X35.7893 Y43.5879
G01 X35.7034 Y43.5471
G01 X35.6195 Y43.4970
G01 X35.6130 Y43.4925
G01 X35.5367 Y43.4357
G01 X35.4842 Y43.3884
G01 X8.5250 Y43.3884
G01 X8.4521 Y43.3848
G01 X8.3800 Y43.3741
G01 X8.3092 Y43.3564
G01 X8.2455 Y43.3337
G01 X8.2357 Y43.3296
G01 X8.1746 Y43.3006
G01 X8.1165 Y43.2659
G01 X8.1077 Y43.2600
G01 X8.0576 Y43.2229
G01 X8.0494 Y43.2162
G01 X8.0032 Y43.1743
G01 X7.9975 Y43.1687
G01 X7.9521 Y43.1186
G01 X7.9346 Y43.0955
G01 X7.9069 Y43.0580
G01 X7.8720 Y43.0000
G01 X7.8670 Y42.9907
G01 X7.8404 Y42.9343
G01 X7.8363 Y42.9245
G01 X7.8136 Y42.8608
G01 X7.7959 Y42.7900
G01 X7.7852 Y42.7179
G01 X7.7816 Y42.6450
G01 X7.7816 Y15.5925
G00 Z3.0000
G00 X10.9566 Y18.7675
G01 F60.00
G01 Z-0.0300
G01 F90.00
G01 X10.8811 Y18.6989
G01 X10.8048 Y18.6147
G01 X10.7371 Y18.5234
G01 X10.6787 Y18.4259
G01 X10.6301 Y18.3232
G01 X10.5918 Y18.2162
G01 X10.5642 Y18.1059
G01 X10.5475 Y17.9935
G01 X10.5420 Y17.8800
G01 X10.5475 Y17.7665
G01 X10.5642 Y17.6541
G01 X10.5918 Y17.5438
G01 X10.6301 Y17.4368
G01 X10.6787 Y17.3341
G01 X10.7371 Y17.2366
G01 X10.8048 Y17.1453
G01 X10.8811 Y17.0611
G01 X10.9653 Y16.9848
G01 X11.0566 Y16.9171
G01 X11.1541 Y16.8587
G01 X11.2568 Y16.8101
G01 X11.3638 Y16.7718
G01 X11.4741 Y16.7442
G01 X11.5865 Y16.7275
G01 X11.7000 Y16.7220
G01 X11.8135 Y16.7275
G01 X11.9259 Y16.7442
G01 X12.0362 Y16.7718
G01 X12.1432 Y16.8101
G01 X12.2459 Y16.8587
G01 X12.3434 Y16.9171
G01 X12.4347 Y16.9848
G01 X12.5189 Y17.0611
G01 X12.5952 Y17.1453
G01 X12.6629 Y17.2366
G01 X12.7187 Y17.3295
G01 X12.7237 Y17.3388
G01 X12.7677 Y17.4320
G01 X12.7718 Y17.4418
G01 X12.8082 Y17.5438
G01 X12.8346 Y17.6489
G01 X12.8367 Y17.6593
G01 X12.8525 Y17.7665
G01 X12.8580 Y17.8800
G01 X12.8525 Y17.9935
G01 X12.8358 Y18.1059
G01 X12.8082 Y18.2162
G01 X12.7718 Y18.3182
G01 X12.7677 Y18.3280
G01 X12.7213 Y18.4259
G01 X12.6657 Y18.5189
G01 X12.6598 Y18.5277
G01 X12.5984 Y18.6105
G01 X12.5917 Y18.6187
G01 X12.5189 Y18.6989
G01 X12.4434 Y18.7675
G01 X12.4434 Y39.3616
G01 X35.4842 Y39.3616
G01 X35.5367 Y39.3143
G01 X35.6173 Y39.2545
G01 X35.7034 Y39.2029
G01 X35.7917 Y39.1610
G01 X35.7991 Y39.1580
G01 X35.8836 Y39.1278
G01 X35.8938 Y39.1247
G01 X35.9860 Y39.1017
G01 X36.0853 Y39.0870
G01 X36.1856 Y39.0821
G01 X38.0144 Y39.0821
G01 X38.1094 Y39.0866
G01 X38.1199 Y39.0877
G01 X38.2087 Y39.1008
G01 X38.2191 Y39.1029
G01 X38.3113 Y39.1261
G01 X38.4009 Y39.1580
G01 X38.4107 Y39.1621
G01 X38.4966 Y39.2029
G01 X38.5782 Y39.2516
G01 X38.5870 Y39.2575
G01 X38.6633 Y39.3143
G01 X38.7339 Y39.3780
G01 X38.7414 Y39.3855
G01 X38.8051 Y39.4561
G01 X38.8649 Y39.5367
G01 X38.9139 Y39.6182
G01 X38.9189 Y39.6275
G01 X38.9594 Y39.7136
G01 X38.9916 Y39.8030
G01 X38.9947 Y39.8132
G01 X39.0177 Y39.9054
G01 X39.0317 Y39.9995
G01 X39.0328 Y40.0100
G01 X39.0373 Y40.1050
G01 X39.0328 Y40.2000
G01 X39.0317 Y40.2105
G01 X39.0177 Y40.3046
G01 X38.9947 Y40.3968
G01 X38.9916 Y40.4070
G01 X38.9594 Y40.4964
G01 X38.9189 Y40.5825
G01 X38.9139 Y40.5918
G01 X38.8649 Y40.6733
G01 X38.8068 Y40.7519
G01 X38.8017 Y40.7579
G01 X38.7377 Y40.8283
G01 X38.6633 Y40.8957
G01 X38.5827 Y40.9555
G01 X38.4966 Y41.0071
G01 X38.4058 Y41.0500
G01 X38.3113 Y41.0839
G01 X38.2140 Y41.1083
G01 X38.1199 Y41.1223
G01 X38.1094 Y41.1234
G01 X38.0144 Y41.1279
G01 X36.1856 Y41.1279
G01 X36.0853 Y41.1230
G01 X35.9860 Y41.1083
G01 X35.8887 Y41.0839
G01 X35.7966 Y41.0510
G01 X35.7893 Y41.0479
G01 X35.7034 Y41.0071
G01 X35.6195 Y40.9570
G01 X35.6130 Y40.9525
G01 X35.5367 Y40.8957
G01 X35.4842 Y40.8484
G01 X11.7000 Y40.8484
G01 X11.6271 Y40.8448
G01 X11.5602 Y40.8350
G01 X11.5498 Y40.8329
G01 X11.4931 Y40.8187
G01 X11.4792 Y40.8147
G01 X11.4155 Y40.7918
G01 X11.3496 Y40.7606
G01 X11.2870 Y40.7231
G01 X11.2305 Y40.6813
G01 X11.2244 Y40.6762
G01 X11.1744 Y40.6306
G01 X11.1254 Y40.5766
G01 X11.0819 Y40.5180
G01 X11.0470 Y40.4600
G01 X11.0420 Y40.4507
G01 X11.0132 Y40.3895
G01 X10.9903 Y40.3258
G01 X10.9872 Y40.3157
G01 X10.9721 Y40.2552
G01 X10.9700 Y40.2448
G01 X10.9602 Y40.1779
G01 X10.9567 Y40.1077
G01 X10.9566 Y18.7675
G00 Z3.0000
G00 X17.9416 Y9.2425
G01 F60.00
G01 Z-0.0300
G01 F90.00
G01 X17.8661 Y9.1739
G01 X17.7898 Y9.0897
G01 X17.7221 Y8.9984
G01 X17.6637 Y8.9009
G01 X17.6151 Y8.7982
G01 X17.5768 Y8.6912
G01 X17.5492 Y8.5809
G01 X17.5325 Y8.4685
G01 X17.5270 Y8.3550
G01 X17.5325 Y8.2415
G01 X17.5492 Y8.1291
G01 X17.5768 Y8.0188
G01 X17.6151 Y7.9118
G01 X17.6637 Y7.8091
G01 X17.7221 Y7.7116
G01 X17.7898 Y7.6203
G01 X17.8661 Y7.5361
G01 X17.9503 Y7.4598
G01 X18.0416 Y7.3921
G01 X18.1391 Y7.3337
G01 X18.2418 Y7.2851
G01 X18.3488 Y7.2468
G01 X18.4591 Y7.2192
G01 X18.5715 Y7.2025
G01 X18.6850 Y7.1970
G01 X18.7985 Y7.2025
G01 X18.9109 Y7.2192
G01 X19.0212 Y7.2468
G01 X19.1282 Y7.2851
G01 X19.2309 Y7.3337
G01 X19.3284 Y7.3921
G01 X19.4197 Y7.4598
G01 X19.5039 Y7.5361
G01 X19.5802 Y7.6203
G01 X19.6479 Y7.7116
G01 X19.7037 Y7.8045
G01 X19.7087 Y7.8138
G01 X19.7527 Y7.9070
G01 X19.7568 Y7.9168
G01 X19.7932 Y8.0188
G01 X19.8196 Y8.1239
G01 X19.8217 Y8.1343
G01 X19.8375 Y8.2415
G01 X19.8430 Y8.3550
G01 X19.8375 Y8.4685
G01 X19.8208 Y8.5809
G01 X19.7932 Y8.6912
G01 X19.7568 Y8.7932
G01 X19.7527 Y8.8030
G01 X19.7063 Y8.9009
G01 X19.6507 Y8.9939
G01 X19.6448 Y9.0027
G01 X19.5834 Y9.0855
G01 X19.5767 Y9.0937
G01 X19.5039 Y9.1739
G01 X19.4284 Y9.2425
G01 X19.4284 Y34.2816
G01 X35.4842 Y34.2816
G01 X35.5367 Y34.2343
G01 X35.6173 Y34.1745
G01 X35.7034 Y34.1229
G01 X35.7917 Y34.0810
G01 X35.7991 Y34.0780
G01 X35.8836 Y34.0478
G01 X35.8938 Y34.0447
G01 X35.9860 Y34.0217
G01 X36.0853 Y34.0070
G01 X36.1856 Y34.0021
G01 X38.0144 Y34.0021
G01 X38.1120 Y34.0068
G01 X38.1199 Y34.0077
G01 X38.2087 Y34.0208
G01 X38.2191 Y34.0229
G01 X38.3113 Y34.0461
G01 X38.4058 Y34.0800
G01 X38.4919 Y34.1205
G01 X38.5012 Y34.1255
G01 X38.5827 Y34.1745
G01 X38.6633 Y34.2343
G01 X38.7377 Y34.3017
G01 X38.8017 Y34.3721
G01 X38.8084 Y34.3803
G01 X38.8649 Y34.4567
G01 X38.9165 Y34.5428
G01 X38.9573 Y34.6287
G01 X38.9614 Y34.6385
G01 X38.9933 Y34.7281
G01 X39.0177 Y34.8254
G01 X39.0317 Y34.9195
G01 X39.0328 Y34.9300
G01 X39.0373 Y35.0250
G01 X39.0324 Y35.1253
G01 X39.0186 Y35.2193
G01 X39.0165 Y35.2297
G01 X38.9933 Y35.3219
G01 X38.9614 Y35.4115
G01 X38.9573 Y35.4213
G01 X38.9165 Y35.5072
G01 X38.8649 Y35.5933
G01 X38.8051 Y35.6739
G01 X38.7414 Y35.7445
G01 X38.7339 Y35.7520
G01 X38.6673 Y35.8123
G01 X38.6613 Y35.8174
G01 X38.5827 Y35.8755
G01 X38.5012 Y35.9245
G01 X38.4919 Y35.9295
G01 X38.4058 Y35.9700
G01 X38.3164 Y36.0022
G01 X38.3062 Y36.0053
G01 X38.2140 Y36.0283
G01 X38.1147 Y36.0430
G01 X38.0144 Y36.0479
G01 X36.1829 Y36.0479
G01 X36.0853 Y36.0430
G01 X35.9860 Y36.0283
G01 X35.8887 Y36.0039
G01 X35.7942 Y35.9700
G01 X35.7034 Y35.9271
G01 X35.6173 Y35.8755
G01 X35.5367 Y35.8157
G01 X35.4842 Y35.7684
G01 X18.6823 Y35.7683
G01 X18.6121 Y35.7648
G01 X18.5452 Y35.7550
G01 X18.5348 Y35.7529
G01 X18.4718 Y35.7371
G01 X18.4537 Y35.7309
G01 X18.4005 Y35.7118
G01 X18.3393 Y35.6830
G01 X18.3300 Y35.6780
G01 X18.2720 Y35.6431
G01 X18.2134 Y35.5996
G01 X18.1594 Y35.5506
G01 X18.1138 Y35.5006
G01 X18.1087 Y35.4945
G01 X18.0669 Y35.4380
G01 X18.0294 Y35.3754
G01 X17.9982 Y35.3095
G01 X17.9753 Y35.2458
G01 X17.9722 Y35.2357
G01 X17.9571 Y35.1752
G01 X17.9550 Y35.1648
G01 X17.9452 Y35.0979
G01 X17.9416 Y35.0250
G01 X17.9416 Y9.2425
G00 Z3.0000
G00 X18.1954 Y3.4020
G01 F60.00
G01 Z-0.0300
G01 F90.00
G01 X18.1954 Y1.3700
G01 X18.2005 Y1.2651
G01 X18.2015 Y1.2545
G01 X18.2170 Y1.1506
G01 X18.2439 Y1.0436
G01 X18.2810 Y0.9397
G01 X18.3282 Y0.8399
G01 X18.3850 Y0.7452
G01 X18.4507 Y0.6566
G01 X18.5248 Y0.5748
G01 X18.6066 Y0.5007
G01 X18.6952 Y0.4350
G01 X18.7899 Y0.3782
G01 X18.8897 Y0.3310
G01 X18.9936 Y0.2939
G01 X19.1006 Y0.2670
G01 X19.2098 Y0.2509
G01 X19.3200 Y0.2454
G01 X19.4302 Y0.2509
G01 X19.5394 Y0.2670
G01 X19.6464 Y0.2939
G01 X19.7503 Y0.3310
G01 X19.8501 Y0.3782
G01 X19.9403 Y0.4321
G01 X19.9491 Y0.4380
G01 X20.0334 Y0.5007
G01 X20.1113 Y0.5712
G01 X20.1188 Y0.5787
G01 X20.1893 Y0.6566
G01 X20.2550 Y0.7452
G01 X20.3118 Y0.8399
G01 X20.3568 Y0.9348
G01 X20.3609 Y0.9446
G01 X20.3961 Y1.0436
G01 X20.4218 Y1.1454
G01 X20.4239 Y1.1558
G01 X20.4389 Y1.2571
G01 X20.4395 Y1.2651
G01 X20.4446 Y1.3700
G01 X20.4444 Y3.4073
G01 X20.4395 Y3.5069
G01 X20.4385 Y3.5175
G01 X20.4230 Y3.6214
G01 X20.3975 Y3.7233
G01 X20.3945 Y3.7335
G01 X20.3590 Y3.8323
G01 X20.3118 Y3.9321
G01 X20.2550 Y4.0268
G01 X20.1926 Y4.1112
G01 X20.1858 Y4.1194
G01 X20.1188 Y4.1933
G01 X20.1113 Y4.2008
G01 X20.0334 Y4.2713
G01 X19.9448 Y4.3370
G01 X19.8501 Y4.3938
G01 X19.7503 Y4.4410
G01 X19.6464 Y4.4781
G01 X19.5446 Y4.5038
G01 X19.5342 Y4.5059
G01 X19.4355 Y4.5205
G01 X19.4249 Y4.5215
G01 X19.3200 Y4.5266
G01 X19.2098 Y4.5211
G01 X19.1006 Y4.5050
G01 X18.9987 Y4.4795
G01 X18.9885 Y4.4765
G01 X18.8946 Y4.4429
G01 X18.8848 Y4.4388
G01 X18.7899 Y4.3938
G01 X18.6952 Y4.3370
G01 X18.6066 Y4.2713
G01 X18.5287 Y4.2008
G01 X18.5212 Y4.1933
G01 X18.4542 Y4.1194
G01 X18.4474 Y4.1112
G01 X18.3850 Y4.0268
G01 X18.3282 Y3.9321
G01 X18.2810 Y3.8323
G01 X18.2455 Y3.7335
G01 X18.2425 Y3.7233
G01 X18.2182 Y3.6266
G01 X18.2161 Y3.6162
G01 X18.2009 Y3.5122
G01 X18.1954 Y3.4020
G00 Z3.0000
G00 X17.9046 Y1.3700
G01 F60.00
G01 Z-0.0300
G01 F90.00
G01 X17.9046 Y3.4020
G01 X17.8995 Y3.5069
G01 X17.8985 Y3.5175
G01 X17.8830 Y3.6214
G01 X17.8561 Y3.7284
G01 X17.8190 Y3.8323
G01 X17.7718 Y3.9321
G01 X17.7150 Y4.0268
G01 X17.6493 Y4.1154
G01 X17.5752 Y4.1972
G01 X17.4934 Y4.2713
G01 X17.4048 Y4.3370
G01 X17.3101 Y4.3938
G01 X17.2103 Y4.4410
G01 X17.1064 Y4.4781
G01 X16.9994 Y4.5050
G01 X16.8902 Y4.5211
G01 X16.7800 Y4.5266
G01 X16.6698 Y4.5211
G01 X16.5606 Y4.5050
G01 X16.4536 Y4.4781
G01 X16.3497 Y4.4410
G01 X16.2499 Y4.3938
G01 X16.1597 Y4.3399
G01 X16.1509 Y4.3340
G01 X16.0666 Y4.2713
G01 X15.9887 Y4.2008
G01 X15.9812 Y4.1933
G01 X15.9107 Y4.1154
G01 X15.8450 Y4.0268
G01 X15.7882 Y3.9321
G01 X15.7432 Y3.8372
G01 X15.7391 Y3.8274
G01 X15.7039 Y3.7284
G01 X15.6782 Y3.6266
G01 X15.6761 Y3.6162
G01 X15.6611 Y3.5149
G01 X15.6605 Y3.5069
G01 X15.6554 Y3.4020
G01 X15.6556 Y1.3647
G01 X15.6605 Y1.2651
G01 X15.6615 Y1.2545
G01 X15.6770 Y1.1506
G01 X15.7025 Y1.0487
G01 X15.7055 Y1.0385
G01 X15.7410 Y0.9397
G01 X15.7882 Y0.8399
G01 X15.8450 Y0.7452
G01 X15.9074 Y0.6608
G01 X15.9142 Y0.6526
G01 X15.9812 Y0.5787
G01 X15.9887 Y0.5712
G01 X16.0666 Y0.5007
G01 X16.1552 Y0.4350
G01 X16.2499 Y0.3782
G01 X16.3497 Y0.3310
G01 X16.4536 Y0.2939
G01 X16.5554 Y0.2682
G01 X16.5658 Y0.2661
G01 X16.6645 Y0.2515
G01 X16.6751 Y0.2505
G01 X16.7800 Y0.2454
G01 X16.8902 Y0.2509
G01 X16.9994 Y0.2670
G01 X17.1013 Y0.2925
G01 X17.1115 Y0.2955
G01 X17.2054 Y0.3291
G01 X17.2152 Y0.3332
G01 X17.3101 Y0.3782
G01 X17.4048 Y0.4350
G01 X17.4934 Y0.5007
G01 X17.5713 Y0.5712
G01 X17.5788 Y0.5787
G01 X17.6458 Y0.6526
G01 X17.6526 Y0.6608
G01 X17.7150 Y0.7452
G01 X17.7718 Y0.8399
G01 X17.8190 Y0.9397
G01 X17.8545 Y1.0385
G01 X17.8575 Y1.0487
G01 X17.8818 Y1.1454
G01 X17.8839 Y1.1558
G01 X17.8991 Y1.2598
G01 X17.9046 Y1.3700
G00 Z3.0000
G00 X21.1166 Y4.2443
G01 F60.00
G01 Z-0.0300
G01 F90.00
G01 X21.0687 Y4.2008
G01 X21.0630 Y4.1953
G01 X20.9942 Y4.1194
G01 X20.9890 Y4.1133
G01 X20.9250 Y4.0268
G01 X20.8708 Y3.9367
G01 X20.8670 Y3.9298
G01 X20.8210 Y3.8323
G01 X20.7839 Y3.7284
G01 X20.7570 Y3.6214
G01 X20.7409 Y3.5122
G01 X20.7354 Y3.4020
G01 X20.7355 Y1.3673
G01 X20.7405 Y1.2651
G01 X20.7415 Y1.2545
G01 X20.7570 Y1.1506
G01 X20.7831 Y1.0461
G01 X20.7855 Y1.0385
G01 X20.8210 Y0.9397
G01 X20.8682 Y0.8399
G01 X20.9250 Y0.7452
G01 X20.9907 Y0.6566
G01 X21.0648 Y0.5748
G01 X21.1466 Y0.5007
G01 X21.2352 Y0.4350
G01 X21.3299 Y0.3782
G01 X21.4297 Y0.3310
G01 X21.5336 Y0.2939
G01 X21.6406 Y0.2670
G01 X21.7498 Y0.2509
G01 X21.8600 Y0.2454
G01 X21.9702 Y0.2509
G01 X22.0794 Y0.2670
G01 X22.1839 Y0.2931
G01 X22.1915 Y0.2955
G01 X22.2854 Y0.3291
G01 X22.2952 Y0.3332
G01 X22.3901 Y0.3782
G01 X22.4848 Y0.4350
G01 X22.5734 Y0.5007
G01 X22.6513 Y0.5712
G01 X22.6588 Y0.5787
G01 X22.7258 Y0.6526
G01 X22.7326 Y0.6608
G01 X22.7950 Y0.7452
G01 X22.8518 Y0.8399
G01 X22.8990 Y0.9397
G01 X22.9345 Y1.0385
G01 X22.9375 Y1.0487
G01 X22.9618 Y1.1454
G01 X22.9639 Y1.1558
G01 X22.9791 Y1.2598
G01 X22.9845 Y1.3673
G01 X22.9846 Y3.4020
G01 X22.9795 Y3.5069
G01 X22.9789 Y3.5149
G01 X22.9630 Y3.6214
G01 X22.9361 Y3.7284
G01 X22.8990 Y3.8323
G01 X22.8530 Y3.9298
G01 X22.8492 Y3.9367
G01 X22.7950 Y4.0268
G01 X22.7310 Y4.1133
G01 X22.7258 Y4.1194
G01 X22.6570 Y4.1953
G01 X22.6513 Y4.2008
G01 X22.6034 Y4.2443
G01 X22.6034 Y17.5342
G01 X22.6507 Y17.5867
G01 X22.7105 Y17.6673
G01 X22.7621 Y17.7534
G01 X22.8040 Y17.8417
G01 X22.8070 Y17.8491
G01 X22.8372 Y17.9336
G01 X22.8403 Y17.9438
G01 X22.8633 Y18.0360
G01 X22.8780 Y18.1353
G01 X22.8829 Y18.2356
G01 X22.8829 Y20.0671
G01 X22.8780 Y20.1647
G01 X22.8633 Y20.2640
G01 X22.8389 Y20.3613
G01 X22.8050 Y20.4558
G01 X22.7621 Y20.5466
G01 X22.7105 Y20.6327
G01 X22.6507 Y20.7133
G01 X22.5833 Y20.7877
G01 X22.5089 Y20.8551
G01 X22.4283 Y20.9149
G01 X22.3422 Y20.9665
G01 X22.2514 Y21.0094
G01 X22.1569 Y21.0433
G01 X22.0596 Y21.0677
G01 X21.9603 Y21.0824
G01 X21.8653 Y21.0872
G01 X21.8547 Y21.0872
G01 X21.7597 Y21.0824
G01 X21.6604 Y21.0677
G01 X21.5631 Y21.0433
G01 X21.4686 Y21.0094
G01 X21.3778 Y20.9665
G01 X21.2917 Y20.9149
G01 X21.2111 Y20.8551
G01 X21.1367 Y20.7877
G01 X21.0693 Y20.7133
G01 X21.0095 Y20.6327
G01 X20.9579 Y20.5466
G01 X20.9150 Y20.4558
G01 X20.8811 Y20.3613
G01 X20.8567 Y20.2640
G01 X20.8420 Y20.1647
G01 X20.8372 Y20.0697
G01 X20.8371 Y18.2356
G01 X20.8420 Y18.1353
G01 X20.8567 Y18.0360
G01 X20.8797 Y17.9438
G01 X20.8828 Y17.9336
G01 X20.9130 Y17.8491
G01 X20.9160 Y17.8417
G01 X20.9579 Y17.7534
G01 X21.0095 Y17.6673
G01 X21.0693 Y17.5867
G01 X21.1166 Y17.5342
G01 X21.1166 Y4.2443
G00 Z3.0000
G00 X23.2754 Y3.4020
G01 F60.00
G01 Z-0.0300
G01 F90.00
G01 X23.2754 Y1.3700
G01 X23.2805 Y1.2651
G01 X23.2815 Y1.2545
G01 X23.2970 Y1.1506
G01 X23.3239 Y1.0436
G01 X23.3610 Y0.9397
G01 X23.4082 Y0.8399
G01 X23.4650 Y0.7452
G01 X23.5307 Y0.6566
G01 X23.6048 Y0.5748
G01 X23.6866 Y0.5007
G01 X23.7752 Y0.4350
G01 X23.8699 Y0.3782
G01 X23.9697 Y0.3310
G01 X24.0736 Y0.2939
G01 X24.1806 Y0.2670
G01 X24.2898 Y0.2509
G01 X24.4000 Y0.2454
G01 X24.5102 Y0.2509
G01 X24.6194 Y0.2670
G01 X24.7264 Y0.2939
G01 X24.8303 Y0.3310
G01 X24.9301 Y0.3782
G01 X25.0203 Y0.4321
G01 X25.0291 Y0.4380
G01 X25.1134 Y0.5007
G01 X25.1913 Y0.5712
G01 X25.1988 Y0.5787
G01 X25.2693 Y0.6566
G01 X25.3320 Y0.7409
G01 X25.3379 Y0.7497
G01 X25.3918 Y0.8399
G01 X25.4368 Y0.9348
G01 X25.4409 Y0.9446
G01 X25.4761 Y1.0436
G01 X25.5018 Y1.1454
G01 X25.5039 Y1.1558
G01 X25.5191 Y1.2598
G01 X25.5245 Y1.3673
G01 X25.5246 Y3.4020
G01 X25.5195 Y3.5069
G01 X25.5189 Y3.5149
G01 X25.5030 Y3.6214
G01 X25.4761 Y3.7284
G01 X25.4390 Y3.8323
G01 X25.3930 Y3.9298
G01 X25.3892 Y3.9367
G01 X25.3350 Y4.0268
G01 X25.2710 Y4.1133
G01 X25.2658 Y4.1194
G01 X25.1970 Y4.1953
G01 X25.1913 Y4.2008
G01 X25.1434 Y4.2443
G01 X25.1434 Y17.5342
G01 X25.1907 Y17.5867
G01 X25.2505 Y17.6673
G01 X25.3021 Y17.7534
G01 X25.3440 Y17.8417
G01 X25.3470 Y17.8491
G01 X25.3772 Y17.9336
G01 X25.3803 Y17.9438
G01 X25.4033 Y18.0360
G01 X25.4180 Y18.1353
G01 X25.4229 Y18.2356
G01 X25.4229 Y20.0671
G01 X25.4180 Y20.1647
G01 X25.4033 Y20.2640
G01 X25.3789 Y20.3613
G01 X25.3450 Y20.4558
G01 X25.3021 Y20.5466
G01 X25.2505 Y20.6327
G01 X25.1907 Y20.7133
G01 X25.1270 Y20.7839
G01 X25.1195 Y20.7914
G01 X25.0489 Y20.8551
G01 X24.9726 Y20.9119
G01 X24.9638 Y20.9178
G01 X24.8868 Y20.9639
G01 X24.8775 Y20.9689
G01 X24.7914 Y21.0094
G01 X24.6969 Y21.0433
G01 X24.5996 Y21.0677
G01 X24.5055 Y21.0817
G01 X24.4976 Y21.0826
G01 X24.4000 Y21.0873
G01 X24.2997 Y21.0824
G01 X24.2004 Y21.0677
G01 X24.1031 Y21.0433
G01 X24.0086 Y21.0094
G01 X23.9178 Y20.9665
G01 X23.8317 Y20.9149
G01 X23.7511 Y20.8551
G01 X23.6767 Y20.7877
G01 X23.6093 Y20.7133
G01 X23.5495 Y20.6327
G01 X23.4979 Y20.5466
G01 X23.4550 Y20.4558
G01 X23.4211 Y20.3613
G01 X23.3967 Y20.2640
G01 X23.3827 Y20.1699
G01 X23.3818 Y20.1620
G01 X23.3771 Y20.0644
G01 X23.3771 Y18.2356
G01 X23.3820 Y18.1353
G01 X23.3967 Y18.0360
G01 X23.4197 Y17.9438
G01 X23.4228 Y17.9336
G01 X23.4530 Y17.8491
G01 X23.4560 Y17.8417
G01 X23.4979 Y17.7534
G01 X23.5495 Y17.6673
G01 X23.6093 Y17.5867
G01 X23.6566 Y17.5342
G01 X23.6566 Y4.2443
G01 X23.6048 Y4.1972
G01 X23.5324 Y4.1174
G01 X23.5274 Y4.1112
G01 X23.4665 Y4.0290
G01 X23.4621 Y4.0223
G01 X23.4082 Y3.9321
G01 X23.3621 Y3.8348
G01 X23.3591 Y3.8274
G01 X23.3239 Y3.7284
G01 X23.2970 Y3.6214
G01 X23.2809 Y3.5122
G01 X23.2754 Y3.4020
G00 Z3.0000
G00 X26.1966 Y4.2443
G01 F60.00
G01 Z-0.0300
G01 F90.00
G01 X26.1487 Y4.2008
G01 X26.1430 Y4.1953
G01 X26.0742 Y4.1194
G01 X26.0690 Y4.1133
G01 X26.0050 Y4.0268
G01 X25.9508 Y3.9367
G01 X25.9470 Y3.9298
G01 X25.9010 Y3.8323
G01 X25.8639 Y3.7284
G01 X25.8370 Y3.6214
G01 X25.8209 Y3.5122
G01 X25.8154 Y3.4020
G01 X25.8155 Y1.3673
G01 X25.8205 Y1.2651
G01 X25.8215 Y1.2545
G01 X25.8370 Y1.1506
G01 X25.8631 Y1.0461
G01 X25.8655 Y1.0385
G01 X25.9010 Y0.9397
G01 X25.9482 Y0.8399
G01 X26.0050 Y0.7452
G01 X26.0707 Y0.6566
G01 X26.1448 Y0.5748
G01 X26.2266 Y0.5007
G01 X26.3152 Y0.4350
G01 X26.4099 Y0.3782
G01 X26.5097 Y0.3310
G01 X26.6136 Y0.2939
G01 X26.7206 Y0.2670
G01 X26.8298 Y0.2509
G01 X26.9400 Y0.2454
G01 X27.0502 Y0.2509
G01 X27.1594 Y0.2670
G01 X27.2639 Y0.2931
G01 X27.2715 Y0.2955
G01 X27.3654 Y0.3291
G01 X27.3752 Y0.3332
G01 X27.4701 Y0.3782
G01 X27.5648 Y0.4350
G01 X27.6534 Y0.5007
G01 X27.7313 Y0.5712
G01 X27.7388 Y0.5787
G01 X27.8058 Y0.6526
G01 X27.8126 Y0.6608
G01 X27.8750 Y0.7452
G01 X27.9318 Y0.8399
G01 X27.9790 Y0.9397
G01 X28.0145 Y1.0385
G01 X28.0175 Y1.0487
G01 X28.0418 Y1.1454
G01 X28.0439 Y1.1558
G01 X28.0591 Y1.2598
G01 X28.0645 Y1.3673
G01 X28.0646 Y3.4020
G01 X28.0595 Y3.5069
G01 X28.0589 Y3.5149
G01 X28.0430 Y3.6214
G01 X28.0161 Y3.7284
G01 X27.9790 Y3.8323
G01 X27.9330 Y3.9298
G01 X27.9292 Y3.9367
G01 X27.8750 Y4.0268
G01 X27.8110 Y4.1133
G01 X27.8058 Y4.1194
G01 X27.7370 Y4.1953
G01 X27.7313 Y4.2008
G01 X27.6834 Y4.2443
G01 X27.6834 Y17.5342
G01 X27.7307 Y17.5867
G01 X27.7905 Y17.6673
G01 X27.8421 Y17.7534
G01 X27.8840 Y17.8417
G01 X27.8870 Y17.8491
G01 X27.9172 Y17.9336
G01 X27.9203 Y17.9438
G01 X27.9433 Y18.0360
G01 X27.9580 Y18.1353
G01 X27.9629 Y18.2356
G01 X27.9629 Y20.0671
G01 X27.9580 Y20.1647
G01 X27.9433 Y20.2640
G01 X27.9189 Y20.3613
G01 X27.8850 Y20.4558
G01 X27.8421 Y20.5466
G01 X27.7905 Y20.6327
G01 X27.7307 Y20.7133
G01 X27.6633 Y20.7877
G01 X27.5889 Y20.8551
G01 X27.5083 Y20.9149
G01 X27.4222 Y20.9665
G01 X27.3314 Y21.0094
G01 X27.2369 Y21.0433
G01 X27.1396 Y21.0677
G01 X27.0403 Y21.0824
G01 X26.9453 Y21.0872
G01 X26.9347 Y21.0872
G01 X26.8397 Y21.0824
G01 X26.7404 Y21.0677
G01 X26.6431 Y21.0433
G01 X26.5486 Y21.0094
G01 X26.4578 Y20.9665
G01 X26.3717 Y20.9149
G01 X26.2911 Y20.8551
G01 X26.2167 Y20.7877
G01 X26.1493 Y20.7133
G01 X26.0895 Y20.6327
G01 X26.0379 Y20.5466
G01 X25.9950 Y20.4558
G01 X25.9611 Y20.3613
G01 X25.9367 Y20.2640
G01 X25.9220 Y20.1647
G01 X25.9172 Y20.0697
G01 X25.9171 Y18.2356
G01 X25.9220 Y18.1353
G01 X25.9367 Y18.0360
G01 X25.9597 Y17.9438
G01 X25.9628 Y17.9336
G01 X25.9930 Y17.8491
G01 X25.9960 Y17.8417
G01 X26.0379 Y17.7534
G01 X26.0895 Y17.6673
G01 X26.1493 Y17.5867
G01 X26.1966 Y17.5342
G01 X26.1966 Y4.2443
G00 Z3.0000
G00 X28.3554 Y3.4020
G01 F60.00
G01 Z-0.0300
G01 F90.00
G01 X28.3554 Y1.3700
G01 X28.3605 Y1.2651
G01 X28.3615 Y1.2545
G01 X28.3770 Y1.1506
G01 X28.4039 Y1.0436
G01 X28.4410 Y0.9397
G01 X28.4882 Y0.8399
G01 X28.5450 Y0.7452
G01 X28.6107 Y0.6566
G01 X28.6848 Y0.5748
G01 X28.7666 Y0.5007
G01 X28.8552 Y0.4350
G01 X28.9499 Y0.3782
G01 X29.0497 Y0.3310
G01 X29.1536 Y0.2939
G01 X29.2606 Y0.2670
G01 X29.3698 Y0.2509
G01 X29.4800 Y0.2454
G01 X29.5902 Y0.2509
G01 X29.6994 Y0.2670
G01 X29.8064 Y0.2939
G01 X29.9103 Y0.3310
G01 X30.0101 Y0.3782
G01 X30.1003 Y0.4321
G01 X30.1091 Y0.4380
G01 X30.1934 Y0.5007
G01 X30.2713 Y0.5712
G01 X30.2788 Y0.5787
G01 X30.3493 Y0.6566
G01 X30.4120 Y0.7409
G01 X30.4179 Y0.7497
G01 X30.4718 Y0.8399
G01 X30.5168 Y0.9348
G01 X30.5209 Y0.9446
G01 X30.5561 Y1.0436
G01 X30.5818 Y1.1454
G01 X30.5839 Y1.1558
G01 X30.5991 Y1.2598
G01 X30.6045 Y1.3673
G01 X30.6046 Y3.4020
G01 X30.5995 Y3.5069
G01 X30.5989 Y3.5149
G01 X30.5830 Y3.6214
G01 X30.5561 Y3.7284
G01 X30.5190 Y3.8323
G01 X30.4730 Y3.9298
G01 X30.4692 Y3.9367
G01 X30.4150 Y4.0268
G01 X30.3510 Y4.1133
G01 X30.3458 Y4.1194
G01 X30.2770 Y4.1953
G01 X30.2713 Y4.2008
G01 X30.2234 Y4.2443
G01 X30.2234 Y17.5342
G01 X30.2707 Y17.5867
G01 X30.3305 Y17.6673
G01 X30.3821 Y17.7534
G01 X30.4240 Y17.8417
G01 X30.4270 Y17.8491
G01 X30.4572 Y17.9336
G01 X30.4603 Y17.9438
G01 X30.4833 Y18.0360
G01 X30.4980 Y18.1353
G01 X30.5029 Y18.2356
G01 X30.5029 Y20.0671
G01 X30.4980 Y20.1647
G01 X30.4833 Y20.2640
G01 X30.4589 Y20.3613
G01 X30.4250 Y20.4558
G01 X30.3821 Y20.5466
G01 X30.3305 Y20.6327
G01 X30.2707 Y20.7133
G01 X30.2070 Y20.7839
G01 X30.1995 Y20.7914
G01 X30.1289 Y20.8551
G01 X30.0526 Y20.9119
G01 X30.0438 Y20.9178
G01 X29.9668 Y20.9639
G01 X29.9575 Y20.9689
G01 X29.8714 Y21.0094
G01 X29.7769 Y21.0433
G01 X29.6796 Y21.0677
G01 X29.5855 Y21.0817
G01 X29.5776 Y21.0826
G01 X29.4800 Y21.0873
G01 X29.3797 Y21.0824
G01 X29.2804 Y21.0677
G01 X29.1831 Y21.0433
G01 X29.0886 Y21.0094
G01 X28.9978 Y20.9665
G01 X28.9117 Y20.9149
G01 X28.8311 Y20.8551
G01 X28.7567 Y20.7877
G01 X28.6893 Y20.7133
G01 X28.6295 Y20.6327
G01 X28.5779 Y20.5466
G01 X28.5350 Y20.4558
G01 X28.5011 Y20.3613
G01 X28.4767 Y20.2640
G01 X28.4627 Y20.1699
G01 X28.4618 Y20.1620
G01 X28.4571 Y20.0644
G01 X28.4571 Y18.2356
G01 X28.4620 Y18.1353
G01 X28.4767 Y18.0360
G01 X28.4997 Y17.9438
G01 X28.5028 Y17.9336
G01 X28.5330 Y17.8491
G01 X28.5360 Y17.8417
G01 X28.5779 Y17.7534
G01 X28.6295 Y17.6673
G01 X28.6893 Y17.5867
G01 X28.7366 Y17.5342
G01 X28.7366 Y4.2443
G01 X28.6848 Y4.1972
G01 X28.6124 Y4.1174
G01 X28.6074 Y4.1112
G01 X28.5465 Y4.0290
G01 X28.5421 Y4.0223
G01 X28.4882 Y3.9321
G01 X28.4421 Y3.8348
G01 X28.4391 Y3.8274
G01 X28.4039 Y3.7284
G01 X28.3770 Y3.6214
G01 X28.3609 Y3.5122
G01 X28.3554 Y3.4020
G00 Z3.0000
G00 X31.2766 Y4.2443
G01 F60.00
G01 Z-0.0300
G01 F90.00
G01 X31.2287 Y4.2008
G01 X31.2230 Y4.1953
G01 X31.1542 Y4.1194
G01 X31.1490 Y4.1133
G01 X31.0850 Y4.0268
G01 X31.0308 Y3.9367
G01 X31.0270 Y3.9298
G01 X30.9810 Y3.8323
G01 X30.9439 Y3.7284
G01 X30.9170 Y3.6214
G01 X30.9009 Y3.5122
G01 X30.8954 Y3.4020
G01 X30.8955 Y1.3673
G01 X30.9005 Y1.2651
G01 X30.9015 Y1.2545
G01 X30.9170 Y1.1506
G01 X30.9431 Y1.0461
G01 X30.9455 Y1.0385
G01 X30.9810 Y0.9397
G01 X31.0282 Y0.8399
G01 X31.0850 Y0.7452
G01 X31.1507 Y0.6566
G01 X31.2248 Y0.5748
G01 X31.3066 Y0.5007
G01 X31.3952 Y0.4350
G01 X31.4899 Y0.3782
G01 X31.5897 Y0.3310
G01 X31.6936 Y0.2939
G01 X31.8006 Y0.2670
G01 X31.9098 Y0.2509
G01 X32.0200 Y0.2454
G01 X32.1302 Y0.2509
G01 X32.2394 Y0.2670
G01 X32.3439 Y0.2931
G01 X32.3515 Y0.2955
G01 X32.4454 Y0.3291
G01 X32.4552 Y0.3332
G01 X32.5501 Y0.3782
G01 X32.6448 Y0.4350
G01 X32.7334 Y0.5007
G01 X32.8113 Y0.5712
G01 X32.8188 Y0.5787
G01 X32.8858 Y0.6526
G01 X32.8926 Y0.6608
G01 X32.9550 Y0.7452
G01 X33.0118 Y0.8399
G01 X33.0590 Y0.9397
G01 X33.0945 Y1.0385
G01 X33.0975 Y1.0487
G01 X33.1218 Y1.1454
G01 X33.1239 Y1.1558
G01 X33.1391 Y1.2598
G01 X33.1445 Y1.3673
G01 X33.1446 Y3.4020
G01 X33.1395 Y3.5069
G01 X33.1389 Y3.5149
G01 X33.1230 Y3.6214
G01 X33.0961 Y3.7284
G01 X33.0590 Y3.8323
G01 X33.0130 Y3.9298
G01 X33.0092 Y3.9367
G01 X32.9550 Y4.0268
G01 X32.8910 Y4.1133
G01 X32.8858 Y4.1194
G01 X32.8170 Y4.1953
G01 X32.8113 Y4.2008
G01 X32.7634 Y4.2443
G01 X32.7634 Y17.5342
G01 X32.8107 Y17.5867
G01 X32.8705 Y17.6673
G01 X32.9221 Y17.7534
G01 X32.9640 Y17.8417
G01 X32.9670 Y17.8491
G01 X32.9972 Y17.9336
G01 X33.0003 Y17.9438
G01 X33.0233 Y18.0360
G01 X33.0380 Y18.1353
G01 X33.0429 Y18.2356
G01 X33.0429 Y20.0671
G01 X33.0380 Y20.1647
G01 X33.0233 Y20.2640
G01 X32.9989 Y20.3613
G01 X32.9650 Y20.4558
G01 X32.9221 Y20.5466
G01 X32.8705 Y20.6327
G01 X32.8107 Y20.7133
G01 X32.7433 Y20.7877
G01 X32.6689 Y20.8551
G01 X32.5883 Y20.9149
G01 X32.5022 Y20.9665
G01 X32.4114 Y21.0094
G01 X32.3169 Y21.0433
G01 X32.2196 Y21.0677
G01 X32.1203 Y21.0824
G01 X32.0253 Y21.0872
G01 X32.0147 Y21.0872
G01 X31.9197 Y21.0824
G01 X31.8204 Y21.0677
G01 X31.7231 Y21.0433
G01 X31.6286 Y21.0094
G01 X31.5378 Y20.9665
G01 X31.4517 Y20.9149
G01 X31.3711 Y20.8551
G01 X31.2967 Y20.7877
G01 X31.2293 Y20.7133
G01 X31.1695 Y20.6327
G01 X31.1179 Y20.5466
G01 X31.0750 Y20.4558
G01 X31.0411 Y20.3613
G01 X31.0167 Y20.2640
G01 X31.0020 Y20.1647
G01 X30.9972 Y20.0697
G01 X30.9971 Y18.2356
G01 X31.0020 Y18.1353
G01 X31.0167 Y18.0360
G01 X31.0397 Y17.9438
G01 X31.0428 Y17.9336
G01 X31.0730 Y17.8491
G01 X31.0760 Y17.8417
G01 X31.1179 Y17.7534
G01 X31.1695 Y17.6673
G01 X31.2293 Y17.5867
G01 X31.2766 Y17.5342
G01 X31.2766 Y4.2443
G00 Z3.0000
G00 X33.4354 Y3.4020
G01 F60.00
G01 Z-0.0300
G01 F90.00
G01 X33.4354 Y1.3700
G01 X33.4405 Y1.2651
G01 X33.4415 Y1.2545
G01 X33.4570 Y1.1506
G01 X33.4839 Y1.0436
G01 X33.5210 Y0.9397
G01 X33.5682 Y0.8399
G01 X33.6250 Y0.7452
G01 X33.6907 Y0.6566
G01 X33.7648 Y0.5748
G01 X33.8466 Y0.5007
G01 X33.9352 Y0.4350
G01 X34.0299 Y0.3782
G01 X34.1297 Y0.3310
G01 X34.2336 Y0.2939
G01 X34.3406 Y0.2670
G01 X34.4498 Y0.2509
G01 X34.5600 Y0.2454
G01 X34.6702 Y0.2509
G01 X34.7794 Y0.2670
G01 X34.8864 Y0.2939
G01 X34.9903 Y0.3310
G01 X35.0901 Y0.3782
G01 X35.1803 Y0.4321
G01 X35.1891 Y0.4380
G01 X35.2734 Y0.5007
G01 X35.3513 Y0.5712
G01 X35.3588 Y0.5787
G01 X35.4293 Y0.6566
G01 X35.4920 Y0.7409
G01 X35.4979 Y0.7497
G01 X35.5518 Y0.8399
G01 X35.5968 Y0.9348
G01 X35.6009 Y0.9446
G01 X35.6361 Y1.0436
G01 X35.6618 Y1.1454
G01 X35.6639 Y1.1558
G01 X35.6791 Y1.2598
G01 X35.6845 Y1.3673
G01 X35.6846 Y3.4020
G01 X35.6795 Y3.5069
G01 X35.6789 Y3.5149
G01 X35.6630 Y3.6214
G01 X35.6361 Y3.7284
G01 X35.5990 Y3.8323
G01 X35.5530 Y3.9298
G01 X35.5492 Y3.9367
G01 X35.4950 Y4.0268
G01 X35.4310 Y4.1133
G01 X35.4258 Y4.1194
G01 X35.3570 Y4.1953
G01 X35.3513 Y4.2008
G01 X35.3034 Y4.2443
G01 X35.3034 Y17.5342
G01 X35.3507 Y17.5867
G01 X35.4105 Y17.6673
G01 X35.4621 Y17.7534
G01 X35.5040 Y17.8417
G01 X35.5070 Y17.8491
G01 X35.5372 Y17.9336
G01 X35.5403 Y17.9438
G01 X35.5633 Y18.0360
G01 X35.5780 Y18.1353
G01 X35.5829 Y18.2356
G01 X35.5829 Y20.0671
G01 X35.5780 Y20.1647
G01 X35.5633 Y20.2640
G01 X35.5389 Y20.3613
G01 X35.5050 Y20.4558
G01 X35.4621 Y20.5466
G01 X35.4105 Y20.6327
G01 X35.3507 Y20.7133
G01 X35.2870 Y20.7839
G01 X35.2795 Y20.7914
G01 X35.2089 Y20.8551
G01 X35.1326 Y20.9119
G01 X35.1238 Y20.9178
G01 X35.0468 Y20.9639
G01 X35.0375 Y20.9689
G01 X34.9514 Y21.0094
G01 X34.8569 Y21.0433
G01 X34.7596 Y21.0677
G01 X34.6655 Y21.0817
G01 X34.6576 Y21.0826
G01 X34.5600 Y21.0873
G01 X34.4597 Y21.0824
G01 X34.3604 Y21.0677
G01 X34.2631 Y21.0433
G01 X34.1686 Y21.0094
G01 X34.0778 Y20.9665
G01 X33.9917 Y20.9149
G01 X33.9111 Y20.8551
G01 X33.8367 Y20.7877
G01 X33.7693 Y20.7133
G01 X33.7095 Y20.6327
G01 X33.6579 Y20.5466
G01 X33.6150 Y20.4558
G01 X33.5811 Y20.3613
G01 X33.5567 Y20.2640
G01 X33.5427 Y20.1699
G01 X33.5418 Y20.1620
G01 X33.5371 Y20.0644
G01 X33.5371 Y18.2356
G01 X33.5420 Y18.1353
G01 X33.5567 Y18.0360
G01 X33.5797 Y17.9438
G01 X33.5828 Y17.9336
G01 X33.6130 Y17.8491
G01 X33.6160 Y17.8417
G01 X33.6579 Y17.7534
G01 X33.7095 Y17.6673
G01 X33.7693 Y17.5867
G01 X33.8166 Y17.5342
G01 X33.8166 Y4.2443
G01 X33.7648 Y4.1972
G01 X33.6924 Y4.1174
G01 X33.6874 Y4.1112
G01 X33.6265 Y4.0290
G01 X33.6221 Y4.0223
G01 X33.5682 Y3.9321
G01 X33.5221 Y3.8348
G01 X33.5191 Y3.8274
G01 X33.4839 Y3.7284
G01 X33.4570 Y3.6214
G01 X33.4409 Y3.5122
G01 X33.4354 Y3.4020
G00 Z3.0000
G00 X36.3566 Y4.2443
G01 F60.00
G01 Z-0.0300
G01 F90.00
G01 X36.3087 Y4.2008
G01 X36.3030 Y4.1953
G01 X36.2342 Y4.1194
G01 X36.2290 Y4.1133
G01 X36.1650 Y4.0268
G01 X36.1108 Y3.9367
G01 X36.1070 Y3.9298
G01 X36.0610 Y3.8323
G01 X36.0239 Y3.7284
G01 X35.9970 Y3.6214
G01 X35.9809 Y3.5122
G01 X35.9754 Y3.4020
G01 X35.9755 Y1.3673
G01 X35.9805 Y1.2651
G01 X35.9815 Y1.2545
G01 X35.9970 Y1.1506
G01 X36.0231 Y1.0461
G01 X36.0255 Y1.0385
G01 X36.0610 Y0.9397
G01 X36.1082 Y0.8399
G01 X36.1650 Y0.7452
G01 X36.2307 Y0.6566
G01 X36.3048 Y0.5748
G01 X36.3866 Y0.5007
G01 X36.4752 Y0.4350
G01 X36.5699 Y0.3782
G01 X36.6697 Y0.3310
G01 X36.7736 Y0.2939
G01 X36.8806 Y0.2670
G01 X36.9898 Y0.2509
G01 X37.1000 Y0.2454
G01 X37.2102 Y0.2509
G01 X37.3194 Y0.2670
G01 X37.4239 Y0.2931
G01 X37.4315 Y0.2955
G01 X37.5254 Y0.3291
G01 X37.5352 Y0.3332
G01 X37.6301 Y0.3782
G01 X37.7248 Y0.4350
G01 X37.8134 Y0.5007
G01 X37.8913 Y0.5712
G01 X37.8988 Y0.5787
G01 X37.9693 Y0.6566
G01 X38.0320 Y0.7409
G01 X38.0379 Y0.7497
G01 X38.0918 Y0.8399
G01 X38.1390 Y0.9397
G01 X38.1761 Y1.0436
G01 X38.2018 Y1.1454
G01 X38.2039 Y1.1558
G01 X38.2185 Y1.2545
G01 X38.2195 Y1.2651
G01 X38.2246 Y1.3700
G01 X38.2246 Y3.4020
G01 X38.2195 Y3.5069
G01 X38.2189 Y3.5149
G01 X38.2030 Y3.6214
G01 X38.1761 Y3.7284
G01 X38.1390 Y3.8323
G01 X38.0930 Y3.9298
G01 X38.0892 Y3.9367
G01 X38.0350 Y4.0268
G01 X37.9710 Y4.1133
G01 X37.9658 Y4.1194
G01 X37.8970 Y4.1953
G01 X37.8913 Y4.2008
G01 X37.8434 Y4.2443
G01 X37.8434 Y13.1825
G01 X37.9189 Y13.2511
G01 X37.9917 Y13.3313
G01 X37.9984 Y13.3395
G01 X38.0598 Y13.4223
G01 X38.0657 Y13.4311
G01 X38.1213 Y13.5241
G01 X38.1677 Y13.6220
G01 X38.1718 Y13.6318
G01 X38.2082 Y13.7338
G01 X38.2358 Y13.8441
G01 X38.2525 Y13.9565
G01 X38.2579 Y14.0647
G01 X38.2580 Y14.0727
G01 X38.2525 Y14.1835
G01 X38.2358 Y14.2959
G01 X38.2082 Y14.4062
G01 X38.1699 Y14.5132
G01 X38.1213 Y14.6159
G01 X38.0629 Y14.7134
G01 X37.9952 Y14.8047
G01 X37.9225 Y14.8850
G01 X37.9150 Y14.8925
G01 X37.8387 Y14.9617
G01 X37.8305 Y14.9684
G01 X37.7434 Y15.0329
G01 X37.6505 Y15.0887
G01 X37.6412 Y15.0937
G01 X37.5432 Y15.1399
G01 X37.4362 Y15.1782
G01 X37.3259 Y15.2058
G01 X37.2188 Y15.2218
G01 X37.2109 Y15.2227
G01 X37.1000 Y15.2280
G01 X36.9865 Y15.2225
G01 X36.8741 Y15.2058
G01 X36.7638 Y15.1782
G01 X36.6568 Y15.1399
G01 X36.5541 Y15.0913
G01 X36.4566 Y15.0329
G01 X36.3653 Y14.9652
G01 X36.2811 Y14.8889
G01 X36.2048 Y14.8047
G01 X36.1371 Y14.7134
G01 X36.0787 Y14.6159
G01 X36.0301 Y14.5132
G01 X35.9918 Y14.4062
G01 X35.9642 Y14.2959
G01 X35.9482 Y14.1888
G01 X35.9473 Y14.1809
G01 X35.9421 Y14.0753
G01 X35.9421 Y14.0647
G01 X35.9475 Y13.9565
G01 X35.9633 Y13.8493
G01 X35.9654 Y13.8389
G01 X35.9918 Y13.7338
G01 X36.0301 Y13.6268
G01 X36.0787 Y13.5241
G01 X36.1343 Y13.4311
G01 X36.1402 Y13.4223
G01 X36.2016 Y13.3395
G01 X36.2083 Y13.3313
G01 X36.2811 Y13.2511
G01 X36.3566 Y13.1825
G01 X36.3566 Y4.2443
G00 Z3.0000
G00 X38.5154 Y3.4020
G01 F60.00
G01 Z-0.0300
G01 F90.00
G01 X38.5154 Y1.3700
G01 X38.5205 Y1.2651
G01 X38.5215 Y1.2545
G01 X38.5370 Y1.1506
G01 X38.5639 Y1.0436
G01 X38.6010 Y0.9397
G01 X38.6482 Y0.8399
G01 X38.7050 Y0.7452
G01 X38.7707 Y0.6566
G01 X38.8448 Y0.5748
G01 X38.9266 Y0.5007
G01 X39.0152 Y0.4350
G01 X39.1099 Y0.3782
G01 X39.2097 Y0.3310
G01 X39.3136 Y0.2939
G01 X39.4206 Y0.2670
G01 X39.5298 Y0.2509
G01 X39.6400 Y0.2454
G01 X39.7502 Y0.2509
G01 X39.8594 Y0.2670
G01 X39.9664 Y0.2939
G01 X40.0703 Y0.3310
G01 X40.1701 Y0.3782
G01 X40.2603 Y0.4321
G01 X40.2691 Y0.4380
G01 X40.3534 Y0.5007
G01 X40.4313 Y0.5712
G01 X40.4388 Y0.5787
G01 X40.5093 Y0.6566
G01 X40.5750 Y0.7452
G01 X40.6292 Y0.8353
G01 X40.6342 Y0.8446
G01 X40.6790 Y0.9397
G01 X40.7145 Y1.0385
G01 X40.7175 Y1.0487
G01 X40.7430 Y1.1506
G01 X40.7585 Y1.2545
G01 X40.7595 Y1.2651
G01 X40.7646 Y1.3700
G01 X40.7646 Y3.4020
G01 X40.7595 Y3.5069
G01 X40.7589 Y3.5149
G01 X40.7430 Y3.6214
G01 X40.7161 Y3.7284
G01 X40.6790 Y3.8323
G01 X40.6330 Y3.9298
G01 X40.6292 Y3.9367
G01 X40.5750 Y4.0268
G01 X40.5110 Y4.1133
G01 X40.5058 Y4.1194
G01 X40.4370 Y4.1953
G01 X40.4313 Y4.2008
G01 X40.3834 Y4.2443
G01 X40.3834 Y10.6425
G01 X40.4589 Y10.7111
G01 X40.5317 Y10.7913
G01 X40.5384 Y10.7995
G01 X40.5998 Y10.8823
G01 X40.6057 Y10.8911
G01 X40.6613 Y10.9841
G01 X40.7077 Y11.0820
G01 X40.7118 Y11.0918
G01 X40.7482 Y11.1938
G01 X40.7758 Y11.3041
G01 X40.7925 Y11.4165
G01 X40.7979 Y11.5247
G01 X40.7980 Y11.5327
G01 X40.7925 Y11.6435
G01 X40.7758 Y11.7559
G01 X40.7482 Y11.8662
G01 X40.7118 Y11.9682
G01 X40.7077 Y11.9780
G01 X40.6613 Y12.0759
G01 X40.6057 Y12.1689
G01 X40.5998 Y12.1777
G01 X40.5384 Y12.2605
G01 X40.5317 Y12.2687
G01 X40.4589 Y12.3489
G01 X40.3747 Y12.4252
G01 X40.2834 Y12.4929
G01 X40.1859 Y12.5513
G01 X40.0832 Y12.5999
G01 X39.9762 Y12.6382
G01 X39.8659 Y12.6658
G01 X39.7561 Y12.6822
G01 X39.7482 Y12.6829
G01 X39.6400 Y12.6880
G01 X39.5265 Y12.6825
G01 X39.4141 Y12.6658
G01 X39.3038 Y12.6382
G01 X39.1968 Y12.5999
G01 X39.0941 Y12.5513
G01 X38.9966 Y12.4929
G01 X38.9053 Y12.4252
G01 X38.8211 Y12.3489
G01 X38.7448 Y12.2647
G01 X38.6771 Y12.1734
G01 X38.6187 Y12.0759
G01 X38.5701 Y11.9732
G01 X38.5318 Y11.8662
G01 X38.5042 Y11.7559
G01 X38.4878 Y11.6461
G01 X38.4871 Y11.6382
G01 X38.4820 Y11.5300
G01 X38.4871 Y11.4218
G01 X38.4882 Y11.4112
G01 X38.5042 Y11.3041
G01 X38.5304 Y11.1989
G01 X38.5335 Y11.1888
G01 X38.5701 Y11.0868
G01 X38.6187 Y10.9841
G01 X38.6743 Y10.8911
G01 X38.6802 Y10.8823
G01 X38.7416 Y10.7995
G01 X38.7483 Y10.7913
G01 X38.8211 Y10.7111
G01 X38.8966 Y10.6425
G01 X38.8966 Y4.2443
G01 X38.8448 Y4.1972
G01 X38.7724 Y4.1174
G01 X38.7674 Y4.1112
G01 X38.7065 Y4.0290
G01 X38.7021 Y4.0223
G01 X38.6482 Y3.9321
G01 X38.6021 Y3.8348
G01 X38.5991 Y3.8274
G01 X38.5639 Y3.7284
G01 X38.5370 Y3.6214
G01 X38.5209 Y3.5122
G01 X38.5154 Y3.4020
G00 Z3.0000
G00 X43.5954 Y3.4020
G01 F60.00
G01 Z-0.0300
G01 F90.00
G01 X43.5954 Y1.3700
G01 X43.6005 Y1.2651
G01 X43.6015 Y1.2545
G01 X43.6170 Y1.1506
G01 X43.6439 Y1.0436
G01 X43.6810 Y0.9397
G01 X43.7282 Y0.8399
G01 X43.7850 Y0.7452
G01 X43.8507 Y0.6566
G01 X43.9248 Y0.5748
G01 X44.0066 Y0.5007
G01 X44.0952 Y0.4350
G01 X44.1899 Y0.3782
G01 X44.2897 Y0.3310
G01 X44.3936 Y0.2939
G01 X44.5006 Y0.2670
G01 X44.6098 Y0.2509
G01 X44.7200 Y0.2454
G01 X44.8302 Y0.2509
G01 X44.9394 Y0.2670
G01 X45.0464 Y0.2939
G01 X45.1503 Y0.3310
G01 X45.2501 Y0.3782
G01 X45.3403 Y0.4321
G01 X45.3491 Y0.4380
G01 X45.4334 Y0.5007
G01 X45.5113 Y0.5712
G01 X45.5188 Y0.5787
G01 X45.5893 Y0.6566
G01 X45.6520 Y0.7409
G01 X45.6579 Y0.7497
G01 X45.7118 Y0.8399
G01 X45.7568 Y0.9348
G01 X45.7609 Y0.9446
G01 X45.7961 Y1.0436
G01 X45.8218 Y1.1454
G01 X45.8239 Y1.1558
G01 X45.8391 Y1.2598
G01 X45.8445 Y1.3673
G01 X45.8446 Y3.4020
G01 X45.8395 Y3.5069
G01 X45.8389 Y3.5149
G01 X45.8230 Y3.6214
G01 X45.7961 Y3.7284
G01 X45.7590 Y3.8323
G01 X45.7130 Y3.9298
G01 X45.7092 Y3.9367
G01 X45.6550 Y4.0268
G01 X45.5910 Y4.1133
G01 X45.5858 Y4.1194
G01 X45.5170 Y4.1953
G01 X45.5113 Y4.2008
G01 X45.4634 Y4.2443
G01 X45.4634 Y30.9625
G01 X45.5389 Y31.0311
G01 X45.6117 Y31.1113
G01 X45.6184 Y31.1195
G01 X45.6798 Y31.2023
G01 X45.6857 Y31.2111
G01 X45.7413 Y31.3041
G01 X45.7877 Y31.4020
G01 X45.7918 Y31.4118
G01 X45.8282 Y31.5138
G01 X45.8558 Y31.6241
G01 X45.8725 Y31.7365
G01 X45.8779 Y31.8447
G01 X45.8780 Y31.8527
G01 X45.8725 Y31.9635
G01 X45.8558 Y32.0759
G01 X45.8282 Y32.1862
G01 X45.7899 Y32.2932
G01 X45.7413 Y32.3959
G01 X45.6829 Y32.4934
G01 X45.6152 Y32.5847
G01 X45.5389 Y32.6689
G01 X45.4547 Y32.7452
G01 X45.3634 Y32.8129
G01 X45.2659 Y32.8713
G01 X45.1632 Y32.9199
G01 X45.0562 Y32.9582
G01 X44.9459 Y32.9858
G01 X44.8335 Y33.0025
G01 X44.7253 Y33.0079
G01 X44.7147 Y33.0079
G01 X44.6065 Y33.0025
G01 X44.4941 Y32.9858
G01 X44.3838 Y32.9582
G01 X44.2768 Y32.9199
G01 X44.1741 Y32.8713
G01 X44.0766 Y32.8129
G01 X43.9853 Y32.7452
G01 X43.9011 Y32.6689
G01 X43.8248 Y32.5847
G01 X43.7571 Y32.4934
G01 X43.6987 Y32.3959
G01 X43.6501 Y32.2932
G01 X43.6118 Y32.1862
G01 X43.5842 Y32.0759
G01 X43.5675 Y31.9635
G01 X43.5621 Y31.8553
G01 X43.5621 Y31.8447
G01 X43.5675 Y31.7365
G01 X43.5842 Y31.6241
G01 X43.6118 Y31.5138
G01 X43.6482 Y31.4118
G01 X43.6523 Y31.4020
G01 X43.6987 Y31.3041
G01 X43.7543 Y31.2111
G01 X43.7602 Y31.2023
G01 X43.8216 Y31.1195
G01 X43.8283 Y31.1113
G01 X43.9011 Y31.0311
G01 X43.9766 Y30.9625
G01 X43.9766 Y4.2443
G01 X43.9248 Y4.1972
G01 X43.8524 Y4.1174
G01 X43.8474 Y4.1112
G01 X43.7865 Y4.0290
G01 X43.7821 Y4.0223
G01 X43.7282 Y3.9321
G01 X43.6821 Y3.8348
G01 X43.6791 Y3.8274
G01 X43.6439 Y3.7284
G01 X43.6170 Y3.6214
G01 X43.6009 Y3.5122
G01 X43.5954 Y3.4020
G00 Z3.0000
G00 X46.5166 Y4.2443
G01 F60.00
G01 Z-0.0300
G01 F90.00
G01 X46.4687 Y4.2008
G01 X46.4630 Y4.1953
G01 X46.3942 Y4.1194
G01 X46.3890 Y4.1133
G01 X46.3250 Y4.0268
G01 X46.2708 Y3.9367
G01 X46.2670 Y3.9298
G01 X46.2210 Y3.8323
G01 X46.1839 Y3.7284
G01 X46.1570 Y3.6214
G01 X46.1409 Y3.5122
G01 X46.1354 Y3.4020
G01 X46.1355 Y1.3673
G01 X46.1405 Y1.2651
G01 X46.1415 Y1.2545
G01 X46.1570 Y1.1506
G01 X46.1831 Y1.0461
G01 X46.1855 Y1.0385
G01 X46.2210 Y0.9397
G01 X46.2682 Y0.8399
G01 X46.3250 Y0.7452
G01 X46.3907 Y0.6566
G01 X46.4648 Y0.5748
G01 X46.5466 Y0.5007
G01 X46.6352 Y0.4350
G01 X46.7299 Y0.3782
G01 X46.8297 Y0.3310
G01 X46.9336 Y0.2939
G01 X47.0406 Y0.2670
G01 X47.1498 Y0.2509
G01 X47.2600 Y0.2454
G01 X47.3702 Y0.2509
G01 X47.4794 Y0.2670
G01 X47.5839 Y0.2931
G01 X47.5915 Y0.2955
G01 X47.6854 Y0.3291
G01 X47.6952 Y0.3332
G01 X47.7901 Y0.3782
G01 X47.8848 Y0.4350
G01 X47.9734 Y0.5007
G01 X48.0513 Y0.5712
G01 X48.0588 Y0.5787
G01 X48.1258 Y0.6526
G01 X48.1326 Y0.6608
G01 X48.1950 Y0.7452
G01 X48.2518 Y0.8399
G01 X48.2990 Y0.9397
G01 X48.3345 Y1.0385
G01 X48.3375 Y1.0487
G01 X48.3618 Y1.1454
G01 X48.3639 Y1.1558
G01 X48.3791 Y1.2598
G01 X48.3844 Y1.3647
G01 X48.3846 Y3.4020
G01 X48.3795 Y3.5069
G01 X48.3789 Y3.5149
G01 X48.3630 Y3.6214
G01 X48.3361 Y3.7284
G01 X48.2990 Y3.8323
G01 X48.2530 Y3.9298
G01 X48.2492 Y3.9367
G01 X48.1950 Y4.0268
G01 X48.1310 Y4.1133
G01 X48.1258 Y4.1194
G01 X48.0570 Y4.1953
G01 X48.0513 Y4.2008
G01 X48.0034 Y4.2443
G01 X48.0034 Y20.8025
G01 X48.0789 Y20.8711
G01 X48.1517 Y20.9513
G01 X48.1584 Y20.9595
G01 X48.2198 Y21.0423
G01 X48.2257 Y21.0511
G01 X48.2813 Y21.1441
G01 X48.3277 Y21.2420
G01 X48.3318 Y21.2518
G01 X48.3682 Y21.3538
G01 X48.3958 Y21.4641
G01 X48.4125 Y21.5765
G01 X48.4179 Y21.6847
G01 X48.4180 Y21.6927
G01 X48.4125 Y21.8035
G01 X48.3958 Y21.9159
G01 X48.3682 Y22.0262
G01 X48.3299 Y22.1332
G01 X48.2813 Y22.2359
G01 X48.2229 Y22.3334
G01 X48.1552 Y22.4247
G01 X48.0789 Y22.5089
G01 X47.9947 Y22.5852
G01 X47.9034 Y22.6529
G01 X47.8059 Y22.7113
G01 X47.7032 Y22.7599
G01 X47.5962 Y22.7982
G01 X47.4859 Y22.8258
G01 X47.3735 Y22.8425
G01 X47.2653 Y22.8479
G01 X47.2547 Y22.8479
G01 X47.1465 Y22.8425
G01 X47.0341 Y22.8258
G01 X46.9238 Y22.7982
G01 X46.8168 Y22.7599
G01 X46.7141 Y22.7113
G01 X46.6166 Y22.6529
G01 X46.5253 Y22.5852
G01 X46.4411 Y22.5089
G01 X46.3648 Y22.4247
G01 X46.2971 Y22.3334
G01 X46.2387 Y22.2359
G01 X46.1901 Y22.1332
G01 X46.1518 Y22.0262
G01 X46.1242 Y21.9159
G01 X46.1075 Y21.8035
G01 X46.1021 Y21.6953
G01 X46.1021 Y21.6847
G01 X46.1075 Y21.5765
G01 X46.1242 Y21.4641
G01 X46.1518 Y21.3538
G01 X46.1882 Y21.2518
G01 X46.1923 Y21.2420
G01 X46.2387 Y21.1441
G01 X46.2943 Y21.0511
G01 X46.3002 Y21.0423
G01 X46.3616 Y20.9595
G01 X46.3683 Y20.9513
G01 X46.4411 Y20.8711
G01 X46.5166 Y20.8025
G01 X46.5166 Y4.2443
G00 Z3.0000
G00 X53.7554 Y3.4020
G01 F60.00
G01 Z-0.0300
G01 F90.00
G01 X53.7554 Y1.3700
G01 X53.7605 Y1.2651
G01 X53.7615 Y1.2545
G01 X53.7770 Y1.1506
G01 X53.8039 Y1.0436
G01 X53.8410 Y0.9397
G01 X53.8882 Y0.8399
G01 X53.9450 Y0.7452
G01 X54.0107 Y0.6566
G01 X54.0848 Y0.5748
G01 X54.1666 Y0.5007
G01 X54.2552 Y0.4350
G01 X54.3499 Y0.3782
G01 X54.4497 Y0.3310
G01 X54.5536 Y0.2939
G01 X54.6606 Y0.2670
G01 X54.7698 Y0.2509
G01 X54.8800 Y0.2454
G01 X54.9902 Y0.2509
G01 X55.0994 Y0.2670
G01 X55.2064 Y0.2939
G01 X55.3103 Y0.3310
G01 X55.4101 Y0.3782
G01 X55.5003 Y0.4321
G01 X55.5091 Y0.4380
G01 X55.5934 Y0.5007
G01 X55.6713 Y0.5712
G01 X55.6788 Y0.5787
G01 X55.7493 Y0.6566
G01 X55.8150 Y0.7452
G01 X55.8718 Y0.8399
G01 X55.9168 Y0.9348
G01 X55.9209 Y0.9446
G01 X55.9561 Y1.0436
G01 X55.9818 Y1.1454
G01 X55.9839 Y1.1558
G01 X55.9989 Y1.2571
G01 X55.9995 Y1.2651
G01 X56.0046 Y1.3700
G01 X56.0044 Y3.4073
G01 X55.9995 Y3.5069
G01 X55.9985 Y3.5175
G01 X55.9830 Y3.6214
G01 X55.9575 Y3.7233
G01 X55.9545 Y3.7335
G01 X55.9190 Y3.8323
G01 X55.8718 Y3.9321
G01 X55.8150 Y4.0268
G01 X55.7493 Y4.1154
G01 X55.6752 Y4.1972
G01 X55.5974 Y4.2678
G01 X55.5892 Y4.2746
G01 X55.5091 Y4.3340
G01 X55.5003 Y4.3399
G01 X55.4101 Y4.3938
G01 X55.3103 Y4.4410
G01 X55.2064 Y4.4781
G01 X55.1046 Y4.5038
G01 X55.0942 Y4.5059
G01 X54.9955 Y4.5205
G01 X54.9849 Y4.5215
G01 X54.8800 Y4.5266
G01 X54.7698 Y4.5211
G01 X54.6606 Y4.5050
G01 X54.5587 Y4.4795
G01 X54.5485 Y4.4765
G01 X54.4546 Y4.4429
G01 X54.4448 Y4.4388
G01 X54.3499 Y4.3938
G01 X54.2552 Y4.3370
G01 X54.1666 Y4.2713
G01 X54.0887 Y4.2008
G01 X54.0812 Y4.1933
G01 X54.0142 Y4.1194
G01 X54.0074 Y4.1112
G01 X53.9450 Y4.0268
G01 X53.8882 Y3.9321
G01 X53.8410 Y3.8323
G01 X53.8055 Y3.7335
G01 X53.8025 Y3.7233
G01 X53.7782 Y3.6266
G01 X53.7761 Y3.6162
G01 X53.7609 Y3.5122
G01 X53.7554 Y3.4020
G00 Z3.0000
G00 X53.4646 Y1.3700
G01 F60.00
G01 Z-0.0300
G01 F90.00
G01 X53.4646 Y3.4020
G01 X53.4595 Y3.5069
G01 X53.4585 Y3.5175
G01 X53.4430 Y3.6214
G01 X53.4161 Y3.7284
G01 X53.3790 Y3.8323
G01 X53.3318 Y3.9321
G01 X53.2750 Y4.0268
G01 X53.2093 Y4.1154
G01 X53.1352 Y4.1972
G01 X53.0534 Y4.2713
G01 X52.9648 Y4.3370
G01 X52.8701 Y4.3938
G01 X52.7703 Y4.4410
G01 X52.6664 Y4.4781
G01 X52.5594 Y4.5050
G01 X52.4502 Y4.5211
G01 X52.3400 Y4.5266
G01 X52.2298 Y4.5211
G01 X52.1206 Y4.5050
G01 X52.0136 Y4.4781
G01 X51.9097 Y4.4410
G01 X51.8099 Y4.3938
G01 X51.7197 Y4.3399
G01 X51.7109 Y4.3340
G01 X51.6266 Y4.2713
G01 X51.5487 Y4.2008
G01 X51.5412 Y4.1933
G01 X51.4707 Y4.1154
G01 X51.4050 Y4.0268
G01 X51.3482 Y3.9321
G01 X51.3032 Y3.8372
G01 X51.2991 Y3.8274
G01 X51.2639 Y3.7284
G01 X51.2382 Y3.6266
G01 X51.2361 Y3.6162
G01 X51.2211 Y3.5149
G01 X51.2205 Y3.5069
G01 X51.2154 Y3.4020
G01 X51.2156 Y1.3647
G01 X51.2205 Y1.2651
G01 X51.2215 Y1.2545
G01 X51.2370 Y1.1506
G01 X51.2625 Y1.0487
G01 X51.2655 Y1.0385
G01 X51.3010 Y0.9397
G01 X51.3482 Y0.8399
G01 X51.4050 Y0.7452
G01 X51.4707 Y0.6566
G01 X51.5448 Y0.5748
G01 X51.6226 Y0.5042
G01 X51.6308 Y0.4974
G01 X51.7109 Y0.4380
G01 X51.7197 Y0.4321
G01 X51.8099 Y0.3782
G01 X51.9097 Y0.3310
G01 X52.0136 Y0.2939
G01 X52.1154 Y0.2682
G01 X52.1258 Y0.2661
G01 X52.2245 Y0.2515
G01 X52.2351 Y0.2505
G01 X52.3400 Y0.2454
G01 X52.4502 Y0.2509
G01 X52.5594 Y0.2670
G01 X52.6613 Y0.2925
G01 X52.6715 Y0.2955
G01 X52.7654 Y0.3291
G01 X52.7752 Y0.3332
G01 X52.8701 Y0.3782
G01 X52.9648 Y0.4350
G01 X53.0534 Y0.5007
G01 X53.1313 Y0.5712
G01 X53.1388 Y0.5787
G01 X53.2058 Y0.6526
G01 X53.2126 Y0.6608
G01 X53.2750 Y0.7452
G01 X53.3318 Y0.8399
G01 X53.3790 Y0.9397
G01 X53.4145 Y1.0385
G01 X53.4175 Y1.0487
G01 X53.4418 Y1.1454
G01 X53.4439 Y1.1558
G01 X53.4591 Y1.2598
G01 X53.4646 Y1.3700
G00 Z3.0000
G00 X58.5446 Y1.3700
G01 F60.00
G01 Z-0.0300
G01 F90.00
G01 X58.5446 Y3.4020
G01 X58.5395 Y3.5069
G01 X58.5385 Y3.5175
G01 X58.5230 Y3.6214
G01 X58.4961 Y3.7284
G01 X58.4590 Y3.8323
G01 X58.4118 Y3.9321
G01 X58.3550 Y4.0268
G01 X58.2893 Y4.1154
G01 X58.2152 Y4.1972
G01 X58.1334 Y4.2713
G01 X58.0448 Y4.3370
G01 X57.9501 Y4.3938
G01 X57.8503 Y4.4410
G01 X57.7464 Y4.4781
G01 X57.6394 Y4.5050
G01 X57.5302 Y4.5211
G01 X57.4200 Y4.5266
G01 X57.3098 Y4.5211
G01 X57.2006 Y4.5050
G01 X57.0936 Y4.4781
G01 X56.9897 Y4.4410
G01 X56.8899 Y4.3938
G01 X56.7997 Y4.3399
G01 X56.7909 Y4.3340
G01 X56.7066 Y4.2713
G01 X56.6287 Y4.2008
G01 X56.6212 Y4.1933
G01 X56.5507 Y4.1154
G01 X56.4850 Y4.0268
G01 X56.4282 Y3.9321
G01 X56.3832 Y3.8372
G01 X56.3791 Y3.8274
G01 X56.3439 Y3.7284
G01 X56.3182 Y3.6266
G01 X56.3161 Y3.6162
G01 X56.3011 Y3.5149
G01 X56.3005 Y3.5069
G01 X56.2954 Y3.4020
G01 X56.2956 Y1.3647
G01 X56.3005 Y1.2651
G01 X56.3015 Y1.2545
G01 X56.3170 Y1.1506
G01 X56.3425 Y1.0487
G01 X56.3455 Y1.0385
G01 X56.3810 Y0.9397
G01 X56.4282 Y0.8399
G01 X56.4850 Y0.7452
G01 X56.5507 Y0.6566
G01 X56.6248 Y0.5748
G01 X56.7026 Y0.5042
G01 X56.7108 Y0.4974
G01 X56.7909 Y0.4380
G01 X56.7997 Y0.4321
G01 X56.8899 Y0.3782
G01 X56.9897 Y0.3310
G01 X57.0936 Y0.2939
G01 X57.1954 Y0.2682
G01 X57.2058 Y0.2661
G01 X57.3045 Y0.2515
G01 X57.3151 Y0.2505
G01 X57.4200 Y0.2454
G01 X57.5302 Y0.2509
G01 X57.6394 Y0.2670
G01 X57.7413 Y0.2925
G01 X57.7515 Y0.2955
G01 X57.8454 Y0.3291
G01 X57.8552 Y0.3332
G01 X57.9501 Y0.3782
G01 X58.0448 Y0.4350
G01 X58.1334 Y0.5007
G01 X58.2113 Y0.5712
G01 X58.2188 Y0.5787
G01 X58.2858 Y0.6526
G01 X58.2926 Y0.6608
G01 X58.3550 Y0.7452
G01 X58.4118 Y0.8399
G01 X58.4590 Y0.9397
G01 X58.4945 Y1.0385
G01 X58.4975 Y1.0487
G01 X58.5218 Y1.1454
G01 X58.5239 Y1.1558
G01 X58.5391 Y1.2598
G01 X58.5446 Y1.3700
G00 Z3.0000
G00 X58.8354 Y3.4020
G01 F60.00
G01 Z-0.0300
G01 F90.00
G01 X58.8354 Y1.3700
G01 X58.8405 Y1.2651
G01 X58.8415 Y1.2545
G01 X58.8570 Y1.1506
G01 X58.8839 Y1.0436
G01 X58.9210 Y0.9397
G01 X58.9682 Y0.8399
G01 X59.0250 Y0.7452
G01 X59.0907 Y0.6566
G01 X59.1648 Y0.5748
G01 X59.2466 Y0.5007
G01 X59.3352 Y0.4350
G01 X59.4299 Y0.3782
G01 X59.5297 Y0.3310
G01 X59.6336 Y0.2939
G01 X59.7406 Y0.2670
G01 X59.8498 Y0.2509
G01 X59.9600 Y0.2454
G01 X60.0702 Y0.2509
G01 X60.1794 Y0.2670
G01 X60.2864 Y0.2939
G01 X60.3903 Y0.3310
G01 X60.4901 Y0.3782
G01 X60.5803 Y0.4321
G01 X60.5891 Y0.4380
G01 X60.6734 Y0.5007
G01 X60.7513 Y0.5712
G01 X60.7588 Y0.5787
G01 X60.8293 Y0.6566
G01 X60.8920 Y0.7409
G01 X60.8979 Y0.7497
G01 X60.9518 Y0.8399
G01 X60.9968 Y0.9348
G01 X61.0009 Y0.9446
G01 X61.0361 Y1.0436
G01 X61.0618 Y1.1454
G01 X61.0639 Y1.1558
G01 X61.0791 Y1.2598
G01 X61.0844 Y1.3647
G01 X61.0846 Y3.4020
G01 X61.0795 Y3.5069
G01 X61.0789 Y3.5149
G01 X61.0630 Y3.6214
G01 X61.0361 Y3.7284
G01 X60.9990 Y3.8323
G01 X60.9530 Y3.9298
G01 X60.9492 Y3.9367
G01 X60.8950 Y4.0268
G01 X60.8310 Y4.1133
G01 X60.8258 Y4.1194
G01 X60.7570 Y4.1953
G01 X60.7513 Y4.2008
G01 X60.7034 Y4.2443
G01 X60.7034 Y14.4525
G01 X60.7789 Y14.5211
G01 X60.8517 Y14.6013
G01 X60.8584 Y14.6095
G01 X60.9198 Y14.6923
G01 X60.9257 Y14.7011
G01 X60.9813 Y14.7941
G01 X61.0277 Y14.8920
G01 X61.0318 Y14.9018
G01 X61.0682 Y15.0038
G01 X61.0958 Y15.1141
G01 X61.1125 Y15.2265
G01 X61.1179 Y15.3347
G01 X61.1180 Y15.3427
G01 X61.1125 Y15.4535
G01 X61.0958 Y15.5659
G01 X61.0682 Y15.6762
G01 X61.0299 Y15.7832
G01 X60.9813 Y15.8859
G01 X60.9229 Y15.9834
G01 X60.8552 Y16.0747
G01 X60.7825 Y16.1550
G01 X60.7750 Y16.1625
G01 X60.6987 Y16.2317
G01 X60.6905 Y16.2384
G01 X60.6034 Y16.3029
G01 X60.5105 Y16.3587
G01 X60.5012 Y16.3637
G01 X60.4032 Y16.4099
G01 X60.2962 Y16.4482
G01 X60.1859 Y16.4758
G01 X60.0735 Y16.4925
G01 X59.9600 Y16.4980
G01 X59.8465 Y16.4925
G01 X59.7341 Y16.4758
G01 X59.6238 Y16.4482
G01 X59.5168 Y16.4099
G01 X59.4141 Y16.3613
G01 X59.3166 Y16.3029
G01 X59.2253 Y16.2352
G01 X59.1411 Y16.1589
G01 X59.0648 Y16.0747
G01 X58.9971 Y15.9834
G01 X58.9387 Y15.8859
G01 X58.8901 Y15.7832
G01 X58.8518 Y15.6762
G01 X58.8242 Y15.5659
G01 X58.8075 Y15.4535
G01 X58.8021 Y15.3453
G01 X58.8021 Y15.3347
G01 X58.8075 Y15.2265
G01 X58.8233 Y15.1193
G01 X58.8254 Y15.1089
G01 X58.8518 Y15.0038
G01 X58.8901 Y14.8968
G01 X58.9387 Y14.7941
G01 X58.9943 Y14.7011
G01 X59.0002 Y14.6923
G01 X59.0616 Y14.6095
G01 X59.0683 Y14.6013
G01 X59.1411 Y14.5211
G01 X59.2166 Y14.4525
G01 X59.2166 Y4.2443
G01 X59.1648 Y4.1972
G01 X59.0924 Y4.1174
G01 X59.0874 Y4.1112
G01 X59.0265 Y4.0290
G01 X59.0221 Y4.0223
G01 X58.9682 Y3.9321
G01 X58.9221 Y3.8348
G01 X58.9191 Y3.8274
G01 X58.8839 Y3.7284
G01 X58.8570 Y3.6214
G01 X58.8409 Y3.5122
G01 X58.8354 Y3.4020
G00 Z3.0000
G00 X63.9154 Y3.4020
G01 F60.00
G01 Z-0.0300
G01 F90.00
G01 X63.9154 Y1.3700
G01 X63.9205 Y1.2651
G01 X63.9215 Y1.2545
G01 X63.9370 Y1.1506
G01 X63.9639 Y1.0436
G01 X64.0010 Y0.9397
G01 X64.0482 Y0.8399
G01 X64.1050 Y0.7452
G01 X64.1707 Y0.6566
G01 X64.2448 Y0.5748
G01 X64.3266 Y0.5007
G01 X64.4152 Y0.4350
G01 X64.5099 Y0.3782
G01 X64.6097 Y0.3310
G01 X64.7136 Y0.2939
G01 X64.8206 Y0.2670
G01 X64.9298 Y0.2509
G01 X65.0400 Y0.2454
G01 X65.1502 Y0.2509
G01 X65.2594 Y0.2670
G01 X65.3664 Y0.2939
G01 X65.4703 Y0.3310
G01 X65.5701 Y0.3782
G01 X65.6603 Y0.4321
G01 X65.6691 Y0.4380
G01 X65.7534 Y0.5007
G01 X65.8313 Y0.5712
G01 X65.8388 Y0.5787
G01 X65.9093 Y0.6566
G01 X65.9720 Y0.7409
G01 X65.9779 Y0.7497
G01 X66.0318 Y0.8399
G01 X66.0768 Y0.9348
G01 X66.0809 Y0.9446
G01 X66.1161 Y1.0436
G01 X66.1418 Y1.1454
G01 X66.1439 Y1.1558
G01 X66.1591 Y1.2598
G01 X66.1645 Y1.3673
G01 X66.1646 Y3.4020
G01 X66.1595 Y3.5069
G01 X66.1589 Y3.5149
G01 X66.1430 Y3.6214
G01 X66.1161 Y3.7284
G01 X66.0790 Y3.8323
G01 X66.0330 Y3.9298
G01 X66.0292 Y3.9367
G01 X65.9750 Y4.0268
G01 X65.9110 Y4.1133
G01 X65.9058 Y4.1194
G01 X65.8370 Y4.1953
G01 X65.8313 Y4.2008
G01 X65.7834 Y4.2443
G01 X65.7834 Y18.8975
G01 X65.8589 Y18.9661
G01 X65.9317 Y19.0463
G01 X65.9384 Y19.0545
G01 X65.9998 Y19.1373
G01 X66.0057 Y19.1461
G01 X66.0613 Y19.2391
G01 X66.1077 Y19.3370
G01 X66.1118 Y19.3468
G01 X66.1482 Y19.4488
G01 X66.1758 Y19.5591
G01 X66.1925 Y19.6715
G01 X66.1979 Y19.7797
G01 X66.1980 Y19.7877
G01 X66.1925 Y19.8985
G01 X66.1758 Y20.0109
G01 X66.1482 Y20.1212
G01 X66.1099 Y20.2282
G01 X66.0613 Y20.3309
G01 X66.0029 Y20.4284
G01 X65.9352 Y20.5197
G01 X65.8625 Y20.6000
G01 X65.8550 Y20.6075
G01 X65.7747 Y20.6802
G01 X65.6877 Y20.7448
G01 X65.6789 Y20.7507
G01 X65.5905 Y20.8037
G01 X65.5812 Y20.8087
G01 X65.4832 Y20.8549
G01 X65.3762 Y20.8932
G01 X65.2659 Y20.9208
G01 X65.1588 Y20.9368
G01 X65.1509 Y20.9377
G01 X65.0400 Y20.9430
G01 X64.9265 Y20.9375
G01 X64.8141 Y20.9208
G01 X64.7038 Y20.8932
G01 X64.5968 Y20.8549
G01 X64.4941 Y20.8063
G01 X64.3966 Y20.7479
G01 X64.3053 Y20.6802
G01 X64.2211 Y20.6039
G01 X64.1448 Y20.5197
G01 X64.0771 Y20.4284
G01 X64.0187 Y20.3309
G01 X63.9701 Y20.2282
G01 X63.9318 Y20.1212
G01 X63.9042 Y20.0109
G01 X63.8882 Y19.9038
G01 X63.8873 Y19.8959
G01 X63.8821 Y19.7903
G01 X63.8821 Y19.7797
G01 X63.8875 Y19.6715
G01 X63.9033 Y19.5643
G01 X63.9054 Y19.5539
G01 X63.9318 Y19.4488
G01 X63.9701 Y19.3418
G01 X64.0187 Y19.2391
G01 X64.0743 Y19.1461
G01 X64.0802 Y19.1373
G01 X64.1416 Y19.0545
G01 X64.1483 Y19.0463
G01 X64.2211 Y18.9661
G01 X64.2966 Y18.8975
G01 X64.2966 Y4.2443
G01 X64.2448 Y4.1972
G01 X64.1724 Y4.1174
G01 X64.1674 Y4.1112
G01 X64.1065 Y4.0290
G01 X64.1021 Y4.0223
G01 X64.0482 Y3.9321
G01 X64.0021 Y3.8348
G01 X63.9991 Y3.8274
G01 X63.9639 Y3.7284
G01 X63.9370 Y3.6214
G01 X63.9209 Y3.5122
G01 X63.9154 Y3.4020
G00 Z3.0000
G00 X63.6246 Y1.3700
G01 F60.00
G01 Z-0.0300
G01 F90.00
G01 X63.6246 Y3.4020
G01 X63.6195 Y3.5069
G01 X63.6185 Y3.5175
G01 X63.6030 Y3.6214
G01 X63.5761 Y3.7284
G01 X63.5390 Y3.8323
G01 X63.4918 Y3.9321
G01 X63.4350 Y4.0268
G01 X63.3693 Y4.1154
G01 X63.2952 Y4.1972
G01 X63.2134 Y4.2713
G01 X63.1248 Y4.3370
G01 X63.0301 Y4.3938
G01 X62.9303 Y4.4410
G01 X62.8264 Y4.4781
G01 X62.7194 Y4.5050
G01 X62.6102 Y4.5211
G01 X62.5000 Y4.5266
G01 X62.3898 Y4.5211
G01 X62.2806 Y4.5050
G01 X62.1736 Y4.4781
G01 X62.0697 Y4.4410
G01 X61.9699 Y4.3938
G01 X61.8797 Y4.3399
G01 X61.8709 Y4.3340
G01 X61.7866 Y4.2713
G01 X61.7087 Y4.2008
G01 X61.7012 Y4.1933
G01 X61.6307 Y4.1154
G01 X61.5650 Y4.0268
G01 X61.5082 Y3.9321
G01 X61.4632 Y3.8372
G01 X61.4591 Y3.8274
G01 X61.4239 Y3.7284
G01 X61.3982 Y3.6266
G01 X61.3961 Y3.6162
G01 X61.3811 Y3.5149
G01 X61.3805 Y3.5069
G01 X61.3754 Y3.4020
G01 X61.3756 Y1.3647
G01 X61.3805 Y1.2651
G01 X61.3815 Y1.2545
G01 X61.3970 Y1.1506
G01 X61.4225 Y1.0487
G01 X61.4255 Y1.0385
G01 X61.4610 Y0.9397
G01 X61.5082 Y0.8399
G01 X61.5650 Y0.7452
G01 X61.6307 Y0.6566
G01 X61.7048 Y0.5748
G01 X61.7826 Y0.5042
G01 X61.7908 Y0.4974
G01 X61.8709 Y0.4380
G01 X61.8797 Y0.4321
G01 X61.9699 Y0.3782
G01 X62.0697 Y0.3310
G01 X62.1736 Y0.2939
G01 X62.2754 Y0.2682
G01 X62.2858 Y0.2661
G01 X62.3845 Y0.2515
G01 X62.3951 Y0.2505
G01 X62.5000 Y0.2454
G01 X62.6102 Y0.2509
G01 X62.7194 Y0.2670
G01 X62.8213 Y0.2925
G01 X62.8315 Y0.2955
G01 X62.9254 Y0.3291
G01 X62.9352 Y0.3332
G01 X63.0301 Y0.3782
G01 X63.1248 Y0.4350
G01 X63.2134 Y0.5007
G01 X63.2913 Y0.5712
G01 X63.2988 Y0.5787
G01 X63.3658 Y0.6526
G01 X63.3726 Y0.6608
G01 X63.4350 Y0.7452
G01 X63.4918 Y0.8399
G01 X63.5390 Y0.9397
G01 X63.5745 Y1.0385
G01 X63.5775 Y1.0487
G01 X63.6018 Y1.1454
G01 X63.6039 Y1.1558
G01 X63.6191 Y1.2598
G01 X63.6246 Y1.3700
G00 Z3.0000
G00 X68.9954 Y3.4020
G01 F60.00
G01 Z-0.0300
G01 F90.00
G01 X68.9954 Y1.3700
G01 X69.0005 Y1.2651
G01 X69.0015 Y1.2545
G01 X69.0170 Y1.1506
G01 X69.0439 Y1.0436
G01 X69.0810 Y0.9397
G01 X69.1282 Y0.8399
G01 X69.1850 Y0.7452
G01 X69.2507 Y0.6566
G01 X69.3248 Y0.5748
G01 X69.4066 Y0.5007
G01 X69.4952 Y0.4350
G01 X69.5899 Y0.3782
G01 X69.6897 Y0.3310
G01 X69.7936 Y0.2939
G01 X69.9006 Y0.2670
G01 X70.0098 Y0.2509
G01 X70.1200 Y0.2454
G01 X70.2302 Y0.2509
G01 X70.3394 Y0.2670
G01 X70.4464 Y0.2939
G01 X70.5503 Y0.3310
G01 X70.6501 Y0.3782
G01 X70.7403 Y0.4321
G01 X70.7491 Y0.4380
G01 X70.8334 Y0.5007
G01 X70.9152 Y0.5748
G01 X70.9858 Y0.6526
G01 X70.9926 Y0.6608
G01 X71.0550 Y0.7452
G01 X71.1092 Y0.8353
G01 X71.1142 Y0.8446
G01 X71.1590 Y0.9397
G01 X71.1945 Y1.0385
G01 X71.1975 Y1.0487
G01 X71.2230 Y1.1506
G01 X71.2385 Y1.2545
G01 X71.2395 Y1.2651
G01 X71.2446 Y1.3700
G01 X71.2446 Y3.4020
G01 X71.2395 Y3.5069
G01 X71.2389 Y3.5149
G01 X71.2230 Y3.6214
G01 X71.1961 Y3.7284
G01 X71.1590 Y3.8323
G01 X71.1130 Y3.9298
G01 X71.1092 Y3.9367
G01 X71.0550 Y4.0268
G01 X70.9910 Y4.1133
G01 X70.9858 Y4.1194
G01 X70.9170 Y4.1953
G01 X70.9113 Y4.2008
G01 X70.8634 Y4.2443
G01 X70.8634 Y49.3775
G01 X70.9389 Y49.4461
G01 X71.0117 Y49.5263
G01 X71.0184 Y49.5345
G01 X71.0798 Y49.6173
G01 X71.0857 Y49.6261
G01 X71.1413 Y49.7191
G01 X71.1877 Y49.8170
G01 X71.1918 Y49.8268
G01 X71.2282 Y49.9288
G01 X71.2558 Y50.0391
G01 X71.2725 Y50.1515
G01 X71.2780 Y50.2650
G01 X71.2725 Y50.3785
G01 X71.2558 Y50.4909
G01 X71.2282 Y50.6012
G01 X71.1918 Y50.7032
G01 X71.1877 Y50.7130
G01 X71.1413 Y50.8109
G01 X71.0857 Y50.9039
G01 X71.0798 Y50.9127
G01 X71.0184 Y50.9955
G01 X71.0117 Y51.0037
G01 X70.9389 Y51.0839
G01 X70.8634 Y51.1525
G01 X70.8634 Y53.1875
G01 X70.9389 Y53.2561
G01 X71.0117 Y53.3363
G01 X71.0184 Y53.3445
G01 X71.0798 Y53.4273
G01 X71.0857 Y53.4361
G01 X71.1413 Y53.5291
G01 X71.1877 Y53.6270
G01 X71.1918 Y53.6368
G01 X71.2282 Y53.7388
G01 X71.2558 Y53.8491
G01 X71.2725 Y53.9615
G01 X71.2780 Y54.0750
G01 X71.2725 Y54.1885
G01 X71.2558 Y54.3009
G01 X71.2282 Y54.4112
G01 X71.1899 Y54.5182
G01 X71.1413 Y54.6209
G01 X71.0829 Y54.7184
G01 X71.0152 Y54.8097
G01 X70.9389 Y54.8939
G01 X70.8547 Y54.9702
G01 X70.7634 Y55.0379
G01 X70.6659 Y55.0963
G01 X70.5632 Y55.1449
G01 X70.4562 Y55.1832
G01 X70.3459 Y55.2108
G01 X70.2335 Y55.2275
G01 X70.1227 Y55.2330
G01 X70.1147 Y55.2329
G01 X70.0065 Y55.2275
G01 X69.8941 Y55.2108
G01 X69.7838 Y55.1832
G01 X69.6768 Y55.1449
G01 X69.5741 Y55.0963
G01 X69.4766 Y55.0379
G01 X69.3853 Y54.9702
G01 X69.3011 Y54.8939
G01 X69.2248 Y54.8097
G01 X69.1571 Y54.7184
G01 X69.0987 Y54.6209
G01 X69.0501 Y54.5182
G01 X69.0118 Y54.4112
G01 X68.9842 Y54.3009
G01 X68.9675 Y54.1885
G01 X68.9620 Y54.0777
G01 X68.9621 Y54.0697
G01 X68.9675 Y53.9615
G01 X68.9842 Y53.8491
G01 X69.0118 Y53.7388
G01 X69.0482 Y53.6368
G01 X69.0523 Y53.6270
G01 X69.0987 Y53.5291
G01 X69.1543 Y53.4361
G01 X69.1602 Y53.4273
G01 X69.2216 Y53.3445
G01 X69.2283 Y53.3363
G01 X69.3011 Y53.2561
G01 X69.3766 Y53.1875
G01 X69.3766 Y51.1525
G01 X69.3011 Y51.0839
G01 X69.2283 Y51.0037
G01 X69.2216 Y50.9955
G01 X69.1602 Y50.9127
G01 X69.1543 Y50.9039
G01 X69.0987 Y50.8109
G01 X69.0523 Y50.7130
G01 X69.0482 Y50.7032
G01 X69.0118 Y50.6012
G01 X68.9842 Y50.4909
G01 X68.9675 Y50.3785
G01 X68.9620 Y50.2650
G01 X68.9675 Y50.1515
G01 X68.9842 Y50.0391
G01 X69.0118 Y49.9288
G01 X69.0482 Y49.8268
G01 X69.0523 Y49.8170
G01 X69.0987 Y49.7191
G01 X69.1543 Y49.6261
G01 X69.1602 Y49.6173
G01 X69.2216 Y49.5345
G01 X69.2283 Y49.5263
G01 X69.3011 Y49.4461
G01 X69.3766 Y49.3775
G01 X69.3766 Y4.2443
G01 X69.3248 Y4.1972
G01 X69.2524 Y4.1174
G01 X69.2474 Y4.1112
G01 X69.1865 Y4.0290
G01 X69.1821 Y4.0223
G01 X69.1282 Y3.9321
G01 X69.0821 Y3.8348
G01 X69.0791 Y3.8274
G01 X69.0439 Y3.7284
G01 X69.0170 Y3.6214
G01 X69.0009 Y3.5122
G01 X68.9954 Y3.4020
G00 Z3.0000
G00 X74.0754 Y3.4020
G01 F60.00
G01 Z-0.0300
G01 F90.00
G01 X74.0754 Y1.3700
G01 X74.0805 Y1.2651
G01 X74.0815 Y1.2545
G01 X74.0970 Y1.1506
G01 X74.1239 Y1.0436
G01 X74.1610 Y0.9397
G01 X74.2082 Y0.8399
G01 X74.2650 Y0.7452
G01 X74.3307 Y0.6566
G01 X74.4048 Y0.5748
G01 X74.4866 Y0.5007
G01 X74.5752 Y0.4350
G01 X74.6699 Y0.3782
G01 X74.7697 Y0.3310
G01 X74.8736 Y0.2939
G01 X74.9806 Y0.2670
G01 X75.0898 Y0.2509
G01 X75.2000 Y0.2454
G01 X75.3102 Y0.2509
G01 X75.4194 Y0.2670
G01 X75.5264 Y0.2939
G01 X75.6303 Y0.3310
G01 X75.7301 Y0.3782
G01 X75.8203 Y0.4321
G01 X75.8291 Y0.4380
G01 X75.9134 Y0.5007
G01 X75.9913 Y0.5712
G01 X75.9988 Y0.5787
G01 X76.0693 Y0.6566
G01 X76.1320 Y0.7409
G01 X76.1379 Y0.7497
G01 X76.1918 Y0.8399
G01 X76.2368 Y0.9348
G01 X76.2409 Y0.9446
G01 X76.2761 Y1.0436
G01 X76.3018 Y1.1454
G01 X76.3039 Y1.1558
G01 X76.3191 Y1.2598
G01 X76.3245 Y1.3673
G01 X76.3246 Y3.4020
G01 X76.3195 Y3.5069
G01 X76.3189 Y3.5149
G01 X76.3030 Y3.6214
G01 X76.2761 Y3.7284
G01 X76.2390 Y3.8323
G01 X76.1930 Y3.9298
G01 X76.1892 Y3.9367
G01 X76.1350 Y4.0268
G01 X76.0710 Y4.1133
G01 X76.0658 Y4.1194
G01 X75.9970 Y4.1953
G01 X75.9913 Y4.2008
G01 X75.9434 Y4.2443
G01 X75.9434 Y39.2175
G01 X76.0189 Y39.2861
G01 X76.0917 Y39.3663
G01 X76.0984 Y39.3745
G01 X76.1598 Y39.4573
G01 X76.1657 Y39.4661
G01 X76.2213 Y39.5591
G01 X76.2677 Y39.6570
G01 X76.2718 Y39.6668
G01 X76.3082 Y39.7688
G01 X76.3358 Y39.8791
G01 X76.3525 Y39.9915
G01 X76.3580 Y40.1050
G01 X76.3525 Y40.2185
G01 X76.3358 Y40.3309
G01 X76.3082 Y40.4412
G01 X76.2718 Y40.5432
G01 X76.2677 Y40.5530
G01 X76.2213 Y40.6509
G01 X76.1657 Y40.7439
G01 X76.1598 Y40.7527
G01 X76.0984 Y40.8355
G01 X76.0917 Y40.8437
G01 X76.0189 Y40.9239
G01 X75.9434 Y40.9925
G01 X75.9434 Y49.3775
G01 X76.0189 Y49.4461
G01 X76.0917 Y49.5263
G01 X76.0984 Y49.5345
G01 X76.1598 Y49.6173
G01 X76.1657 Y49.6261
G01 X76.2213 Y49.7191
G01 X76.2677 Y49.8170
G01 X76.2718 Y49.8268
G01 X76.3082 Y49.9288
G01 X76.3358 Y50.0391
G01 X76.3525 Y50.1515
G01 X76.3580 Y50.2650
G01 X76.3525 Y50.3785
G01 X76.3358 Y50.4909
G01 X76.3082 Y50.6012
G01 X76.2699 Y50.7082
G01 X76.2213 Y50.8109
G01 X76.1629 Y50.9084
G01 X76.0952 Y50.9997
G01 X76.0189 Y51.0839
G01 X75.9347 Y51.1602
G01 X75.8434 Y51.2279
G01 X75.7459 Y51.2863
G01 X75.6432 Y51.3349
G01 X75.5362 Y51.3732
G01 X75.4259 Y51.4008
G01 X75.3135 Y51.4175
G01 X75.2027 Y51.4230
G01 X75.1947 Y51.4229
G01 X75.0865 Y51.4175
G01 X74.9741 Y51.4008
G01 X74.8638 Y51.3732
G01 X74.7568 Y51.3349
G01 X74.6541 Y51.2863
G01 X74.5566 Y51.2279
G01 X74.4653 Y51.1602
G01 X74.3811 Y51.0839
G01 X74.3048 Y50.9997
G01 X74.2371 Y50.9084
G01 X74.1787 Y50.8109
G01 X74.1301 Y50.7082
G01 X74.0918 Y50.6012
G01 X74.0642 Y50.4909
G01 X74.0475 Y50.3785
G01 X74.0420 Y50.2677
G01 X74.0421 Y50.2597
G01 X74.0475 Y50.1515
G01 X74.0642 Y50.0391
G01 X74.0918 Y49.9288
G01 X74.1282 Y49.8268
G01 X74.1323 Y49.8170
G01 X74.1787 Y49.7191
G01 X74.2343 Y49.6261
G01 X74.2402 Y49.6173
G01 X74.3016 Y49.5345
G01 X74.3083 Y49.5263
G01 X74.3811 Y49.4461
G01 X74.4566 Y49.3775
G01 X74.4566 Y40.9925
G01 X74.3811 Y40.9239
G01 X74.3083 Y40.8437
G01 X74.3016 Y40.8355
G01 X74.2402 Y40.7527
G01 X74.2343 Y40.7439
G01 X74.1787 Y40.6509
G01 X74.1323 Y40.5530
G01 X74.1282 Y40.5432
G01 X74.0918 Y40.4412
G01 X74.0642 Y40.3309
G01 X74.0475 Y40.2185
G01 X74.0420 Y40.1050
G01 X74.0475 Y39.9915
G01 X74.0642 Y39.8791
G01 X74.0918 Y39.7688
G01 X74.1282 Y39.6668
G01 X74.1323 Y39.6570
G01 X74.1787 Y39.5591
G01 X74.2343 Y39.4661
G01 X74.2402 Y39.4573
G01 X74.3016 Y39.3745
G01 X74.3083 Y39.3663
G01 X74.3811 Y39.2861
G01 X74.4566 Y39.2175
G01 X74.4566 Y4.2443
G01 X74.4048 Y4.1972
G01 X74.3324 Y4.1174
G01 X74.3274 Y4.1112
G01 X74.2665 Y4.0290
G01 X74.2621 Y4.0223
G01 X74.2082 Y3.9321
G01 X74.1621 Y3.8348
G01 X74.1591 Y3.8274
G01 X74.1239 Y3.7284
G01 X74.0970 Y3.6214
G01 X74.0809 Y3.5122
G01 X74.0754 Y3.4020
G00 Z3.0000
G00 X79.1554 Y3.4020
G01 F60.00
G01 Z-0.0300
G01 F90.00
G01 X79.1554 Y1.3700
G01 X79.1605 Y1.2651
G01 X79.1615 Y1.2545
G01 X79.1770 Y1.1506
G01 X79.2039 Y1.0436
G01 X79.2410 Y0.9397
G01 X79.2882 Y0.8399
G01 X79.3450 Y0.7452
G01 X79.4107 Y0.6566
G01 X79.4848 Y0.5748
G01 X79.5666 Y0.5007
G01 X79.6552 Y0.4350
G01 X79.7499 Y0.3782
G01 X79.8497 Y0.3310
G01 X79.9536 Y0.2939
G01 X80.0606 Y0.2670
G01 X80.1698 Y0.2509
G01 X80.2800 Y0.2454
G01 X80.3902 Y0.2509
G01 X80.4994 Y0.2670
G01 X80.6064 Y0.2939
G01 X80.7103 Y0.3310
G01 X80.8101 Y0.3782
G01 X80.9003 Y0.4321
G01 X80.9091 Y0.4380
G01 X80.9934 Y0.5007
G01 X81.0713 Y0.5712
G01 X81.0788 Y0.5787
G01 X81.1493 Y0.6566
G01 X81.2120 Y0.7409
G01 X81.2179 Y0.7497
G01 X81.2718 Y0.8399
G01 X81.3168 Y0.9348
G01 X81.3209 Y0.9446
G01 X81.3561 Y1.0436
G01 X81.3818 Y1.1454
G01 X81.3839 Y1.1558
G01 X81.3991 Y1.2598
G01 X81.4045 Y1.3673
G01 X81.4046 Y3.4020
G01 X81.3995 Y3.5069
G01 X81.3989 Y3.5149
G01 X81.3830 Y3.6214
G01 X81.3561 Y3.7284
G01 X81.3190 Y3.8323
G01 X81.2730 Y3.9298
G01 X81.2692 Y3.9367
G01 X81.2150 Y4.0268
G01 X81.1510 Y4.1133
G01 X81.1458 Y4.1194
G01 X81.0770 Y4.1953
G01 X81.0713 Y4.2008
G01 X81.0234 Y4.2443
G01 X81.0234 Y11.9125
G01 X81.0989 Y11.9811
G01 X81.1717 Y12.0613
G01 X81.1784 Y12.0695
G01 X81.2398 Y12.1523
G01 X81.2457 Y12.1611
G01 X81.3013 Y12.2541
G01 X81.3477 Y12.3520
G01 X81.3518 Y12.3618
G01 X81.3882 Y12.4638
G01 X81.4158 Y12.5741
G01 X81.4325 Y12.6865
G01 X81.4380 Y12.8000
G01 X81.4325 Y12.9135
G01 X81.4158 Y13.0259
G01 X81.3882 Y13.1362
G01 X81.3518 Y13.2382
G01 X81.3477 Y13.2480
G01 X81.3013 Y13.3459
G01 X81.2457 Y13.4389
G01 X81.2398 Y13.4477
G01 X81.1784 Y13.5305
G01 X81.1717 Y13.5387
G01 X81.0989 Y13.6189
G01 X81.0234 Y13.6875
G01 X81.0234 Y49.3775
G01 X81.0989 Y49.4461
G01 X81.1717 Y49.5263
G01 X81.1784 Y49.5345
G01 X81.2398 Y49.6173
G01 X81.2457 Y49.6261
G01 X81.3013 Y49.7191
G01 X81.3477 Y49.8170
G01 X81.3518 Y49.8268
G01 X81.3882 Y49.9288
G01 X81.4158 Y50.0391
G01 X81.4325 Y50.1515
G01 X81.4380 Y50.2650
G01 X81.4325 Y50.3785
G01 X81.4158 Y50.4909
G01 X81.3882 Y50.6012
G01 X81.3499 Y50.7082
G01 X81.3013 Y50.8109
G01 X81.2429 Y50.9084
G01 X81.1752 Y50.9997
G01 X81.0989 Y51.0839
G01 X81.0147 Y51.1602
G01 X80.9234 Y51.2279
G01 X80.8259 Y51.2863
G01 X80.7232 Y51.3349
G01 X80.6162 Y51.3732
G01 X80.5059 Y51.4008
G01 X80.3935 Y51.4175
G01 X80.2827 Y51.4230
G01 X80.2747 Y51.4229
G01 X80.1665 Y51.4175
G01 X80.0541 Y51.4008
G01 X79.9438 Y51.3732
G01 X79.8368 Y51.3349
G01 X79.7341 Y51.2863
G01 X79.6366 Y51.2279
G01 X79.5453 Y51.1602
G01 X79.4611 Y51.0839
G01 X79.3848 Y50.9997
G01 X79.3171 Y50.9084
G01 X79.2587 Y50.8109
G01 X79.2101 Y50.7082
G01 X79.1718 Y50.6012
G01 X79.1442 Y50.4909
G01 X79.1275 Y50.3785
G01 X79.1220 Y50.2677
G01 X79.1221 Y50.2597
G01 X79.1275 Y50.1515
G01 X79.1442 Y50.0391
G01 X79.1718 Y49.9288
G01 X79.2082 Y49.8268
G01 X79.2123 Y49.8170
G01 X79.2587 Y49.7191
G01 X79.3143 Y49.6261
G01 X79.3202 Y49.6173
G01 X79.3816 Y49.5345
G01 X79.3883 Y49.5263
G01 X79.4611 Y49.4461
G01 X79.5366 Y49.3775
G01 X79.5366 Y13.6875
G01 X79.4611 Y13.6189
G01 X79.3883 Y13.5387
G01 X79.3816 Y13.5305
G01 X79.3202 Y13.4477
G01 X79.3143 Y13.4389
G01 X79.2587 Y13.3459
G01 X79.2123 Y13.2480
G01 X79.2082 Y13.2382
G01 X79.1718 Y13.1362
G01 X79.1442 Y13.0259
G01 X79.1275 Y12.9135
G01 X79.1220 Y12.8000
G01 X79.1275 Y12.6865
G01 X79.1442 Y12.5741
G01 X79.1718 Y12.4638
G01 X79.2082 Y12.3618
G01 X79.2123 Y12.3520
G01 X79.2587 Y12.2541
G01 X79.3143 Y12.1611
G01 X79.3202 Y12.1523
G01 X79.3816 Y12.0695
G01 X79.3883 Y12.0613
G01 X79.4611 Y11.9811
G01 X79.5366 Y11.9125
G01 X79.5366 Y4.2443
G01 X79.4848 Y4.1972
G01 X79.4124 Y4.1174
G01 X79.4074 Y4.1112
G01 X79.3465 Y4.0290
G01 X79.3421 Y4.0223
G01 X79.2882 Y3.9321
G01 X79.2421 Y3.8348
G01 X79.2391 Y3.8274
G01 X79.2039 Y3.7284
G01 X79.1770 Y3.6214
G01 X79.1609 Y3.5122
G01 X79.1554 Y3.4020
G00 Z3.0000
G00 X84.2354 Y3.4020
G01 F60.00
G01 Z-0.0300
G01 F90.00
G01 X84.2354 Y1.3700
G01 X84.2405 Y1.2651
G01 X84.2415 Y1.2545
G01 X84.2570 Y1.1506
G01 X84.2839 Y1.0436
G01 X84.3210 Y0.9397
G01 X84.3682 Y0.8399
G01 X84.4250 Y0.7452
G01 X84.4907 Y0.6566
G01 X84.5648 Y0.5748
G01 X84.6466 Y0.5007
G01 X84.7352 Y0.4350
G01 X84.8299 Y0.3782
G01 X84.9297 Y0.3310
G01 X85.0336 Y0.2939
G01 X85.1406 Y0.2670
G01 X85.2498 Y0.2509
G01 X85.3600 Y0.2454
G01 X85.4702 Y0.2509
G01 X85.5794 Y0.2670
G01 X85.6864 Y0.2939
G01 X85.7903 Y0.3310
G01 X85.8901 Y0.3782
G01 X85.9803 Y0.4321
G01 X85.9891 Y0.4380
G01 X86.0734 Y0.5007
G01 X86.1513 Y0.5712
G01 X86.1588 Y0.5787
G01 X86.2293 Y0.6566
G01 X86.2920 Y0.7409
G01 X86.2979 Y0.7497
G01 X86.3518 Y0.8399
G01 X86.3968 Y0.9348
G01 X86.4009 Y0.9446
G01 X86.4361 Y1.0436
G01 X86.4618 Y1.1454
G01 X86.4639 Y1.1558
G01 X86.4791 Y1.2598
G01 X86.4845 Y1.3673
G01 X86.4846 Y3.4020
G01 X86.4795 Y3.5069
G01 X86.4789 Y3.5149
G01 X86.4630 Y3.6214
G01 X86.4361 Y3.7284
G01 X86.3990 Y3.8323
G01 X86.3530 Y3.9298
G01 X86.3492 Y3.9367
G01 X86.2950 Y4.0268
G01 X86.2310 Y4.1133
G01 X86.2258 Y4.1194
G01 X86.1570 Y4.1953
G01 X86.1513 Y4.2008
G01 X86.1034 Y4.2443
G01 X86.1034 Y5.5625
G01 X86.1789 Y5.6311
G01 X86.2517 Y5.7113
G01 X86.2584 Y5.7195
G01 X86.3198 Y5.8023
G01 X86.3257 Y5.8111
G01 X86.3813 Y5.9041
G01 X86.4277 Y6.0020
G01 X86.4318 Y6.0118
G01 X86.4682 Y6.1138
G01 X86.4958 Y6.2241
G01 X86.5125 Y6.3365
G01 X86.5180 Y6.4500
G01 X86.5125 Y6.5635
G01 X86.4958 Y6.6759
G01 X86.4682 Y6.7862
G01 X86.4318 Y6.8882
G01 X86.4277 Y6.8980
G01 X86.3813 Y6.9959
G01 X86.3257 Y7.0889
G01 X86.3198 Y7.0977
G01 X86.2584 Y7.1805
G01 X86.2517 Y7.1887
G01 X86.1789 Y7.2689
G01 X86.1034 Y7.3375
G01 X86.1034 Y49.3775
G01 X86.1789 Y49.4461
G01 X86.2517 Y49.5263
G01 X86.2584 Y49.5345
G01 X86.3198 Y49.6173
G01 X86.3257 Y49.6261
G01 X86.3813 Y49.7191
G01 X86.4277 Y49.8170
G01 X86.4318 Y49.8268
G01 X86.4682 Y49.9288
G01 X86.4958 Y50.0391
G01 X86.5125 Y50.1515
G01 X86.5180 Y50.2650
G01 X86.5125 Y50.3785
G01 X86.4958 Y50.4909
G01 X86.4682 Y50.6012
G01 X86.4299 Y50.7082
G01 X86.3813 Y50.8109
G01 X86.3229 Y50.9084
G01 X86.2552 Y50.9997
G01 X86.1789 Y51.0839
G01 X86.0947 Y51.1602
G01 X86.0034 Y51.2279
G01 X85.9059 Y51.2863
G01 X85.8032 Y51.3349
G01 X85.6962 Y51.3732
G01 X85.5859 Y51.4008
G01 X85.4735 Y51.4175
G01 X85.3627 Y51.4230
G01 X85.3547 Y51.4229
G01 X85.2465 Y51.4175
G01 X85.1341 Y51.4008
G01 X85.0238 Y51.3732
G01 X84.9168 Y51.3349
G01 X84.8141 Y51.2863
G01 X84.7166 Y51.2279
G01 X84.6253 Y51.1602
G01 X84.5411 Y51.0839
G01 X84.4648 Y50.9997
G01 X84.3971 Y50.9084
G01 X84.3387 Y50.8109
G01 X84.2901 Y50.7082
G01 X84.2518 Y50.6012
G01 X84.2242 Y50.4909
G01 X84.2075 Y50.3785
G01 X84.2020 Y50.2677
G01 X84.2021 Y50.2597
G01 X84.2075 Y50.1515
G01 X84.2242 Y50.0391
G01 X84.2518 Y49.9288
G01 X84.2882 Y49.8268
G01 X84.2923 Y49.8170
G01 X84.3387 Y49.7191
G01 X84.3943 Y49.6261
G01 X84.4002 Y49.6173
G01 X84.4616 Y49.5345
G01 X84.4683 Y49.5263
G01 X84.5411 Y49.4461
G01 X84.6166 Y49.3775
G01 X84.6166 Y7.3375
G01 X84.5411 Y7.2689
G01 X84.4683 Y7.1887
G01 X84.4616 Y7.1805
G01 X84.4002 Y7.0977
G01 X84.3943 Y7.0889
G01 X84.3387 Y6.9959
G01 X84.2923 Y6.8980
G01 X84.2882 Y6.8882
G01 X84.2518 Y6.7862
G01 X84.2242 Y6.6759
G01 X84.2075 Y6.5635
G01 X84.2020 Y6.4500
G01 X84.2075 Y6.3365
G01 X84.2242 Y6.2241
G01 X84.2518 Y6.1138
G01 X84.2882 Y6.0118
G01 X84.2923 Y6.0020
G01 X84.3387 Y5.9041
G01 X84.3943 Y5.8111
G01 X84.4002 Y5.8023
G01 X84.4616 Y5.7195
G01 X84.4683 Y5.7113
G01 X84.5411 Y5.6311
G01 X84.6166 Y5.5625
G01 X84.6166 Y4.2443
G01 X84.5648 Y4.1972
G01 X84.4924 Y4.1174
G01 X84.4874 Y4.1112
G01 X84.4265 Y4.0290
G01 X84.4221 Y4.0223
G01 X84.3682 Y3.9321
G01 X84.3221 Y3.8348
G01 X84.3191 Y3.8274
G01 X84.2839 Y3.7284
G01 X84.2570 Y3.6214
G01 X84.2409 Y3.5122
G01 X84.2354 Y3.4020
G00 Z3.0000
G00 X89.3154 Y3.4020
G01 F60.00
G01 Z-0.0300
G01 F90.00
G01 X89.3154 Y1.3700
G01 X89.3205 Y1.2651
G01 X89.3215 Y1.2545
G01 X89.3370 Y1.1506
G01 X89.3639 Y1.0436
G01 X89.4010 Y0.9397
G01 X89.4482 Y0.8399
G01 X89.5050 Y0.7452
G01 X89.5707 Y0.6566
G01 X89.6448 Y0.5748
G01 X89.7266 Y0.5007
G01 X89.8152 Y0.4350
G01 X89.9099 Y0.3782
G01 X90.0097 Y0.3310
G01 X90.1136 Y0.2939
G01 X90.2206 Y0.2670
G01 X90.3298 Y0.2509
G01 X90.4400 Y0.2454
G01 X90.5502 Y0.2509
G01 X90.6594 Y0.2670
G01 X90.7664 Y0.2939
G01 X90.8703 Y0.3310
G01 X90.9701 Y0.3782
G01 X91.0603 Y0.4321
G01 X91.0691 Y0.4380
G01 X91.1534 Y0.5007
G01 X91.2313 Y0.5712
G01 X91.2388 Y0.5787
G01 X91.3093 Y0.6566
G01 X91.3750 Y0.7452
G01 X91.4318 Y0.8399
G01 X91.4768 Y0.9348
G01 X91.4809 Y0.9446
G01 X91.5161 Y1.0436
G01 X91.5418 Y1.1454
G01 X91.5439 Y1.1558
G01 X91.5589 Y1.2571
G01 X91.5595 Y1.2651
G01 X91.5646 Y1.3700
G01 X91.5644 Y3.4073
G01 X91.5595 Y3.5069
G01 X91.5585 Y3.5175
G01 X91.5430 Y3.6214
G01 X91.5175 Y3.7233
G01 X91.5145 Y3.7335
G01 X91.4790 Y3.8323
G01 X91.4318 Y3.9321
G01 X91.3750 Y4.0268
G01 X91.3126 Y4.1112
G01 X91.3058 Y4.1194
G01 X91.2388 Y4.1933
G01 X91.2313 Y4.2008
G01 X91.1534 Y4.2713
G01 X91.0648 Y4.3370
G01 X90.9701 Y4.3938
G01 X90.8703 Y4.4410
G01 X90.7664 Y4.4781
G01 X90.6646 Y4.5038
G01 X90.6542 Y4.5059
G01 X90.5555 Y4.5205
G01 X90.5449 Y4.5215
G01 X90.4400 Y4.5266
G01 X90.3298 Y4.5211
G01 X90.2206 Y4.5050
G01 X90.1187 Y4.4795
G01 X90.1085 Y4.4765
G01 X90.0146 Y4.4429
G01 X90.0048 Y4.4388
G01 X89.9099 Y4.3938
G01 X89.8152 Y4.3370
G01 X89.7266 Y4.2713
G01 X89.6487 Y4.2008
G01 X89.6412 Y4.1933
G01 X89.5742 Y4.1194
G01 X89.5674 Y4.1112
G01 X89.5050 Y4.0268
G01 X89.4482 Y3.9321
G01 X89.4010 Y3.8323
G01 X89.3655 Y3.7335
G01 X89.3625 Y3.7233
G01 X89.3382 Y3.6266
G01 X89.3361 Y3.6162
G01 X89.3209 Y3.5122
G01 X89.3154 Y3.4020
G00 Z3.0000
G00 X89.0246 Y1.3700
G01 F60.00
G01 Z-0.0300
G01 F90.00
G01 X89.0246 Y3.4020
G01 X89.0195 Y3.5069
G01 X89.0185 Y3.5175
G01 X89.0030 Y3.6214
G01 X88.9761 Y3.7284
G01 X88.9390 Y3.8323
G01 X88.8918 Y3.9321
G01 X88.8350 Y4.0268
G01 X88.7693 Y4.1154
G01 X88.6952 Y4.1972
G01 X88.6134 Y4.2713
G01 X88.5248 Y4.3370
G01 X88.4301 Y4.3938
G01 X88.3303 Y4.4410
G01 X88.2264 Y4.4781
G01 X88.1194 Y4.5050
G01 X88.0102 Y4.5211
G01 X87.9000 Y4.5266
G01 X87.7898 Y4.5211
G01 X87.6806 Y4.5050
G01 X87.5736 Y4.4781
G01 X87.4697 Y4.4410
G01 X87.3699 Y4.3938
G01 X87.2797 Y4.3399
G01 X87.2709 Y4.3340
G01 X87.1866 Y4.2713
G01 X87.1087 Y4.2008
G01 X87.1012 Y4.1933
G01 X87.0307 Y4.1154
G01 X86.9650 Y4.0268
G01 X86.9082 Y3.9321
G01 X86.8632 Y3.8372
G01 X86.8591 Y3.8274
G01 X86.8239 Y3.7284
G01 X86.7982 Y3.6266
G01 X86.7961 Y3.6162
G01 X86.7811 Y3.5149
G01 X86.7805 Y3.5069
G01 X86.7754 Y3.4020
G01 X86.7756 Y1.3647
G01 X86.7805 Y1.2651
G01 X86.7815 Y1.2545
G01 X86.7970 Y1.1506
G01 X86.8225 Y1.0487
G01 X86.8255 Y1.0385
G01 X86.8610 Y0.9397
G01 X86.9082 Y0.8399
G01 X86.9650 Y0.7452
G01 X87.0274 Y0.6608
G01 X87.0342 Y0.6526
G01 X87.1012 Y0.5787
G01 X87.1087 Y0.5712
G01 X87.1866 Y0.5007
G01 X87.2752 Y0.4350
G01 X87.3699 Y0.3782
G01 X87.4697 Y0.3310
G01 X87.5736 Y0.2939
G01 X87.6754 Y0.2682
G01 X87.6858 Y0.2661
G01 X87.7845 Y0.2515
G01 X87.7951 Y0.2505
G01 X87.9000 Y0.2454
G01 X88.0102 Y0.2509
G01 X88.1194 Y0.2670
G01 X88.2213 Y0.2925
G01 X88.2315 Y0.2955
G01 X88.3254 Y0.3291
G01 X88.3352 Y0.3332
G01 X88.4301 Y0.3782
G01 X88.5248 Y0.4350
G01 X88.6134 Y0.5007
G01 X88.6913 Y0.5712
G01 X88.6988 Y0.5787
G01 X88.7658 Y0.6526
G01 X88.7726 Y0.6608
G01 X88.8350 Y0.7452
G01 X88.8918 Y0.8399
G01 X88.9390 Y0.9397
G01 X88.9745 Y1.0385
G01 X88.9775 Y1.0487
G01 X89.0018 Y1.1454
G01 X89.0039 Y1.1558
G01 X89.0191 Y1.2598
G01 X89.0246 Y1.3700
G00 Z3.0000
G00 X94.1046 Y1.3700
G01 F60.00
G01 Z-0.0300
G01 F90.00
G01 X94.1046 Y3.4020
G01 X94.0995 Y3.5069
G01 X94.0985 Y3.5175
G01 X94.0830 Y3.6214
G01 X94.0561 Y3.7284
G01 X94.0190 Y3.8323
G01 X93.9718 Y3.9321
G01 X93.9150 Y4.0268
G01 X93.8493 Y4.1154
G01 X93.7752 Y4.1972
G01 X93.6934 Y4.2713
G01 X93.6048 Y4.3370
G01 X93.5101 Y4.3938
G01 X93.4103 Y4.4410
G01 X93.3064 Y4.4781
G01 X93.1994 Y4.5050
G01 X93.0902 Y4.5211
G01 X92.9800 Y4.5266
G01 X92.8698 Y4.5211
G01 X92.7606 Y4.5050
G01 X92.6536 Y4.4781
G01 X92.5497 Y4.4410
G01 X92.4499 Y4.3938
G01 X92.3597 Y4.3399
G01 X92.3509 Y4.3340
G01 X92.2666 Y4.2713
G01 X92.1887 Y4.2008
G01 X92.1812 Y4.1933
G01 X92.1107 Y4.1154
G01 X92.0450 Y4.0268
G01 X91.9882 Y3.9321
G01 X91.9432 Y3.8372
G01 X91.9391 Y3.8274
G01 X91.9039 Y3.7284
G01 X91.8782 Y3.6266
G01 X91.8761 Y3.6162
G01 X91.8611 Y3.5149
G01 X91.8605 Y3.5069
G01 X91.8554 Y3.4020
G01 X91.8556 Y1.3647
G01 X91.8605 Y1.2651
G01 X91.8615 Y1.2545
G01 X91.8770 Y1.1506
G01 X91.9025 Y1.0487
G01 X91.9055 Y1.0385
G01 X91.9410 Y0.9397
G01 X91.9882 Y0.8399
G01 X92.0450 Y0.7452
G01 X92.1074 Y0.6608
G01 X92.1142 Y0.6526
G01 X92.1812 Y0.5787
G01 X92.1887 Y0.5712
G01 X92.2666 Y0.5007
G01 X92.3552 Y0.4350
G01 X92.4499 Y0.3782
G01 X92.5497 Y0.3310
G01 X92.6536 Y0.2939
G01 X92.7554 Y0.2682
G01 X92.7658 Y0.2661
G01 X92.8645 Y0.2515
G01 X92.8751 Y0.2505
G01 X92.9800 Y0.2454
G01 X93.0902 Y0.2509
G01 X93.1994 Y0.2670
G01 X93.3013 Y0.2925
G01 X93.3115 Y0.2955
G01 X93.4054 Y0.3291
G01 X93.4152 Y0.3332
G01 X93.5101 Y0.3782
G01 X93.6048 Y0.4350
G01 X93.6934 Y0.5007
G01 X93.7713 Y0.5712
G01 X93.7788 Y0.5787
G01 X93.8458 Y0.6526
G01 X93.8526 Y0.6608
G01 X93.9150 Y0.7452
G01 X93.9718 Y0.8399
G01 X94.0190 Y0.9397
G01 X94.0545 Y1.0385
G01 X94.0575 Y1.0487
G01 X94.0818 Y1.1454
G01 X94.0839 Y1.1558
G01 X94.0991 Y1.2598
G01 X94.1046 Y1.3700
G00 Z3.0000
G00 X94.3954 Y3.4020
G01 F60.00
G01 Z-0.0300
G01 F90.00
G01 X94.3954 Y1.3700
G01 X94.4005 Y1.2651
G01 X94.4015 Y1.2545
G01 X94.4170 Y1.1506
G01 X94.4439 Y1.0436
G01 X94.4810 Y0.9397
G01 X94.5282 Y0.8399
G01 X94.5850 Y0.7452
G01 X94.6507 Y0.6566
G01 X94.7248 Y0.5748
G01 X94.8066 Y0.5007
G01 X94.8952 Y0.4350
G01 X94.9899 Y0.3782
G01 X95.0897 Y0.3310
G01 X95.1936 Y0.2939
G01 X95.3006 Y0.2670
G01 X95.4098 Y0.2509
G01 X95.5200 Y0.2454
G01 X95.6302 Y0.2509
G01 X95.7394 Y0.2670
G01 X95.8464 Y0.2939
G01 X95.9503 Y0.3310
G01 X96.0501 Y0.3782
G01 X96.1403 Y0.4321
G01 X96.1491 Y0.4380
G01 X96.2334 Y0.5007
G01 X96.3113 Y0.5712
G01 X96.3188 Y0.5787
G01 X96.3893 Y0.6566
G01 X96.4550 Y0.7452
G01 X96.5118 Y0.8399
G01 X96.5568 Y0.9348
G01 X96.5609 Y0.9446
G01 X96.5961 Y1.0436
G01 X96.6218 Y1.1454
G01 X96.6239 Y1.1558
G01 X96.6389 Y1.2571
G01 X96.6395 Y1.2651
G01 X96.6446 Y1.3700
G01 X96.6444 Y3.4073
G01 X96.6395 Y3.5069
G01 X96.6385 Y3.5175
G01 X96.6230 Y3.6214
G01 X96.5975 Y3.7233
G01 X96.5945 Y3.7335
G01 X96.5590 Y3.8323
G01 X96.5118 Y3.9321
G01 X96.4550 Y4.0268
G01 X96.3926 Y4.1112
G01 X96.3858 Y4.1194
G01 X96.3188 Y4.1933
G01 X96.3113 Y4.2008
G01 X96.2334 Y4.2713
G01 X96.1448 Y4.3370
G01 X96.0501 Y4.3938
G01 X95.9503 Y4.4410
G01 X95.8464 Y4.4781
G01 X95.7446 Y4.5038
G01 X95.7342 Y4.5059
G01 X95.6355 Y4.5205
G01 X95.6249 Y4.5215
G01 X95.5200 Y4.5266
G01 X95.4098 Y4.5211
G01 X95.3006 Y4.5050
G01 X95.1987 Y4.4795
G01 X95.1885 Y4.4765
G01 X95.0946 Y4.4429
G01 X95.0848 Y4.4388
G01 X94.9899 Y4.3938
G01 X94.8952 Y4.3370
G01 X94.8066 Y4.2713
G01 X94.7287 Y4.2008
G01 X94.7212 Y4.1933
G01 X94.6542 Y4.1194
G01 X94.6474 Y4.1112
G01 X94.5850 Y4.0268
G01 X94.5282 Y3.9321
G01 X94.4810 Y3.8323
G01 X94.4455 Y3.7335
G01 X94.4425 Y3.7233
G01 X94.4182 Y3.6266
G01 X94.4161 Y3.6162
G01 X94.4009 Y3.5122
G01 X94.3954 Y3.4020
G00 Z3.0000
G00 X99.4754 Y3.4020
G01 F60.00
G01 Z-0.0300
G01 F90.00
G01 X99.4754 Y1.3700
G01 X99.4805 Y1.2651
G01 X99.4815 Y1.2545
G01 X99.4970 Y1.1506
G01 X99.5239 Y1.0436
G01 X99.5610 Y0.9397
G01 X99.6082 Y0.8399
G01 X99.6650 Y0.7452
G01 X99.7307 Y0.6566
G01 X99.8048 Y0.5748
G01 X99.8866 Y0.5007
G01 X99.9752 Y0.4350
G01 X100.0699 Y0.3782
G01 X100.1697 Y0.3310
G01 X100.2736 Y0.2939
G01 X100.3806 Y0.2670
G01 X100.4898 Y0.2509
G01 X100.6000 Y0.2454
G01 X100.7102 Y0.2509
G01 X100.8194 Y0.2670
G01 X100.9264 Y0.2939
G01 X101.0303 Y0.3310
G01 X101.1301 Y0.3782
G01 X101.2203 Y0.4321
G01 X101.2291 Y0.4380
G01 X101.3134 Y0.5007
G01 X101.3913 Y0.5712
G01 X101.3988 Y0.5787
G01 X101.4693 Y0.6566
G01 X101.5350 Y0.7452
G01 X101.5918 Y0.8399
G01 X101.6368 Y0.9348
G01 X101.6409 Y0.9446
G01 X101.6761 Y1.0436
G01 X101.7018 Y1.1454
G01 X101.7039 Y1.1558
G01 X101.7189 Y1.2571
G01 X101.7195 Y1.2651
G01 X101.7246 Y1.3700
G01 X101.7244 Y3.4073
G01 X101.7195 Y3.5069
G01 X101.7185 Y3.5175
G01 X101.7030 Y3.6214
G01 X101.6775 Y3.7233
G01 X101.6745 Y3.7335
G01 X101.6390 Y3.8323
G01 X101.5918 Y3.9321
G01 X101.5350 Y4.0268
G01 X101.4726 Y4.1112
G01 X101.4658 Y4.1194
G01 X101.3988 Y4.1933
G01 X101.3913 Y4.2008
G01 X101.3134 Y4.2713
G01 X101.2248 Y4.3370
G01 X101.1301 Y4.3938
G01 X101.0303 Y4.4410
G01 X100.9264 Y4.4781
G01 X100.8246 Y4.5038
G01 X100.8142 Y4.5059
G01 X100.7155 Y4.5205
G01 X100.7049 Y4.5215
G01 X100.6000 Y4.5266
G01 X100.4898 Y4.5211
G01 X100.3806 Y4.5050
G01 X100.2787 Y4.4795
G01 X100.2685 Y4.4765
G01 X100.1746 Y4.4429
G01 X100.1648 Y4.4388
G01 X100.0699 Y4.3938
G01 X99.9752 Y4.3370
G01 X99.8866 Y4.2713
G01 X99.8087 Y4.2008
G01 X99.8012 Y4.1933
G01 X99.7342 Y4.1194
G01 X99.7274 Y4.1112
G01 X99.6650 Y4.0268
G01 X99.6082 Y3.9321
G01 X99.5610 Y3.8323
G01 X99.5255 Y3.7335
G01 X99.5225 Y3.7233
G01 X99.4982 Y3.6266
G01 X99.4961 Y3.6162
G01 X99.4809 Y3.5122
G01 X99.4754 Y3.4020
G00 Z3.0000
G00 X99.1846 Y1.3700
G01 F60.00
G01 Z-0.0300
G01 F90.00
G01 X99.1846 Y3.4020
G01 X99.1795 Y3.5069
G01 X99.1785 Y3.5175
G01 X99.1630 Y3.6214
G01 X99.1361 Y3.7284
G01 X99.0990 Y3.8323
G01 X99.0518 Y3.9321
G01 X98.9950 Y4.0268
G01 X98.9293 Y4.1154
G01 X98.8552 Y4.1972
G01 X98.7734 Y4.2713
G01 X98.6848 Y4.3370
G01 X98.5901 Y4.3938
G01 X98.4903 Y4.4410
G01 X98.3864 Y4.4781
G01 X98.2794 Y4.5050
G01 X98.1702 Y4.5211
G01 X98.0600 Y4.5266
G01 X97.9498 Y4.5211
G01 X97.8406 Y4.5050
G01 X97.7336 Y4.4781
G01 X97.6297 Y4.4410
G01 X97.5299 Y4.3938
G01 X97.4397 Y4.3399
G01 X97.4309 Y4.3340
G01 X97.3466 Y4.2713
G01 X97.2687 Y4.2008
G01 X97.2612 Y4.1933
G01 X97.1907 Y4.1154
G01 X97.1250 Y4.0268
G01 X97.0682 Y3.9321
G01 X97.0232 Y3.8372
G01 X97.0191 Y3.8274
G01 X96.9839 Y3.7284
G01 X96.9582 Y3.6266
G01 X96.9561 Y3.6162
G01 X96.9411 Y3.5149
G01 X96.9405 Y3.5069
G01 X96.9354 Y3.4020
G01 X96.9356 Y1.3647
G01 X96.9405 Y1.2651
G01 X96.9415 Y1.2545
G01 X96.9570 Y1.1506
G01 X96.9825 Y1.0487
G01 X96.9855 Y1.0385
G01 X97.0210 Y0.9397
G01 X97.0682 Y0.8399
G01 X97.1250 Y0.7452
G01 X97.1874 Y0.6608
G01 X97.1942 Y0.6526
G01 X97.2612 Y0.5787
G01 X97.2687 Y0.5712
G01 X97.3466 Y0.5007
G01 X97.4352 Y0.4350
G01 X97.5299 Y0.3782
G01 X97.6297 Y0.3310
G01 X97.7336 Y0.2939
G01 X97.8354 Y0.2682
G01 X97.8458 Y0.2661
G01 X97.9445 Y0.2515
G01 X97.9551 Y0.2505
G01 X98.0600 Y0.2454
G01 X98.1702 Y0.2509
G01 X98.2794 Y0.2670
G01 X98.3813 Y0.2925
G01 X98.3915 Y0.2955
G01 X98.4854 Y0.3291
G01 X98.4952 Y0.3332
G01 X98.5901 Y0.3782
G01 X98.6848 Y0.4350
G01 X98.7734 Y0.5007
G01 X98.8513 Y0.5712
G01 X98.8588 Y0.5787
G01 X98.9258 Y0.6526
G01 X98.9326 Y0.6608
G01 X98.9950 Y0.7452
G01 X99.0518 Y0.8399
G01 X99.0990 Y0.9397
G01 X99.1345 Y1.0385
G01 X99.1375 Y1.0487
G01 X99.1618 Y1.1454
G01 X99.1639 Y1.1558
G01 X99.1791 Y1.2598
G01 X99.1846 Y1.3700
G00 Z3.0000
G00 X100.7019 Y7.2018
G01 F60.00
G01 Z-0.0300
G01 F90.00
G01 X107.0613 Y0.8425
G01 X107.1134 Y0.7954
G01 X107.1720 Y0.7519
G01 X107.2346 Y0.7144
G01 X107.2957 Y0.6854
G01 X107.3055 Y0.6813
G01 X107.3642 Y0.6603
G01 X107.3743 Y0.6572
G01 X107.4400 Y0.6409
G01 X107.5069 Y0.6309
G01 X107.5148 Y0.6300
G01 X107.5850 Y0.6266
G01 X135.5250 Y0.6266
G01 X135.5979 Y0.6302
G01 X135.6648 Y0.6400
G01 X135.6752 Y0.6421
G01 X135.7408 Y0.6586
G01 X135.8095 Y0.6832
G01 X135.8754 Y0.7144
G01 X135.9335 Y0.7491
G01 X135.9423 Y0.7550
G01 X135.9924 Y0.7921
G01 X136.0006 Y0.7988
G01 X136.0506 Y0.8444
G01 X136.0996 Y0.8984
G01 X136.1431 Y0.9570
G01 X136.1780 Y1.0150
G01 X136.1830 Y1.0243
G01 X136.2096 Y1.0807
G01 X136.2137 Y1.0905
G01 X136.2364 Y1.1542
G01 X136.2529 Y1.2198
G01 X136.2550 Y1.2302
G01 X136.2648 Y1.2971
G01 X136.2684 Y1.3700
G01 X136.2684 Y3.6987
G01 X136.3713 Y3.8016
G01 X137.2187 Y3.8016
G01 X137.5716 Y3.4489
G01 X137.5798 Y3.4422
G01 X137.5864 Y3.4377
G01 X137.5932 Y3.4337
G01 X137.6028 Y3.4292
G01 X137.6103 Y3.4264
G01 X137.6205 Y3.4236
G01 X137.6309 Y3.4218
G01 X137.6389 Y3.4211
G01 X138.4858 Y3.4210
G01 X138.4938 Y3.4212
G01 X138.5017 Y3.4221
G01 X138.5095 Y3.4236
G01 X138.5172 Y3.4256
G01 X138.5296 Y3.4302
G01 X138.5414 Y3.4363
G01 X138.5523 Y3.4438
G01 X138.5603 Y3.4507
G01 X138.9113 Y3.8016
G01 X139.7587 Y3.8016
G01 X140.1116 Y3.4489
G01 X140.1198 Y3.4422
G01 X140.1264 Y3.4377
G01 X140.1332 Y3.4337
G01 X140.1404 Y3.4302
G01 X140.1503 Y3.4264
G01 X140.1579 Y3.4242
G01 X140.1683 Y3.4221
G01 X140.1762 Y3.4212
G01 X140.1842 Y3.4210
G01 X141.0258 Y3.4210
G01 X141.0364 Y3.4215
G01 X141.0443 Y3.4225
G01 X141.0521 Y3.4242
G01 X141.0597 Y3.4264
G01 X141.0672 Y3.4292
G01 X141.0744 Y3.4325
G01 X141.0814 Y3.4363
G01 X141.0881 Y3.4407
G01 X141.0944 Y3.4455
G01 X141.1003 Y3.4507
G01 X141.4513 Y3.8016
G01 X142.2987 Y3.8016
G01 X142.6497 Y3.4507
G01 X142.6598 Y3.4422
G01 X142.6686 Y3.4363
G01 X142.6804 Y3.4302
G01 X142.6928 Y3.4256
G01 X142.7005 Y3.4236
G01 X142.7083 Y3.4221
G01 X142.7162 Y3.4212
G01 X142.7242 Y3.4210
G01 X143.5711 Y3.4211
G01 X143.5817 Y3.4221
G01 X143.5895 Y3.4236
G01 X143.5997 Y3.4264
G01 X143.6096 Y3.4302
G01 X143.6191 Y3.4350
G01 X143.6259 Y3.4392
G01 X143.6344 Y3.4455
G01 X143.6422 Y3.4526
G01 X144.2393 Y4.0497
G01 X144.2445 Y4.0556
G01 X144.2508 Y4.0641
G01 X144.2550 Y4.0709
G01 X144.2598 Y4.0804
G01 X144.2627 Y4.0878
G01 X144.2658 Y4.0979
G01 X144.2679 Y4.1083
G01 X144.2688 Y4.1162
G01 X144.2690 Y4.1242
G01 X144.2690 Y4.9658
G01 X144.2682 Y4.9791
G01 X144.2664 Y4.9895
G01 X144.2636 Y4.9997
G01 X144.2598 Y5.0096
G01 X144.2563 Y5.0168
G01 X144.2508 Y5.0259
G01 X144.2445 Y5.0344
G01 X144.2374 Y5.0422
G01 X143.6403 Y5.6393
G01 X143.6344 Y5.6445
G01 X143.6281 Y5.6493
G01 X143.6214 Y5.6537
G01 X143.6144 Y5.6575
G01 X143.6072 Y5.6608
G01 X143.5997 Y5.6636
G01 X143.5921 Y5.6658
G01 X143.5843 Y5.6675
G01 X143.5764 Y5.6685
G01 X143.5658 Y5.6690
G01 X142.7242 Y5.6690
G01 X142.7136 Y5.6685
G01 X142.7057 Y5.6675
G01 X142.6979 Y5.6658
G01 X142.6903 Y5.6636
G01 X142.6828 Y5.6608
G01 X142.6756 Y5.6575
G01 X142.6686 Y5.6537
G01 X142.6619 Y5.6493
G01 X142.6556 Y5.6445
G01 X142.6497 Y5.6393
G01 X142.2987 Y5.2884
G01 X141.4513 Y5.2884
G01 X141.1003 Y5.6393
G01 X141.0902 Y5.6478
G01 X141.0791 Y5.6550
G01 X141.0696 Y5.6598
G01 X141.0572 Y5.6644
G01 X141.0495 Y5.6664
G01 X141.0417 Y5.6679
G01 X141.0338 Y5.6688
G01 X141.0258 Y5.6690
G01 X140.1842 Y5.6690
G01 X140.1762 Y5.6688
G01 X140.1683 Y5.6679
G01 X140.1579 Y5.6658
G01 X140.1503 Y5.6636
G01 X140.1404 Y5.6598
G01 X140.1332 Y5.6563
G01 X140.1241 Y5.6508
G01 X140.1177 Y5.6462
G01 X140.1116 Y5.6411
G01 X139.7587 Y5.2884
G01 X138.9113 Y5.2884
G01 X138.5603 Y5.6393
G01 X138.5502 Y5.6478
G01 X138.5391 Y5.6550
G01 X138.5296 Y5.6598
G01 X138.5172 Y5.6644
G01 X138.5095 Y5.6664
G01 X138.5017 Y5.6679
G01 X138.4938 Y5.6688
G01 X138.4858 Y5.6690
G01 X137.6389 Y5.6689
G01 X137.6309 Y5.6682
G01 X137.6205 Y5.6664
G01 X137.6103 Y5.6636
G01 X137.6028 Y5.6608
G01 X137.5956 Y5.6575
G01 X137.5864 Y5.6523
G01 X137.5777 Y5.6462
G01 X137.5716 Y5.6411
G01 X137.2187 Y5.2884
G01 X136.3713 Y5.2884
G01 X136.0203 Y5.6393
G01 X136.0102 Y5.6478
G01 X135.9991 Y5.6550
G01 X135.9896 Y5.6598
G01 X135.9772 Y5.6644
G01 X135.9695 Y5.6664
G01 X135.9617 Y5.6679
G01 X135.9538 Y5.6688
G01 X135.9458 Y5.6690
G01 X135.0989 Y5.6689
G01 X135.0883 Y5.6679
G01 X135.0805 Y5.6664
G01 X135.0703 Y5.6636
G01 X135.0604 Y5.6598
G01 X135.0509 Y5.6550
G01 X135.0441 Y5.6508
G01 X135.0356 Y5.6445
G01 X135.0278 Y5.6374
G01 X134.4307 Y5.0403
G01 X134.4255 Y5.0344
G01 X134.4207 Y5.0281
G01 X134.4163 Y5.0214
G01 X134.4113 Y5.0120
G01 X134.4082 Y5.0047
G01 X134.4049 Y4.9947
G01 X134.4030 Y4.9869
G01 X134.4015 Y4.9764
G01 X134.4010 Y4.9658
G01 X134.4010 Y4.1242
G01 X134.4012 Y4.1162
G01 X134.4021 Y4.1083
G01 X134.4036 Y4.1005
G01 X134.4056 Y4.0928
G01 X134.4102 Y4.0804
G01 X134.4163 Y4.0686
G01 X134.4222 Y4.0598
G01 X134.4307 Y4.0497
G01 X134.7816 Y3.6987
G01 X134.7816 Y2.1134
G01 X107.8929 Y2.1134
G01 X101.7532 Y8.2531
G01 X101.7580 Y8.3550
G01 X101.7529 Y8.4632
G01 X101.7518 Y8.4738
G01 X101.7367 Y8.5757
G01 X101.7346 Y8.5861
G01 X101.7082 Y8.6912
G01 X101.6718 Y8.7932
G01 X101.6677 Y8.8030
G01 X101.6213 Y8.9009
G01 X101.5629 Y8.9984
G01 X101.4952 Y9.0897
G01 X101.4189 Y9.1739
G01 X101.3347 Y9.2502
G01 X101.2434 Y9.3179
G01 X101.1459 Y9.3763
G01 X101.0480 Y9.4227
G01 X101.0382 Y9.4268
G01 X100.9362 Y9.4632
G01 X100.8311 Y9.4896
G01 X100.8207 Y9.4917
G01 X100.7188 Y9.5068
G01 X100.7082 Y9.5079
G01 X100.6000 Y9.5130
G01 X100.4865 Y9.5075
G01 X100.3741 Y9.4908
G01 X100.2638 Y9.4632
G01 X100.1568 Y9.4249
G01 X100.0541 Y9.3763
G01 X99.9566 Y9.3179
G01 X99.8653 Y9.2502
G01 X99.7811 Y9.1739
G01 X99.7048 Y9.0897
G01 X99.6371 Y8.9984
G01 X99.5787 Y8.9009
G01 X99.5301 Y8.7982
G01 X99.4918 Y8.6912
G01 X99.4642 Y8.5809
G01 X99.4475 Y8.4685
G01 X99.4420 Y8.3550
G01 X99.4475 Y8.2415
G01 X99.4642 Y8.1291
G01 X99.4918 Y8.0188
G01 X99.5301 Y7.9118
G01 X99.5787 Y7.8091
G01 X99.6371 Y7.7116
G01 X99.7048 Y7.6203
G01 X99.7811 Y7.5361
G01 X99.8653 Y7.4598
G01 X99.9566 Y7.3921
G01 X100.0541 Y7.3337
G01 X100.1568 Y7.2851
G01 X100.2638 Y7.2468
G01 X100.3741 Y7.2192
G01 X100.4865 Y7.2025
G01 X100.6000 Y7.1970
G01 X100.7019 Y7.2018
G00 Z3.0000
G00 X104.3016 Y16.2275
G01 F60.00
G01 Z-0.0300
G01 F90.00
G01 X104.2261 Y16.1589
G01 X104.1498 Y16.0747
G01 X104.0821 Y15.9834
G01 X104.0237 Y15.8859
G01 X103.9751 Y15.7832
G01 X103.9368 Y15.6762
G01 X103.9092 Y15.5659
G01 X103.8925 Y15.4535
G01 X103.8870 Y15.3400
G01 X103.8925 Y15.2265
G01 X103.9092 Y15.1141
G01 X103.9368 Y15.0038
G01 X103.9751 Y14.8968
G01 X104.0237 Y14.7941
G01 X104.0821 Y14.6966
G01 X104.1498 Y14.6053
G01 X104.2261 Y14.5211
G01 X104.3103 Y14.4448
G01 X104.4016 Y14.3771
G01 X104.4991 Y14.3187
G01 X104.6018 Y14.2701
G01 X104.7088 Y14.2318
G01 X104.8191 Y14.2042
G01 X104.9315 Y14.1875
G01 X105.0450 Y14.1820
G01 X105.1585 Y14.1875
G01 X105.2709 Y14.2042
G01 X105.3812 Y14.2318
G01 X105.4882 Y14.2701
G01 X105.5909 Y14.3187
G01 X105.6884 Y14.3771
G01 X105.7797 Y14.4448
G01 X105.8639 Y14.5211
G01 X105.9402 Y14.6053
G01 X106.0079 Y14.6966
G01 X106.0637 Y14.7895
G01 X106.0687 Y14.7988
G01 X106.1127 Y14.8920
G01 X106.1168 Y14.9018
G01 X106.1532 Y15.0038
G01 X106.1796 Y15.1089
G01 X106.1817 Y15.1193
G01 X106.1975 Y15.2265
G01 X106.2030 Y15.3400
G01 X106.1975 Y15.4535
G01 X106.1808 Y15.5659
G01 X106.1532 Y15.6762
G01 X106.1168 Y15.7782
G01 X106.1127 Y15.7880
G01 X106.0663 Y15.8859
G01 X106.0107 Y15.9789
G01 X106.0048 Y15.9877
G01 X105.9434 Y16.0705
G01 X105.9367 Y16.0787
G01 X105.8639 Y16.1589
G01 X105.7884 Y16.2275
G01 X105.7884 Y23.4866
G01 X127.1616 Y23.4866
G01 X127.1616 Y20.7658
G01 X127.1143 Y20.7133
G01 X127.0545 Y20.6327
G01 X127.0029 Y20.5466
G01 X126.9610 Y20.4583
G01 X126.9580 Y20.4509
G01 X126.9278 Y20.3664
G01 X126.9247 Y20.3562
G01 X126.9017 Y20.2640
G01 X126.8870 Y20.1647
G01 X126.8821 Y20.0644
G01 X126.8821 Y18.2356
G01 X126.8870 Y18.1353
G01 X126.9013 Y18.0386
G01 X126.9029 Y18.0309
G01 X126.9261 Y17.9387
G01 X126.9600 Y17.8442
G01 X127.0029 Y17.7534
G01 X127.0516 Y17.6718
G01 X127.0575 Y17.6630
G01 X127.1143 Y17.5867
G01 X127.1780 Y17.5161
G01 X127.1855 Y17.5086
G01 X127.2561 Y17.4449
G01 X127.3324 Y17.3881
G01 X127.3412 Y17.3822
G01 X127.4182 Y17.3361
G01 X127.4275 Y17.3311
G01 X127.5136 Y17.2906
G01 X127.6081 Y17.2567
G01 X127.7054 Y17.2323
G01 X127.8047 Y17.2176
G01 X127.9050 Y17.2127
G01 X128.0053 Y17.2176
G01 X128.1046 Y17.2323
G01 X128.1968 Y17.2553
G01 X128.2045 Y17.2575
