(G-CODE GENERATED BY FLATCAM v8.994 - www.flatcam.org - Version Date: 2020/11/7)

(Name: drill_1_16.xln_cnc)
(Type: G-code from Geometry)
(Units: MM)

(Created on sábado, 26 fevereiro 2022 at 12:58)

(This preprocessor is the default preprocessor used by FlatCAM.)
(It is made to work with MACH3 compatible motion controllers.)


(TOOLS DIAMETER: )
(Tool: 1 -> Dia: 0.813)
(Tool: 2 -> Dia: 0.9)
(Tool: 3 -> Dia: 1.016)

(FEEDRATE Z: )
(Tool: 1 -> Feedrate: 300)
(Tool: 2 -> Feedrate: 300)
(Tool: 3 -> Feedrate: 300)

(FEEDRATE RAPIDS: )
(Tool: 1 -> Feedrate Rapids: 1500)
(Tool: 2 -> Feedrate Rapids: 1500)
(Tool: 3 -> Feedrate Rapids: 1500)

(Z_CUT: )
(Tool: 1 -> Z_Cut: -1.7)
(Tool: 2 -> Z_Cut: -1.7)
(Tool: 3 -> Z_Cut: -1.7)

(Tools Offset: )
(Tool: 1 -> Offset Z: 0.0)
(Tool: 2 -> Offset Z: 0.0)
(Tool: 3 -> Offset Z: 0.0)

(Z_MOVE: )
(Tool: 1 -> Z_Move: 2)
(Tool: 2 -> Z_Move: 2)
(Tool: 3 -> Z_Move: 2)

(Z Toolchange: 15 mm)
(X,Y Toolchange: 0.0000, 0.0000 mm)
(Z Start: None mm)
(Z End: 0.5 mm)
(X,Y End: None mm)
(Steps per circle: 64)
(Preprocessor Excellon: default)

(X range:    1.0320 ...  144.2880  mm)
(Y range:    0.8620 ...   87.5450  mm)

(Spindle Speed: 0 RPM)
G21
G90
G94

G01 F300.00

M5
G00 Z15.0000
T1
G00 X0.0000 Y0.0000                
M6
(MSG, Change to Tool Dia = 0.8130 ||| Total drills for tool T1 = 293)
M0
G00 Z15.0000

G01 F300.00
M03
G00 X9.7950 Y61.0600
G01 Z-1.7000
G01 Z0
G00 Z2.0000
G00 X9.7950 Y64.8700
G01 Z-1.7000
G01 Z0
G00 Z2.0000
G00 X17.4150 Y64.8700
G01 Z-1.7000
G01 Z0
G00 Z2.0000
G00 X17.4150 Y61.0600
G01 Z-1.7000
G01 Z0
G00 Z2.0000
G00 X17.4150 Y57.2500
G01 Z-1.7000
G01 Z0
G00 Z2.0000
G00 X25.6700 Y61.0600
G01 Z-1.7000
G01 Z0
G00 Z2.0000
G00 X32.6550 Y57.8850
G01 Z-1.7000
G01 Z0
G00 Z2.0000
G00 X25.6700 Y47.7250
G01 Z-1.7000
G01 Z0
G00 Z2.0000
G00 X28.2100 Y45.1850
G01 Z-1.7000
G01 Z0
G00 Z2.0000
G00 X30.1150 Y37.5650
G01 Z-1.7000
G01 Z0
G00 Z2.0000
G00 X32.6550 Y31.8500
G01 Z-1.7000
G01 Z0
G00 Z2.0000
G00 X34.5600 Y29.3100
G01 Z-1.7000
G01 Z0
G00 Z2.0000
G00 X34.5600 Y26.7700
G01 Z-1.7000
G01 Z0
G00 Z2.0000
G00 X32.0200 Y26.7700
G01 Z-1.7000
G01 Z0
G00 Z2.0000
G00 X29.4800 Y26.7700
G01 Z-1.7000
G01 Z0
G00 Z2.0000
G00 X26.9400 Y26.7700
G01 Z-1.7000
G01 Z0
G00 Z2.0000
G00 X24.4000 Y26.7700
G01 Z-1.7000
G01 Z0
G00 Z2.0000
G00 X21.8600 Y26.7700
G01 Z-1.7000
G01 Z0
G00 Z2.0000
G00 X21.8600 Y19.1500
G01 Z-1.7000
G01 Z0
G00 Z2.0000
G00 X24.4000 Y19.1500
G01 Z-1.7000
G01 Z0
G00 Z2.0000
G00 X26.9400 Y19.1500
G01 Z-1.7000
G01 Z0
G00 Z2.0000
G00 X29.4800 Y19.1500
G01 Z-1.7000
G01 Z0
G00 Z2.0000
G00 X32.0200 Y19.1500
G01 Z-1.7000
G01 Z0
G00 Z2.0000
G00 X34.5600 Y19.1500
G01 Z-1.7000
G01 Z0
G00 Z2.0000
G00 X39.0050 Y17.2450
G01 Z-1.7000
G01 Z0
G00 Z2.0000
G00 X37.1000 Y14.0700
G01 Z-1.7000
G01 Z0
G00 Z2.0000
G00 X39.6400 Y11.5300
G01 Z-1.7000
G01 Z0
G00 Z2.0000
G00 X18.6850 Y8.3550
G01 Z-1.7000
G01 Z0
G00 Z2.0000
G00 X11.7000 Y17.8800
G01 Z-1.7000
G01 Z0
G00 Z2.0000
G00 X8.5250 Y14.7050
G01 Z-1.7000
G01 Z0
G00 Z2.0000
G00 X5.3500 Y10.2600
G01 Z-1.7000
G01 Z0
G00 Z2.0000
G00 X1.5400 Y6.4500
G01 Z-1.7000
G01 Z0
G00 Z2.0000
G00 X1.5400 Y1.3700
G01 Z-1.7000
G01 Z0
G00 Z2.0000
G00 X4.0800 Y1.3700
G01 Z-1.7000
G01 Z0
G00 Z2.0000
G00 X6.6200 Y1.3700
G01 Z-1.7000
G01 Z0
G00 Z2.0000
G00 X9.1600 Y1.3700
G01 Z-1.7000
G01 Z0
G00 Z2.0000
G00 X11.7000 Y1.3700
G01 Z-1.7000
G01 Z0
G00 Z2.0000
G00 X14.2400 Y1.3700
G01 Z-1.7000
G01 Z0
G00 Z2.0000
G00 X16.7800 Y1.3700
G01 Z-1.7000
G01 Z0
G00 Z2.0000
G00 X19.3200 Y1.3700
G01 Z-1.7000
G01 Z0
G00 Z2.0000
G00 X21.8600 Y1.3700
G01 Z-1.7000
G01 Z0
G00 Z2.0000
G00 X24.4000 Y1.3700
G01 Z-1.7000
G01 Z0
G00 Z2.0000
G00 X26.9400 Y1.3700
G01 Z-1.7000
G01 Z0
G00 Z2.0000
G00 X29.4800 Y1.3700
G01 Z-1.7000
G01 Z0
G00 Z2.0000
G00 X32.0200 Y1.3700
G01 Z-1.7000
G01 Z0
G00 Z2.0000
G00 X34.5600 Y1.3700
G01 Z-1.7000
G01 Z0
G00 Z2.0000
G00 X37.1000 Y1.3700
G01 Z-1.7000
G01 Z0
G00 Z2.0000
G00 X39.6400 Y1.3700
G01 Z-1.7000
G01 Z0
G00 Z2.0000
G00 X42.1800 Y1.3700
G01 Z-1.7000
G01 Z0
G00 Z2.0000
G00 X44.7200 Y1.3700
G01 Z-1.7000
G01 Z0
G00 Z2.0000
G00 X47.2600 Y1.3700
G01 Z-1.7000
G01 Z0
G00 Z2.0000
G00 X49.8000 Y1.3700
G01 Z-1.7000
G01 Z0
G00 Z2.0000
G00 X52.3400 Y1.3700
G01 Z-1.7000
G01 Z0
G00 Z2.0000
G00 X54.8800 Y1.3700
G01 Z-1.7000
G01 Z0
G00 Z2.0000
G00 X57.4200 Y1.3700
G01 Z-1.7000
G01 Z0
G00 Z2.0000
G00 X59.9600 Y1.3700
G01 Z-1.7000
G01 Z0
G00 Z2.0000
G00 X62.5000 Y1.3700
G01 Z-1.7000
G01 Z0
G00 Z2.0000
G00 X65.0400 Y1.3700
G01 Z-1.7000
G01 Z0
G00 Z2.0000
G00 X67.5800 Y1.3700
G01 Z-1.7000
G01 Z0
G00 Z2.0000
G00 X70.1200 Y1.3700
G01 Z-1.7000
G01 Z0
G00 Z2.0000
G00 X72.6600 Y1.3700
G01 Z-1.7000
G01 Z0
G00 Z2.0000
G00 X75.2000 Y1.3700
G01 Z-1.7000
G01 Z0
G00 Z2.0000
G00 X77.7400 Y1.3700
G01 Z-1.7000
G01 Z0
G00 Z2.0000
G00 X80.2800 Y1.3700
G01 Z-1.7000
G01 Z0
G00 Z2.0000
G00 X80.2800 Y12.8000
G01 Z-1.7000
G01 Z0
G00 Z2.0000
G00 X82.8200 Y9.6250
G01 Z-1.7000
G01 Z0
G00 Z2.0000
G00 X85.3600 Y6.4500
G01 Z-1.7000
G01 Z0
G00 Z2.0000
G00 X82.8200 Y1.3700
G01 Z-1.7000
G01 Z0
G00 Z2.0000
G00 X85.3600 Y1.3700
G01 Z-1.7000
G01 Z0
G00 Z2.0000
G00 X87.9000 Y1.3700
G01 Z-1.7000
G01 Z0
G00 Z2.0000
G00 X90.4400 Y1.3700
G01 Z-1.7000
G01 Z0
G00 Z2.0000
G00 X92.9800 Y1.3700
G01 Z-1.7000
G01 Z0
G00 Z2.0000
G00 X95.5200 Y1.3700
G01 Z-1.7000
G01 Z0
G00 Z2.0000
G00 X98.0600 Y1.3700
G01 Z-1.7000
G01 Z0
G00 Z2.0000
G00 X100.6000 Y1.3700
G01 Z-1.7000
G01 Z0
G00 Z2.0000
G00 X100.6000 Y8.3550
G01 Z-1.7000
G01 Z0
G00 Z2.0000
G00 X113.9350 Y4.5450
G01 Z-1.7000
G01 Z0
G00 Z2.0000
G00 X117.7450 Y12.1650
G01 Z-1.7000
G01 Z0
G00 Z2.0000
G00 X122.8250 Y11.5300
G01 Z-1.7000
G01 Z0
G00 Z2.0000
G00 X125.3650 Y11.5300
G01 Z-1.7000
G01 Z0
G00 Z2.0000
G00 X127.9050 Y11.5300
G01 Z-1.7000
G01 Z0
G00 Z2.0000
G00 X130.4450 Y11.5300
G01 Z-1.7000
G01 Z0
G00 Z2.0000
G00 X132.9850 Y11.5300
G01 Z-1.7000
G01 Z0
G00 Z2.0000
G00 X135.5250 Y11.5300
G01 Z-1.7000
G01 Z0
G00 Z2.0000
G00 X132.9850 Y7.0850
G01 Z-1.7000
G01 Z0
G00 Z2.0000
G00 X130.4450 Y7.0850
G01 Z-1.7000
G01 Z0
G00 Z2.0000
G00 X127.9050 Y7.0850
G01 Z-1.7000
G01 Z0
G00 Z2.0000
G00 X125.3650 Y7.0850
G01 Z-1.7000
G01 Z0
G00 Z2.0000
G00 X125.3650 Y4.5450
G01 Z-1.7000
G01 Z0
G00 Z2.0000
G00 X127.9050 Y4.5450
G01 Z-1.7000
G01 Z0
G00 Z2.0000
G00 X130.4450 Y4.5450
G01 Z-1.7000
G01 Z0
G00 Z2.0000
G00 X132.9850 Y4.5450
G01 Z-1.7000
G01 Z0
G00 Z2.0000
G00 X135.5250 Y4.5450
G01 Z-1.7000
G01 Z0
G00 Z2.0000
G00 X135.5250 Y7.0850
G01 Z-1.7000
G01 Z0
G00 Z2.0000
G00 X138.0650 Y7.0850
G01 Z-1.7000
G01 Z0
G00 Z2.0000
G00 X138.0650 Y4.5450
G01 Z-1.7000
G01 Z0
G00 Z2.0000
G00 X140.6050 Y4.5450
G01 Z-1.7000
G01 Z0
G00 Z2.0000
G00 X143.1450 Y4.5450
G01 Z-1.7000
G01 Z0
G00 Z2.0000
G00 X143.1450 Y7.0850
G01 Z-1.7000
G01 Z0
G00 Z2.0000
G00 X140.6050 Y7.0850
G01 Z-1.7000
G01 Z0
G00 Z2.0000
G00 X140.6050 Y11.5300
G01 Z-1.7000
G01 Z0
G00 Z2.0000
G00 X138.0650 Y11.5300
G01 Z-1.7000
G01 Z0
G00 Z2.0000
G00 X138.0650 Y19.1500
G01 Z-1.7000
G01 Z0
G00 Z2.0000
G00 X140.6050 Y19.1500
G01 Z-1.7000
G01 Z0
G00 Z2.0000
G00 X143.1450 Y22.9600
G01 Z-1.7000
G01 Z0
G00 Z2.0000
G00 X138.0650 Y22.9600
G01 Z-1.7000
G01 Z0
G00 Z2.0000
G00 X135.5250 Y19.1500
G01 Z-1.7000
G01 Z0
G00 Z2.0000
G00 X132.9850 Y19.1500
G01 Z-1.7000
G01 Z0
G00 Z2.0000
G00 X130.4450 Y19.1500
G01 Z-1.7000
G01 Z0
G00 Z2.0000
G00 X127.9050 Y19.1500
G01 Z-1.7000
G01 Z0
G00 Z2.0000
G00 X125.3650 Y19.1500
G01 Z-1.7000
G01 Z0
G00 Z2.0000
G00 X122.8250 Y19.1500
G01 Z-1.7000
G01 Z0
G00 Z2.0000
G00 X117.7450 Y17.2450
G01 Z-1.7000
G01 Z0
G00 Z2.0000
G00 X110.1250 Y11.5300
G01 Z-1.7000
G01 Z0
G00 Z2.0000
G00 X107.5850 Y14.0700
G01 Z-1.7000
G01 Z0
G00 Z2.0000
G00 X105.0450 Y15.3400
G01 Z-1.7000
G01 Z0
G00 Z2.0000
G00 X102.5050 Y17.2450
G01 Z-1.7000
G01 Z0
G00 Z2.0000
G00 X99.9650 Y19.7850
G01 Z-1.7000
G01 Z0
G00 Z2.0000
G00 X96.7900 Y21.6900
G01 Z-1.7000
G01 Z0
G00 Z2.0000
G00 X90.4400 Y23.5950
G01 Z-1.7000
G01 Z0
G00 Z2.0000
G00 X90.4400 Y34.3900
G01 Z-1.7000
G01 Z0
G00 Z2.0000
G00 X85.3600 Y50.2650
G01 Z-1.7000
G01 Z0
G00 Z2.0000
G00 X82.8200 Y48.3600
G01 Z-1.7000
G01 Z0
G00 Z2.0000
G00 X80.2800 Y50.2650
G01 Z-1.7000
G01 Z0
G00 Z2.0000
G00 X77.7400 Y48.3600
G01 Z-1.7000
G01 Z0
G00 Z2.0000
G00 X75.2000 Y50.2650
G01 Z-1.7000
G01 Z0
G00 Z2.0000
G00 X72.6600 Y52.1700
G01 Z-1.7000
G01 Z0
G00 Z2.0000
G00 X70.1200 Y54.0750
G01 Z-1.7000
G01 Z0
G00 Z2.0000
G00 X67.5800 Y56.6150
G01 Z-1.7000
G01 Z0
G00 Z2.0000
G00 X67.5800 Y52.8050
G01 Z-1.7000
G01 Z0
G00 Z2.0000
G00 X70.1200 Y50.2650
G01 Z-1.7000
G01 Z0
G00 Z2.0000
G00 X72.6600 Y42.6450
G01 Z-1.7000
G01 Z0
G00 Z2.0000
G00 X75.2000 Y40.1050
G01 Z-1.7000
G01 Z0
G00 Z2.0000
G00 X77.7400 Y18.5150
G01 Z-1.7000
G01 Z0
G00 Z2.0000
G00 X65.0400 Y19.7850
G01 Z-1.7000
G01 Z0
G00 Z2.0000
G00 X59.9600 Y15.3400
G01 Z-1.7000
G01 Z0
G00 Z2.0000
G00 X47.2600 Y21.6900
G01 Z-1.7000
G01 Z0
G00 Z2.0000
G00 X42.1800 Y29.3100
G01 Z-1.7000
G01 Z0
G00 Z2.0000
G00 X44.7200 Y31.8500
G01 Z-1.7000
G01 Z0
G00 Z2.0000
G00 X44.7200 Y35.0250
G01 Z-1.7000
G01 Z0
G00 Z2.0000
G00 X48.5300 Y37.5650
G01 Z-1.7000
G01 Z0
G00 Z2.0000
G00 X50.4350 Y40.1050
G01 Z-1.7000
G01 Z0
G00 Z2.0000
G00 X52.3400 Y42.6450
G01 Z-1.7000
G01 Z0
G00 Z2.0000
G00 X51.0700 Y45.1850
G01 Z-1.7000
G01 Z0
G00 Z2.0000
G00 X53.6100 Y47.7250
G01 Z-1.7000
G01 Z0
G00 Z2.0000
G00 X56.1500 Y50.2650
G01 Z-1.7000
G01 Z0
G00 Z2.0000
G00 X58.0550 Y52.8050
G01 Z-1.7000
G01 Z0
G00 Z2.0000
G00 X56.1500 Y55.3450
G01 Z-1.7000
G01 Z0
G00 Z2.0000
G00 X44.7200 Y57.8850
G01 Z-1.7000
G01 Z0
G00 Z2.0000
G00 X44.7200 Y55.3450
G01 Z-1.7000
G01 Z0
G00 Z2.0000
G00 X44.7200 Y52.8050
G01 Z-1.7000
G01 Z0
G00 Z2.0000
G00 X44.7200 Y50.2650
G01 Z-1.7000
G01 Z0
G00 Z2.0000
G00 X44.7200 Y47.7250
G01 Z-1.7000
G01 Z0
G00 Z2.0000
G00 X44.7200 Y45.1850
G01 Z-1.7000
G01 Z0
G00 Z2.0000
G00 X44.7200 Y42.6450
G01 Z-1.7000
G01 Z0
G00 Z2.0000
G00 X44.7200 Y40.1050
G01 Z-1.7000
G01 Z0
G00 Z2.0000
G00 X44.7200 Y37.5650
G01 Z-1.7000
G01 Z0
G00 Z2.0000
G00 X37.1000 Y31.8500
G01 Z-1.7000
G01 Z0
G00 Z2.0000
G00 X37.1000 Y35.0250
G01 Z-1.7000
G01 Z0
G00 Z2.0000
G00 X37.1000 Y37.5650
G01 Z-1.7000
G01 Z0
G00 Z2.0000
G00 X37.1000 Y40.1050
G01 Z-1.7000
G01 Z0
G00 Z2.0000
G00 X37.1000 Y42.6450
G01 Z-1.7000
G01 Z0
G00 Z2.0000
G00 X37.1000 Y45.1850
G01 Z-1.7000
G01 Z0
G00 Z2.0000
G00 X37.1000 Y47.7250
G01 Z-1.7000
G01 Z0
G00 Z2.0000
G00 X37.1000 Y50.2650
G01 Z-1.7000
G01 Z0
G00 Z2.0000
G00 X37.1000 Y52.8050
G01 Z-1.7000
G01 Z0
G00 Z2.0000
G00 X37.1000 Y55.3450
G01 Z-1.7000
G01 Z0
G00 Z2.0000
G00 X37.1000 Y57.8850
G01 Z-1.7000
G01 Z0
G00 Z2.0000
G00 X37.1000 Y61.6950
G01 Z-1.7000
G01 Z0
G00 Z2.0000
G00 X42.1800 Y61.6950
G01 Z-1.7000
G01 Z0
G00 Z2.0000
G00 X45.9900 Y65.5050
G01 Z-1.7000
G01 Z0
G00 Z2.0000
G00 X67.5800 Y69.3150
G01 Z-1.7000
G01 Z0
G00 Z2.0000
G00 X87.2650 Y62.3300
G01 Z-1.7000
G01 Z0
G00 Z2.0000
G00 X87.2650 Y57.2500
G01 Z-1.7000
G01 Z0
G00 Z2.0000
G00 X90.4400 Y57.8850
G01 Z-1.7000
G01 Z0
G00 Z2.0000
G00 X92.9800 Y57.8850
G01 Z-1.7000
G01 Z0
G00 Z2.0000
G00 X95.5200 Y57.8850
G01 Z-1.7000
G01 Z0
G00 Z2.0000
G00 X98.0600 Y57.8850
G01 Z-1.7000
G01 Z0
G00 Z2.0000
G00 X100.6000 Y57.8850
G01 Z-1.7000
G01 Z0
G00 Z2.0000
G00 X103.1400 Y57.8850
G01 Z-1.7000
G01 Z0
G00 Z2.0000
G00 X105.6800 Y57.8850
G01 Z-1.7000
G01 Z0
G00 Z2.0000
G00 X108.2200 Y57.8850
G01 Z-1.7000
G01 Z0
G00 Z2.0000
G00 X110.7600 Y57.8850
G01 Z-1.7000
G01 Z0
G00 Z2.0000
G00 X113.3000 Y57.8850
G01 Z-1.7000
G01 Z0
G00 Z2.0000
G00 X113.9350 Y36.9300
G01 Z-1.7000
G01 Z0
G00 Z2.0000
G00 X116.4750 Y39.4700
G01 Z-1.7000
G01 Z0
G00 Z2.0000
G00 X119.0150 Y42.0100
G01 Z-1.7000
G01 Z0
G00 Z2.0000
G00 X121.5550 Y44.5500
G01 Z-1.7000
G01 Z0
G00 Z2.0000
G00 X124.0950 Y47.0900
G01 Z-1.7000
G01 Z0
G00 Z2.0000
G00 X126.6350 Y49.6300
G01 Z-1.7000
G01 Z0
G00 Z2.0000
G00 X129.1750 Y52.1700
G01 Z-1.7000
G01 Z0
G00 Z2.0000
G00 X131.7150 Y54.7100
G01 Z-1.7000
G01 Z0
G00 Z2.0000
G00 X136.1600 Y58.5200
G01 Z-1.7000
G01 Z0
G00 Z2.0000
G00 X136.1600 Y54.7100
G01 Z-1.7000
G01 Z0
G00 Z2.0000
G00 X136.1600 Y52.1700
G01 Z-1.7000
G01 Z0
G00 Z2.0000
G00 X136.1600 Y49.6300
G01 Z-1.7000
G01 Z0
G00 Z2.0000
G00 X136.1600 Y47.0900
G01 Z-1.7000
G01 Z0
G00 Z2.0000
G00 X136.1600 Y44.5500
G01 Z-1.7000
G01 Z0
G00 Z2.0000
G00 X136.1600 Y42.0100
G01 Z-1.7000
G01 Z0
G00 Z2.0000
G00 X136.1600 Y39.4700
G01 Z-1.7000
G01 Z0
G00 Z2.0000
G00 X136.1600 Y36.9300
G01 Z-1.7000
G01 Z0
G00 Z2.0000
G00 X143.7800 Y36.9300
G01 Z-1.7000
G01 Z0
G00 Z2.0000
G00 X143.7800 Y39.4700
G01 Z-1.7000
G01 Z0
G00 Z2.0000
G00 X143.7800 Y42.0100
G01 Z-1.7000
G01 Z0
G00 Z2.0000
G00 X143.7800 Y44.5500
G01 Z-1.7000
G01 Z0
G00 Z2.0000
G00 X143.7800 Y47.0900
G01 Z-1.7000
G01 Z0
G00 Z2.0000
G00 X143.7800 Y49.6300
G01 Z-1.7000
G01 Z0
G00 Z2.0000
G00 X143.7800 Y52.1700
G01 Z-1.7000
G01 Z0
G00 Z2.0000
G00 X143.7800 Y54.7100
G01 Z-1.7000
G01 Z0
G00 Z2.0000
G00 X143.7800 Y58.5200
G01 Z-1.7000
G01 Z0
G00 Z2.0000
G00 X143.7800 Y61.0600
G01 Z-1.7000
G01 Z0
G00 Z2.0000
G00 X143.7800 Y63.6000
G01 Z-1.7000
G01 Z0
G00 Z2.0000
G00 X143.7800 Y66.1400
G01 Z-1.7000
G01 Z0
G00 Z2.0000
G00 X143.7800 Y68.6800
G01 Z-1.7000
G01 Z0
G00 Z2.0000
G00 X143.7800 Y71.2200
G01 Z-1.7000
G01 Z0
G00 Z2.0000
G00 X143.7800 Y73.7600
G01 Z-1.7000
G01 Z0
G00 Z2.0000
G00 X143.7800 Y76.3000
G01 Z-1.7000
G01 Z0
G00 Z2.0000
G00 X143.7800 Y78.8400
G01 Z-1.7000
G01 Z0
G00 Z2.0000
G00 X136.7950 Y78.8400
G01 Z-1.7000
G01 Z0
G00 Z2.0000
G00 X134.2550 Y78.8400
G01 Z-1.7000
G01 Z0
G00 Z2.0000
G00 X134.2550 Y86.4600
G01 Z-1.7000
G01 Z0
G00 Z2.0000
G00 X131.7150 Y86.4600
G01 Z-1.7000
G01 Z0
G00 Z2.0000
G00 X129.1750 Y86.4600
G01 Z-1.7000
G01 Z0
G00 Z2.0000
G00 X126.6350 Y86.4600
G01 Z-1.7000
G01 Z0
G00 Z2.0000
G00 X124.0950 Y86.4600
G01 Z-1.7000
G01 Z0
G00 Z2.0000
G00 X121.5550 Y86.4600
G01 Z-1.7000
G01 Z0
G00 Z2.0000
G00 X119.0150 Y86.4600
G01 Z-1.7000
G01 Z0
G00 Z2.0000
G00 X116.4750 Y86.4600
G01 Z-1.7000
G01 Z0
G00 Z2.0000
G00 X116.4750 Y78.8400
G01 Z-1.7000
G01 Z0
G00 Z2.0000
G00 X119.0150 Y78.8400
G01 Z-1.7000
G01 Z0
G00 Z2.0000
G00 X121.5550 Y78.8400
G01 Z-1.7000
G01 Z0
G00 Z2.0000
G00 X124.0950 Y78.8400
G01 Z-1.7000
G01 Z0
G00 Z2.0000
G00 X126.6350 Y78.8400
G01 Z-1.7000
G01 Z0
G00 Z2.0000
G00 X129.1750 Y78.8400
G01 Z-1.7000
G01 Z0
G00 Z2.0000
G00 X131.7150 Y78.8400
G01 Z-1.7000
G01 Z0
G00 Z2.0000
G00 X131.7150 Y76.3000
G01 Z-1.7000
G01 Z0
G00 Z2.0000
G00 X129.1750 Y73.7600
G01 Z-1.7000
G01 Z0
G00 Z2.0000
G00 X126.6350 Y71.2200
G01 Z-1.7000
G01 Z0
G00 Z2.0000
G00 X124.0950 Y68.6800
G01 Z-1.7000
G01 Z0
G00 Z2.0000
G00 X121.5550 Y66.1400
G01 Z-1.7000
G01 Z0
G00 Z2.0000
G00 X119.0150 Y63.6000
G01 Z-1.7000
G01 Z0
G00 Z2.0000
G00 X116.4750 Y61.0600
G01 Z-1.7000
G01 Z0
G00 Z2.0000
G00 X113.3000 Y65.5050
G01 Z-1.7000
G01 Z0
G00 Z2.0000
G00 X110.7600 Y65.5050
G01 Z-1.7000
G01 Z0
G00 Z2.0000
G00 X108.2200 Y65.5050
G01 Z-1.7000
G01 Z0
G00 Z2.0000
G00 X105.6800 Y65.5050
G01 Z-1.7000
G01 Z0
G00 Z2.0000
G00 X103.1400 Y65.5050
G01 Z-1.7000
G01 Z0
G00 Z2.0000
G00 X100.6000 Y65.5050
G01 Z-1.7000
G01 Z0
G00 Z2.0000
G00 X98.0600 Y65.5050
G01 Z-1.7000
G01 Z0
G00 Z2.0000
G00 X95.5200 Y65.5050
G01 Z-1.7000
G01 Z0
G00 Z2.0000
G00 X92.9800 Y65.5050
G01 Z-1.7000
G01 Z0
G00 Z2.0000
G00 X90.4400 Y65.5050
G01 Z-1.7000
G01 Z0
G00 Z2.0000
G00 X85.3600 Y87.0950
G01 Z-1.7000
G01 Z0
G00 Z2.0000
G00 X82.8200 Y84.5550
G01 Z-1.7000
G01 Z0
G00 Z2.0000
G00 X80.2800 Y82.0150
G01 Z-1.7000
G01 Z0
G00 Z2.0000
G00 X77.7400 Y79.4750
G01 Z-1.7000
G01 Z0
G00 Z2.0000
G00 X75.2000 Y76.9350
G01 Z-1.7000
G01 Z0
G00 Z2.0000
G00 X72.6600 Y74.3950
G01 Z-1.7000
G01 Z0
G00 Z2.0000
G00 X70.1200 Y71.8550
G01 Z-1.7000
G01 Z0
G00 Z2.0000
G00 X56.1500 Y73.1250
G01 Z-1.7000
G01 Z0
G00 Z2.0000
G00 X53.6100 Y71.2200
G01 Z-1.7000
G01 Z0
G00 Z2.0000
G00 X51.0700 Y73.1250
G01 Z-1.7000
G01 Z0
G00 Z2.0000
G00 X48.5300 Y71.2200
G01 Z-1.7000
G01 Z0
G00 Z2.0000
G00 X37.1000 Y65.5050
G01 Z-1.7000
G01 Z0
G00 Z2.0000
G00 X30.1150 Y68.6800
G01 Z-1.7000
G01 Z0
G00 Z2.0000
G00 X28.2100 Y64.8700
G01 Z-1.7000
G01 Z0
G00 Z2.0000
G00 X17.4150 Y68.6800
G01 Z-1.7000
G01 Z0
G00 Z2.0000
G00 X17.4150 Y72.4900
G01 Z-1.7000
G01 Z0
G00 Z2.0000
G00 X17.4150 Y76.3000
G01 Z-1.7000
G01 Z0
G00 Z2.0000
G00 X17.4150 Y80.1100
G01 Z-1.7000
G01 Z0
G00 Z2.0000
G00 X16.7800 Y83.9200
G01 Z-1.7000
G01 Z0
G00 Z2.0000
G00 X9.7950 Y80.1100
G01 Z-1.7000
G01 Z0
G00 Z2.0000
G00 X9.1600 Y83.9200
G01 Z-1.7000
G01 Z0
G00 Z2.0000
G00 X6.6200 Y83.9200
G01 Z-1.7000
G01 Z0
G00 Z2.0000
G00 X4.0800 Y83.9200
G01 Z-1.7000
G01 Z0
G00 Z2.0000
G00 X1.5400 Y80.1100
G01 Z-1.7000
G01 Z0
G00 Z2.0000
G00 X4.0800 Y80.1100
G01 Z-1.7000
G01 Z0
G00 Z2.0000
G00 X4.0800 Y76.3000
G01 Z-1.7000
G01 Z0
G00 Z2.0000
G00 X6.6200 Y76.3000
G01 Z-1.7000
G01 Z0
G00 Z2.0000
G00 X9.7950 Y76.3000
G01 Z-1.7000
G01 Z0
G00 Z2.0000
G00 X9.7950 Y72.4900
G01 Z-1.7000
G01 Z0
G00 Z2.0000
G00 X9.7950 Y68.6800
G01 Z-1.7000
G01 Z0
G00 Z2.0000
G00 X6.6200 Y68.6800
G01 Z-1.7000
G01 Z0
G00 Z2.0000
G00 X4.0800 Y72.4900
G01 Z-1.7000
G01 Z0
G00 Z2.0000
G00 X1.5400 Y72.4900
G01 Z-1.7000
G01 Z0
G00 Z2.0000
G00 X4.0800 Y68.6800
G01 Z-1.7000
G01 Z0
G00 Z2.0000
G00 X1.5400 Y64.8700
G01 Z-1.7000
G01 Z0
G00 Z2.0000
G00 X4.0800 Y64.8700
G01 Z-1.7000
G01 Z0
G00 Z2.0000
G00 X6.6200 Y61.0600
G01 Z-1.7000
G01 Z0
G00 Z2.0000
G00 X4.0800 Y61.0600
G01 Z-1.7000
G01 Z0
G00 Z2.0000
G00 X1.5400 Y57.2500
G01 Z-1.7000
G01 Z0
G00 Z2.0000
G00 X4.0800 Y57.2500
G01 Z-1.7000
G01 Z0
G00 Z2.0000
G00 X9.7950 Y57.2500
G01 Z-1.7000
G01 Z0
G00 Z2.0000
M05
G00 Z0.50


