(G-CODE GENERATED BY FLATCAM v8.994 - www.flatcam.org - Version Date: 2020/11/7)

(Name: copper_bottom.gbr_iso_combined_cnc)
(Type: G-code from Geometry)
(Units: MM)

(Created on quarta, 02 março 2022 at 18:25)

(This preprocessor is the default preprocessor used by FlatCAM.)
(It is made to work with MACH3 compatible motion controllers.)

(TOOL DIAMETER: 0.2268 mm)
(Feedrate_XY: 120.0 mm/min)
(Feedrate_Z: 60.0 mm/min)
(Feedrate rapids 1500.0 mm/min)

(Z_Cut: -0.05 mm)
(Z_Move: 3.0 mm)
(Z Start: None mm)
(Z End: 15.0 mm)
(X,Y End: None mm)
(Steps per circle: 64)
(Preprocessor Geometry: default)

(X range:    0.3941 ...  119.1378  mm)
(Y range:    0.4301 ...   91.6234  mm)

(Spindle Speed: 1000.0 RPM)
G21
G90
G94

G01 F120.00

M5
G00 Z15.0000
G00 X0.0000 Y0.0000
T1
M6    
(MSG, Change to Tool Dia = 0.2268)
M0
G00 Z15.0000

M03 S1000.0
G01 F120.00
G00 X7.4799 Y1.5600
G01 F60.00
G01 Z-0.0500
G01 F120.00
G01 X7.4799 Y3.5920
G01 X7.4749 Y3.6972
G01 X7.4738 Y3.7083
G01 X7.4582 Y3.8124
G01 X7.4313 Y3.9200
G01 X7.3939 Y4.0244
G01 X7.3465 Y4.1246
G01 X7.2895 Y4.2197
G01 X7.2234 Y4.3088
G01 X7.1490 Y4.3910
G01 X7.0668 Y4.4654
G01 X6.9777 Y4.5315
G01 X6.8826 Y4.5885
G01 X6.7824 Y4.6359
G01 X6.6780 Y4.6733
G01 X6.5704 Y4.7002
G01 X6.4608 Y4.7165
G01 X6.3500 Y4.7219
G01 X6.2392 Y4.7165
G01 X6.1296 Y4.7002
G01 X6.0220 Y4.6733
G01 X5.9176 Y4.6359
G01 X5.8174 Y4.5885
G01 X5.7223 Y4.5315
G01 X5.6376 Y4.4689
G01 X5.6290 Y4.4618
G01 X5.5510 Y4.3910
G01 X5.4802 Y4.3130
G01 X5.4731 Y4.3044
G01 X5.4105 Y4.2197
G01 X5.3535 Y4.1246
G01 X5.3084 Y4.0295
G01 X5.3041 Y4.0192
G01 X5.2687 Y3.9200
G01 X5.2430 Y3.8179
G01 X5.2409 Y3.8070
G01 X5.2258 Y3.7055
G01 X5.2251 Y3.6972
G01 X5.2201 Y3.5920
G01 X5.2202 Y1.5544
G01 X5.2251 Y1.4548
G01 X5.2262 Y1.4437
G01 X5.2418 Y1.3396
G01 X5.2673 Y1.2374
G01 X5.2705 Y1.2267
G01 X5.3061 Y1.1276
G01 X5.3535 Y1.0274
G01 X5.4105 Y0.9323
G01 X5.4766 Y0.8432
G01 X5.5510 Y0.7610
G01 X5.6290 Y0.6902
G01 X5.6376 Y0.6831
G01 X5.7177 Y0.6237
G01 X5.7270 Y0.6175
G01 X5.8174 Y0.5635
G01 X5.9176 Y0.5161
G01 X6.0220 Y0.4787
G01 X6.1241 Y0.4530
G01 X6.1350 Y0.4509
G01 X6.2337 Y0.4362
G01 X6.2448 Y0.4351
G01 X6.3500 Y0.4301
G01 X6.4608 Y0.4355
G01 X6.5704 Y0.4518
G01 X6.6726 Y0.4773
G01 X6.6833 Y0.4805
G01 X6.7772 Y0.5141
G01 X6.7875 Y0.5184
G01 X6.8826 Y0.5635
G01 X6.9777 Y0.6205
G01 X7.0668 Y0.6866
G01 X7.1449 Y0.7572
G01 X7.1528 Y0.7651
G01 X7.2198 Y0.8390
G01 X7.2269 Y0.8476
G01 X7.2895 Y0.9323
G01 X7.3465 Y1.0274
G01 X7.3939 Y1.1276
G01 X7.4295 Y1.2267
G01 X7.4327 Y1.2374
G01 X7.4570 Y1.3341
G01 X7.4591 Y1.3450
G01 X7.4745 Y1.4492
G01 X7.4799 Y1.5600
G00 Z3.0000
G00 X7.7601 Y3.5920
G01 F60.00
G01 Z-0.0500
G01 F120.00
G01 X7.7601 Y1.5600
G01 X7.7651 Y1.4548
G01 X7.7662 Y1.4437
G01 X7.7818 Y1.3396
G01 X7.8087 Y1.2320
G01 X7.8461 Y1.1276
G01 X7.8935 Y1.0274
G01 X7.9505 Y0.9323
G01 X8.0166 Y0.8432
G01 X8.0910 Y0.7610
G01 X8.1732 Y0.6866
G01 X8.2623 Y0.6205
G01 X8.3574 Y0.5635
G01 X8.4576 Y0.5161
G01 X8.5620 Y0.4787
G01 X8.6696 Y0.4518
G01 X8.7792 Y0.4355
G01 X8.8900 Y0.4301
G01 X9.0008 Y0.4355
G01 X9.1104 Y0.4518
G01 X9.2180 Y0.4787
G01 X9.3224 Y0.5161
G01 X9.4226 Y0.5635
G01 X9.5130 Y0.6175
G01 X9.5223 Y0.6237
G01 X9.6068 Y0.6866
G01 X9.6849 Y0.7572
G01 X9.6928 Y0.7651
G01 X9.7634 Y0.8432
G01 X9.8295 Y0.9323
G01 X9.8865 Y1.0274
G01 X9.9316 Y1.1225
G01 X9.9359 Y1.1328
G01 X9.9713 Y1.2320
G01 X9.9970 Y1.3341
G01 X9.9991 Y1.3450
G01 X10.0142 Y1.4465
G01 X10.0149 Y1.4548
G01 X10.0199 Y1.5600
G01 X10.0198 Y3.5976
G01 X10.0149 Y3.6972
G01 X10.0138 Y3.7083
G01 X9.9982 Y3.8124
G01 X9.9727 Y3.9146
G01 X9.9695 Y3.9253
G01 X9.9339 Y4.0244
G01 X9.8865 Y4.1246
G01 X9.8295 Y4.2197
G01 X9.7634 Y4.3088
G01 X9.6890 Y4.3910
G01 X9.6110 Y4.4618
G01 X9.6024 Y4.4689
G01 X9.5223 Y4.5283
G01 X9.5130 Y4.5345
G01 X9.4226 Y4.5885
G01 X9.3224 Y4.6359
G01 X9.2180 Y4.6733
G01 X9.1159 Y4.6990
G01 X9.1050 Y4.7011
G01 X9.0063 Y4.7158
G01 X8.9952 Y4.7169
G01 X8.8900 Y4.7219
G01 X8.7792 Y4.7165
G01 X8.6696 Y4.7002
G01 X8.5674 Y4.6747
G01 X8.5567 Y4.6715
G01 X8.4628 Y4.6379
G01 X8.4525 Y4.6336
G01 X8.3574 Y4.5885
G01 X8.2623 Y4.5315
G01 X8.1732 Y4.4654
G01 X8.0951 Y4.3948
G01 X8.0872 Y4.3869
G01 X8.0202 Y4.3130
G01 X8.0131 Y4.3044
G01 X7.9505 Y4.2197
G01 X7.8935 Y4.1246
G01 X7.8461 Y4.0244
G01 X7.8105 Y3.9253
G01 X7.8073 Y3.9146
G01 X7.7830 Y3.8179
G01 X7.7809 Y3.8070
G01 X7.7655 Y3.7028
G01 X7.7601 Y3.5920
G00 Z3.0000
G00 X12.8401 Y3.5920
G01 F60.00
G01 Z-0.0500
G01 F120.00
G01 X12.8401 Y1.5600
G01 X12.8451 Y1.4548
G01 X12.8462 Y1.4437
G01 X12.8618 Y1.3396
G01 X12.8887 Y1.2320
G01 X12.9261 Y1.1276
G01 X12.9735 Y1.0274
G01 X13.0305 Y0.9323
G01 X13.0966 Y0.8432
G01 X13.1710 Y0.7610
G01 X13.2532 Y0.6866
G01 X13.3423 Y0.6205
G01 X13.4374 Y0.5635
G01 X13.5376 Y0.5161
G01 X13.6420 Y0.4787
G01 X13.7496 Y0.4518
G01 X13.8592 Y0.4355
G01 X13.9700 Y0.4301
G01 X14.0808 Y0.4355
G01 X14.1904 Y0.4518
G01 X14.2980 Y0.4787
G01 X14.4024 Y0.5161
G01 X14.5026 Y0.5635
G01 X14.5930 Y0.6175
G01 X14.6023 Y0.6237
G01 X14.6868 Y0.6866
G01 X14.7649 Y0.7572
G01 X14.7728 Y0.7651
G01 X14.8434 Y0.8432
G01 X14.9095 Y0.9323
G01 X14.9665 Y1.0274
G01 X15.0116 Y1.1225
G01 X15.0159 Y1.1328
G01 X15.0513 Y1.2320
G01 X15.0770 Y1.3341
G01 X15.0791 Y1.3450
G01 X15.0942 Y1.4465
G01 X15.0949 Y1.4548
G01 X15.0999 Y1.5600
G01 X15.0998 Y3.5976
G01 X15.0949 Y3.6972
G01 X15.0938 Y3.7083
G01 X15.0782 Y3.8124
G01 X15.0527 Y3.9146
G01 X15.0495 Y3.9253
G01 X15.0139 Y4.0244
G01 X14.9665 Y4.1246
G01 X14.9095 Y4.2197
G01 X14.8434 Y4.3088
G01 X14.7690 Y4.3910
G01 X14.6910 Y4.4618
G01 X14.6824 Y4.4689
G01 X14.6023 Y4.5283
G01 X14.5930 Y4.5345
G01 X14.5026 Y4.5885
G01 X14.4024 Y4.6359
G01 X14.2980 Y4.6733
G01 X14.1959 Y4.6990
G01 X14.1850 Y4.7011
G01 X14.0863 Y4.7158
G01 X14.0752 Y4.7169
G01 X13.9700 Y4.7219
G01 X13.8592 Y4.7165
G01 X13.7496 Y4.7002
G01 X13.6474 Y4.6747
G01 X13.6367 Y4.6715
G01 X13.5428 Y4.6379
G01 X13.5325 Y4.6336
G01 X13.4374 Y4.5885
G01 X13.3423 Y4.5315
G01 X13.2532 Y4.4654
G01 X13.1751 Y4.3948
G01 X13.1672 Y4.3869
G01 X13.1002 Y4.3130
G01 X13.0931 Y4.3044
G01 X13.0305 Y4.2197
G01 X12.9735 Y4.1246
G01 X12.9261 Y4.0244
G01 X12.8905 Y3.9253
G01 X12.8873 Y3.9146
G01 X12.8630 Y3.8179
G01 X12.8609 Y3.8070
G01 X12.8455 Y3.7028
G01 X12.8401 Y3.5920
G00 Z3.0000
G00 X12.5599 Y1.5600
G01 F60.00
G01 Z-0.0500
G01 F120.00
G01 X12.5599 Y3.5920
G01 X12.5549 Y3.6972
G01 X12.5538 Y3.7083
G01 X12.5382 Y3.8124
G01 X12.5113 Y3.9200
G01 X12.4739 Y4.0244
G01 X12.4265 Y4.1246
G01 X12.3695 Y4.2197
G01 X12.3034 Y4.3088
G01 X12.2290 Y4.3910
G01 X12.1468 Y4.4654
G01 X12.0577 Y4.5315
G01 X11.9626 Y4.5885
G01 X11.8624 Y4.6359
G01 X11.7580 Y4.6733
G01 X11.6504 Y4.7002
G01 X11.5408 Y4.7165
G01 X11.4300 Y4.7219
G01 X11.3192 Y4.7165
G01 X11.2096 Y4.7002
G01 X11.1020 Y4.6733
G01 X10.9976 Y4.6359
G01 X10.8974 Y4.5885
G01 X10.8070 Y4.5345
G01 X10.7977 Y4.5283
G01 X10.7132 Y4.4654
G01 X10.6351 Y4.3948
G01 X10.6272 Y4.3869
G01 X10.5566 Y4.3088
G01 X10.4905 Y4.2197
G01 X10.4335 Y4.1246
G01 X10.3884 Y4.0295
G01 X10.3841 Y4.0192
G01 X10.3487 Y3.9200
G01 X10.3230 Y3.8179
G01 X10.3209 Y3.8070
G01 X10.3058 Y3.7055
G01 X10.3051 Y3.6972
G01 X10.3001 Y3.5920
G01 X10.3002 Y1.5544
G01 X10.3051 Y1.4548
G01 X10.3062 Y1.4437
G01 X10.3218 Y1.3396
G01 X10.3473 Y1.2374
G01 X10.3505 Y1.2267
G01 X10.3861 Y1.1276
G01 X10.4335 Y1.0274
G01 X10.4905 Y0.9323
G01 X10.5566 Y0.8432
G01 X10.6310 Y0.7610
G01 X10.7090 Y0.6902
G01 X10.7176 Y0.6831
G01 X10.7977 Y0.6237
G01 X10.8070 Y0.6175
G01 X10.8974 Y0.5635
G01 X10.9976 Y0.5161
G01 X11.1020 Y0.4787
G01 X11.2041 Y0.4530
G01 X11.2150 Y0.4509
G01 X11.3137 Y0.4362
G01 X11.3248 Y0.4351
G01 X11.4300 Y0.4301
G01 X11.5408 Y0.4355
G01 X11.6504 Y0.4518
G01 X11.7526 Y0.4773
G01 X11.7633 Y0.4805
G01 X11.8572 Y0.5141
G01 X11.8675 Y0.5184
G01 X11.9626 Y0.5635
G01 X12.0577 Y0.6205
G01 X12.1468 Y0.6866
G01 X12.2249 Y0.7572
G01 X12.2328 Y0.7651
G01 X12.2998 Y0.8390
G01 X12.3069 Y0.8476
G01 X12.3695 Y0.9323
G01 X12.4265 Y1.0274
G01 X12.4739 Y1.1276
G01 X12.5095 Y1.2267
G01 X12.5127 Y1.2374
G01 X12.5370 Y1.3341
G01 X12.5391 Y1.3450
G01 X12.5545 Y1.4492
G01 X12.5599 Y1.5600
G00 Z3.0000
G00 X17.6399 Y1.5600
G01 F60.00
G01 Z-0.0500
G01 F120.00
G01 X17.6399 Y3.5920
G01 X17.6349 Y3.6972
G01 X17.6338 Y3.7083
G01 X17.6182 Y3.8124
G01 X17.5913 Y3.9200
G01 X17.5539 Y4.0244
G01 X17.5065 Y4.1246
G01 X17.4495 Y4.2197
G01 X17.3834 Y4.3088
G01 X17.3090 Y4.3910
G01 X17.2268 Y4.4654
G01 X17.1377 Y4.5315
G01 X17.0426 Y4.5885
G01 X16.9424 Y4.6359
G01 X16.8380 Y4.6733
G01 X16.7304 Y4.7002
G01 X16.6208 Y4.7165
G01 X16.5100 Y4.7219
G01 X16.3992 Y4.7165
G01 X16.2896 Y4.7002
G01 X16.1820 Y4.6733
G01 X16.0776 Y4.6359
G01 X15.9774 Y4.5885
G01 X15.8870 Y4.5345
G01 X15.8777 Y4.5283
G01 X15.7932 Y4.4654
G01 X15.7151 Y4.3948
G01 X15.7072 Y4.3869
G01 X15.6366 Y4.3088
G01 X15.5705 Y4.2197
G01 X15.5135 Y4.1246
G01 X15.4684 Y4.0295
G01 X15.4641 Y4.0192
G01 X15.4287 Y3.9200
G01 X15.4030 Y3.8179
G01 X15.4009 Y3.8070
G01 X15.3858 Y3.7055
G01 X15.3851 Y3.6972
G01 X15.3801 Y3.5920
G01 X15.3802 Y1.5544
G01 X15.3851 Y1.4548
G01 X15.3862 Y1.4437
G01 X15.4018 Y1.3396
G01 X15.4273 Y1.2374
G01 X15.4305 Y1.2267
G01 X15.4661 Y1.1276
G01 X15.5135 Y1.0274
G01 X15.5705 Y0.9323
G01 X15.6331 Y0.8476
G01 X15.6402 Y0.8390
G01 X15.7072 Y0.7651
G01 X15.7151 Y0.7572
G01 X15.7932 Y0.6866
G01 X15.8823 Y0.6205
G01 X15.9774 Y0.5635
G01 X16.0776 Y0.5161
G01 X16.1820 Y0.4787
G01 X16.2841 Y0.4530
G01 X16.2950 Y0.4509
G01 X16.3937 Y0.4362
G01 X16.4048 Y0.4351
G01 X16.5100 Y0.4301
G01 X16.6208 Y0.4355
G01 X16.7304 Y0.4518
G01 X16.8326 Y0.4773
G01 X16.8433 Y0.4805
G01 X16.9372 Y0.5141
G01 X16.9475 Y0.5184
G01 X17.0426 Y0.5635
G01 X17.1377 Y0.6205
G01 X17.2268 Y0.6866
G01 X17.3049 Y0.7572
G01 X17.3128 Y0.7651
G01 X17.3798 Y0.8390
G01 X17.3869 Y0.8476
G01 X17.4495 Y0.9323
G01 X17.5065 Y1.0274
G01 X17.5539 Y1.1276
G01 X17.5895 Y1.2267
G01 X17.5927 Y1.2374
G01 X17.6170 Y1.3341
G01 X17.6191 Y1.3450
G01 X17.6345 Y1.4492
G01 X17.6399 Y1.5600
G00 Z3.0000
G00 X17.9201 Y3.5920
G01 F60.00
G01 Z-0.0500
G01 F120.00
G01 X17.9201 Y1.5600
G01 X17.9251 Y1.4548
G01 X17.9262 Y1.4437
G01 X17.9418 Y1.3396
G01 X17.9687 Y1.2320
G01 X18.0061 Y1.1276
G01 X18.0535 Y1.0274
G01 X18.1105 Y0.9323
G01 X18.1766 Y0.8432
G01 X18.2510 Y0.7610
G01 X18.3332 Y0.6866
G01 X18.4223 Y0.6205
G01 X18.5174 Y0.5635
G01 X18.6176 Y0.5161
G01 X18.7220 Y0.4787
G01 X18.8296 Y0.4518
G01 X18.9392 Y0.4355
G01 X19.0500 Y0.4301
G01 X19.1608 Y0.4355
G01 X19.2704 Y0.4518
G01 X19.3780 Y0.4787
G01 X19.4824 Y0.5161
G01 X19.5826 Y0.5635
G01 X19.6730 Y0.6175
G01 X19.6823 Y0.6237
G01 X19.7668 Y0.6866
G01 X19.8449 Y0.7572
G01 X19.8528 Y0.7651
G01 X19.9234 Y0.8432
G01 X19.9895 Y0.9323
G01 X20.0465 Y1.0274
G01 X20.0916 Y1.1225
G01 X20.0959 Y1.1328
G01 X20.1313 Y1.2320
G01 X20.1570 Y1.3341
G01 X20.1591 Y1.3450
G01 X20.1742 Y1.4465
G01 X20.1749 Y1.4548
G01 X20.1799 Y1.5600
G01 X20.1798 Y3.5976
G01 X20.1749 Y3.6972
G01 X20.1738 Y3.7083
G01 X20.1582 Y3.8124
G01 X20.1327 Y3.9146
G01 X20.1295 Y3.9253
G01 X20.0939 Y4.0244
G01 X20.0465 Y4.1246
G01 X19.9895 Y4.2197
G01 X19.9269 Y4.3044
G01 X19.9198 Y4.3130
G01 X19.8528 Y4.3869
G01 X19.8449 Y4.3948
G01 X19.7668 Y4.4654
G01 X19.6777 Y4.5315
G01 X19.5826 Y4.5885
G01 X19.4824 Y4.6359
G01 X19.3780 Y4.6733
G01 X19.2759 Y4.6990
G01 X19.2650 Y4.7011
G01 X19.1663 Y4.7158
G01 X19.1552 Y4.7169
G01 X19.0500 Y4.7219
G01 X18.9392 Y4.7165
G01 X18.8296 Y4.7002
G01 X18.7274 Y4.6747
G01 X18.7167 Y4.6715
G01 X18.6228 Y4.6379
G01 X18.6125 Y4.6336
G01 X18.5174 Y4.5885
G01 X18.4223 Y4.5315
G01 X18.3332 Y4.4654
G01 X18.2551 Y4.3948
G01 X18.2472 Y4.3869
G01 X18.1802 Y4.3130
G01 X18.1731 Y4.3044
G01 X18.1105 Y4.2197
G01 X18.0535 Y4.1246
G01 X18.0061 Y4.0244
G01 X17.9705 Y3.9253
G01 X17.9673 Y3.9146
G01 X17.9430 Y3.8179
G01 X17.9409 Y3.8070
G01 X17.9255 Y3.7028
G01 X17.9201 Y3.5920
G00 Z3.0000
G00 X23.0001 Y3.5920
G01 F60.00
G01 Z-0.0500
G01 F120.00
G01 X23.0001 Y1.5600
G01 X23.0051 Y1.4548
G01 X23.0062 Y1.4437
G01 X23.0218 Y1.3396
G01 X23.0487 Y1.2320
G01 X23.0861 Y1.1276
G01 X23.1335 Y1.0274
G01 X23.1905 Y0.9323
G01 X23.2566 Y0.8432
G01 X23.3310 Y0.7610
G01 X23.4132 Y0.6866
G01 X23.5023 Y0.6205
G01 X23.5974 Y0.5635
G01 X23.6976 Y0.5161
G01 X23.8020 Y0.4787
G01 X23.9096 Y0.4518
G01 X24.0192 Y0.4355
G01 X24.1300 Y0.4301
G01 X24.2408 Y0.4355
G01 X24.3504 Y0.4518
G01 X24.4580 Y0.4787
G01 X24.5624 Y0.5161
G01 X24.6626 Y0.5635
G01 X24.7530 Y0.6175
G01 X24.7623 Y0.6237
G01 X24.8468 Y0.6866
G01 X24.9249 Y0.7572
G01 X24.9328 Y0.7651
G01 X25.0034 Y0.8432
G01 X25.0695 Y0.9323
G01 X25.1265 Y1.0274
G01 X25.1716 Y1.1225
G01 X25.1759 Y1.1328
G01 X25.2113 Y1.2320
G01 X25.2370 Y1.3341
G01 X25.2391 Y1.3450
G01 X25.2542 Y1.4465
G01 X25.2549 Y1.4548
G01 X25.2599 Y1.5600
G01 X25.2598 Y3.5976
G01 X25.2549 Y3.6972
G01 X25.2538 Y3.7083
G01 X25.2382 Y3.8124
G01 X25.2127 Y3.9146
G01 X25.2095 Y3.9253
G01 X25.1739 Y4.0244
G01 X25.1265 Y4.1246
G01 X25.0695 Y4.2197
G01 X25.0069 Y4.3044
G01 X24.9998 Y4.3130
G01 X24.9328 Y4.3869
G01 X24.9249 Y4.3948
G01 X24.8468 Y4.4654
G01 X24.7577 Y4.5315
G01 X24.6626 Y4.5885
G01 X24.5624 Y4.6359
G01 X24.4580 Y4.6733
G01 X24.3559 Y4.6990
G01 X24.3450 Y4.7011
G01 X24.2463 Y4.7158
G01 X24.2352 Y4.7169
G01 X24.1300 Y4.7219
G01 X24.0192 Y4.7165
G01 X23.9096 Y4.7002
G01 X23.8074 Y4.6747
G01 X23.7967 Y4.6715
G01 X23.7028 Y4.6379
G01 X23.6925 Y4.6336
G01 X23.5974 Y4.5885
G01 X23.5023 Y4.5315
G01 X23.4132 Y4.4654
G01 X23.3351 Y4.3948
G01 X23.3272 Y4.3869
G01 X23.2602 Y4.3130
G01 X23.2531 Y4.3044
G01 X23.1905 Y4.2197
G01 X23.1335 Y4.1246
G01 X23.0861 Y4.0244
G01 X23.0505 Y3.9253
G01 X23.0473 Y3.9146
G01 X23.0230 Y3.8179
G01 X23.0209 Y3.8070
G01 X23.0055 Y3.7028
G01 X23.0001 Y3.5920
G00 Z3.0000
G00 X22.7199 Y1.5600
G01 F60.00
G01 Z-0.0500
G01 F120.00
G01 X22.7199 Y3.5920
G01 X22.7149 Y3.6972
G01 X22.7138 Y3.7083
G01 X22.6982 Y3.8124
G01 X22.6713 Y3.9200
G01 X22.6339 Y4.0244
G01 X22.5865 Y4.1246
G01 X22.5295 Y4.2197
G01 X22.4634 Y4.3088
G01 X22.3890 Y4.3910
G01 X22.3068 Y4.4654
G01 X22.2177 Y4.5315
G01 X22.1226 Y4.5885
G01 X22.0224 Y4.6359
G01 X21.9180 Y4.6733
G01 X21.8104 Y4.7002
G01 X21.7008 Y4.7165
G01 X21.5900 Y4.7219
G01 X21.4792 Y4.7165
G01 X21.3696 Y4.7002
G01 X21.2620 Y4.6733
G01 X21.1576 Y4.6359
G01 X21.0574 Y4.5885
G01 X20.9670 Y4.5345
G01 X20.9577 Y4.5283
G01 X20.8732 Y4.4654
G01 X20.7951 Y4.3948
G01 X20.7872 Y4.3869
G01 X20.7166 Y4.3088
G01 X20.6505 Y4.2197
G01 X20.5935 Y4.1246
G01 X20.5484 Y4.0295
G01 X20.5441 Y4.0192
G01 X20.5087 Y3.9200
G01 X20.4830 Y3.8179
G01 X20.4809 Y3.8070
G01 X20.4658 Y3.7055
G01 X20.4651 Y3.6972
G01 X20.4601 Y3.5920
G01 X20.4602 Y1.5544
G01 X20.4651 Y1.4548
G01 X20.4662 Y1.4437
G01 X20.4818 Y1.3396
G01 X20.5073 Y1.2374
G01 X20.5105 Y1.2267
G01 X20.5461 Y1.1276
G01 X20.5935 Y1.0274
G01 X20.6505 Y0.9323
G01 X20.7131 Y0.8476
G01 X20.7202 Y0.8390
G01 X20.7872 Y0.7651
G01 X20.7951 Y0.7572
G01 X20.8732 Y0.6866
G01 X20.9623 Y0.6205
G01 X21.0574 Y0.5635
G01 X21.1576 Y0.5161
G01 X21.2620 Y0.4787
G01 X21.3641 Y0.4530
G01 X21.3750 Y0.4509
G01 X21.4737 Y0.4362
G01 X21.4848 Y0.4351
G01 X21.5900 Y0.4301
G01 X21.7008 Y0.4355
G01 X21.8104 Y0.4518
G01 X21.9126 Y0.4773
G01 X21.9233 Y0.4805
G01 X22.0172 Y0.5141
G01 X22.0275 Y0.5184
G01 X22.1226 Y0.5635
G01 X22.2177 Y0.6205
G01 X22.3068 Y0.6866
G01 X22.3849 Y0.7572
G01 X22.3928 Y0.7651
G01 X22.4598 Y0.8390
G01 X22.4669 Y0.8476
G01 X22.5295 Y0.9323
G01 X22.5865 Y1.0274
G01 X22.6339 Y1.1276
G01 X22.6695 Y1.2267
G01 X22.6727 Y1.2374
G01 X22.6970 Y1.3341
G01 X22.6991 Y1.3450
G01 X22.7145 Y1.4492
G01 X22.7199 Y1.5600
G00 Z3.0000
G00 X27.7999 Y1.5600
G01 F60.00
G01 Z-0.0500
G01 F120.00
G01 X27.7999 Y3.5920
G01 X27.7949 Y3.6972
G01 X27.7938 Y3.7083
G01 X27.7782 Y3.8124
G01 X27.7513 Y3.9200
G01 X27.7139 Y4.0244
G01 X27.6665 Y4.1246
G01 X27.6095 Y4.2197
G01 X27.5434 Y4.3088
G01 X27.4690 Y4.3910
G01 X27.3868 Y4.4654
G01 X27.2977 Y4.5315
G01 X27.2026 Y4.5885
G01 X27.1024 Y4.6359
G01 X26.9980 Y4.6733
G01 X26.8904 Y4.7002
G01 X26.7808 Y4.7165
G01 X26.6700 Y4.7219
G01 X26.5592 Y4.7165
G01 X26.4496 Y4.7002
G01 X26.3420 Y4.6733
G01 X26.2376 Y4.6359
G01 X26.1374 Y4.5885
G01 X26.0470 Y4.5345
G01 X26.0377 Y4.5283
G01 X25.9532 Y4.4654
G01 X25.8751 Y4.3948
G01 X25.8672 Y4.3869
G01 X25.7966 Y4.3088
G01 X25.7305 Y4.2197
G01 X25.6735 Y4.1246
G01 X25.6284 Y4.0295
G01 X25.6241 Y4.0192
G01 X25.5887 Y3.9200
G01 X25.5630 Y3.8179
G01 X25.5609 Y3.8070
G01 X25.5458 Y3.7055
G01 X25.5451 Y3.6972
G01 X25.5401 Y3.5920
G01 X25.5402 Y1.5544
G01 X25.5451 Y1.4548
G01 X25.5462 Y1.4437
G01 X25.5618 Y1.3396
G01 X25.5873 Y1.2374
G01 X25.5905 Y1.2267
G01 X25.6261 Y1.1276
G01 X25.6735 Y1.0274
G01 X25.7305 Y0.9323
G01 X25.7931 Y0.8476
G01 X25.8002 Y0.8390
G01 X25.8672 Y0.7651
G01 X25.8751 Y0.7572
G01 X25.9532 Y0.6866
G01 X26.0423 Y0.6205
G01 X26.1374 Y0.5635
G01 X26.2376 Y0.5161
G01 X26.3420 Y0.4787
G01 X26.4441 Y0.4530
G01 X26.4550 Y0.4509
G01 X26.5537 Y0.4362
G01 X26.5648 Y0.4351
G01 X26.6700 Y0.4301
G01 X26.7808 Y0.4355
G01 X26.8904 Y0.4518
G01 X26.9926 Y0.4773
G01 X27.0033 Y0.4805
G01 X27.0972 Y0.5141
G01 X27.1075 Y0.5184
G01 X27.2026 Y0.5635
G01 X27.2977 Y0.6205
G01 X27.3868 Y0.6866
G01 X27.4649 Y0.7572
G01 X27.4728 Y0.7651
G01 X27.5398 Y0.8390
G01 X27.5469 Y0.8476
G01 X27.6095 Y0.9323
G01 X27.6665 Y1.0274
G01 X27.7139 Y1.1276
G01 X27.7495 Y1.2267
G01 X27.7527 Y1.2374
G01 X27.7770 Y1.3341
G01 X27.7791 Y1.3450
G01 X27.7945 Y1.4492
G01 X27.7999 Y1.5600
G00 Z3.0000
G00 X28.0801 Y3.5920
G01 F60.00
G01 Z-0.0500
G01 F120.00
G01 X28.0801 Y1.5600
G01 X28.0851 Y1.4548
G01 X28.0862 Y1.4437
G01 X28.1018 Y1.3396
G01 X28.1287 Y1.2320
G01 X28.1661 Y1.1276
G01 X28.2135 Y1.0274
G01 X28.2705 Y0.9323
G01 X28.3366 Y0.8432
G01 X28.4110 Y0.7610
G01 X28.4932 Y0.6866
G01 X28.5823 Y0.6205
G01 X28.6774 Y0.5635
G01 X28.7776 Y0.5161
G01 X28.8820 Y0.4787
G01 X28.9896 Y0.4518
G01 X29.0992 Y0.4355
G01 X29.2100 Y0.4301
G01 X29.3208 Y0.4355
G01 X29.4304 Y0.4518
G01 X29.5380 Y0.4787
G01 X29.6424 Y0.5161
G01 X29.7426 Y0.5635
G01 X29.8330 Y0.6175
G01 X29.8423 Y0.6237
G01 X29.9268 Y0.6866
G01 X30.0049 Y0.7572
G01 X30.0128 Y0.7651
G01 X30.0834 Y0.8432
G01 X30.1495 Y0.9323
G01 X30.2065 Y1.0274
G01 X30.2516 Y1.1225
G01 X30.2559 Y1.1328
G01 X30.2913 Y1.2320
G01 X30.3170 Y1.3341
G01 X30.3191 Y1.3450
G01 X30.3342 Y1.4465
G01 X30.3349 Y1.4548
G01 X30.3399 Y1.5600
G01 X30.3398 Y3.5976
G01 X30.3349 Y3.6972
G01 X30.3338 Y3.7083
G01 X30.3182 Y3.8124
G01 X30.2927 Y3.9146
G01 X30.2895 Y3.9253
G01 X30.2539 Y4.0244
G01 X30.2065 Y4.1246
G01 X30.1495 Y4.2197
G01 X30.0869 Y4.3044
G01 X30.0798 Y4.3130
G01 X30.0128 Y4.3869
G01 X30.0049 Y4.3948
G01 X29.9268 Y4.4654
G01 X29.8377 Y4.5315
G01 X29.7426 Y4.5885
G01 X29.6424 Y4.6359
G01 X29.5380 Y4.6733
G01 X29.4359 Y4.6990
G01 X29.4250 Y4.7011
G01 X29.3263 Y4.7158
G01 X29.3152 Y4.7169
G01 X29.2100 Y4.7219
G01 X29.0992 Y4.7165
G01 X28.9896 Y4.7002
G01 X28.8874 Y4.6747
G01 X28.8767 Y4.6715
G01 X28.7828 Y4.6379
G01 X28.7725 Y4.6336
G01 X28.6774 Y4.5885
G01 X28.5823 Y4.5315
G01 X28.4932 Y4.4654
G01 X28.4151 Y4.3948
G01 X28.4072 Y4.3869
G01 X28.3402 Y4.3130
G01 X28.3331 Y4.3044
G01 X28.2705 Y4.2197
G01 X28.2135 Y4.1246
G01 X28.1661 Y4.0244
G01 X28.1305 Y3.9253
G01 X28.1273 Y3.9146
G01 X28.1030 Y3.8179
G01 X28.1009 Y3.8070
G01 X28.0855 Y3.7028
G01 X28.0801 Y3.5920
G00 Z3.0000
G00 X33.1601 Y3.5920
G01 F60.00
G01 Z-0.0500
G01 F120.00
G01 X33.1601 Y1.5600
G01 X33.1651 Y1.4548
G01 X33.1662 Y1.4437
G01 X33.1818 Y1.3396
G01 X33.2087 Y1.2320
G01 X33.2461 Y1.1276
G01 X33.2935 Y1.0274
G01 X33.3505 Y0.9323
G01 X33.4166 Y0.8432
G01 X33.4910 Y0.7610
G01 X33.5732 Y0.6866
G01 X33.6623 Y0.6205
G01 X33.7574 Y0.5635
G01 X33.8576 Y0.5161
G01 X33.9620 Y0.4787
G01 X34.0696 Y0.4518
G01 X34.1792 Y0.4355
G01 X34.2900 Y0.4301
G01 X34.4008 Y0.4355
G01 X34.5104 Y0.4518
G01 X34.6180 Y0.4787
G01 X34.7224 Y0.5161
G01 X34.8226 Y0.5635
G01 X34.9130 Y0.6175
G01 X34.9223 Y0.6237
G01 X35.0068 Y0.6866
G01 X35.0849 Y0.7572
G01 X35.0928 Y0.7651
G01 X35.1634 Y0.8432
G01 X35.2295 Y0.9323
G01 X35.2865 Y1.0274
G01 X35.3316 Y1.1225
G01 X35.3359 Y1.1328
G01 X35.3713 Y1.2320
G01 X35.3970 Y1.3341
G01 X35.3991 Y1.3450
G01 X35.4142 Y1.4465
G01 X35.4149 Y1.4548
G01 X35.4199 Y1.5600
G01 X35.4198 Y3.5976
G01 X35.4149 Y3.6972
G01 X35.4138 Y3.7083
G01 X35.3982 Y3.8124
G01 X35.3727 Y3.9146
G01 X35.3695 Y3.9253
G01 X35.3339 Y4.0244
G01 X35.2865 Y4.1246
G01 X35.2295 Y4.2197
G01 X35.1634 Y4.3088
G01 X35.0890 Y4.3910
G01 X35.0110 Y4.4618
G01 X35.0024 Y4.4689
G01 X34.9223 Y4.5283
G01 X34.9130 Y4.5345
G01 X34.8226 Y4.5885
G01 X34.7224 Y4.6359
G01 X34.6180 Y4.6733
G01 X34.5159 Y4.6990
G01 X34.5050 Y4.7011
G01 X34.4063 Y4.7158
G01 X34.3952 Y4.7169
G01 X34.2900 Y4.7219
G01 X34.1792 Y4.7165
G01 X34.0696 Y4.7002
G01 X33.9674 Y4.6747
G01 X33.9567 Y4.6715
G01 X33.8628 Y4.6379
G01 X33.8525 Y4.6336
G01 X33.7574 Y4.5885
G01 X33.6623 Y4.5315
G01 X33.5732 Y4.4654
G01 X33.4951 Y4.3948
G01 X33.4872 Y4.3869
G01 X33.4202 Y4.3130
G01 X33.4131 Y4.3044
G01 X33.3505 Y4.2197
G01 X33.2935 Y4.1246
G01 X33.2461 Y4.0244
G01 X33.2105 Y3.9253
G01 X33.2073 Y3.9146
G01 X33.1830 Y3.8179
G01 X33.1809 Y3.8070
G01 X33.1655 Y3.7028
G01 X33.1601 Y3.5920
G00 Z3.0000
G00 X32.8799 Y1.5600
G01 F60.00
G01 Z-0.0500
G01 F120.00
G01 X32.8799 Y3.5920
G01 X32.8749 Y3.6972
G01 X32.8738 Y3.7083
G01 X32.8582 Y3.8124
G01 X32.8313 Y3.9200
G01 X32.7939 Y4.0244
G01 X32.7465 Y4.1246
G01 X32.6895 Y4.2197
G01 X32.6234 Y4.3088
G01 X32.5490 Y4.3910
G01 X32.4668 Y4.4654
G01 X32.3777 Y4.5315
G01 X32.2826 Y4.5885
G01 X32.1824 Y4.6359
G01 X32.0780 Y4.6733
G01 X31.9704 Y4.7002
G01 X31.8608 Y4.7165
G01 X31.7500 Y4.7219
G01 X31.6392 Y4.7165
G01 X31.5296 Y4.7002
G01 X31.4220 Y4.6733
G01 X31.3176 Y4.6359
G01 X31.2174 Y4.5885
G01 X31.1270 Y4.5345
G01 X31.1177 Y4.5283
G01 X31.0332 Y4.4654
G01 X30.9551 Y4.3948
G01 X30.9472 Y4.3869
G01 X30.8766 Y4.3088
G01 X30.8105 Y4.2197
G01 X30.7535 Y4.1246
G01 X30.7084 Y4.0295
G01 X30.7041 Y4.0192
G01 X30.6687 Y3.9200
G01 X30.6430 Y3.8179
G01 X30.6409 Y3.8070
G01 X30.6258 Y3.7055
G01 X30.6251 Y3.6972
G01 X30.6201 Y3.5920
G01 X30.6202 Y1.5544
G01 X30.6251 Y1.4548
G01 X30.6262 Y1.4437
G01 X30.6418 Y1.3396
G01 X30.6673 Y1.2374
G01 X30.6705 Y1.2267
G01 X30.7061 Y1.1276
G01 X30.7535 Y1.0274
G01 X30.8105 Y0.9323
G01 X30.8731 Y0.8476
G01 X30.8802 Y0.8390
G01 X30.9472 Y0.7651
G01 X30.9551 Y0.7572
G01 X31.0332 Y0.6866
G01 X31.1223 Y0.6205
G01 X31.2174 Y0.5635
G01 X31.3176 Y0.5161
G01 X31.4220 Y0.4787
G01 X31.5241 Y0.4530
G01 X31.5350 Y0.4509
G01 X31.6337 Y0.4362
G01 X31.6448 Y0.4351
G01 X31.7500 Y0.4301
G01 X31.8608 Y0.4355
G01 X31.9704 Y0.4518
G01 X32.0726 Y0.4773
G01 X32.0833 Y0.4805
G01 X32.1772 Y0.5141
G01 X32.1875 Y0.5184
G01 X32.2826 Y0.5635
G01 X32.3777 Y0.6205
G01 X32.4668 Y0.6866
G01 X32.5449 Y0.7572
G01 X32.5528 Y0.7651
G01 X32.6198 Y0.8390
G01 X32.6269 Y0.8476
G01 X32.6895 Y0.9323
G01 X32.7465 Y1.0274
G01 X32.7939 Y1.1276
G01 X32.8295 Y1.2267
G01 X32.8327 Y1.2374
G01 X32.8570 Y1.3341
G01 X32.8591 Y1.3450
G01 X32.8745 Y1.4492
G01 X32.8799 Y1.5600
G00 Z3.0000
G00 X36.0813 Y4.4367
G01 F60.00
G01 Z-0.0500
G01 F120.00
G01 X36.0351 Y4.3948
G01 X36.0291 Y4.3890
G01 X35.9602 Y4.3130
G01 X35.9548 Y4.3066
G01 X35.8905 Y4.2197
G01 X35.8363 Y4.1295
G01 X35.8322 Y4.1222
G01 X35.7861 Y4.0244
G01 X35.7487 Y3.9200
G01 X35.7218 Y3.8124
G01 X35.7055 Y3.7028
G01 X35.7001 Y3.5920
G01 X35.7001 Y1.5572
G01 X35.7051 Y1.4548
G01 X35.7062 Y1.4437
G01 X35.7218 Y1.3396
G01 X35.7480 Y1.2347
G01 X35.7505 Y1.2267
G01 X35.7861 Y1.1276
G01 X35.8335 Y1.0274
G01 X35.8905 Y0.9323
G01 X35.9566 Y0.8432
G01 X36.0310 Y0.7610
G01 X36.1132 Y0.6866
G01 X36.2023 Y0.6205
G01 X36.2974 Y0.5635
G01 X36.3976 Y0.5161
G01 X36.5020 Y0.4787
G01 X36.6096 Y0.4518
G01 X36.7192 Y0.4355
G01 X36.8300 Y0.4301
G01 X36.9408 Y0.4355
G01 X37.0504 Y0.4518
G01 X37.1553 Y0.4780
G01 X37.1633 Y0.4805
G01 X37.2572 Y0.5141
G01 X37.2675 Y0.5184
G01 X37.3626 Y0.5635
G01 X37.4577 Y0.6205
G01 X37.5468 Y0.6866
G01 X37.6249 Y0.7572
G01 X37.6328 Y0.7651
G01 X37.7034 Y0.8432
G01 X37.7663 Y0.9277
G01 X37.7725 Y0.9370
G01 X37.8265 Y1.0274
G01 X37.8739 Y1.1276
G01 X37.9095 Y1.2267
G01 X37.9127 Y1.2374
G01 X37.9382 Y1.3396
G01 X37.9538 Y1.4437
G01 X37.9549 Y1.4548
G01 X37.9599 Y1.5600
G01 X37.9599 Y3.5920
G01 X37.9545 Y3.7028
G01 X37.9382 Y3.8124
G01 X37.9113 Y3.9200
G01 X37.8739 Y4.0244
G01 X37.8278 Y4.1222
G01 X37.8237 Y4.1295
G01 X37.7695 Y4.2197
G01 X37.7052 Y4.3066
G01 X37.6998 Y4.3130
G01 X37.6309 Y4.3890
G01 X37.6249 Y4.3948
G01 X37.5787 Y4.4367
G01 X37.5787 Y5.7502
G01 X37.6526 Y5.8174
G01 X37.7257 Y5.8977
G01 X37.7327 Y5.9063
G01 X37.7941 Y5.9891
G01 X37.8003 Y5.9984
G01 X37.8560 Y6.0916
G01 X37.9026 Y6.1897
G01 X37.9068 Y6.2000
G01 X37.9433 Y6.3023
G01 X37.9710 Y6.4130
G01 X37.9878 Y6.5260
G01 X37.9934 Y6.6400
G01 X37.9882 Y6.7485
G01 X37.9871 Y6.7596
G01 X37.9710 Y6.8670
G01 X37.9433 Y6.9777
G01 X37.9048 Y7.0852
G01 X37.8585 Y7.1835
G01 X37.8533 Y7.1933
G01 X37.8003 Y7.2816
G01 X37.7941 Y7.2909
G01 X37.7293 Y7.3781
G01 X37.6526 Y7.4626
G01 X37.5681 Y7.5393
G01 X37.4809 Y7.6041
G01 X37.4716 Y7.6103
G01 X37.3833 Y7.6633
G01 X37.3735 Y7.6685
G01 X37.2752 Y7.7148
G01 X37.1704 Y7.7525
G01 X37.1624 Y7.7548
G01 X37.0570 Y7.7810
G01 X36.9440 Y7.7978
G01 X36.8300 Y7.8034
G01 X36.7160 Y7.7978
G01 X36.6030 Y7.7810
G01 X36.4923 Y7.7533
G01 X36.3848 Y7.7148
G01 X36.2816 Y7.6660
G01 X36.1836 Y7.6073
G01 X36.0919 Y7.5393
G01 X36.0074 Y7.4626
G01 X35.9307 Y7.3781
G01 X35.8627 Y7.2864
G01 X35.8040 Y7.1884
G01 X35.7552 Y7.0852
G01 X35.7175 Y6.9804
G01 X35.7152 Y6.9724
G01 X35.6902 Y6.8724
G01 X35.6880 Y6.8615
G01 X35.6722 Y6.7540
G01 X35.6666 Y6.6400
G01 X35.6718 Y6.5315
G01 X35.6729 Y6.5204
G01 X35.6890 Y6.4130
G01 X35.7167 Y6.3023
G01 X35.7552 Y6.1948
G01 X35.8015 Y6.0965
G01 X35.8067 Y6.0867
G01 X35.8627 Y5.9936
G01 X35.9273 Y5.9063
G01 X35.9343 Y5.8977
G01 X36.0074 Y5.8174
G01 X36.0813 Y5.7502
G01 X36.0813 Y4.4367
G00 Z3.0000
G00 X36.4498 Y9.9287
G01 F60.00
G01 Z-0.0500
G01 F120.00
G01 X36.3826 Y10.0026
G01 X36.2981 Y10.0793
G01 X36.2064 Y10.1473
G01 X36.1133 Y10.2033
G01 X36.1035 Y10.2085
G01 X36.0103 Y10.2526
G01 X36.0000 Y10.2568
G01 X35.8977 Y10.2933
G01 X35.7870 Y10.3210
G01 X35.6740 Y10.3378
G01 X35.5656 Y10.3433
G01 X35.5544 Y10.3433
G01 X35.4515 Y10.3382
G01 X35.4404 Y10.3371
G01 X35.3330 Y10.3210
G01 X35.2223 Y10.2933
G01 X35.1148 Y10.2548
G01 X35.0116 Y10.2060
G01 X34.9136 Y10.1473
G01 X34.8263 Y10.0827
G01 X34.8177 Y10.0757
G01 X34.7414 Y10.0065
G01 X34.7335 Y9.9986
G01 X34.6607 Y9.9181
G01 X34.5927 Y9.8264
G01 X34.5340 Y9.7284
G01 X34.4852 Y9.6252
G01 X34.4467 Y9.5177
G01 X34.4190 Y9.4070
G01 X34.4022 Y9.2940
G01 X34.3967 Y9.1856
G01 X34.3967 Y9.1744
G01 X34.4018 Y9.0715
G01 X34.4029 Y9.0604
G01 X34.4190 Y8.9530
G01 X34.4452 Y8.8476
G01 X34.4484 Y8.8370
G01 X34.4852 Y8.7348
G01 X34.5315 Y8.6365
G01 X34.5367 Y8.6267
G01 X34.5927 Y8.5336
G01 X34.6573 Y8.4463
G01 X34.6643 Y8.4377
G01 X34.7374 Y8.3574
G01 X34.8219 Y8.2807
G01 X34.9136 Y8.2127
G01 X35.0067 Y8.1567
G01 X35.0165 Y8.1515
G01 X35.1148 Y8.1052
G01 X35.2170 Y8.0684
G01 X35.2276 Y8.0652
G01 X35.3330 Y8.0390
G01 X35.4460 Y8.0222
G01 X35.5600 Y8.0166
G01 X35.6685 Y8.0218
G01 X35.6796 Y8.0229
G01 X35.7870 Y8.0390
G01 X35.8924 Y8.0652
G01 X35.9030 Y8.0684
G01 X36.0052 Y8.1052
G01 X36.1084 Y8.1540
G01 X36.2016 Y8.2097
G01 X36.2109 Y8.2159
G01 X36.2937 Y8.2773
G01 X36.3023 Y8.2843
G01 X36.3826 Y8.3574
G01 X36.4498 Y8.4313
G01 X38.6213 Y8.4313
G01 X38.6213 Y4.4367
G01 X38.5751 Y4.3948
G01 X38.5691 Y4.3890
G01 X38.5002 Y4.3130
G01 X38.4948 Y4.3066
G01 X38.4305 Y4.2197
G01 X38.3763 Y4.1295
G01 X38.3722 Y4.1222
G01 X38.3261 Y4.0244
G01 X38.2887 Y3.9200
G01 X38.2618 Y3.8124
G01 X38.2458 Y3.7055
G01 X38.2451 Y3.6972
G01 X38.2401 Y3.5920
G01 X38.2401 Y1.5600
G01 X38.2451 Y1.4548
G01 X38.2462 Y1.4437
G01 X38.2618 Y1.3396
G01 X38.2873 Y1.2374
G01 X38.2905 Y1.2267
G01 X38.3261 Y1.1276
G01 X38.3710 Y1.0323
G01 X38.3763 Y1.0225
G01 X38.4275 Y0.9370
G01 X38.4337 Y0.9277
G01 X38.4966 Y0.8432
G01 X38.5710 Y0.7610
G01 X38.6532 Y0.6866
G01 X38.7423 Y0.6205
G01 X38.8374 Y0.5635
G01 X38.9325 Y0.5184
G01 X38.9428 Y0.5141
G01 X39.0367 Y0.4805
G01 X39.0474 Y0.4773
G01 X39.1496 Y0.4518
G01 X39.2537 Y0.4362
G01 X39.2648 Y0.4351
G01 X39.3700 Y0.4301
G01 X39.4808 Y0.4355
G01 X39.5904 Y0.4518
G01 X39.6926 Y0.4773
G01 X39.7033 Y0.4805
G01 X39.8024 Y0.5161
G01 X39.8977 Y0.5610
G01 X39.9075 Y0.5663
G01 X39.9930 Y0.6175
G01 X40.0023 Y0.6237
G01 X40.0868 Y0.6866
G01 X40.1690 Y0.7610
G01 X40.2434 Y0.8432
G01 X40.3063 Y0.9277
G01 X40.3125 Y0.9370
G01 X40.3637 Y1.0225
G01 X40.3690 Y1.0323
G01 X40.4139 Y1.1276
G01 X40.4513 Y1.2320
G01 X40.4770 Y1.3341
G01 X40.4791 Y1.3450
G01 X40.4945 Y1.4492
G01 X40.4998 Y1.5544
G01 X40.4999 Y3.5920
G01 X40.4949 Y3.6972
G01 X40.4942 Y3.7055
G01 X40.4782 Y3.8124
G01 X40.4513 Y3.9200
G01 X40.4139 Y4.0244
G01 X40.3678 Y4.1222
G01 X40.3637 Y4.1295
G01 X40.3095 Y4.2197
G01 X40.2452 Y4.3066
G01 X40.2398 Y4.3130
G01 X40.1709 Y4.3890
G01 X40.1649 Y4.3948
G01 X40.1187 Y4.4367
G01 X40.1187 Y9.1800
G01 X40.1151 Y9.2534
G01 X40.1053 Y9.3206
G01 X40.1031 Y9.3315
G01 X40.0880 Y9.3920
G01 X40.0847 Y9.4026
G01 X40.0617 Y9.4665
G01 X40.0328 Y9.5280
G01 X40.0276 Y9.5378
G01 X39.9925 Y9.5960
G01 X39.9522 Y9.6506
G01 X39.9451 Y9.6592
G01 X39.8994 Y9.7094
G01 X39.8450 Y9.7588
G01 X39.7905 Y9.7993
G01 X39.7813 Y9.8055
G01 X39.7229 Y9.8403
G01 X39.6565 Y9.8717
G01 X39.5926 Y9.8947
G01 X39.5820 Y9.8980
G01 X39.5161 Y9.9143
G01 X39.4489 Y9.9244
G01 X39.4378 Y9.9255
G01 X39.3700 Y9.9287
G01 X36.4498 Y9.9287
G00 Z3.0000
G00 X34.8113 Y17.6898
G01 F60.00
G01 Z-0.0500
G01 F120.00
G01 X34.7374 Y17.6226
G01 X34.6607 Y17.5381
G01 X34.5927 Y17.4464
G01 X34.5340 Y17.3484
G01 X34.4852 Y17.2452
G01 X34.4467 Y17.1377
G01 X34.4190 Y17.0270
G01 X34.4022 Y16.9140
G01 X34.3966 Y16.8000
G01 X34.4022 Y16.6860
G01 X34.4190 Y16.5730
G01 X34.4467 Y16.4623
G01 X34.4852 Y16.3548
G01 X34.5340 Y16.2516
G01 X34.5927 Y16.1536
G01 X34.6607 Y16.0619
G01 X34.7374 Y15.9774
G01 X34.8219 Y15.9007
G01 X34.9136 Y15.8327
G01 X35.0116 Y15.7740
G01 X35.1148 Y15.7252
G01 X35.2223 Y15.6867
G01 X35.3330 Y15.6590
G01 X35.4460 Y15.6422
G01 X35.5600 Y15.6366
G01 X35.6740 Y15.6422
G01 X35.7870 Y15.6590
G01 X35.8977 Y15.6867
G01 X36.0052 Y15.7252
G01 X36.1084 Y15.7740
G01 X36.2064 Y15.8327
G01 X36.2981 Y15.9007
G01 X36.3826 Y15.9774
G01 X36.4593 Y16.0619
G01 X36.5273 Y16.1536
G01 X36.5833 Y16.2467
G01 X36.5885 Y16.2565
G01 X36.6326 Y16.3497
G01 X36.6368 Y16.3600
G01 X36.6733 Y16.4623
G01 X36.6998 Y16.5676
G01 X36.7020 Y16.5785
G01 X36.7178 Y16.6860
G01 X36.7234 Y16.7972
G01 X36.7233 Y16.8056
G01 X36.7178 Y16.9140
G01 X36.7010 Y17.0270
G01 X36.6733 Y17.1377
G01 X36.6368 Y17.2400
G01 X36.6326 Y17.2503
G01 X36.5860 Y17.3484
G01 X36.5303 Y17.4416
G01 X36.5241 Y17.4509
G01 X36.4627 Y17.5337
G01 X36.4557 Y17.5423
G01 X36.3826 Y17.6226
G01 X36.3087 Y17.6898
G01 X36.3087 Y21.5322
G01 X36.3549 Y21.5833
G01 X36.4150 Y21.6643
G01 X36.4668 Y21.7509
G01 X36.5089 Y21.8395
G01 X36.5120 Y21.8473
G01 X36.5422 Y21.9318
G01 X36.5455 Y21.9425
G01 X36.5685 Y22.0350
G01 X36.5833 Y22.1348
G01 X36.5883 Y22.2356
G01 X36.5883 Y24.0644
G01 X36.5835 Y24.1624
G01 X36.5826 Y24.1707
G01 X36.5685 Y24.2650
G01 X36.5455 Y24.3575
G01 X36.5422 Y24.3682
G01 X36.5120 Y24.4527
G01 X36.5077 Y24.4630
G01 X36.4668 Y24.5491
G01 X36.4150 Y24.6357
G01 X36.3549 Y24.7167
G01 X36.2871 Y24.7915
G01 X36.2123 Y24.8593
G01 X36.1358 Y24.9162
G01 X36.1266 Y24.9223
G01 X36.0496 Y24.9685
G01 X36.0397 Y24.9737
G01 X35.9535 Y25.0144
G01 X35.8585 Y25.0484
G01 X35.7606 Y25.0729
G01 X35.6636 Y25.0874
G01 X35.6552 Y25.0881
G01 X35.5600 Y25.0927
G01 X35.4592 Y25.0877
G01 X35.3594 Y25.0729
G01 X35.2615 Y25.0484
G01 X35.1665 Y25.0144
G01 X35.0753 Y24.9712
G01 X34.9887 Y24.9194
G01 X34.9077 Y24.8593
G01 X34.8329 Y24.7915
G01 X34.7651 Y24.7167
G01 X34.7050 Y24.6357
G01 X34.6532 Y24.5491
G01 X34.6100 Y24.4579
G01 X34.5760 Y24.3629
G01 X34.5515 Y24.2650
G01 X34.5370 Y24.1680
G01 X34.5363 Y24.1596
G01 X34.5317 Y24.0644
G01 X34.5317 Y22.2356
G01 X34.5367 Y22.1348
G01 X34.5515 Y22.0350
G01 X34.5745 Y21.9425
G01 X34.5778 Y21.9318
G01 X34.6080 Y21.8473
G01 X34.6111 Y21.8395
G01 X34.6532 Y21.7509
G01 X34.7050 Y21.6643
G01 X34.7651 Y21.5833
G01 X34.8113 Y21.5322
G01 X34.8113 Y17.6898
G00 Z3.0000
G00 X31.5083 Y22.2356
G01 F60.00
G01 Z-0.0500
G01 F120.00
G01 X31.5083 Y24.0644
G01 X31.5037 Y24.1596
G01 X31.5026 Y24.1707
G01 X31.4885 Y24.2650
G01 X31.4640 Y24.3629
G01 X31.4300 Y24.4579
G01 X31.3893 Y24.5441
G01 X31.3855 Y24.5516
G01 X31.3350 Y24.6357
G01 X31.2749 Y24.7167
G01 X31.2071 Y24.7915
G01 X31.1323 Y24.8593
G01 X31.0513 Y24.9194
G01 X30.9647 Y24.9712
G01 X30.8735 Y25.0144
G01 X30.7785 Y25.0484
G01 X30.6806 Y25.0729
G01 X30.5808 Y25.0877
G01 X30.4800 Y25.0927
G01 X30.3792 Y25.0877
G01 X30.2794 Y25.0729
G01 X30.1815 Y25.0484
G01 X30.0865 Y25.0144
G01 X30.0003 Y24.9737
G01 X29.9928 Y24.9699
G01 X29.9134 Y24.9223
G01 X29.9042 Y24.9162
G01 X29.8277 Y24.8593
G01 X29.7569 Y24.7953
G01 X29.7491 Y24.7875
G01 X29.6851 Y24.7167
G01 X29.6250 Y24.6357
G01 X29.5732 Y24.5491
G01 X29.5323 Y24.4630
G01 X29.5280 Y24.4527
G01 X29.4960 Y24.3629
G01 X29.4727 Y24.2704
G01 X29.4705 Y24.2595
G01 X29.4570 Y24.1680
G01 X29.4563 Y24.1596
G01 X29.4517 Y24.0644
G01 X29.4519 Y22.2300
G01 X29.4563 Y22.1404
G01 X29.4574 Y22.1293
G01 X29.4715 Y22.0350
G01 X29.4945 Y21.9425
G01 X29.4978 Y21.9318
G01 X29.5300 Y21.8421
G01 X29.5707 Y21.7559
G01 X29.5745 Y21.7484
G01 X29.6250 Y21.6643
G01 X29.6851 Y21.5833
G01 X29.7529 Y21.5085
G01 X29.8235 Y21.4444
G01 X29.8321 Y21.4373
G01 X29.9042 Y21.3838
G01 X29.9134 Y21.3777
G01 X29.9953 Y21.3288
G01 X30.0865 Y21.2856
G01 X30.1815 Y21.2516
G01 X30.2740 Y21.2283
G01 X30.2849 Y21.2261
G01 X30.3737 Y21.2130
G01 X30.3848 Y21.2119
G01 X30.4800 Y21.2073
G01 X30.5808 Y21.2123
G01 X30.6806 Y21.2271
G01 X30.7731 Y21.2501
G01 X30.7838 Y21.2534
G01 X30.8683 Y21.2836
G01 X30.8786 Y21.2879
G01 X30.9647 Y21.3288
G01 X31.0513 Y21.3806
G01 X31.1323 Y21.4407
G01 X31.2031 Y21.5047
G01 X31.2109 Y21.5125
G01 X31.2712 Y21.5791
G01 X31.2783 Y21.5877
G01 X31.3350 Y21.6643
G01 X31.3868 Y21.7509
G01 X31.4300 Y21.8421
G01 X31.4622 Y21.9318
G01 X31.4655 Y21.9425
G01 X31.4873 Y22.0296
G01 X31.4895 Y22.0405
G01 X31.5033 Y22.1348
G01 X31.5083 Y22.2356
G00 Z3.0000
G00 X31.9917 Y24.0644
G01 F60.00
G01 Z-0.0500
G01 F120.00
G01 X31.9917 Y22.2356
G01 X31.9967 Y22.1348
G01 X32.0115 Y22.0350
G01 X32.0345 Y21.9425
G01 X32.0378 Y21.9318
G01 X32.0680 Y21.8473
G01 X32.0711 Y21.8395
G01 X32.1132 Y21.7509
G01 X32.1650 Y21.6643
G01 X32.2251 Y21.5833
G01 X32.2713 Y21.5322
G01 X32.2713 Y18.9598
G01 X32.1974 Y18.8926
G01 X32.1243 Y18.8123
G01 X32.1173 Y18.8037
G01 X32.0527 Y18.7164
G01 X31.9967 Y18.6233
G01 X31.9915 Y18.6135
G01 X31.9452 Y18.5152
G01 X31.9084 Y18.4130
G01 X31.9052 Y18.4024
G01 X31.8790 Y18.2970
G01 X31.8629 Y18.1896
G01 X31.8618 Y18.1785
G01 X31.8566 Y18.0700
G01 X31.8618 Y17.9615
G01 X31.8629 Y17.9504
G01 X31.8784 Y17.8458
G01 X31.8802 Y17.8376
G01 X31.9067 Y17.7323
G01 X31.9452 Y17.6248
G01 X31.9940 Y17.5216
G01 X32.0527 Y17.4236
G01 X32.1207 Y17.3319
G01 X32.1974 Y17.2474
G01 X32.2819 Y17.1707
G01 X32.3736 Y17.1027
G01 X32.4716 Y17.0440
G01 X32.5748 Y16.9952
G01 X32.6823 Y16.9567
G01 X32.7930 Y16.9290
G01 X32.9060 Y16.9122
G01 X33.0200 Y16.9066
G01 X33.1340 Y16.9122
G01 X33.2442 Y16.9284
G01 X33.2524 Y16.9302
G01 X33.3524 Y16.9552
G01 X33.3630 Y16.9584
G01 X33.4652 Y16.9952
G01 X33.5684 Y17.0440
G01 X33.6664 Y17.1027
G01 X33.7537 Y17.1673
G01 X33.7623 Y17.1743
G01 X33.8386 Y17.2435
G01 X33.8465 Y17.2514
G01 X33.9193 Y17.3319
G01 X33.9873 Y17.4236
G01 X34.0460 Y17.5216
G01 X34.0926 Y17.6197
G01 X34.0968 Y17.6300
G01 X34.1316 Y17.7270
G01 X34.1348 Y17.7376
G01 X34.1610 Y17.8430
G01 X34.1778 Y17.9560
G01 X34.1834 Y18.0700
G01 X34.1782 Y18.1785
G01 X34.1771 Y18.1896
G01 X34.1610 Y18.2970
G01 X34.1348 Y18.4024
G01 X34.1316 Y18.4130
G01 X34.0948 Y18.5152
G01 X34.0460 Y18.6184
G01 X33.9903 Y18.7116
G01 X33.9841 Y18.7209
G01 X33.9227 Y18.8037
G01 X33.9157 Y18.8123
G01 X33.8426 Y18.8926
G01 X33.7687 Y18.9598
G01 X33.7687 Y21.5322
G01 X33.8149 Y21.5833
G01 X33.8750 Y21.6643
G01 X33.9268 Y21.7509
G01 X33.9689 Y21.8395
G01 X33.9720 Y21.8473
G01 X34.0022 Y21.9318
G01 X34.0055 Y21.9425
G01 X34.0285 Y22.0350
G01 X34.0433 Y22.1348
G01 X34.0483 Y22.2356
G01 X34.0483 Y24.0644
G01 X34.0433 Y24.1652
G01 X34.0290 Y24.2623
G01 X34.0273 Y24.2704
G01 X34.0040 Y24.3629
G01 X33.9700 Y24.4579
G01 X33.9268 Y24.5491
G01 X33.8779 Y24.6310
G01 X33.8718 Y24.6402
G01 X33.8183 Y24.7123
G01 X33.8112 Y24.7209
G01 X33.7471 Y24.7915
G01 X33.6765 Y24.8556
G01 X33.6679 Y24.8627
G01 X33.5913 Y24.9194
G01 X33.5047 Y24.9712
G01 X33.4135 Y25.0144
G01 X33.3185 Y25.0484
G01 X33.2206 Y25.0729
G01 X33.1208 Y25.0877
G01 X33.0200 Y25.0927
G01 X32.9192 Y25.0877
G01 X32.8194 Y25.0729
G01 X32.7215 Y25.0484
G01 X32.6265 Y25.0144
G01 X32.5353 Y24.9712
G01 X32.4487 Y24.9194
G01 X32.3677 Y24.8593
G01 X32.2929 Y24.7915
G01 X32.2288 Y24.7209
G01 X32.2217 Y24.7123
G01 X32.1682 Y24.6402
G01 X32.1621 Y24.6310
G01 X32.1132 Y24.5491
G01 X32.0723 Y24.4630
G01 X32.0680 Y24.4527
G01 X32.0360 Y24.3629
G01 X32.0115 Y24.2650
G01 X31.9967 Y24.1652
G01 X31.9917 Y24.0644
G00 Z3.0000
G00 X37.0717 Y24.0644
G01 F60.00
G01 Z-0.0500
G01 F120.00
G01 X37.0717 Y22.2356
G01 X37.0767 Y22.1348
G01 X37.0915 Y22.0350
G01 X37.1145 Y21.9425
G01 X37.1178 Y21.9318
G01 X37.1480 Y21.8473
G01 X37.1511 Y21.8395
G01 X37.1932 Y21.7509
G01 X37.2450 Y21.6643
G01 X37.3051 Y21.5833
G01 X37.3513 Y21.5322
G01 X37.3513 Y19.3400
G01 X37.3549 Y19.2666
G01 X37.3657 Y19.1939
G01 X37.3835 Y19.1227
G01 X37.4083 Y19.0535
G01 X37.4397 Y18.9871
G01 X37.4775 Y18.9240
G01 X37.5212 Y18.8650
G01 X37.5706 Y18.8106
G01 X37.6208 Y18.7649
G01 X37.6272 Y18.7595
G01 X37.6840 Y18.7175
G01 X37.7471 Y18.6797
G01 X37.8135 Y18.6483
G01 X37.8774 Y18.6253
G01 X37.8880 Y18.6220
G01 X37.9485 Y18.6069
G01 X37.9594 Y18.6047
G01 X38.0266 Y18.5949
G01 X38.0972 Y18.5913
G01 X43.1828 Y18.5913
G01 X43.2534 Y18.5949
G01 X43.3206 Y18.6047
G01 X43.3315 Y18.6069
G01 X43.3920 Y18.6220
G01 X43.4026 Y18.6253
G01 X43.4665 Y18.6483
G01 X43.5280 Y18.6772
G01 X43.5378 Y18.6824
G01 X43.5960 Y18.7175
G01 X43.6550 Y18.7612
G01 X43.7094 Y18.8106
G01 X43.7551 Y18.8608
G01 X43.7605 Y18.8672
G01 X43.7993 Y18.9195
G01 X43.8055 Y18.9287
G01 X43.8403 Y18.9871
G01 X43.8695 Y19.0484
G01 X43.8737 Y19.0587
G01 X43.8965 Y19.1227
G01 X43.9143 Y19.1939
G01 X43.9251 Y19.2666
G01 X43.9287 Y19.3372
G01 X43.9287 Y19.7202
G01 X44.0026 Y19.7874
G01 X44.0793 Y19.8719
G01 X44.1473 Y19.9636
G01 X44.2060 Y20.0616
G01 X44.2548 Y20.1648
G01 X44.2933 Y20.2723
G01 X44.3210 Y20.3830
G01 X44.3371 Y20.4904
G01 X44.3382 Y20.5015
G01 X44.3433 Y20.6044
G01 X44.3433 Y20.6156
G01 X44.3378 Y20.7240
G01 X44.3220 Y20.8315
G01 X44.3198 Y20.8424
G01 X44.2933 Y20.9477
G01 X44.2548 Y21.0552
G01 X44.2085 Y21.1535
G01 X44.2033 Y21.1633
G01 X44.1473 Y21.2564
G01 X44.0827 Y21.3437
G01 X44.0757 Y21.3523
G01 X44.0026 Y21.4326
G01 X43.9223 Y21.5057
G01 X43.9159 Y21.5111
G01 X43.8264 Y21.5773
G01 X43.7284 Y21.6360
G01 X43.6252 Y21.6848
G01 X43.5230 Y21.7216
G01 X43.5124 Y21.7248
G01 X43.4124 Y21.7498
G01 X43.4015 Y21.7520
G01 X43.2940 Y21.7678
G01 X43.1800 Y21.7734
G01 X43.0660 Y21.7678
G01 X42.9585 Y21.7520
G01 X42.9476 Y21.7498
G01 X42.8476 Y21.7248
G01 X42.8370 Y21.7216
G01 X42.7348 Y21.6848
G01 X42.6316 Y21.6360
G01 X42.5336 Y21.5773
G01 X42.4419 Y21.5093
G01 X42.3574 Y21.4326
G01 X42.2843 Y21.3523
G01 X42.2773 Y21.3437
G01 X42.2159 Y21.2609
G01 X42.2097 Y21.2516
G01 X42.1540 Y21.1584
G01 X42.1052 Y21.0552
G01 X42.0667 Y20.9477
G01 X42.0395 Y20.8397
G01 X42.0380 Y20.8315
G01 X42.0229 Y20.7296
G01 X42.0218 Y20.7185
G01 X42.0166 Y20.6100
G01 X42.0218 Y20.5015
G01 X42.0225 Y20.4932
G01 X42.0390 Y20.3830
G01 X42.0667 Y20.2723
G01 X42.1052 Y20.1648
G01 X42.1410 Y20.0887
G01 X38.8487 Y20.0887
G01 X38.8487 Y21.5322
G01 X38.8949 Y21.5833
G01 X38.9518 Y21.6598
G01 X38.9565 Y21.6667
G01 X39.0068 Y21.7509
G01 X39.0500 Y21.8421
G01 X39.0840 Y21.9371
G01 X39.1085 Y22.0350
G01 X39.1233 Y22.1348
G01 X39.1281 Y22.2300
G01 X39.1282 Y24.0672
G01 X39.1233 Y24.1652
G01 X39.1085 Y24.2650
G01 X39.0840 Y24.3629
G01 X39.0520 Y24.4527
G01 X39.0489 Y24.4605
G01 X39.0068 Y24.5491
G01 X38.9550 Y24.6357
G01 X38.8949 Y24.7167
G01 X38.8309 Y24.7875
G01 X38.8231 Y24.7953
G01 X38.7565 Y24.8556
G01 X38.7479 Y24.8627
G01 X38.6713 Y24.9194
G01 X38.5847 Y24.9712
G01 X38.4935 Y25.0144
G01 X38.3985 Y25.0484
G01 X38.3006 Y25.0729
G01 X38.2063 Y25.0870
G01 X38.1952 Y25.0881
G01 X38.1056 Y25.0925
G01 X38.0944 Y25.0925
G01 X37.9992 Y25.0877
G01 X37.8994 Y25.0729
G01 X37.8015 Y25.0484
G01 X37.7065 Y25.0144
G01 X37.6153 Y24.9712
G01 X37.5334 Y24.9223
G01 X37.5242 Y24.9162
G01 X37.4521 Y24.8627
G01 X37.4435 Y24.8556
G01 X37.3729 Y24.7915
G01 X37.3051 Y24.7167
G01 X37.2450 Y24.6357
G01 X37.1932 Y24.5491
G01 X37.1500 Y24.4579
G01 X37.1178 Y24.3682
G01 X37.1145 Y24.3575
G01 X37.0927 Y24.2704
G01 X37.0905 Y24.2595
G01 X37.0767 Y24.1652
G01 X37.0717 Y24.0644
G00 Z3.0000
G00 X26.9117 Y24.0644
G01 F60.00
G01 Z-0.0500
G01 F120.00
G01 X26.9117 Y22.2356
G01 X26.9165 Y22.1376
G01 X26.9174 Y22.1293
G01 X26.9305 Y22.0405
G01 X26.9327 Y22.0296
G01 X26.9560 Y21.9371
G01 X26.9880 Y21.8473
G01 X26.9911 Y21.8395
G01 X27.0332 Y21.7509
G01 X27.0850 Y21.6643
G01 X27.1451 Y21.5833
G01 X27.1913 Y21.5322
G01 X27.1913 Y20.2298
G01 X27.1174 Y20.1626
G01 X27.0443 Y20.0823
G01 X27.0373 Y20.0737
G01 X26.9727 Y19.9864
G01 X26.9167 Y19.8933
G01 X26.9115 Y19.8835
G01 X26.8652 Y19.7852
G01 X26.8284 Y19.6830
G01 X26.8252 Y19.6724
G01 X26.7990 Y19.5670
G01 X26.7829 Y19.4596
G01 X26.7818 Y19.4485
G01 X26.7766 Y19.3400
G01 X26.7818 Y19.2315
G01 X26.7829 Y19.2204
G01 X26.7980 Y19.1185
G01 X26.7995 Y19.1103
G01 X26.8267 Y19.0023
G01 X26.8652 Y18.8948
G01 X26.9140 Y18.7916
G01 X26.9727 Y18.6936
G01 X27.0407 Y18.6019
G01 X27.1174 Y18.5174
G01 X27.2019 Y18.4407
G01 X27.2936 Y18.3727
G01 X27.3916 Y18.3140
G01 X27.4948 Y18.2652
G01 X27.6023 Y18.2267
G01 X27.7130 Y18.1990
G01 X27.8260 Y18.1822
G01 X27.9400 Y18.1766
G01 X28.0540 Y18.1822
G01 X28.1615 Y18.1980
G01 X28.1697 Y18.1995
G01 X28.2777 Y18.2267
G01 X28.3800 Y18.2632
G01 X28.3903 Y18.2674
G01 X28.4884 Y18.3140
G01 X28.5864 Y18.3727
G01 X28.6737 Y18.4373
G01 X28.6823 Y18.4443
G01 X28.7586 Y18.5135
G01 X28.7665 Y18.5214
G01 X28.8393 Y18.6019
G01 X28.9073 Y18.6936
G01 X28.9660 Y18.7916
G01 X29.0126 Y18.8897
G01 X29.0168 Y18.9000
G01 X29.0516 Y18.9970
G01 X29.0548 Y19.0076
G01 X29.0810 Y19.1130
G01 X29.0975 Y19.2232
G01 X29.0982 Y19.2315
G01 X29.1034 Y19.3400
G01 X29.0982 Y19.4485
G01 X29.0971 Y19.4596
G01 X29.0810 Y19.5670
G01 X29.0548 Y19.6724
G01 X29.0516 Y19.6830
G01 X29.0148 Y19.7852
G01 X28.9660 Y19.8884
G01 X28.9103 Y19.9816
G01 X28.9041 Y19.9909
G01 X28.8427 Y20.0737
G01 X28.8357 Y20.0823
G01 X28.7626 Y20.1626
G01 X28.6887 Y20.2298
G01 X28.6887 Y21.5322
G01 X28.7349 Y21.5833
G01 X28.7950 Y21.6643
G01 X28.8468 Y21.7509
G01 X28.8889 Y21.8395
G01 X28.8920 Y21.8473
G01 X28.9222 Y21.9318
G01 X28.9255 Y21.9425
G01 X28.9485 Y22.0350
G01 X28.9626 Y22.1293
G01 X28.9635 Y22.1376
G01 X28.9683 Y22.2356
G01 X28.9683 Y24.0644
G01 X28.9633 Y24.1652
G01 X28.9495 Y24.2595
G01 X28.9479 Y24.2677
G01 X28.9240 Y24.3629
G01 X28.8900 Y24.4579
G01 X28.8468 Y24.5491
G01 X28.7950 Y24.6357
G01 X28.7349 Y24.7167
G01 X28.6671 Y24.7915
G01 X28.5923 Y24.8593
G01 X28.5158 Y24.9162
G01 X28.5066 Y24.9223
G01 X28.4296 Y24.9685
G01 X28.4197 Y24.9737
G01 X28.3335 Y25.0144
G01 X28.2438 Y25.0466
G01 X28.2331 Y25.0499
G01 X28.1406 Y25.0729
G01 X28.0408 Y25.0877
G01 X27.9400 Y25.0927
G01 X27.8392 Y25.0877
G01 X27.7394 Y25.0729
G01 X27.6415 Y25.0484
G01 X27.5465 Y25.0144
G01 X27.4553 Y24.9712
G01 X27.3687 Y24.9194
G01 X27.2877 Y24.8593
G01 X27.2129 Y24.7915
G01 X27.1488 Y24.7209
G01 X27.1417 Y24.7123
G01 X27.0850 Y24.6357
G01 X27.0359 Y24.5540
G01 X27.0307 Y24.5441
G01 X26.9923 Y24.4630
G01 X26.9880 Y24.4527
G01 X26.9560 Y24.3629
G01 X26.9315 Y24.2650
G01 X26.9167 Y24.1652
G01 X26.9117 Y24.0644
G00 Z3.0000
G00 X26.4283 Y22.2356
G01 F60.00
G01 Z-0.0500
G01 F120.00
G01 X26.4283 Y24.0644
G01 X26.4237 Y24.1596
G01 X26.4226 Y24.1707
G01 X26.4085 Y24.2650
G01 X26.3840 Y24.3629
G01 X26.3500 Y24.4579
G01 X26.3093 Y24.5441
G01 X26.3055 Y24.5516
G01 X26.2550 Y24.6357
G01 X26.1949 Y24.7167
G01 X26.1271 Y24.7915
G01 X26.0523 Y24.8593
G01 X25.9713 Y24.9194
G01 X25.8847 Y24.9712
G01 X25.7935 Y25.0144
G01 X25.6985 Y25.0484
G01 X25.6006 Y25.0729
G01 X25.5008 Y25.0877
G01 X25.4000 Y25.0927
G01 X25.2992 Y25.0877
G01 X25.1994 Y25.0729
G01 X25.1015 Y25.0484
G01 X25.0065 Y25.0144
G01 X24.9203 Y24.9737
G01 X24.9128 Y24.9699
G01 X24.8334 Y24.9223
G01 X24.8242 Y24.9162
G01 X24.7477 Y24.8593
G01 X24.6769 Y24.7953
G01 X24.6691 Y24.7875
G01 X24.6051 Y24.7167
G01 X24.5450 Y24.6357
G01 X24.4932 Y24.5491
G01 X24.4523 Y24.4630
G01 X24.4480 Y24.4527
G01 X24.4160 Y24.3629
G01 X24.3927 Y24.2704
G01 X24.3905 Y24.2595
G01 X24.3770 Y24.1680
G01 X24.3763 Y24.1596
G01 X24.3717 Y24.0644
G01 X24.3719 Y22.2300
G01 X24.3763 Y22.1404
G01 X24.3774 Y22.1293
G01 X24.3915 Y22.0350
G01 X24.4145 Y21.9425
G01 X24.4178 Y21.9318
G01 X24.4500 Y21.8421
G01 X24.4907 Y21.7559
G01 X24.4945 Y21.7484
G01 X24.5450 Y21.6643
G01 X24.6051 Y21.5833
G01 X24.6729 Y21.5085
G01 X24.7435 Y21.4444
G01 X24.7521 Y21.4373
G01 X24.8242 Y21.3838
G01 X24.8334 Y21.3777
G01 X24.9153 Y21.3288
G01 X25.0065 Y21.2856
G01 X25.1015 Y21.2516
G01 X25.1940 Y21.2283
G01 X25.2049 Y21.2261
G01 X25.2937 Y21.2130
G01 X25.3048 Y21.2119
G01 X25.4000 Y21.2073
G01 X25.5008 Y21.2123
G01 X25.6006 Y21.2271
G01 X25.6931 Y21.2501
G01 X25.7038 Y21.2534
G01 X25.7883 Y21.2836
G01 X25.7986 Y21.2879
G01 X25.8847 Y21.3288
G01 X25.9713 Y21.3806
G01 X26.0523 Y21.4407
G01 X26.1231 Y21.5047
G01 X26.1309 Y21.5125
G01 X26.1912 Y21.5791
G01 X26.1983 Y21.5877
G01 X26.2550 Y21.6643
G01 X26.3068 Y21.7509
G01 X26.3500 Y21.8421
G01 X26.3822 Y21.9318
G01 X26.3855 Y21.9425
G01 X26.4073 Y22.0296
G01 X26.4095 Y22.0405
G01 X26.4233 Y22.1348
G01 X26.4283 Y22.2356
G00 Z3.0000
G00 X21.8317 Y24.0644
G01 F60.00
G01 Z-0.0500
G01 F120.00
G01 X21.8317 Y22.2356
G01 X21.8363 Y22.1404
G01 X21.8374 Y22.1293
G01 X21.8515 Y22.0350
G01 X21.8760 Y21.9371
G01 X21.9100 Y21.8421
G01 X21.9507 Y21.7559
G01 X21.9545 Y21.7484
G01 X22.0050 Y21.6643
G01 X22.0651 Y21.5833
G01 X22.1329 Y21.5085
G01 X22.2077 Y21.4407
G01 X22.2887 Y21.3806
G01 X22.3753 Y21.3288
G01 X22.4665 Y21.2856
G01 X22.5615 Y21.2516
G01 X22.6594 Y21.2271
G01 X22.7592 Y21.2123
G01 X22.8600 Y21.2073
G01 X22.9608 Y21.2123
G01 X23.0606 Y21.2271
G01 X23.1585 Y21.2516
G01 X23.2535 Y21.2856
G01 X23.3397 Y21.3263
G01 X23.3472 Y21.3301
G01 X23.4266 Y21.3777
G01 X23.4358 Y21.3838
G01 X23.5123 Y21.4407
G01 X23.5831 Y21.5047
G01 X23.5909 Y21.5125
G01 X23.6549 Y21.5833
G01 X23.7150 Y21.6643
G01 X23.7668 Y21.7509
G01 X23.8077 Y21.8370
G01 X23.8120 Y21.8473
G01 X23.8440 Y21.9371
G01 X23.8673 Y22.0296
G01 X23.8695 Y22.0405
G01 X23.8830 Y22.1320
G01 X23.8837 Y22.1404
G01 X23.8883 Y22.2356
G01 X23.8881 Y24.0700
G01 X23.8837 Y24.1596
G01 X23.8826 Y24.1707
G01 X23.8685 Y24.2650
G01 X23.8455 Y24.3575
G01 X23.8422 Y24.3682
G01 X23.8100 Y24.4579
G01 X23.7693 Y24.5441
G01 X23.7655 Y24.5516
G01 X23.7150 Y24.6357
G01 X23.6549 Y24.7167
G01 X23.5871 Y24.7915
G01 X23.5165 Y24.8556
G01 X23.5079 Y24.8627
G01 X23.4358 Y24.9162
G01 X23.4266 Y24.9223
G01 X23.3447 Y24.9712
G01 X23.2535 Y25.0144
G01 X23.1585 Y25.0484
G01 X23.0660 Y25.0717
G01 X23.0551 Y25.0739
G01 X22.9663 Y25.0870
G01 X22.9552 Y25.0881
G01 X22.8600 Y25.0927
G01 X22.7592 Y25.0877
G01 X22.6594 Y25.0729
G01 X22.5669 Y25.0499
G01 X22.5562 Y25.0466
G01 X22.4717 Y25.0164
G01 X22.4614 Y25.0121
G01 X22.3753 Y24.9712
G01 X22.2887 Y24.9194
G01 X22.2077 Y24.8593
G01 X22.1369 Y24.7953
G01 X22.1291 Y24.7875
G01 X22.0688 Y24.7209
G01 X22.0617 Y24.7123
G01 X22.0050 Y24.6357
G01 X21.9532 Y24.5491
G01 X21.9100 Y24.4579
G01 X21.8778 Y24.3682
G01 X21.8745 Y24.3575
G01 X21.8527 Y24.2704
G01 X21.8505 Y24.2595
G01 X21.8367 Y24.1652
G01 X21.8317 Y24.0644
G00 Z3.0000
G00 X16.2683 Y22.2356
G01 F60.00
G01 Z-0.0500
G01 F120.00
G01 X16.2683 Y24.0644
G01 X16.2637 Y24.1596
G01 X16.2626 Y24.1707
G01 X16.2485 Y24.2650
G01 X16.2240 Y24.3629
G01 X16.1900 Y24.4579
G01 X16.1493 Y24.5441
G01 X16.1455 Y24.5516
G01 X16.0950 Y24.6357
G01 X16.0349 Y24.7167
G01 X15.9671 Y24.7915
G01 X15.8923 Y24.8593
G01 X15.8113 Y24.9194
G01 X15.7247 Y24.9712
G01 X15.6335 Y25.0144
G01 X15.5385 Y25.0484
G01 X15.4406 Y25.0729
G01 X15.3408 Y25.0877
G01 X15.2400 Y25.0927
G01 X15.1392 Y25.0877
G01 X15.0394 Y25.0729
G01 X14.9415 Y25.0484
G01 X14.8465 Y25.0144
G01 X14.7603 Y24.9737
G01 X14.7528 Y24.9699
G01 X14.6734 Y24.9223
G01 X14.6642 Y24.9162
G01 X14.5877 Y24.8593
G01 X14.5169 Y24.7953
G01 X14.5091 Y24.7875
G01 X14.4451 Y24.7167
G01 X14.3850 Y24.6357
G01 X14.3332 Y24.5491
G01 X14.2923 Y24.4630
G01 X14.2880 Y24.4527
G01 X14.2560 Y24.3629
G01 X14.2327 Y24.2704
G01 X14.2305 Y24.2595
G01 X14.2170 Y24.1680
G01 X14.2163 Y24.1596
G01 X14.2117 Y24.0644
G01 X14.2119 Y22.2300
G01 X14.2163 Y22.1404
G01 X14.2174 Y22.1293
G01 X14.2315 Y22.0350
G01 X14.2545 Y21.9425
G01 X14.2578 Y21.9318
G01 X14.2900 Y21.8421
G01 X14.3307 Y21.7559
G01 X14.3345 Y21.7484
G01 X14.3850 Y21.6643
G01 X14.4451 Y21.5833
G01 X14.5129 Y21.5085
G01 X14.5835 Y21.4444
G01 X14.5921 Y21.4373
G01 X14.6642 Y21.3838
G01 X14.6734 Y21.3777
G01 X14.7553 Y21.3288
G01 X14.8465 Y21.2856
G01 X14.9415 Y21.2516
G01 X15.0340 Y21.2283
G01 X15.0449 Y21.2261
G01 X15.1337 Y21.2130
G01 X15.1448 Y21.2119
G01 X15.2400 Y21.2073
G01 X15.3408 Y21.2123
G01 X15.4406 Y21.2271
G01 X15.5331 Y21.2501
G01 X15.5438 Y21.2534
G01 X15.6283 Y21.2836
G01 X15.6386 Y21.2879
G01 X15.7247 Y21.3288
G01 X15.8113 Y21.3806
G01 X15.8923 Y21.4407
G01 X15.9631 Y21.5047
G01 X15.9709 Y21.5125
G01 X16.0312 Y21.5791
G01 X16.0383 Y21.5877
G01 X16.0950 Y21.6643
G01 X16.1468 Y21.7509
G01 X16.1900 Y21.8421
G01 X16.2222 Y21.9318
G01 X16.2255 Y21.9425
G01 X16.2473 Y22.0296
G01 X16.2495 Y22.0405
G01 X16.2633 Y22.1348
G01 X16.2683 Y22.2356
G00 Z3.0000
G00 X9.4113 Y21.5322
G01 F60.00
G01 Z-0.0500
G01 F120.00
G01 X9.4113 Y14.2600
G01 X9.4146 Y14.1894
G01 X9.4156 Y14.1811
G01 X9.4247 Y14.1194
G01 X9.4269 Y14.1085
G01 X9.4435 Y14.0427
G01 X9.4683 Y13.9735
G01 X9.4997 Y13.9071
G01 X9.5345 Y13.8487
G01 X9.5390 Y13.8417
G01 X9.5469 Y13.8310
G01 X9.5778 Y13.7894
G01 X9.5849 Y13.7808
G01 X9.6306 Y13.7306
G01 X9.6850 Y13.6812
G01 X9.7440 Y13.6375
G01 X9.8022 Y13.6024
G01 X9.8120 Y13.5972
G01 X9.8684 Y13.5705
G01 X9.8787 Y13.5663
G01 X9.9427 Y13.5435
G01 X10.0112 Y13.5262
G01 X10.0194 Y13.5247
G01 X10.0866 Y13.5149
G01 X10.1600 Y13.5113
G01 X43.7013 Y13.5113
G01 X43.7013 Y4.4367
G01 X43.6551 Y4.3948
G01 X43.6491 Y4.3890
G01 X43.5802 Y4.3130
G01 X43.5748 Y4.3066
G01 X43.5105 Y4.2197
G01 X43.4563 Y4.1295
G01 X43.4522 Y4.1222
G01 X43.4061 Y4.0244
G01 X43.3687 Y3.9200
G01 X43.3418 Y3.8124
G01 X43.3258 Y3.7055
G01 X43.3251 Y3.6972
G01 X43.3201 Y3.5920
G01 X43.3201 Y1.5600
G01 X43.3251 Y1.4548
G01 X43.3262 Y1.4437
G01 X43.3418 Y1.3396
G01 X43.3687 Y1.2320
G01 X43.4061 Y1.1276
G01 X43.4510 Y1.0323
G01 X43.4563 Y1.0225
G01 X43.5075 Y0.9370
G01 X43.5137 Y0.9277
G01 X43.5766 Y0.8432
G01 X43.6472 Y0.7651
G01 X43.6551 Y0.7572
G01 X43.7290 Y0.6902
G01 X43.7376 Y0.6831
G01 X43.8223 Y0.6205
G01 X43.9174 Y0.5635
G01 X44.0176 Y0.5161
G01 X44.1167 Y0.4805
G01 X44.1274 Y0.4773
G01 X44.2296 Y0.4518
G01 X44.3392 Y0.4355
G01 X44.4444 Y0.4302
G01 X44.4556 Y0.4302
G01 X44.5608 Y0.4355
G01 X44.6704 Y0.4518
G01 X44.7726 Y0.4773
G01 X44.7833 Y0.4805
G01 X44.8772 Y0.5141
G01 X44.8875 Y0.5184
G01 X44.9826 Y0.5635
G01 X45.0777 Y0.6205
G01 X45.1668 Y0.6866
G01 X45.2449 Y0.7572
G01 X45.2528 Y0.7651
G01 X45.3198 Y0.8390
G01 X45.3269 Y0.8476
G01 X45.3895 Y0.9323
G01 X45.4451 Y1.0249
G01 X45.4490 Y1.0323
G01 X45.4939 Y1.1276
G01 X45.5295 Y1.2267
G01 X45.5327 Y1.2374
G01 X45.5582 Y1.3396
G01 X45.5738 Y1.4437
G01 X45.5749 Y1.4548
G01 X45.5798 Y1.5544
G01 X45.5799 Y3.5920
G01 X45.5747 Y3.7000
G01 X45.5738 Y3.7083
G01 X45.5582 Y3.8124
G01 X45.5313 Y3.9200
G01 X45.4939 Y4.0244
G01 X45.4478 Y4.1222
G01 X45.4437 Y4.1295
G01 X45.3895 Y4.2197
G01 X45.3252 Y4.3066
G01 X45.3198 Y4.3130
G01 X45.2509 Y4.3890
G01 X45.2449 Y4.3948
G01 X45.1987 Y4.4367
G01 X45.1986 Y14.2656
G01 X45.1951 Y14.3334
G01 X45.1853 Y14.4006
G01 X45.1831 Y14.4115
G01 X45.1665 Y14.4773
G01 X45.1437 Y14.5413
G01 X45.1395 Y14.5516
G01 X45.1103 Y14.6129
G01 X45.0755 Y14.6713
G01 X45.0693 Y14.6805
G01 X45.0288 Y14.7350
G01 X44.9833 Y14.7854
G01 X44.9754 Y14.7933
G01 X44.9250 Y14.8388
G01 X44.8705 Y14.8793
G01 X44.8613 Y14.8855
G01 X44.8054 Y14.9190
G01 X44.7980 Y14.9228
G01 X44.7365 Y14.9517
G01 X44.6726 Y14.9747
G01 X44.6620 Y14.9780
G01 X44.5961 Y14.9943
G01 X44.5289 Y15.0044
G01 X44.5178 Y15.0055
G01 X44.4500 Y15.0087
G01 X10.9087 Y15.0087
G01 X10.9087 Y21.5322
G01 X10.9549 Y21.5833
G01 X11.0150 Y21.6643
G01 X11.0668 Y21.7509
G01 X11.1089 Y21.8395
G01 X11.1120 Y21.8473
G01 X11.1422 Y21.9318
G01 X11.1455 Y21.9425
G01 X11.1685 Y22.0350
G01 X11.1833 Y22.1348
G01 X11.1883 Y22.2356
G01 X11.1881 Y24.0700
G01 X11.1833 Y24.1652
G01 X11.1695 Y24.2595
G01 X11.1673 Y24.2704
G01 X11.1455 Y24.3575
G01 X11.1422 Y24.3682
G01 X11.1100 Y24.4579
G01 X11.0668 Y24.5491
G01 X11.0150 Y24.6357
G01 X10.9583 Y24.7123
G01 X10.9512 Y24.7209
G01 X10.8909 Y24.7875
G01 X10.8831 Y24.7953
G01 X10.8123 Y24.8593
G01 X10.7313 Y24.9194
G01 X10.6496 Y24.9685
G01 X10.6397 Y24.9737
G01 X10.5535 Y25.0144
G01 X10.4585 Y25.0484
G01 X10.3606 Y25.0729
G01 X10.2608 Y25.0877
G01 X10.1600 Y25.0927
G01 X10.0592 Y25.0877
G01 X9.9594 Y25.0729
G01 X9.8615 Y25.0484
G01 X9.7665 Y25.0144
G01 X9.6753 Y24.9712
G01 X9.5887 Y24.9194
G01 X9.5077 Y24.8593
G01 X9.4329 Y24.7915
G01 X9.3651 Y24.7167
G01 X9.3050 Y24.6357
G01 X9.2532 Y24.5491
G01 X9.2100 Y24.4579
G01 X9.1760 Y24.3629
G01 X9.1527 Y24.2704
G01 X9.1505 Y24.2595
G01 X9.1367 Y24.1652
G01 X9.1318 Y24.0672
G01 X9.1317 Y22.2356
G01 X9.1365 Y22.1376
G01 X9.1374 Y22.1293
G01 X9.1505 Y22.0405
G01 X9.1527 Y22.0296
G01 X9.1760 Y21.9371
G01 X9.2080 Y21.8473
G01 X9.2111 Y21.8395
G01 X9.2532 Y21.7509
G01 X9.3050 Y21.6643
G01 X9.3651 Y21.5833
G01 X9.4113 Y21.5322
G00 Z3.0000
G00 X6.5917 Y24.0644
G01 F60.00
G01 Z-0.0500
G01 F120.00
G01 X6.5917 Y22.2356
G01 X6.5967 Y22.1348
G01 X6.6115 Y22.0350
G01 X6.6345 Y21.9425
G01 X6.6378 Y21.9318
G01 X6.6680 Y21.8473
G01 X6.6711 Y21.8395
G01 X6.7132 Y21.7509
G01 X6.7650 Y21.6643
G01 X6.8251 Y21.5833
G01 X6.8713 Y21.5322
G01 X6.8714 Y11.7144
G01 X6.8745 Y11.6522
G01 X6.8756 Y11.6411
G01 X6.8857 Y11.5739
G01 X6.9020 Y11.5080
G01 X6.9053 Y11.4974
G01 X6.9283 Y11.4335
G01 X6.9597 Y11.3671
G01 X6.9945 Y11.3087
G01 X7.0007 Y11.2995
G01 X7.0412 Y11.2450
G01 X7.0867 Y11.1946
G01 X7.0946 Y11.1867
G01 X7.1450 Y11.1412
G01 X7.1995 Y11.1007
G01 X7.2064 Y11.0959
G01 X7.2671 Y11.0597
G01 X7.3284 Y11.0305
G01 X7.3387 Y11.0263
G01 X7.4027 Y11.0035
G01 X7.4739 Y10.9857
G01 X7.5411 Y10.9756
G01 X7.5522 Y10.9745
G01 X7.6200 Y10.9713
G01 X41.1613 Y10.9713
G01 X41.1613 Y4.4367
G01 X41.1151 Y4.3948
G01 X41.1091 Y4.3890
G01 X41.0402 Y4.3130
G01 X41.0348 Y4.3066
G01 X40.9705 Y4.2197
G01 X40.9163 Y4.1295
G01 X40.9122 Y4.1222
G01 X40.8661 Y4.0244
G01 X40.8287 Y3.9200
G01 X40.8018 Y3.8124
G01 X40.7858 Y3.7055
G01 X40.7851 Y3.6972
G01 X40.7801 Y3.5920
G01 X40.7801 Y1.5600
G01 X40.7855 Y1.4492
G01 X40.8013 Y1.3423
G01 X40.8030 Y1.3341
G01 X40.8273 Y1.2374
G01 X40.8305 Y1.2267
G01 X40.8661 Y1.1276
G01 X40.9135 Y1.0274
G01 X40.9705 Y0.9323
G01 X41.0331 Y0.8476
G01 X41.0402 Y0.8390
G01 X41.1110 Y0.7610
G01 X41.1890 Y0.6902
G01 X41.1976 Y0.6831
G01 X41.2823 Y0.6205
G01 X41.3774 Y0.5635
G01 X41.4776 Y0.5161
G01 X41.5767 Y0.4805
G01 X41.5874 Y0.4773
G01 X41.6896 Y0.4518
G01 X41.7992 Y0.4355
G01 X41.9044 Y0.4302
G01 X41.9156 Y0.4302
G01 X42.0208 Y0.4355
G01 X42.1304 Y0.4518
G01 X42.2326 Y0.4773
G01 X42.2433 Y0.4805
G01 X42.3424 Y0.5161
G01 X42.4377 Y0.5610
G01 X42.4475 Y0.5663
G01 X42.5377 Y0.6205
G01 X42.6268 Y0.6866
G01 X42.7090 Y0.7610
G01 X42.7798 Y0.8390
G01 X42.7869 Y0.8476
G01 X42.8463 Y0.9277
G01 X42.8510 Y0.9346
G01 X42.9037 Y1.0225
G01 X42.9090 Y1.0323
G01 X42.9539 Y1.1276
G01 X42.9895 Y1.2267
G01 X42.9927 Y1.2374
G01 X43.0182 Y1.3396
G01 X43.0338 Y1.4437
G01 X43.0347 Y1.4520
G01 X43.0399 Y1.5600
G01 X43.0398 Y3.5976
G01 X43.0345 Y3.7028
G01 X43.0182 Y3.8124
G01 X42.9913 Y3.9200
G01 X42.9559 Y4.0192
G01 X42.9528 Y4.0270
G01 X42.9065 Y4.1246
G01 X42.8525 Y4.2150
G01 X42.8479 Y4.2220
G01 X42.7869 Y4.3044
G01 X42.7816 Y4.3109
G01 X42.7090 Y4.3910
G01 X42.6587 Y4.4367
G01 X42.6586 Y11.7256
G01 X42.6555 Y11.7878
G01 X42.6544 Y11.7989
G01 X42.6443 Y11.8661
G01 X42.6280 Y11.9320
G01 X42.6247 Y11.9426
G01 X42.6017 Y12.0065
G01 X42.5703 Y12.0729
G01 X42.5355 Y12.1313
G01 X42.5293 Y12.1405
G01 X42.4888 Y12.1950
G01 X42.4433 Y12.2454
G01 X42.4354 Y12.2533
G01 X42.3850 Y12.2988
G01 X42.3305 Y12.3393
G01 X42.3236 Y12.3441
G01 X42.2629 Y12.3803
G01 X42.2016 Y12.4095
G01 X42.1913 Y12.4137
G01 X42.1273 Y12.4365
G01 X42.0561 Y12.4543
G01 X41.9889 Y12.4644
G01 X41.9778 Y12.4655
G01 X41.9100 Y12.4687
G01 X8.3687 Y12.4687
G01 X8.3687 Y21.5322
G01 X8.4149 Y21.5833
G01 X8.4750 Y21.6643
G01 X8.5268 Y21.7509
G01 X8.5689 Y21.8395
G01 X8.5720 Y21.8473
G01 X8.6022 Y21.9318
G01 X8.6055 Y21.9425
G01 X8.6285 Y22.0350
G01 X8.6433 Y22.1348
G01 X8.6483 Y22.2356
G01 X8.6483 Y24.0644
G01 X8.6433 Y24.1652
G01 X8.6295 Y24.2595
G01 X8.6273 Y24.2704
G01 X8.6040 Y24.3629
G01 X8.5720 Y24.4527
G01 X8.5677 Y24.4630
G01 X8.5293 Y24.5441
G01 X8.5241 Y24.5540
G01 X8.4750 Y24.6357
G01 X8.4149 Y24.7167
G01 X8.3471 Y24.7915
G01 X8.2765 Y24.8556
G01 X8.2679 Y24.8627
G01 X8.1913 Y24.9194
G01 X8.1047 Y24.9712
G01 X8.0135 Y25.0144
G01 X7.9185 Y25.0484
G01 X7.8206 Y25.0729
G01 X7.7208 Y25.0877
G01 X7.6200 Y25.0927
G01 X7.5192 Y25.0877
G01 X7.4194 Y25.0729
G01 X7.3215 Y25.0484
G01 X7.2265 Y25.0144
G01 X7.1353 Y24.9712
G01 X7.0487 Y24.9194
G01 X6.9677 Y24.8593
G01 X6.8929 Y24.7915
G01 X6.8288 Y24.7209
G01 X6.8217 Y24.7123
G01 X6.7682 Y24.6402
G01 X6.7621 Y24.6310
G01 X6.7132 Y24.5491
G01 X6.6723 Y24.4630
G01 X6.6680 Y24.4527
G01 X6.6360 Y24.3629
G01 X6.6115 Y24.2650
G01 X6.5967 Y24.1652
G01 X6.5917 Y24.0644
G00 Z3.0000
G00 X4.3314 Y29.4944
G01 F60.00
G01 Z-0.0500
G01 F120.00
G01 X4.3349 Y29.4266
G01 X4.3457 Y29.3539
G01 X4.3635 Y29.2827
G01 X4.3883 Y29.2135
G01 X4.4197 Y29.1471
G01 X4.4575 Y29.0840
G01 X4.5012 Y29.0250
G01 X4.5467 Y28.9746
G01 X4.5546 Y28.9667
G01 X4.6008 Y28.9249
G01 X4.6094 Y28.9178
G01 X4.6640 Y28.8775
G01 X4.7222 Y28.8424
G01 X4.7320 Y28.8372
G01 X4.7935 Y28.8083
G01 X4.8627 Y28.7835
G01 X4.9339 Y28.7657
G01 X5.0011 Y28.7556
G01 X5.0122 Y28.7545
G01 X5.0800 Y28.7513
G01 X17.0313 Y28.7513
G01 X17.0313 Y24.7678
G01 X16.9851 Y24.7167
G01 X16.9250 Y24.6357
G01 X16.8732 Y24.5491
G01 X16.8311 Y24.4605
G01 X16.8280 Y24.4527
G01 X16.7978 Y24.3682
G01 X16.7945 Y24.3575
G01 X16.7715 Y24.2650
G01 X16.7567 Y24.1652
G01 X16.7517 Y24.0644
G01 X16.7517 Y22.2356
G01 X16.7567 Y22.1348
G01 X16.7705 Y22.0405
G01 X16.7721 Y22.0323
G01 X16.7960 Y21.9371
G01 X16.8280 Y21.8473
G01 X16.8323 Y21.8370
G01 X16.8732 Y21.7509
G01 X16.9250 Y21.6643
G01 X16.9817 Y21.5877
G01 X16.9888 Y21.5791
G01 X17.0529 Y21.5085
G01 X17.1277 Y21.4407
G01 X17.2042 Y21.3838
G01 X17.2134 Y21.3777
G01 X17.2953 Y21.3288
G01 X17.3814 Y21.2879
G01 X17.3917 Y21.2836
G01 X17.4815 Y21.2516
G01 X17.5740 Y21.2283
G01 X17.5849 Y21.2261
G01 X17.6792 Y21.2123
G01 X17.7744 Y21.2075
G01 X17.7856 Y21.2075
G01 X17.8808 Y21.2123
G01 X17.9751 Y21.2261
G01 X17.9860 Y21.2283
G01 X18.0731 Y21.2501
G01 X18.0838 Y21.2534
G01 X18.1735 Y21.2856
G01 X18.2597 Y21.3263
G01 X18.2696 Y21.3315
G01 X18.3513 Y21.3806
G01 X18.4323 Y21.4407
G01 X18.5031 Y21.5047
G01 X18.5109 Y21.5125
G01 X18.5712 Y21.5791
G01 X18.5766 Y21.5855
G01 X18.6350 Y21.6643
G01 X18.6841 Y21.7460
G01 X18.6893 Y21.7559
G01 X18.7300 Y21.8421
G01 X18.7622 Y21.9318
G01 X18.7655 Y21.9425
G01 X18.7885 Y22.0350
G01 X18.8033 Y22.1348
G01 X18.8083 Y22.2356
G01 X18.8081 Y24.0700
G01 X18.8033 Y24.1652
G01 X18.7885 Y24.2650
G01 X18.7640 Y24.3629
G01 X18.7300 Y24.4579
G01 X18.6868 Y24.5491
G01 X18.6365 Y24.6333
G01 X18.6318 Y24.6402
G01 X18.5749 Y24.7167
G01 X18.5287 Y24.7678
G01 X18.5287 Y29.5000
G01 X18.5251 Y29.5734
G01 X18.5143 Y29.6461
G01 X18.4965 Y29.7173
G01 X18.4717 Y29.7865
G01 X18.4428 Y29.8480
G01 X18.4376 Y29.8578
G01 X18.4025 Y29.9160
G01 X18.3622 Y29.9706
G01 X18.3551 Y29.9792
G01 X18.3133 Y30.0254
G01 X18.3054 Y30.0333
G01 X18.2550 Y30.0788
G01 X18.1960 Y30.1225
G01 X18.1329 Y30.1603
G01 X18.0716 Y30.1895
G01 X18.0613 Y30.1937
G01 X17.9973 Y30.2165
G01 X17.9261 Y30.2343
G01 X17.8589 Y30.2444
G01 X17.8478 Y30.2455
G01 X17.7800 Y30.2487
G01 X5.8287 Y30.2487
G01 X5.8287 Y55.4213
G01 X21.9702 Y55.4213
G01 X22.0374 Y55.3474
G01 X22.1177 Y55.2743
G01 X22.1263 Y55.2673
G01 X22.2091 Y55.2059
G01 X22.2184 Y55.1997
G01 X22.3116 Y55.1440
G01 X22.4097 Y55.0974
G01 X22.4200 Y55.0932
G01 X22.5223 Y55.0567
G01 X22.6330 Y55.0290
G01 X22.7460 Y55.0122
G01 X22.8600 Y55.0066
G01 X22.9740 Y55.0122
G01 X23.0870 Y55.0290
G01 X23.1977 Y55.0567
G01 X23.3000 Y55.0932
G01 X23.3103 Y55.0974
G01 X23.4084 Y55.1440
G01 X23.5016 Y55.1997
G01 X23.5109 Y55.2059
G01 X23.5937 Y55.2673
G01 X23.6023 Y55.2743
G01 X23.6826 Y55.3474
G01 X23.7498 Y55.4213
G01 X24.5102 Y55.4213
G01 X24.5774 Y55.3474
G01 X24.6577 Y55.2743
G01 X24.6663 Y55.2673
G01 X24.7491 Y55.2059
G01 X24.7584 Y55.1997
G01 X24.8516 Y55.1440
G01 X24.9548 Y55.0952
G01 X25.0623 Y55.0567
G01 X25.1676 Y55.0302
G01 X25.1785 Y55.0280
G01 X25.2860 Y55.0122
G01 X25.3944 Y55.0067
G01 X25.4056 Y55.0067
G01 X25.5113 Y55.0120
G01 X25.5196 Y55.0129
G01 X25.6215 Y55.0280
G01 X25.6324 Y55.0302
G01 X25.7377 Y55.0567
G01 X25.8452 Y55.0952
G01 X25.9435 Y55.1415
G01 X25.9533 Y55.1467
G01 X26.0464 Y55.2027
G01 X26.1381 Y55.2707
G01 X26.2226 Y55.3474
G01 X26.2957 Y55.4277
G01 X26.3027 Y55.4363
G01 X26.3673 Y55.5236
G01 X26.4260 Y55.6216
G01 X26.4726 Y55.7197
G01 X26.4768 Y55.7300
G01 X26.5133 Y55.8323
G01 X26.5398 Y55.9376
G01 X26.5420 Y55.9485
G01 X26.5578 Y56.0560
G01 X26.5634 Y56.1700
G01 X26.5582 Y56.2785
G01 X26.5571 Y56.2896
G01 X26.5410 Y56.3970
G01 X26.5133 Y56.5077
G01 X26.4768 Y56.6100
G01 X26.4726 Y56.6203
G01 X26.4260 Y56.7184
G01 X26.3673 Y56.8164
G01 X26.2993 Y56.9081
G01 X26.2265 Y56.9886
G01 X26.2186 Y56.9965
G01 X26.1423 Y57.0657
G01 X26.1359 Y57.0711
G01 X26.0464 Y57.1373
G01 X25.9484 Y57.1960
G01 X25.8452 Y57.2448
G01 X25.7377 Y57.2833
G01 X25.6270 Y57.3110
G01 X25.5140 Y57.3278
G01 X25.4000 Y57.3334
G01 X25.2887 Y57.3280
G01 X25.2804 Y57.3271
G01 X25.1730 Y57.3110
G01 X25.0623 Y57.2833
G01 X24.9548 Y57.2448
G01 X24.8516 Y57.1960
G01 X24.7536 Y57.1373
G01 X24.6619 Y57.0693
G01 X24.5774 Y56.9926
G01 X24.5102 Y56.9187
G01 X23.7498 Y56.9187
G01 X23.6826 Y56.9926
G01 X23.6023 Y57.0657
G01 X23.5937 Y57.0727
G01 X23.5109 Y57.1341
G01 X23.5016 Y57.1403
G01 X23.4084 Y57.1960
G01 X23.3103 Y57.2426
G01 X23.3000 Y57.2468
G01 X23.1977 Y57.2833
G01 X23.0870 Y57.3110
G01 X22.9740 Y57.3278
G01 X22.8656 Y57.3333
G01 X22.8572 Y57.3334
G01 X22.7460 Y57.3278
G01 X22.6330 Y57.3110
G01 X22.5223 Y57.2833
G01 X22.4200 Y57.2468
G01 X22.4097 Y57.2426
G01 X22.3116 Y57.1960
G01 X22.2184 Y57.1403
G01 X22.2091 Y57.1341
G01 X22.1263 Y57.0727
G01 X22.1177 Y57.0657
G01 X22.0374 Y56.9926
G01 X21.9702 Y56.9187
G01 X5.0772 Y56.9187
G01 X5.0066 Y56.9151
G01 X4.9394 Y56.9053
G01 X4.9285 Y56.9031
G01 X4.8627 Y56.8865
G01 X4.7987 Y56.8637
G01 X4.7884 Y56.8595
G01 X4.7320 Y56.8328
G01 X4.7222 Y56.8276
G01 X4.6640 Y56.7925
G01 X4.6050 Y56.7488
G01 X4.5506 Y56.6994
G01 X4.5049 Y56.6492
G01 X4.4995 Y56.6428
G01 X4.4575 Y56.5860
G01 X4.4197 Y56.5229
G01 X4.3883 Y56.4565
G01 X4.3653 Y56.3926
G01 X4.3620 Y56.3820
G01 X4.3469 Y56.3215
G01 X4.3447 Y56.3106
G01 X4.3349 Y56.2434
G01 X4.3313 Y56.1700
G01 X4.3314 Y29.4944
G00 Z3.0000
G00 X6.5917 Y39.3044
G01 F60.00
G01 Z-0.0500
G01 F120.00
G01 X6.5917 Y37.4756
G01 X6.5963 Y37.3804
G01 X6.5974 Y37.3693
G01 X6.6115 Y37.2750
G01 X6.6360 Y37.1771
G01 X6.6700 Y37.0821
G01 X6.7107 Y36.9959
G01 X6.7145 Y36.9884
G01 X6.7650 Y36.9043
G01 X6.8251 Y36.8233
G01 X6.8929 Y36.7485
G01 X6.9677 Y36.6807
G01 X7.0487 Y36.6206
G01 X7.1353 Y36.5688
G01 X7.2265 Y36.5256
G01 X7.3215 Y36.4916
G01 X7.4194 Y36.4671
G01 X7.5192 Y36.4523
G01 X7.6200 Y36.4473
G01 X7.7208 Y36.4523
G01 X7.8206 Y36.4671
G01 X7.9185 Y36.4916
G01 X8.0135 Y36.5256
G01 X8.0997 Y36.5663
G01 X8.1072 Y36.5701
G01 X8.1913 Y36.6206
G01 X8.2679 Y36.6773
G01 X8.2765 Y36.6844
G01 X8.3471 Y36.7485
G01 X8.4112 Y36.8191
G01 X8.4183 Y36.8277
G01 X8.4750 Y36.9043
G01 X8.5241 Y36.9860
G01 X8.5293 Y36.9959
G01 X8.5700 Y37.0821
G01 X8.6022 Y37.1718
G01 X8.6055 Y37.1825
G01 X8.6285 Y37.2750
G01 X8.6426 Y37.3693
G01 X8.6437 Y37.3804
G01 X8.6482 Y37.4728
G01 X8.6483 Y39.3044
G01 X8.6433 Y39.4052
G01 X8.6285 Y39.5050
G01 X8.6055 Y39.5975
G01 X8.6022 Y39.6082
G01 X8.5720 Y39.6927
G01 X8.5689 Y39.7005
G01 X8.5268 Y39.7891
G01 X8.4750 Y39.8757
G01 X8.4149 Y39.9567
G01 X8.3687 Y40.0078
G01 X8.3687 Y52.8813
G01 X27.1913 Y52.8813
G01 X27.1913 Y52.3600
G01 X27.1949 Y52.2866
G01 X27.2057 Y52.2139
G01 X27.2235 Y52.1427
G01 X27.2483 Y52.0735
G01 X27.2797 Y52.0071
G01 X27.3175 Y51.9440
G01 X27.3578 Y51.8894
G01 X27.3649 Y51.8808
G01 X27.4106 Y51.8306
G01 X27.4608 Y51.7849
G01 X27.4694 Y51.7778
G01 X27.5240 Y51.7375
G01 X27.5822 Y51.7024
G01 X27.5920 Y51.6972
G01 X27.6535 Y51.6683
G01 X27.7174 Y51.6453
G01 X27.7280 Y51.6420
G01 X27.7939 Y51.6257
G01 X27.8611 Y51.6156
G01 X27.8694 Y51.6146
G01 X27.9400 Y51.6113
G01 X41.0202 Y51.6113
G01 X41.0874 Y51.5374
G01 X41.1677 Y51.4643
G01 X41.1763 Y51.4573
G01 X41.2591 Y51.3959
G01 X41.2684 Y51.3897
G01 X41.3616 Y51.3340
G01 X41.4597 Y51.2874
G01 X41.4700 Y51.2832
G01 X41.5723 Y51.2467
G01 X41.6830 Y51.2190
G01 X41.7960 Y51.2022
G01 X41.9100 Y51.1966
G01 X42.0240 Y51.2022
G01 X42.1315 Y51.2180
G01 X42.1424 Y51.2202
G01 X42.2477 Y51.2467
G01 X42.3500 Y51.2832
G01 X42.3603 Y51.2874
G01 X42.4584 Y51.3340
G01 X42.5516 Y51.3897
G01 X42.5609 Y51.3959
G01 X42.6481 Y51.4607
G01 X42.7286 Y51.5335
G01 X42.7365 Y51.5414
G01 X42.8093 Y51.6219
G01 X42.8741 Y51.7091
G01 X42.8788 Y51.7160
G01 X42.9360 Y51.8116
G01 X42.9848 Y51.9148
G01 X43.0233 Y52.0223
G01 X43.0498 Y52.1276
G01 X43.0520 Y52.1385
G01 X43.0678 Y52.2460
G01 X43.0733 Y52.3544
G01 X43.0733 Y52.3656
G01 X43.0682 Y52.4685
G01 X43.0671 Y52.4796
G01 X43.0510 Y52.5870
G01 X43.0248 Y52.6924
G01 X43.0216 Y52.7030
G01 X42.9848 Y52.8052
G01 X42.9360 Y52.9084
G01 X42.8773 Y53.0064
G01 X42.8093 Y53.0981
G01 X42.7326 Y53.1826
G01 X42.6481 Y53.2593
G01 X42.5564 Y53.3273
G01 X42.4633 Y53.3833
G01 X42.4560 Y53.3873
G01 X42.3552 Y53.4348
G01 X42.2530 Y53.4716
G01 X42.2424 Y53.4748
G01 X42.1370 Y53.5010
G01 X42.0240 Y53.5178
G01 X41.9156 Y53.5233
G01 X41.9044 Y53.5233
G01 X41.8015 Y53.5182
G01 X41.7932 Y53.5175
G01 X41.6830 Y53.5010
G01 X41.5723 Y53.4733
G01 X41.4648 Y53.4348
G01 X41.3616 Y53.3860
G01 X41.2636 Y53.3273
G01 X41.1719 Y53.2593
G01 X41.0874 Y53.1826
G01 X41.0202 Y53.1087
G01 X40.1187 Y53.1087
G01 X40.1187 Y54.1952
G01 X40.3646 Y54.4411
G01 X40.3703 Y54.4472
G01 X40.3755 Y54.4537
G01 X40.3817 Y54.4629
G01 X40.3869 Y54.4728
G01 X40.3912 Y54.4830
G01 X40.3937 Y54.4910
G01 X40.3961 Y54.5019
G01 X40.3973 Y54.5101
G01 X40.3978 Y54.5212
G01 X40.3978 Y55.2788
G01 X40.3969 Y55.2926
G01 X40.3944 Y55.3063
G01 X40.3902 Y55.3196
G01 X40.3844 Y55.3322
G01 X40.3771 Y55.3441
G01 X40.3684 Y55.3549
G01 X40.1187 Y55.6048
G01 X40.1187 Y57.6817
G01 X40.2872 Y57.6818
G01 X40.3852 Y57.6867
G01 X40.4850 Y57.7015
G01 X40.5802 Y57.7252
G01 X40.5882 Y57.7278
G01 X40.6779 Y57.7600
G01 X40.7691 Y57.8032
G01 X40.8557 Y57.8550
G01 X40.9323 Y57.9117
G01 X40.9388 Y57.9169
G01 X41.0115 Y57.9829
G01 X41.0793 Y58.0577
G01 X41.1394 Y58.1387
G01 X41.1885 Y58.2204
G01 X41.1937 Y58.2303
G01 X41.2321 Y58.3114
G01 X41.2364 Y58.3217
G01 X41.2684 Y58.4115
G01 X41.2917 Y58.5040
G01 X41.2939 Y58.5149
G01 X41.3077 Y58.6092
G01 X41.3125 Y58.7044
G01 X41.3125 Y58.7156
G01 X41.3077 Y58.8108
G01 X41.2929 Y58.9106
G01 X41.2684 Y59.0085
G01 X41.2364 Y59.0983
G01 X41.2321 Y59.1086
G01 X41.1937 Y59.1897
G01 X41.1885 Y59.1996
G01 X41.1394 Y59.2813
G01 X41.0827 Y59.3579
G01 X41.0756 Y59.3665
G01 X41.0115 Y59.4371
G01 X40.9367 Y59.5049
G01 X40.8557 Y59.5650
G01 X40.7691 Y59.6168
G01 X40.6779 Y59.6600
G01 X40.5829 Y59.6940
G01 X40.4850 Y59.7185
G01 X40.3852 Y59.7333
G01 X40.2844 Y59.7383
G01 X38.4556 Y59.7383
G01 X38.3548 Y59.7333
G01 X38.2605 Y59.7195
G01 X38.2496 Y59.7173
G01 X38.1571 Y59.6940
G01 X38.0673 Y59.6620
G01 X38.0570 Y59.6577
G01 X37.9709 Y59.6168
G01 X37.8890 Y59.5679
G01 X37.8798 Y59.5618
G01 X37.8033 Y59.5049
G01 X37.7325 Y59.4409
G01 X37.7247 Y59.4331
G01 X37.6607 Y59.3623
G01 X37.6038 Y59.2858
G01 X37.5977 Y59.2766
G01 X37.5488 Y59.1947
G01 X37.5079 Y59.1086
G01 X37.5036 Y59.0983
G01 X37.4734 Y59.0138
G01 X37.4708 Y59.0058
G01 X37.4483 Y58.9160
G01 X37.4461 Y58.9051
G01 X37.4323 Y58.8108
G01 X37.4275 Y58.7156
G01 X37.4275 Y58.7044
G01 X37.4323 Y58.6092
G01 X37.4471 Y58.5094
G01 X37.4701 Y58.4169
G01 X37.4734 Y58.4062
G01 X37.5056 Y58.3165
G01 X37.5463 Y58.2303
G01 X37.5515 Y58.2204
G01 X37.6006 Y58.1387
G01 X37.6573 Y58.0621
G01 X37.6625 Y58.0556
G01 X37.7247 Y57.9869
G01 X37.7325 Y57.9791
G01 X37.8033 Y57.9151
G01 X37.8798 Y57.8582
G01 X37.8890 Y57.8521
G01 X37.9709 Y57.8032
G01 X38.0570 Y57.7623
G01 X38.0647 Y57.7590
G01 X38.1518 Y57.7278
G01 X38.1625 Y57.7245
G01 X38.2550 Y57.7015
G01 X38.3493 Y57.6874
G01 X38.3604 Y57.6863
G01 X38.4528 Y57.6818
G01 X38.6213 Y57.6817
G01 X38.6213 Y55.6048
G01 X38.3754 Y55.3589
G01 X38.3697 Y55.3528
G01 X38.3645 Y55.3463
G01 X38.3583 Y55.3371
G01 X38.3531 Y55.3272
G01 X38.3488 Y55.3170
G01 X38.3463 Y55.3090
G01 X38.3439 Y55.2981
G01 X38.3427 Y55.2899
G01 X38.3422 Y55.2788
G01 X38.3422 Y54.5212
G01 X38.3431 Y54.5074
G01 X38.3456 Y54.4937
G01 X38.3498 Y54.4804
G01 X38.3556 Y54.4678
G01 X38.3629 Y54.4559
G01 X38.3716 Y54.4451
G01 X38.6213 Y54.1952
G01 X38.6213 Y53.1087
G01 X28.6887 Y53.1087
G01 X28.6887 Y72.6828
G01 X28.6855 Y72.7478
G01 X28.6844 Y72.7589
G01 X28.6743 Y72.8261
G01 X28.6580 Y72.8920
G01 X28.6547 Y72.9026
G01 X28.6317 Y72.9665
G01 X28.6003 Y73.0329
G01 X28.5655 Y73.0913
G01 X28.5593 Y73.1005
G01 X28.5188 Y73.1550
G01 X28.4733 Y73.2054
G01 X28.4654 Y73.2133
G01 X28.4150 Y73.2588
G01 X28.3605 Y73.2993
G01 X28.3536 Y73.3041
G01 X28.2929 Y73.3403
G01 X28.2316 Y73.3695
G01 X28.2213 Y73.3737
G01 X28.1573 Y73.3965
G01 X28.0861 Y73.4143
G01 X28.0189 Y73.4244
G01 X28.0078 Y73.4255
G01 X27.9400 Y73.4287
G01 X17.6399 Y73.4287
G01 X17.6398 Y73.7016
G01 X17.6345 Y73.8068
G01 X17.6187 Y73.9137
G01 X17.6170 Y73.9219
G01 X17.5927 Y74.0186
G01 X17.5895 Y74.0293
G01 X17.5539 Y74.1284
G01 X17.5065 Y74.2286
G01 X17.4495 Y74.3237
G01 X17.3869 Y74.4084
G01 X17.3798 Y74.4170
G01 X17.3128 Y74.4909
G01 X17.3049 Y74.4988
G01 X17.2268 Y74.5694
G01 X17.1377 Y74.6355
G01 X17.0426 Y74.6925
G01 X16.9450 Y74.7388
G01 X16.9372 Y74.7419
G01 X16.8380 Y74.7773
G01 X16.7359 Y74.8030
G01 X16.7250 Y74.8051
G01 X16.6263 Y74.8198
G01 X16.6152 Y74.8209
G01 X16.5100 Y74.8259
G01 X16.3992 Y74.8205
G01 X16.2896 Y74.8042
G01 X16.1820 Y74.7773
G01 X16.0776 Y74.7399
G01 X15.9774 Y74.6925
G01 X15.8823 Y74.6355
G01 X15.7976 Y74.5729
G01 X15.7890 Y74.5658
G01 X15.7151 Y74.4988
G01 X15.7072 Y74.4909
G01 X15.6366 Y74.4128
G01 X15.5737 Y74.3283
G01 X15.5690 Y74.3214
G01 X15.5163 Y74.2335
G01 X15.5110 Y74.2237
G01 X15.4661 Y74.1284
G01 X15.4305 Y74.0293
G01 X15.4273 Y74.0186
G01 X15.4018 Y73.9164
G01 X15.3862 Y73.8123
G01 X15.3851 Y73.8012
G01 X15.3801 Y73.6960
G01 X15.3801 Y71.6640
G01 X15.3855 Y71.5532
G01 X15.4018 Y71.4436
G01 X15.4287 Y71.3360
G01 X15.4641 Y71.2368
G01 X15.4684 Y71.2265
G01 X15.5135 Y71.1314
G01 X15.5675 Y71.0410
G01 X15.5737 Y71.0317
G01 X15.6366 Y70.9472
G01 X15.7110 Y70.8650
G01 X15.7890 Y70.7942
G01 X15.7976 Y70.7871
G01 X15.8823 Y70.7245
G01 X15.9774 Y70.6675
G01 X16.0725 Y70.6224
G01 X16.0828 Y70.6181
G01 X16.1820 Y70.5827
G01 X16.2896 Y70.5558
G01 X16.3992 Y70.5395
G01 X16.5044 Y70.5342
G01 X16.5156 Y70.5342
G01 X16.6208 Y70.5395
G01 X16.7250 Y70.5549
G01 X16.7359 Y70.5570
G01 X16.8380 Y70.5827
G01 X16.9372 Y70.6181
G01 X16.9475 Y70.6224
G01 X17.0426 Y70.6675
G01 X17.1330 Y70.7215
G01 X17.1423 Y70.7277
G01 X17.2268 Y70.7906
G01 X17.3090 Y70.8650
G01 X17.3798 Y70.9430
G01 X17.3869 Y70.9516
G01 X17.4495 Y71.0363
G01 X17.5037 Y71.1265
G01 X17.5090 Y71.1363
G01 X17.5539 Y71.2316
G01 X17.5913 Y71.3360
G01 X17.6182 Y71.4436
G01 X17.6338 Y71.5477
G01 X17.6347 Y71.5560
G01 X17.6399 Y71.6612
G01 X17.6399 Y71.9313
G01 X27.1913 Y71.9313
G01 X27.1913 Y54.3787
G01 X7.6200 Y54.3787
G01 X7.5522 Y54.3755
G01 X7.5411 Y54.3744
G01 X7.4739 Y54.3643
G01 X7.4027 Y54.3465
G01 X7.3335 Y54.3217
G01 X7.2720 Y54.2928
G01 X7.2622 Y54.2876
G01 X7.2087 Y54.2555
G01 X7.1995 Y54.2493
G01 X7.1450 Y54.2088
G01 X7.0946 Y54.1633
G01 X7.0867 Y54.1554
G01 X7.0449 Y54.1092
G01 X7.0378 Y54.1006
G01 X6.9975 Y54.0460
G01 X6.9597 Y53.9829
G01 X6.9283 Y53.9165
G01 X6.9053 Y53.8526
G01 X6.9020 Y53.8420
G01 X6.8857 Y53.7761
G01 X6.8756 Y53.7089
G01 X6.8745 Y53.6978
G01 X6.8714 Y53.6356
G01 X6.8713 Y40.0078
G01 X6.8251 Y39.9567
G01 X6.7682 Y39.8802
G01 X6.7635 Y39.8733
G01 X6.7132 Y39.7891
G01 X6.6723 Y39.7030
G01 X6.6690 Y39.6953
G01 X6.6360 Y39.6029
G01 X6.6115 Y39.5050
G01 X6.5967 Y39.4052
G01 X6.5917 Y39.3044
G00 Z3.0000
G00 X9.4113 Y40.0078
G01 F60.00
G01 Z-0.0500
G01 F120.00
G01 X9.3651 Y39.9567
G01 X9.3050 Y39.8757
G01 X9.2532 Y39.7891
G01 X9.2111 Y39.7005
G01 X9.2080 Y39.6927
G01 X9.1778 Y39.6082
G01 X9.1745 Y39.5975
G01 X9.1515 Y39.5050
G01 X9.1367 Y39.4052
G01 X9.1317 Y39.3044
G01 X9.1317 Y37.4756
G01 X9.1367 Y37.3748
G01 X9.1515 Y37.2750
G01 X9.1760 Y37.1771
G01 X9.2100 Y37.0821
G01 X9.2532 Y36.9909
G01 X9.3050 Y36.9043
G01 X9.3651 Y36.8233
G01 X9.4310 Y36.7505
G01 X9.4369 Y36.7447
G01 X9.5035 Y36.6844
G01 X9.5121 Y36.6773
G01 X9.5887 Y36.6206
G01 X9.6753 Y36.5688
G01 X9.7665 Y36.5256
G01 X9.8562 Y36.4934
G01 X9.8669 Y36.4901
G01 X9.9594 Y36.4671
G01 X10.0537 Y36.4530
G01 X10.0648 Y36.4519
G01 X10.1600 Y36.4473
G01 X10.2608 Y36.4523
G01 X10.3551 Y36.4661
G01 X10.3660 Y36.4683
G01 X10.4585 Y36.4916
G01 X10.5509 Y36.5246
G01 X10.5586 Y36.5279
G01 X10.6447 Y36.5688
G01 X10.7266 Y36.6177
G01 X10.7358 Y36.6238
G01 X10.8079 Y36.6773
G01 X10.8165 Y36.6844
G01 X10.8871 Y36.7485
G01 X10.9549 Y36.8233
G01 X11.0150 Y36.9043
G01 X11.0655 Y36.9884
G01 X11.0693 Y36.9959
G01 X11.1077 Y37.0770
G01 X11.1120 Y37.0873
G01 X11.1440 Y37.1771
G01 X11.1685 Y37.2750
G01 X11.1826 Y37.3693
G01 X11.1837 Y37.3804
G01 X11.1882 Y37.4728
G01 X11.1883 Y37.6413
G01 X11.6717 Y37.6413
G01 X11.6718 Y37.4728
G01 X11.6767 Y37.3748
G01 X11.6915 Y37.2750
G01 X11.7145 Y37.1825
G01 X11.7169 Y37.1745
G01 X11.7500 Y37.0821
G01 X11.7907 Y36.9959
G01 X11.7945 Y36.9884
G01 X11.8421 Y36.9090
G01 X11.8482 Y36.8998
G01 X11.9051 Y36.8233
G01 X11.9513 Y36.7722
G01 X11.9513 Y32.0400
G01 X11.9549 Y31.9666
G01 X11.9657 Y31.8939
G01 X11.9835 Y31.8227
G01 X12.0083 Y31.7535
G01 X12.0397 Y31.6871
G01 X12.0775 Y31.6240
G01 X12.1212 Y31.5650
G01 X12.1706 Y31.5106
G01 X12.2229 Y31.4630
G01 X12.2294 Y31.4578
G01 X12.2840 Y31.4175
G01 X12.3422 Y31.3824
G01 X12.3520 Y31.3772
G01 X12.4084 Y31.3505
G01 X12.4187 Y31.3463
G01 X12.4827 Y31.3235
G01 X12.5539 Y31.3057
G01 X12.6266 Y31.2949
G01 X12.6972 Y31.2913
G01 X19.5713 Y31.2913
G01 X19.5713 Y24.7678
G01 X19.5251 Y24.7167
G01 X19.4650 Y24.6357
G01 X19.4132 Y24.5491
G01 X19.3711 Y24.4605
G01 X19.3680 Y24.4527
G01 X19.3378 Y24.3682
G01 X19.3345 Y24.3575
G01 X19.3115 Y24.2650
G01 X19.2967 Y24.1652
G01 X19.2917 Y24.0644
G01 X19.2918 Y22.2328
G01 X19.2967 Y22.1348
G01 X19.3105 Y22.0405
G01 X19.3127 Y22.0296
G01 X19.3360 Y21.9371
G01 X19.3680 Y21.8473
G01 X19.3723 Y21.8370
G01 X19.4132 Y21.7509
G01 X19.4621 Y21.6690
G01 X19.4682 Y21.6598
G01 X19.5251 Y21.5833
G01 X19.5891 Y21.5125
G01 X19.5969 Y21.5047
G01 X19.6677 Y21.4407
G01 X19.7442 Y21.3838
G01 X19.7534 Y21.3777
G01 X19.8304 Y21.3315
G01 X19.8403 Y21.3263
G01 X19.9265 Y21.2856
G01 X20.0162 Y21.2534
G01 X20.0269 Y21.2501
G01 X20.1140 Y21.2283
G01 X20.1249 Y21.2261
G01 X20.2192 Y21.2123
G01 X20.3200 Y21.2073
G01 X20.4208 Y21.2123
G01 X20.5151 Y21.2261
G01 X20.5260 Y21.2283
G01 X20.6131 Y21.2501
G01 X20.6238 Y21.2534
G01 X20.7135 Y21.2856
G01 X20.7997 Y21.3263
G01 X20.8096 Y21.3315
G01 X20.8913 Y21.3806
G01 X20.9723 Y21.4407
G01 X21.0471 Y21.5085
G01 X21.1112 Y21.5791
G01 X21.1183 Y21.5877
G01 X21.1750 Y21.6643
G01 X21.2241 Y21.7460
G01 X21.2293 Y21.7559
G01 X21.2677 Y21.8370
G01 X21.2720 Y21.8473
G01 X21.3040 Y21.9371
G01 X21.3285 Y22.0350
G01 X21.3433 Y22.1348
G01 X21.3483 Y22.2356
G01 X21.3483 Y24.0644
G01 X21.3433 Y24.1652
G01 X21.3285 Y24.2650
G01 X21.3055 Y24.3575
G01 X21.3022 Y24.3682
G01 X21.2720 Y24.4527
G01 X21.2689 Y24.4605
G01 X21.2268 Y24.5491
G01 X21.1750 Y24.6357
G01 X21.1149 Y24.7167
G01 X21.0687 Y24.7678
G01 X21.0687 Y27.4813
G01 X39.8913 Y27.4813
G01 X39.8913 Y24.7678
G01 X39.8451 Y24.7167
G01 X39.7850 Y24.6357
G01 X39.7332 Y24.5491
G01 X39.6911 Y24.4605
G01 X39.6880 Y24.4527
G01 X39.6578 Y24.3682
G01 X39.6545 Y24.3575
G01 X39.6315 Y24.2650
G01 X39.6167 Y24.1652
G01 X39.6117 Y24.0644
G01 X39.6118 Y22.2328
G01 X39.6167 Y22.1348
G01 X39.6305 Y22.0405
G01 X39.6327 Y22.0296
G01 X39.6545 Y21.9425
G01 X39.6578 Y21.9318
G01 X39.6900 Y21.8421
G01 X39.7307 Y21.7559
G01 X39.7359 Y21.7460
G01 X39.7850 Y21.6643
G01 X39.8451 Y21.5833
G01 X39.9129 Y21.5085
G01 X39.9835 Y21.4444
G01 X39.9899 Y21.4390
G01 X40.0687 Y21.3806
G01 X40.1504 Y21.3315
G01 X40.1603 Y21.3263
G01 X40.2465 Y21.2856
G01 X40.3362 Y21.2534
G01 X40.3469 Y21.2501
G01 X40.4394 Y21.2271
G01 X40.5392 Y21.2123
G01 X40.6400 Y21.2073
G01 X40.7352 Y21.2119
G01 X40.7463 Y21.2130
G01 X40.8406 Y21.2271
G01 X40.9385 Y21.2516
G01 X41.0283 Y21.2836
G01 X41.0386 Y21.2879
G01 X41.1197 Y21.3263
G01 X41.1272 Y21.3301
G01 X41.2113 Y21.3806
G01 X41.2879 Y21.4373
G01 X41.2965 Y21.4444
G01 X41.3671 Y21.5085
G01 X41.4349 Y21.5833
G01 X41.4918 Y21.6598
G01 X41.4979 Y21.6690
G01 X41.5441 Y21.7460
G01 X41.5481 Y21.7534
G01 X41.5900 Y21.8421
G01 X41.6222 Y21.9318
G01 X41.6255 Y21.9425
G01 X41.6473 Y22.0296
G01 X41.6490 Y22.0377
G01 X41.6626 Y22.1293
G01 X41.6637 Y22.1404
G01 X41.6682 Y22.2328
G01 X41.6683 Y22.4013
G01 X46.2413 Y22.4013
G01 X46.2413 Y4.4367
G01 X46.1951 Y4.3948
G01 X46.1891 Y4.3890
G01 X46.1202 Y4.3130
G01 X46.1148 Y4.3066
G01 X46.0505 Y4.2197
G01 X45.9963 Y4.1295
G01 X45.9922 Y4.1222
G01 X45.9461 Y4.0244
G01 X45.9087 Y3.9200
G01 X45.8818 Y3.8124
G01 X45.8658 Y3.7055
G01 X45.8651 Y3.6972
G01 X45.8601 Y3.5920
G01 X45.8601 Y1.5600
G01 X45.8653 Y1.4520
G01 X45.8662 Y1.4437
G01 X45.8809 Y1.3450
G01 X45.8830 Y1.3341
G01 X45.9087 Y1.2320
G01 X45.9461 Y1.1276
G01 X45.9910 Y1.0323
G01 X45.9963 Y1.0225
G01 X46.0505 Y0.9323
G01 X46.1131 Y0.8476
G01 X46.1202 Y0.8390
G01 X46.1910 Y0.7610
G01 X46.2690 Y0.6902
G01 X46.2776 Y0.6831
G01 X46.3623 Y0.6205
G01 X46.4525 Y0.5663
G01 X46.4623 Y0.5610
G01 X46.5525 Y0.5184
G01 X46.5628 Y0.5141
G01 X46.6620 Y0.4787
G01 X46.7641 Y0.4530
G01 X46.7750 Y0.4509
G01 X46.8792 Y0.4355
G01 X46.9900 Y0.4301
G01 X47.0952 Y0.4351
G01 X47.1063 Y0.4362
G01 X47.2104 Y0.4518
G01 X47.3126 Y0.4773
G01 X47.3233 Y0.4805
G01 X47.4224 Y0.5161
G01 X47.5226 Y0.5635
G01 X47.6130 Y0.6175
G01 X47.6223 Y0.6237
G01 X47.7068 Y0.6866
G01 X47.7890 Y0.7610
G01 X47.8634 Y0.8432
G01 X47.9263 Y0.9277
G01 X47.9325 Y0.9370
G01 X47.9837 Y1.0225
G01 X47.9890 Y1.0323
G01 X48.0339 Y1.1276
G01 X48.0713 Y1.2320
G01 X48.0982 Y1.3396
G01 X48.1142 Y1.4465
G01 X48.1149 Y1.4548
G01 X48.1199 Y1.5600
G01 X48.1199 Y3.5920
G01 X48.1145 Y3.7028
G01 X48.0982 Y3.8124
G01 X48.0713 Y3.9200
G01 X48.0359 Y4.0192
G01 X48.0328 Y4.0270
G01 X47.9865 Y4.1246
G01 X47.9325 Y4.2150
G01 X47.9279 Y4.2220
G01 X47.8669 Y4.3044
G01 X47.8616 Y4.3109
G01 X47.7890 Y4.3910
G01 X47.7387 Y4.4367
G01 X47.7387 Y23.1500
G01 X47.7351 Y23.2234
G01 X47.7243 Y23.2961
G01 X47.7065 Y23.3673
G01 X47.6817 Y23.4365
G01 X47.6503 Y23.5029
G01 X47.6125 Y23.5660
G01 X47.5688 Y23.6250
G01 X47.5194 Y23.6794
G01 X47.4650 Y23.7288
G01 X47.4060 Y23.7725
G01 X47.3429 Y23.8103
G01 X47.2765 Y23.8417
G01 X47.2073 Y23.8665
G01 X47.1361 Y23.8843
G01 X47.0634 Y23.8951
G01 X46.9956 Y23.8986
G01 X41.6683 Y23.8987
G01 X41.6682 Y24.0672
G01 X41.6633 Y24.1652
G01 X41.6485 Y24.2650
G01 X41.6255 Y24.3575
G01 X41.6231 Y24.3655
G01 X41.5900 Y24.4579
G01 X41.5493 Y24.5441
G01 X41.5455 Y24.5516
G01 X41.4979 Y24.6310
G01 X41.4918 Y24.6402
G01 X41.4349 Y24.7167
G01 X41.3887 Y24.7678
G01 X41.3887 Y28.2300
G01 X41.3851 Y28.3034
G01 X41.3748 Y28.3733
G01 X41.3731 Y28.3815
G01 X41.3580 Y28.4420
G01 X41.3547 Y28.4526
G01 X41.3317 Y28.5165
G01 X41.3028 Y28.5780
G01 X41.2976 Y28.5878
G01 X41.2625 Y28.6460
G01 X41.2222 Y28.7006
G01 X41.2151 Y28.7092
G01 X41.1694 Y28.7594
G01 X41.1192 Y28.8051
G01 X41.1106 Y28.8122
G01 X41.0560 Y28.8525
G01 X40.9929 Y28.8903
G01 X40.9316 Y28.9195
G01 X40.9213 Y28.9237
G01 X40.8626 Y28.9447
G01 X40.8547 Y28.9473
G01 X40.7861 Y28.9643
G01 X40.7189 Y28.9744
G01 X40.7078 Y28.9755
G01 X40.6400 Y28.9787
G01 X21.0687 Y28.9787
G01 X21.0687 Y32.0400
G01 X21.0651 Y32.1134
G01 X21.0543 Y32.1861
G01 X21.0380 Y32.2520
G01 X21.0347 Y32.2626
G01 X21.0117 Y32.3265
G01 X20.9828 Y32.3880
G01 X20.9776 Y32.3978
G01 X20.9425 Y32.4560
G01 X20.9022 Y32.5106
G01 X20.8951 Y32.5192
G01 X20.8494 Y32.5694
G01 X20.7992 Y32.6151
G01 X20.7906 Y32.6222
G01 X20.7360 Y32.6625
G01 X20.6778 Y32.6976
G01 X20.6705 Y32.7016
G01 X20.6116 Y32.7295
G01 X20.6013 Y32.7337
G01 X20.5373 Y32.7565
G01 X20.4715 Y32.7731
G01 X20.4606 Y32.7753
G01 X20.3934 Y32.7851
G01 X20.3200 Y32.7887
G01 X13.4487 Y32.7887
G01 X13.4487 Y36.7722
G01 X13.4949 Y36.8233
G01 X13.5550 Y36.9043
G01 X13.6068 Y36.9909
G01 X13.6489 Y37.0795
G01 X13.6520 Y37.0873
G01 X13.6822 Y37.1718
G01 X13.6855 Y37.1825
G01 X13.7085 Y37.2750
G01 X13.7226 Y37.3693
G01 X13.7235 Y37.3776
G01 X13.7283 Y37.4756
G01 X13.7282 Y39.3072
G01 X13.7233 Y39.4052
G01 X13.7095 Y39.4995
G01 X13.7073 Y39.5104
G01 X13.6855 Y39.5975
G01 X13.6822 Y39.6082
G01 X13.6500 Y39.6979
G01 X13.6068 Y39.7891
G01 X13.5550 Y39.8757
G01 X13.4949 Y39.9567
G01 X13.4271 Y40.0315
G01 X13.3523 Y40.0993
G01 X13.2713 Y40.1594
G01 X13.1896 Y40.2085
G01 X13.1797 Y40.2137
G01 X13.0935 Y40.2544
G01 X13.0038 Y40.2866
G01 X12.9931 Y40.2899
G01 X12.9060 Y40.3117
G01 X12.8951 Y40.3139
G01 X12.8008 Y40.3277
G01 X12.7000 Y40.3327
G01 X12.5992 Y40.3277
G01 X12.4994 Y40.3129
G01 X12.4015 Y40.2884
G01 X12.3065 Y40.2544
G01 X12.2153 Y40.2112
G01 X12.1287 Y40.1594
G01 X12.0477 Y40.0993
G01 X11.9729 Y40.0315
G01 X11.9051 Y39.9567
G01 X11.8466 Y39.8780
G01 X11.8421 Y39.8710
G01 X11.7932 Y39.7891
G01 X11.7500 Y39.6979
G01 X11.7160 Y39.6029
G01 X11.6921 Y39.5077
G01 X11.6905 Y39.4995
G01 X11.6774 Y39.4107
G01 X11.6763 Y39.3996
G01 X11.6718 Y39.3072
G01 X11.6717 Y39.1387
G01 X11.1883 Y39.1387
G01 X11.1882 Y39.3072
G01 X11.1833 Y39.4052
G01 X11.1685 Y39.5050
G01 X11.1455 Y39.5975
G01 X11.1431 Y39.6055
G01 X11.1100 Y39.6979
G01 X11.0693 Y39.7841
G01 X11.0655 Y39.7916
G01 X11.0179 Y39.8710
G01 X11.0118 Y39.8802
G01 X10.9549 Y39.9567
G01 X10.9087 Y40.0078
G01 X10.9087 Y50.2002
G01 X10.9826 Y50.2674
G01 X11.0557 Y50.3477
G01 X11.0627 Y50.3563
G01 X11.1241 Y50.4391
G01 X11.1303 Y50.4484
G01 X11.1860 Y50.5416
G01 X11.2348 Y50.6448
G01 X11.2733 Y50.7523
G01 X11.2998 Y50.8576
G01 X11.3020 Y50.8685
G01 X11.3178 Y50.9760
G01 X11.3233 Y51.0844
G01 X11.3233 Y51.0956
G01 X11.3182 Y51.1985
G01 X11.3171 Y51.2096
G01 X11.3010 Y51.3170
G01 X11.2748 Y51.4224
G01 X11.2716 Y51.4330
G01 X11.2368 Y51.5300
G01 X11.2326 Y51.5403
G01 X11.1860 Y51.6384
G01 X11.1273 Y51.7364
G01 X11.0593 Y51.8281
G01 X10.9826 Y51.9126
G01 X10.8981 Y51.9893
G01 X10.8064 Y52.0573
G01 X10.7084 Y52.1160
G01 X10.6103 Y52.1626
G01 X10.6000 Y52.1668
G01 X10.5030 Y52.2016
G01 X10.4924 Y52.2048
G01 X10.3870 Y52.2310
G01 X10.2796 Y52.2471
G01 X10.2713 Y52.2480
G01 X10.1600 Y52.2534
G01 X10.0460 Y52.2478
G01 X9.9330 Y52.2310
G01 X9.8223 Y52.2033
G01 X9.7148 Y52.1648
G01 X9.6116 Y52.1160
G01 X9.5136 Y52.0573
G01 X9.4219 Y51.9893
G01 X9.3374 Y51.9126
G01 X9.2607 Y51.8281
G01 X9.1927 Y51.7364
G01 X9.1340 Y51.6384
G01 X9.0852 Y51.5352
G01 X9.0467 Y51.4277
G01 X9.0190 Y51.3170
G01 X9.0029 Y51.2096
G01 X9.0020 Y51.2013
G01 X8.9967 Y51.0956
G01 X8.9967 Y51.0844
G01 X9.0022 Y50.9760
G01 X9.0180 Y50.8685
G01 X9.0202 Y50.8576
G01 X9.0467 Y50.7523
G01 X9.0852 Y50.6448
G01 X9.1340 Y50.5416
G01 X9.1897 Y50.4484
G01 X9.1959 Y50.4391
G01 X9.2573 Y50.3563
G01 X9.2643 Y50.3477
G01 X9.3374 Y50.2674
G01 X9.4113 Y50.2002
G01 X9.4113 Y40.0078
G00 Z3.0000
G00 X14.4913 Y40.0078
G01 F60.00
G01 Z-0.0500
G01 F120.00
G01 X14.4451 Y39.9567
G01 X14.3850 Y39.8757
G01 X14.3332 Y39.7891
G01 X14.2911 Y39.7005
G01 X14.2880 Y39.6927
G01 X14.2578 Y39.6082
G01 X14.2545 Y39.5975
G01 X14.2315 Y39.5050
G01 X14.2174 Y39.4107
G01 X14.2165 Y39.4024
G01 X14.2117 Y39.3044
G01 X14.2118 Y37.4728
G01 X14.2167 Y37.3748
G01 X14.2305 Y37.2805
G01 X14.2327 Y37.2696
G01 X14.2560 Y37.1771
G01 X14.2900 Y37.0821
G01 X14.3332 Y36.9909
G01 X14.3850 Y36.9043
G01 X14.4451 Y36.8233
G01 X14.5129 Y36.7485
G01 X14.5877 Y36.6807
G01 X14.6687 Y36.6206
G01 X14.7553 Y36.5688
G01 X14.8465 Y36.5256
G01 X14.9415 Y36.4916
G01 X15.0394 Y36.4671
G01 X15.1392 Y36.4523
G01 X15.2400 Y36.4473
G01 X15.3408 Y36.4523
G01 X15.4406 Y36.4671
G01 X15.5385 Y36.4916
G01 X15.6335 Y36.5256
G01 X15.7197 Y36.5663
G01 X15.7296 Y36.5715
G01 X15.8113 Y36.6206
G01 X15.8923 Y36.6807
G01 X15.9631 Y36.7447
G01 X15.9709 Y36.7525
G01 X16.0349 Y36.8233
G01 X16.0918 Y36.8998
G01 X16.0979 Y36.9090
G01 X16.1468 Y36.9909
G01 X16.1900 Y37.0821
G01 X16.2240 Y37.1771
G01 X16.2473 Y37.2696
G01 X16.2495 Y37.2805
G01 X16.2626 Y37.3693
G01 X16.2637 Y37.3804
G01 X16.2683 Y37.4756
G01 X16.2683 Y39.3044
G01 X16.2633 Y39.4052
G01 X16.2485 Y39.5050
G01 X16.2255 Y39.5975
G01 X16.2222 Y39.6082
G01 X16.1920 Y39.6927
G01 X16.1889 Y39.7005
G01 X16.1468 Y39.7891
G01 X16.0950 Y39.8757
G01 X16.0349 Y39.9567
G01 X15.9887 Y40.0078
G01 X15.9887 Y50.2002
G01 X16.0626 Y50.2674
G01 X16.1357 Y50.3477
G01 X16.1427 Y50.3563
G01 X16.2041 Y50.4391
G01 X16.2103 Y50.4484
G01 X16.2660 Y50.5416
G01 X16.3126 Y50.6397
G01 X16.3168 Y50.6500
G01 X16.3533 Y50.7523
G01 X16.3810 Y50.8630
G01 X16.3978 Y50.9760
G01 X16.4034 Y51.0900
G01 X16.3978 Y51.2040
G01 X16.3810 Y51.3170
G01 X16.3533 Y51.4277
G01 X16.3148 Y51.5352
G01 X16.2660 Y51.6384
G01 X16.2073 Y51.7364
G01 X16.1393 Y51.8281
G01 X16.0665 Y51.9086
G01 X16.0586 Y51.9165
G01 X15.9823 Y51.9857
G01 X15.9737 Y51.9927
G01 X15.8864 Y52.0573
G01 X15.7933 Y52.1133
G01 X15.7835 Y52.1185
G01 X15.6852 Y52.1648
G01 X15.5777 Y52.2033
G01 X15.4670 Y52.2310
G01 X15.3596 Y52.2471
G01 X15.3513 Y52.2480
G01 X15.2400 Y52.2534
G01 X15.1260 Y52.2478
G01 X15.0130 Y52.2310
G01 X14.9023 Y52.2033
G01 X14.7948 Y52.1648
G01 X14.6916 Y52.1160
G01 X14.5936 Y52.0573
G01 X14.5019 Y51.9893
G01 X14.4174 Y51.9126
G01 X14.3407 Y51.8281
G01 X14.2727 Y51.7364
G01 X14.2140 Y51.6384
G01 X14.1652 Y51.5352
G01 X14.1267 Y51.4277
G01 X14.0990 Y51.3170
G01 X14.0829 Y51.2096
G01 X14.0820 Y51.2013
G01 X14.0767 Y51.0956
G01 X14.0767 Y51.0844
G01 X14.0822 Y50.9760
G01 X14.0980 Y50.8685
G01 X14.1002 Y50.8576
G01 X14.1267 Y50.7523
G01 X14.1652 Y50.6448
G01 X14.2140 Y50.5416
G01 X14.2697 Y50.4484
G01 X14.2759 Y50.4391
G01 X14.3373 Y50.3563
G01 X14.3443 Y50.3477
G01 X14.4174 Y50.2674
G01 X14.4913 Y50.2002
G01 X14.4913 Y40.0078
G00 Z3.0000
G00 X16.7517 Y39.3044
G01 F60.00
G01 Z-0.0500
G01 F120.00
G01 X16.7517 Y37.4756
G01 X16.7563 Y37.3804
G01 X16.7574 Y37.3693
G01 X16.7715 Y37.2750
G01 X16.7960 Y37.1771
G01 X16.8300 Y37.0821
G01 X16.8707 Y36.9959
G01 X16.8745 Y36.9884
G01 X16.9250 Y36.9043
G01 X16.9851 Y36.8233
G01 X17.0529 Y36.7485
G01 X17.1277 Y36.6807
G01 X17.2087 Y36.6206
G01 X17.2953 Y36.5688
G01 X17.3865 Y36.5256
G01 X17.4815 Y36.4916
G01 X17.5794 Y36.4671
G01 X17.6792 Y36.4523
G01 X17.7800 Y36.4473
G01 X17.8808 Y36.4523
G01 X17.9806 Y36.4671
G01 X18.0785 Y36.4916
G01 X18.1735 Y36.5256
G01 X18.2597 Y36.5663
G01 X18.2672 Y36.5701
G01 X18.3466 Y36.6177
G01 X18.3558 Y36.6238
G01 X18.4323 Y36.6807
G01 X18.5031 Y36.7447
G01 X18.5109 Y36.7525
G01 X18.5749 Y36.8233
G01 X18.6350 Y36.9043
G01 X18.6841 Y36.9860
G01 X18.6893 Y36.9959
G01 X18.7300 Y37.0821
G01 X18.7622 Y37.1718
G01 X18.7655 Y37.1825
G01 X18.7885 Y37.2750
G01 X18.8026 Y37.3693
G01 X18.8037 Y37.3804
G01 X18.8083 Y37.4756
G01 X18.8083 Y39.3044
G01 X18.8033 Y39.4052
G01 X18.7885 Y39.5050
G01 X18.7655 Y39.5975
G01 X18.7622 Y39.6082
G01 X18.7320 Y39.6927
G01 X18.7289 Y39.7005
G01 X18.6868 Y39.7891
G01 X18.6350 Y39.8757
G01 X18.5749 Y39.9567
G01 X18.5287 Y40.0078
G01 X18.5287 Y48.9302
G01 X18.6026 Y48.9974
G01 X18.6757 Y49.0777
G01 X18.6827 Y49.0863
G01 X18.7441 Y49.1691
G01 X18.7503 Y49.1784
G01 X18.8060 Y49.2716
G01 X18.8526 Y49.3697
G01 X18.8568 Y49.3800
G01 X18.8933 Y49.4823
G01 X18.9210 Y49.5930
G01 X18.9378 Y49.7060
G01 X18.9433 Y49.8144
G01 X18.9434 Y49.8228
G01 X18.9378 Y49.9340
G01 X18.9210 Y50.0470
G01 X18.8933 Y50.1577
G01 X18.8548 Y50.2652
G01 X18.8060 Y50.3684
G01 X18.7473 Y50.4664
G01 X18.6793 Y50.5581
G01 X18.6065 Y50.6386
G01 X18.5986 Y50.6465
G01 X18.5181 Y50.7193
G01 X18.4309 Y50.7841
G01 X18.4216 Y50.7903
G01 X18.3333 Y50.8433
G01 X18.3235 Y50.8485
G01 X18.2252 Y50.8948
G01 X18.1177 Y50.9333
G01 X18.0070 Y50.9610
G01 X17.8940 Y50.9778
G01 X17.7800 Y50.9834
G01 X17.6660 Y50.9778
G01 X17.5530 Y50.9610
G01 X17.4423 Y50.9333
G01 X17.3348 Y50.8948
G01 X17.2316 Y50.8460
G01 X17.1336 Y50.7873
G01 X17.0419 Y50.7193
G01 X16.9574 Y50.6426
G01 X16.8807 Y50.5581
G01 X16.8127 Y50.4664
G01 X16.7540 Y50.3684
G01 X16.7052 Y50.2652
G01 X16.6667 Y50.1577
G01 X16.6390 Y50.0470
G01 X16.6222 Y49.9340
G01 X16.6166 Y49.8200
G01 X16.6218 Y49.7115
G01 X16.6229 Y49.7004
G01 X16.6390 Y49.5930
G01 X16.6652 Y49.4876
G01 X16.6684 Y49.4770
G01 X16.7052 Y49.3748
G01 X16.7540 Y49.2716
G01 X16.8097 Y49.1784
G01 X16.8159 Y49.1691
G01 X16.8773 Y49.0863
G01 X16.8843 Y49.0777
G01 X16.9574 Y48.9974
G01 X17.0313 Y48.9302
G01 X17.0313 Y40.0078
G01 X16.9851 Y39.9567
G01 X16.9282 Y39.8802
G01 X16.9235 Y39.8733
G01 X16.8732 Y39.7891
G01 X16.8323 Y39.7030
G01 X16.8290 Y39.6953
G01 X16.7960 Y39.6029
G01 X16.7715 Y39.5050
G01 X16.7567 Y39.4052
G01 X16.7517 Y39.3044
G00 Z3.0000
G00 X19.5713 Y40.0078
G01 F60.00
G01 Z-0.0500
G01 F120.00
G01 X19.5251 Y39.9567
G01 X19.4650 Y39.8757
G01 X19.4132 Y39.7891
G01 X19.3711 Y39.7005
G01 X19.3680 Y39.6927
G01 X19.3378 Y39.6082
G01 X19.3345 Y39.5975
G01 X19.3115 Y39.5050
G01 X19.2974 Y39.4107
G01 X19.2965 Y39.4024
G01 X19.2917 Y39.3044
G01 X19.2918 Y37.4728
G01 X19.2967 Y37.3748
G01 X19.3105 Y37.2805
G01 X19.3127 Y37.2696
G01 X19.3360 Y37.1771
G01 X19.3700 Y37.0821
G01 X19.4132 Y36.9909
G01 X19.4650 Y36.9043
G01 X19.5251 Y36.8233
G01 X19.5929 Y36.7485
G01 X19.6677 Y36.6807
G01 X19.7487 Y36.6206
G01 X19.8353 Y36.5688
G01 X19.9265 Y36.5256
G01 X20.0215 Y36.4916
G01 X20.1194 Y36.4671
G01 X20.2192 Y36.4523
G01 X20.3200 Y36.4473
G01 X20.4208 Y36.4523
G01 X20.5206 Y36.4671
G01 X20.6185 Y36.4916
G01 X20.7135 Y36.5256
G01 X20.7997 Y36.5663
G01 X20.8096 Y36.5715
G01 X20.8913 Y36.6206
G01 X20.9679 Y36.6773
G01 X20.9765 Y36.6844
G01 X21.0471 Y36.7485
G01 X21.1149 Y36.8233
G01 X21.1718 Y36.8998
G01 X21.1779 Y36.9090
G01 X21.2268 Y36.9909
G01 X21.2700 Y37.0821
G01 X21.3040 Y37.1771
G01 X21.3273 Y37.2696
G01 X21.3295 Y37.2805
G01 X21.3426 Y37.3693
G01 X21.3435 Y37.3776
G01 X21.3483 Y37.4756
G01 X21.3483 Y39.3044
G01 X21.3433 Y39.4052
G01 X21.3285 Y39.5050
G01 X21.3055 Y39.5975
G01 X21.3022 Y39.6082
G01 X21.2720 Y39.6927
G01 X21.2689 Y39.7005
G01 X21.2268 Y39.7891
G01 X21.1750 Y39.8757
G01 X21.1149 Y39.9567
G01 X21.0687 Y40.0078
G01 X21.0687 Y47.6602
G01 X21.1426 Y47.7274
G01 X21.2157 Y47.8077
G01 X21.2227 Y47.8163
G01 X21.2841 Y47.8991
G01 X21.2903 Y47.9084
G01 X21.3460 Y48.0016
G01 X21.3926 Y48.0997
G01 X21.3968 Y48.1100
G01 X21.4333 Y48.2123
G01 X21.4610 Y48.3230
G01 X21.4778 Y48.4360
G01 X21.4833 Y48.5444
G01 X21.4834 Y48.5528
G01 X21.4778 Y48.6640
G01 X21.4610 Y48.7770
G01 X21.4333 Y48.8877
G01 X21.3948 Y48.9952
G01 X21.3460 Y49.0984
G01 X21.2873 Y49.1964
G01 X21.2193 Y49.2881
G01 X21.1465 Y49.3686
G01 X21.1386 Y49.3765
G01 X21.0581 Y49.4493
G01 X20.9709 Y49.5141
G01 X20.9616 Y49.5203
G01 X20.8733 Y49.5733
G01 X20.8635 Y49.5785
G01 X20.7652 Y49.6248
G01 X20.6577 Y49.6633
G01 X20.5470 Y49.6910
G01 X20.4340 Y49.7078
G01 X20.3200 Y49.7134
G01 X20.2060 Y49.7078
G01 X20.0930 Y49.6910
G01 X19.9823 Y49.6633
G01 X19.8748 Y49.6248
G01 X19.7716 Y49.5760
G01 X19.6736 Y49.5173
G01 X19.5819 Y49.4493
G01 X19.4974 Y49.3726
G01 X19.4207 Y49.2881
G01 X19.3527 Y49.1964
G01 X19.2940 Y49.0984
G01 X19.2452 Y48.9952
G01 X19.2067 Y48.8877
G01 X19.1790 Y48.7770
G01 X19.1622 Y48.6640
G01 X19.1566 Y48.5500
G01 X19.1618 Y48.4415
G01 X19.1629 Y48.4304
G01 X19.1790 Y48.3230
G01 X19.2052 Y48.2176
G01 X19.2084 Y48.2070
G01 X19.2452 Y48.1048
G01 X19.2940 Y48.0016
G01 X19.3497 Y47.9084
G01 X19.3559 Y47.8991
G01 X19.4173 Y47.8163
G01 X19.4243 Y47.8077
G01 X19.4974 Y47.7274
G01 X19.5713 Y47.6602
G01 X19.5713 Y40.0078
G00 Z3.0000
G00 X21.8317 Y39.3044
G01 F60.00
G01 Z-0.0500
G01 F120.00
G01 X21.8317 Y37.4756
G01 X21.8363 Y37.3804
G01 X21.8374 Y37.3693
G01 X21.8515 Y37.2750
G01 X21.8760 Y37.1771
G01 X21.9100 Y37.0821
G01 X21.9507 Y36.9959
G01 X21.9545 Y36.9884
G01 X22.0050 Y36.9043
G01 X22.0651 Y36.8233
G01 X22.1329 Y36.7485
G01 X22.2077 Y36.6807
G01 X22.2887 Y36.6206
G01 X22.3753 Y36.5688
G01 X22.4665 Y36.5256
G01 X22.5615 Y36.4916
G01 X22.6594 Y36.4671
G01 X22.7592 Y36.4523
G01 X22.8600 Y36.4473
G01 X22.9608 Y36.4523
G01 X23.0606 Y36.4671
G01 X23.1585 Y36.4916
G01 X23.2535 Y36.5256
G01 X23.3397 Y36.5663
G01 X23.3472 Y36.5701
G01 X23.4266 Y36.6177
G01 X23.4358 Y36.6238
G01 X23.5123 Y36.6807
G01 X23.5831 Y36.7447
G01 X23.5909 Y36.7525
G01 X23.6549 Y36.8233
G01 X23.7150 Y36.9043
G01 X23.7641 Y36.9860
G01 X23.7693 Y36.9959
G01 X23.8100 Y37.0821
G01 X23.8422 Y37.1718
G01 X23.8455 Y37.1825
G01 X23.8685 Y37.2750
G01 X23.8826 Y37.3693
G01 X23.8835 Y37.3776
G01 X23.8883 Y37.4756
G01 X23.8883 Y39.3044
G01 X23.8833 Y39.4052
G01 X23.8685 Y39.5050
G01 X23.8455 Y39.5975
G01 X23.8422 Y39.6082
G01 X23.8120 Y39.6927
G01 X23.8089 Y39.7005
G01 X23.7668 Y39.7891
G01 X23.7150 Y39.8757
G01 X23.6549 Y39.9567
G01 X23.6087 Y40.0078
G01 X23.6087 Y46.3902
G01 X23.6826 Y46.4574
G01 X23.7557 Y46.5377
G01 X23.7627 Y46.5463
G01 X23.8241 Y46.6291
G01 X23.8303 Y46.6384
G01 X23.8860 Y46.7316
G01 X23.9326 Y46.8297
G01 X23.9368 Y46.8400
G01 X23.9733 Y46.9423
G01 X24.0010 Y47.0530
G01 X24.0178 Y47.1660
G01 X24.0233 Y47.2744
G01 X24.0234 Y47.2828
G01 X24.0178 Y47.3940
G01 X24.0010 Y47.5070
G01 X23.9733 Y47.6177
G01 X23.9368 Y47.7200
G01 X23.9326 Y47.7303
G01 X23.8885 Y47.8235
G01 X23.8833 Y47.8333
G01 X23.8273 Y47.9264
G01 X23.7627 Y48.0137
G01 X23.7557 Y48.0223
G01 X23.6826 Y48.1026
G01 X23.5981 Y48.1793
G01 X23.5064 Y48.2473
G01 X23.4084 Y48.3060
G01 X23.3052 Y48.3548
G01 X23.1977 Y48.3933
G01 X23.0870 Y48.4210
G01 X22.9768 Y48.4375
G01 X22.9685 Y48.4382
G01 X22.8600 Y48.4434
G01 X22.7460 Y48.4378
G01 X22.6330 Y48.4210
G01 X22.5223 Y48.3933
G01 X22.4148 Y48.3548
G01 X22.3116 Y48.3060
G01 X22.2136 Y48.2473
G01 X22.1219 Y48.1793
G01 X22.0374 Y48.1026
G01 X21.9607 Y48.0181
G01 X21.8927 Y47.9264
G01 X21.8340 Y47.8284
G01 X21.7852 Y47.7252
G01 X21.7467 Y47.6177
G01 X21.7190 Y47.5070
G01 X21.7025 Y47.3968
G01 X21.7018 Y47.3885
G01 X21.6966 Y47.2800
G01 X21.7018 Y47.1715
G01 X21.7029 Y47.1604
G01 X21.7190 Y47.0530
G01 X21.7452 Y46.9476
G01 X21.7484 Y46.9370
G01 X21.7852 Y46.8348
G01 X21.8340 Y46.7316
G01 X21.8897 Y46.6384
G01 X21.8959 Y46.6291
G01 X21.9573 Y46.5463
G01 X21.9643 Y46.5377
G01 X22.0374 Y46.4574
G01 X22.1113 Y46.3902
G01 X22.1113 Y40.0078
G01 X22.0651 Y39.9567
G01 X22.0082 Y39.8802
G01 X22.0035 Y39.8733
G01 X21.9532 Y39.7891
G01 X21.9123 Y39.7030
G01 X21.9090 Y39.6953
G01 X21.8760 Y39.6029
G01 X21.8515 Y39.5050
G01 X21.8367 Y39.4052
G01 X21.8317 Y39.3044
G00 Z3.0000
G00 X24.6513 Y40.0078
G01 F60.00
G01 Z-0.0500
G01 F120.00
G01 X24.6051 Y39.9567
G01 X24.5450 Y39.8757
G01 X24.4932 Y39.7891
G01 X24.4511 Y39.7005
G01 X24.4480 Y39.6927
G01 X24.4178 Y39.6082
G01 X24.4145 Y39.5975
G01 X24.3915 Y39.5050
G01 X24.3774 Y39.4107
G01 X24.3765 Y39.4024
G01 X24.3717 Y39.3044
G01 X24.3718 Y37.4728
G01 X24.3767 Y37.3748
G01 X24.3905 Y37.2805
G01 X24.3927 Y37.2696
G01 X24.4160 Y37.1771
G01 X24.4500 Y37.0821
G01 X24.4932 Y36.9909
G01 X24.5450 Y36.9043
G01 X24.6051 Y36.8233
G01 X24.6729 Y36.7485
G01 X24.7477 Y36.6807
G01 X24.8287 Y36.6206
G01 X24.9153 Y36.5688
G01 X25.0065 Y36.5256
G01 X25.1015 Y36.4916
G01 X25.1994 Y36.4671
G01 X25.2992 Y36.4523
G01 X25.4000 Y36.4473
G01 X25.5008 Y36.4523
G01 X25.6006 Y36.4671
G01 X25.6985 Y36.4916
G01 X25.7935 Y36.5256
G01 X25.8797 Y36.5663
G01 X25.8896 Y36.5715
G01 X25.9713 Y36.6206
G01 X26.0479 Y36.6773
G01 X26.0565 Y36.6844
G01 X26.1271 Y36.7485
G01 X26.1949 Y36.8233
G01 X26.2518 Y36.8998
G01 X26.2579 Y36.9090
G01 X26.3068 Y36.9909
G01 X26.3500 Y37.0821
G01 X26.3822 Y37.1718
G01 X26.3855 Y37.1825
G01 X26.4085 Y37.2750
G01 X26.4233 Y37.3748
G01 X26.4283 Y37.4756
G01 X26.4283 Y39.3044
G01 X26.4233 Y39.4052
G01 X26.4085 Y39.5050
G01 X26.3855 Y39.5975
G01 X26.3822 Y39.6082
G01 X26.3520 Y39.6927
G01 X26.3489 Y39.7005
G01 X26.3068 Y39.7891
G01 X26.2550 Y39.8757
G01 X26.1949 Y39.9567
G01 X26.1487 Y40.0078
G01 X26.1487 Y45.1202
G01 X26.2226 Y45.1874
G01 X26.2957 Y45.2677
G01 X26.3027 Y45.2763
G01 X26.3641 Y45.3591
G01 X26.3703 Y45.3684
G01 X26.4260 Y45.4616
G01 X26.4726 Y45.5597
G01 X26.4768 Y45.5700
G01 X26.5133 Y45.6723
G01 X26.5410 Y45.7830
G01 X26.5578 Y45.8960
G01 X26.5633 Y46.0044
G01 X26.5634 Y46.0128
G01 X26.5578 Y46.1240
G01 X26.5410 Y46.2370
G01 X26.5133 Y46.3477
G01 X26.4768 Y46.4500
G01 X26.4726 Y46.4603
G01 X26.4285 Y46.5535
G01 X26.4233 Y46.5633
G01 X26.3673 Y46.6564
G01 X26.3027 Y46.7437
G01 X26.2957 Y46.7523
G01 X26.2226 Y46.8326
G01 X26.1381 Y46.9093
G01 X26.0464 Y46.9773
G01 X25.9484 Y47.0360
G01 X25.8452 Y47.0848
G01 X25.7377 Y47.1233
G01 X25.6270 Y47.1510
G01 X25.5168 Y47.1675
G01 X25.5085 Y47.1682
G01 X25.4000 Y47.1734
G01 X25.2860 Y47.1678
G01 X25.1730 Y47.1510
G01 X25.0623 Y47.1233
G01 X24.9548 Y47.0848
G01 X24.8516 Y47.0360
G01 X24.7536 Y46.9773
G01 X24.6619 Y46.9093
G01 X24.5774 Y46.8326
G01 X24.5007 Y46.7481
G01 X24.4327 Y46.6564
G01 X24.3740 Y46.5584
G01 X24.3252 Y46.4552
G01 X24.2867 Y46.3477
G01 X24.2590 Y46.2370
G01 X24.2425 Y46.1268
G01 X24.2418 Y46.1185
G01 X24.2366 Y46.0100
G01 X24.2418 Y45.9015
G01 X24.2429 Y45.8904
G01 X24.2590 Y45.7830
G01 X24.2852 Y45.6776
G01 X24.2884 Y45.6670
G01 X24.3252 Y45.5648
G01 X24.3740 Y45.4616
G01 X24.4297 Y45.3684
G01 X24.4359 Y45.3591
G01 X24.4973 Y45.2763
G01 X24.5043 Y45.2677
G01 X24.5774 Y45.1874
G01 X24.6513 Y45.1202
G01 X24.6513 Y40.0078
G00 Z3.0000
G00 X26.9117 Y39.3044
G01 F60.00
G01 Z-0.0500
G01 F120.00
G01 X26.9117 Y37.4756
G01 X26.9163 Y37.3804
G01 X26.9174 Y37.3693
G01 X26.9315 Y37.2750
G01 X26.9560 Y37.1771
G01 X26.9900 Y37.0821
G01 X27.0307 Y36.9959
G01 X27.0345 Y36.9884
G01 X27.0850 Y36.9043
G01 X27.1451 Y36.8233
G01 X27.2129 Y36.7485
G01 X27.2877 Y36.6807
G01 X27.3687 Y36.6206
G01 X27.4553 Y36.5688
G01 X27.5465 Y36.5256
G01 X27.6415 Y36.4916
G01 X27.7394 Y36.4671
G01 X27.8392 Y36.4523
G01 X27.9400 Y36.4473
G01 X28.0408 Y36.4523
G01 X28.1406 Y36.4671
G01 X28.2385 Y36.4916
G01 X28.3335 Y36.5256
G01 X28.4197 Y36.5663
G01 X28.4272 Y36.5701
G01 X28.5066 Y36.6177
G01 X28.5158 Y36.6238
G01 X28.5923 Y36.6807
G01 X28.6631 Y36.7447
G01 X28.6709 Y36.7525
G01 X28.7349 Y36.8233
G01 X28.7950 Y36.9043
G01 X28.8441 Y36.9860
G01 X28.8493 Y36.9959
G01 X28.8900 Y37.0821
G01 X28.9222 Y37.1718
G01 X28.9255 Y37.1825
G01 X28.9485 Y37.2750
G01 X28.9626 Y37.3693
G01 X28.9635 Y37.3776
G01 X28.9683 Y37.4756
G01 X28.9683 Y39.3044
G01 X28.9633 Y39.4052
G01 X28.9485 Y39.5050
G01 X28.9255 Y39.5975
G01 X28.9222 Y39.6082
G01 X28.8920 Y39.6927
G01 X28.8889 Y39.7005
G01 X28.8468 Y39.7891
G01 X28.7950 Y39.8757
G01 X28.7349 Y39.9567
G01 X28.6887 Y40.0078
G01 X28.6887 Y43.8502
G01 X28.7626 Y43.9174
G01 X28.8357 Y43.9977
G01 X28.8427 Y44.0063
G01 X28.9041 Y44.0891
G01 X28.9103 Y44.0984
G01 X28.9660 Y44.1916
G01 X29.0126 Y44.2897
G01 X29.0168 Y44.3000
G01 X29.0533 Y44.4023
G01 X29.0810 Y44.5130
G01 X29.0978 Y44.6260
G01 X29.1033 Y44.7344
G01 X29.1034 Y44.7428
G01 X29.0978 Y44.8540
G01 X29.0810 Y44.9670
G01 X29.0533 Y45.0777
G01 X29.0168 Y45.1800
G01 X29.0126 Y45.1903
G01 X28.9685 Y45.2835
G01 X28.9633 Y45.2933
G01 X28.9073 Y45.3864
G01 X28.8393 Y45.4781
G01 X28.7626 Y45.5626
G01 X28.6781 Y45.6393
G01 X28.5864 Y45.7073
G01 X28.4933 Y45.7633
G01 X28.4835 Y45.7685
G01 X28.3903 Y45.8126
G01 X28.3800 Y45.8168
G01 X28.2777 Y45.8533
G01 X28.1670 Y45.8810
G01 X28.0540 Y45.8978
G01 X27.9400 Y45.9034
G01 X27.8260 Y45.8978
G01 X27.7130 Y45.8810
G01 X27.6023 Y45.8533
G01 X27.4948 Y45.8148
G01 X27.3916 Y45.7660
G01 X27.2936 Y45.7073
G01 X27.2019 Y45.6393
