(G-CODE GENERATED BY FLATCAM v8.994 - www.flatcam.org - Version Date: 2020/11/7)

(Name: drill_1_16.xln_cnc)
(Type: G-code from Geometry)
(Units: MM)

(Created on quarta, 02 março 2022 at 18:23)

(This preprocessor is the default preprocessor used by FlatCAM.)
(It is made to work with MACH3 compatible motion controllers.)


(TOOLS DIAMETER: )
(Tool: 1 -> Dia: 0.813)
(Tool: 2 -> Dia: 0.9)
(Tool: 3 -> Dia: 1.016)

(FEEDRATE Z: )
(Tool: 1 -> Feedrate: 300)
(Tool: 2 -> Feedrate: 300)
(Tool: 3 -> Feedrate: 300)

(FEEDRATE RAPIDS: )
(Tool: 1 -> Feedrate Rapids: 1500)
(Tool: 2 -> Feedrate Rapids: 1500)
(Tool: 3 -> Feedrate Rapids: 1500)

(Z_CUT: )
(Tool: 1 -> Z_Cut: -1.7)
(Tool: 2 -> Z_Cut: -1.7)
(Tool: 3 -> Z_Cut: -1.7)

(Tools Offset: )
(Tool: 1 -> Offset Z: 0.0)
(Tool: 2 -> Offset Z: 0.0)
(Tool: 3 -> Offset Z: 0.0)

(Z_MOVE: )
(Tool: 1 -> Z_Move: 2)
(Tool: 2 -> Z_Move: 2)
(Tool: 3 -> Z_Move: 2)

(Z Toolchange: 15 mm)
(X,Y Toolchange: 0.0000, 0.0000 mm)
(Z Start: None mm)
(Z End: 0.5 mm)
(X,Y End: None mm)
(Steps per circle: 64)
(Preprocessor Excellon: default)

(X range:    2.0320 ...  118.5165  mm)
(Y range:    1.0520 ...   90.9100  mm)

(Spindle Speed: 0 RPM)
G21
G90
G94

G01 F300.00

M5
G00 Z15.0000
T1
G00 X0.0000 Y0.0000                
M6
(MSG, Change to Tool Dia = 0.8130 ||| Total drills for tool T1 = 220)
M0
G00 Z15.0000

G01 F300.00
M03
G00 X40.6400 Y38.3900
G01 Z-1.7000
G01 Z0
G00 Z2.0000
G00 X43.1800 Y34.5800
G01 Z-1.7000
G01 Z0
G00 Z2.0000
G00 X43.1800 Y38.3900
G01 Z-1.7000
G01 Z0
G00 Z2.0000
G00 X48.2600 Y52.3600
G01 Z-1.7000
G01 Z0
G00 Z2.0000
G00 X71.1200 Y71.4100
G01 Z-1.7000
G01 Z0
G00 Z2.0000
G00 X76.2000 Y68.8700
G01 Z-1.7000
G01 Z0
G00 Z2.0000
G00 X81.2800 Y72.6800
G01 Z-1.7000
G01 Z0
G00 Z2.0000
G00 X86.3600 Y73.9500
G01 Z-1.7000
G01 Z0
G00 Z2.0000
G00 X86.3600 Y71.4100
G01 Z-1.7000
G01 Z0
G00 Z2.0000
G00 X88.9000 Y67.6000
G01 Z-1.7000
G01 Z0
G00 Z2.0000
G00 X93.9800 Y67.6000
G01 Z-1.7000
G01 Z0
G00 Z2.0000
G00 X100.3300 Y63.7900
G01 Z-1.7000
G01 Z0
G00 Z2.0000
G00 X100.3300 Y61.2500
G01 Z-1.7000
G01 Z0
G00 Z2.0000
G00 X102.8700 Y61.2500
G01 Z-1.7000
G01 Z0
G00 Z2.0000
G00 X107.9500 Y53.6300
G01 Z-1.7000
G01 Z0
G00 Z2.0000
G00 X105.4100 Y53.6300
G01 Z-1.7000
G01 Z0
G00 Z2.0000
G00 X102.8700 Y51.0900
G01 Z-1.7000
G01 Z0
G00 Z2.0000
G00 X102.8700 Y53.6300
G01 Z-1.7000
G01 Z0
G00 Z2.0000
G00 X100.3300 Y53.6300
G01 Z-1.7000
G01 Z0
G00 Z2.0000
G00 X96.5200 Y53.6300
G01 Z-1.7000
G01 Z0
G00 Z2.0000
G00 X91.4400 Y53.6300
G01 Z-1.7000
G01 Z0
G00 Z2.0000
G00 X88.9000 Y56.1700
G01 Z-1.7000
G01 Z0
G00 Z2.0000
G00 X90.1700 Y42.2000
G01 Z-1.7000
G01 Z0
G00 Z2.0000
G00 X87.6300 Y43.4700
G01 Z-1.7000
G01 Z0
G00 Z2.0000
G00 X85.0900 Y44.7400
G01 Z-1.7000
G01 Z0
G00 Z2.0000
G00 X82.5500 Y46.0100
G01 Z-1.7000
G01 Z0
G00 Z2.0000
G00 X80.0100 Y47.2800
G01 Z-1.7000
G01 Z0
G00 Z2.0000
G00 X77.4700 Y48.5500
G01 Z-1.7000
G01 Z0
G00 Z2.0000
G00 X74.9300 Y49.8200
G01 Z-1.7000
G01 Z0
G00 Z2.0000
G00 X72.3900 Y51.0900
G01 Z-1.7000
G01 Z0
G00 Z2.0000
G00 X63.5000 Y38.3900
G01 Z-1.7000
G01 Z0
G00 Z2.0000
G00 X59.6900 Y34.5800
G01 Z-1.7000
G01 Z0
G00 Z2.0000
G00 X62.2300 Y20.6100
G01 Z-1.7000
G01 Z0
G00 Z2.0000
G00 X54.6100 Y18.0700
G01 Z-1.7000
G01 Z0
G00 Z2.0000
G00 X49.5300 Y14.2600
G01 Z-1.7000
G01 Z0
G00 Z2.0000
G00 X36.8300 Y6.6400
G01 Z-1.7000
G01 Z0
G00 Z2.0000
G00 X35.5600 Y9.1800
G01 Z-1.7000
G01 Z0
G00 Z2.0000
G00 X33.0200 Y7.9100
G01 Z-1.7000
G01 Z0
G00 Z2.0000
G00 X33.0200 Y18.0700
G01 Z-1.7000
G01 Z0
G00 Z2.0000
G00 X35.5600 Y16.8000
G01 Z-1.7000
G01 Z0
G00 Z2.0000
G00 X43.1800 Y20.6100
G01 Z-1.7000
G01 Z0
G00 Z2.0000
G00 X40.6400 Y23.1500
G01 Z-1.7000
G01 Z0
G00 Z2.0000
G00 X38.1000 Y23.1500
G01 Z-1.7000
G01 Z0
G00 Z2.0000
G00 X35.5600 Y23.1500
G01 Z-1.7000
G01 Z0
G00 Z2.0000
G00 X33.0200 Y23.1500
G01 Z-1.7000
G01 Z0
G00 Z2.0000
G00 X30.4800 Y23.1500
G01 Z-1.7000
G01 Z0
G00 Z2.0000
G00 X27.9400 Y19.3400
G01 Z-1.7000
G01 Z0
G00 Z2.0000
G00 X27.9400 Y23.1500
G01 Z-1.7000
G01 Z0
G00 Z2.0000
G00 X25.4000 Y23.1500
G01 Z-1.7000
G01 Z0
G00 Z2.0000
G00 X22.8600 Y23.1500
G01 Z-1.7000
G01 Z0
G00 Z2.0000
G00 X20.3200 Y23.1500
G01 Z-1.7000
G01 Z0
G00 Z2.0000
G00 X17.7800 Y23.1500
G01 Z-1.7000
G01 Z0
G00 Z2.0000
G00 X15.2400 Y23.1500
G01 Z-1.7000
G01 Z0
G00 Z2.0000
G00 X12.7000 Y23.1500
G01 Z-1.7000
G01 Z0
G00 Z2.0000
G00 X10.1600 Y23.1500
G01 Z-1.7000
G01 Z0
G00 Z2.0000
G00 X7.6200 Y23.1500
G01 Z-1.7000
G01 Z0
G00 Z2.0000
G00 X6.3500 Y1.5600
G01 Z-1.7000
G01 Z0
G00 Z2.0000
G00 X8.8900 Y1.5600
G01 Z-1.7000
G01 Z0
G00 Z2.0000
G00 X11.4300 Y1.5600
G01 Z-1.7000
G01 Z0
G00 Z2.0000
G00 X13.9700 Y1.5600
G01 Z-1.7000
G01 Z0
G00 Z2.0000
G00 X16.5100 Y1.5600
G01 Z-1.7000
G01 Z0
G00 Z2.0000
G00 X19.0500 Y1.5600
G01 Z-1.7000
G01 Z0
G00 Z2.0000
G00 X21.5900 Y1.5600
G01 Z-1.7000
G01 Z0
G00 Z2.0000
G00 X24.1300 Y1.5600
G01 Z-1.7000
G01 Z0
G00 Z2.0000
G00 X26.6700 Y1.5600
G01 Z-1.7000
G01 Z0
G00 Z2.0000
G00 X29.2100 Y1.5600
G01 Z-1.7000
G01 Z0
G00 Z2.0000
G00 X31.7500 Y1.5600
G01 Z-1.7000
G01 Z0
G00 Z2.0000
G00 X34.2900 Y1.5600
G01 Z-1.7000
G01 Z0
G00 Z2.0000
G00 X36.8300 Y1.5600
G01 Z-1.7000
G01 Z0
G00 Z2.0000
G00 X39.3700 Y1.5600
G01 Z-1.7000
G01 Z0
G00 Z2.0000
G00 X41.9100 Y1.5600
G01 Z-1.7000
G01 Z0
G00 Z2.0000
G00 X44.4500 Y1.5600
G01 Z-1.7000
G01 Z0
G00 Z2.0000
G00 X46.9900 Y1.5600
G01 Z-1.7000
G01 Z0
G00 Z2.0000
G00 X49.5300 Y1.5600
G01 Z-1.7000
G01 Z0
G00 Z2.0000
G00 X52.0700 Y1.5600
G01 Z-1.7000
G01 Z0
G00 Z2.0000
G00 X54.6100 Y1.5600
G01 Z-1.7000
G01 Z0
G00 Z2.0000
G00 X57.1500 Y6.6400
G01 Z-1.7000
G01 Z0
G00 Z2.0000
G00 X57.1500 Y1.5600
G01 Z-1.7000
G01 Z0
G00 Z2.0000
G00 X59.6900 Y1.5600
G01 Z-1.7000
G01 Z0
G00 Z2.0000
G00 X62.2300 Y1.5600
G01 Z-1.7000
G01 Z0
G00 Z2.0000
G00 X64.7700 Y1.5600
G01 Z-1.7000
G01 Z0
G00 Z2.0000
G00 X67.3100 Y1.5600
G01 Z-1.7000
G01 Z0
G00 Z2.0000
G00 X69.8500 Y1.5600
G01 Z-1.7000
G01 Z0
G00 Z2.0000
G00 X72.3900 Y1.5600
G01 Z-1.7000
G01 Z0
G00 Z2.0000
G00 X74.9300 Y1.5600
G01 Z-1.7000
G01 Z0
G00 Z2.0000
G00 X77.4700 Y1.5600
G01 Z-1.7000
G01 Z0
G00 Z2.0000
G00 X80.0100 Y1.5600
G01 Z-1.7000
G01 Z0
G00 Z2.0000
G00 X82.5500 Y1.5600
G01 Z-1.7000
G01 Z0
G00 Z2.0000
G00 X85.0900 Y1.5600
G01 Z-1.7000
G01 Z0
G00 Z2.0000
G00 X87.6300 Y1.5600
G01 Z-1.7000
G01 Z0
G00 Z2.0000
G00 X90.1700 Y1.5600
G01 Z-1.7000
G01 Z0
G00 Z2.0000
G00 X92.7100 Y1.5600
G01 Z-1.7000
G01 Z0
G00 Z2.0000
G00 X95.2500 Y1.5600
G01 Z-1.7000
G01 Z0
G00 Z2.0000
G00 X97.7900 Y1.5600
G01 Z-1.7000
G01 Z0
G00 Z2.0000
G00 X100.3300 Y1.5600
G01 Z-1.7000
G01 Z0
G00 Z2.0000
G00 X102.8700 Y1.5600
G01 Z-1.7000
G01 Z0
G00 Z2.0000
G00 X105.4100 Y1.5600
G01 Z-1.7000
G01 Z0
G00 Z2.0000
G00 X95.2500 Y7.9100
G01 Z-1.7000
G01 Z0
G00 Z2.0000
G00 X100.3300 Y14.2600
G01 Z-1.7000
G01 Z0
G00 Z2.0000
G00 X113.0300 Y19.3400
G01 Z-1.7000
G01 Z0
G00 Z2.0000
G00 X113.0300 Y35.8500
G01 Z-1.7000
G01 Z0
G00 Z2.0000
G00 X102.8700 Y43.4700
G01 Z-1.7000
G01 Z0
G00 Z2.0000
G00 X110.4900 Y43.4700
G01 Z-1.7000
G01 Z0
G00 Z2.0000
G00 X113.0300 Y48.5500
G01 Z-1.7000
G01 Z0
G00 Z2.0000
G00 X110.4900 Y51.0900
G01 Z-1.7000
G01 Z0
G00 Z2.0000
G00 X110.4900 Y53.6300
G01 Z-1.7000
G01 Z0
G00 Z2.0000
G00 X113.0300 Y53.6300
G01 Z-1.7000
G01 Z0
G00 Z2.0000
G00 X115.5700 Y53.6300
G01 Z-1.7000
G01 Z0
G00 Z2.0000
G00 X115.5700 Y61.2500
G01 Z-1.7000
G01 Z0
G00 Z2.0000
G00 X113.0300 Y61.2500
G01 Z-1.7000
G01 Z0
G00 Z2.0000
G00 X110.4900 Y61.2500
G01 Z-1.7000
G01 Z0
G00 Z2.0000
G00 X107.9500 Y61.2500
G01 Z-1.7000
G01 Z0
G00 Z2.0000
G00 X105.4100 Y61.2500
G01 Z-1.7000
G01 Z0
G00 Z2.0000
G00 X105.4100 Y63.7900
G01 Z-1.7000
G01 Z0
G00 Z2.0000
G00 X107.9500 Y63.7900
G01 Z-1.7000
G01 Z0
G00 Z2.0000
G00 X107.9500 Y71.4100
G01 Z-1.7000
G01 Z0
G00 Z2.0000
G00 X105.4100 Y77.7600
G01 Z-1.7000
G01 Z0
G00 Z2.0000
G00 X110.4900 Y77.8870
G01 Z-1.7000
G01 Z0
G00 Z2.0000
G00 X115.5700 Y77.7600
G01 Z-1.7000
G01 Z0
G00 Z2.0000
G00 X118.1100 Y77.7600
G01 Z-1.7000
G01 Z0
G00 Z2.0000
G00 X118.1100 Y82.8400
G01 Z-1.7000
G01 Z0
G00 Z2.0000
G00 X115.5700 Y82.8400
G01 Z-1.7000
G01 Z0
G00 Z2.0000
G00 X110.4900 Y82.7130
G01 Z-1.7000
G01 Z0
G00 Z2.0000
G00 X105.4100 Y82.8400
G01 Z-1.7000
G01 Z0
G00 Z2.0000
G00 X100.3300 Y82.8400
G01 Z-1.7000
G01 Z0
G00 Z2.0000
G00 X100.3300 Y77.7600
G01 Z-1.7000
G01 Z0
G00 Z2.0000
G00 X100.3300 Y71.4100
G01 Z-1.7000
G01 Z0
G00 Z2.0000
G00 X93.9800 Y71.4100
G01 Z-1.7000
G01 Z0
G00 Z2.0000
G00 X93.9800 Y73.9500
G01 Z-1.7000
G01 Z0
G00 Z2.0000
G00 X93.9800 Y76.4900
G01 Z-1.7000
G01 Z0
G00 Z2.0000
G00 X93.9800 Y79.0300
G01 Z-1.7000
G01 Z0
G00 Z2.0000
G00 X96.5200 Y81.5700
G01 Z-1.7000
G01 Z0
G00 Z2.0000
G00 X93.9800 Y81.5700
G01 Z-1.7000
G01 Z0
G00 Z2.0000
G00 X93.9800 Y84.1100
G01 Z-1.7000
G01 Z0
G00 Z2.0000
G00 X93.9800 Y86.6500
G01 Z-1.7000
G01 Z0
G00 Z2.0000
G00 X86.3600 Y86.6500
G01 Z-1.7000
G01 Z0
G00 Z2.0000
G00 X86.3600 Y84.1100
G01 Z-1.7000
G01 Z0
G00 Z2.0000
G00 X86.3600 Y81.5700
G01 Z-1.7000
G01 Z0
G00 Z2.0000
G00 X86.3600 Y79.0300
G01 Z-1.7000
G01 Z0
G00 Z2.0000
G00 X86.3600 Y76.4900
G01 Z-1.7000
G01 Z0
G00 Z2.0000
G00 X68.5800 Y76.4900
G01 Z-1.7000
G01 Z0
G00 Z2.0000
G00 X66.0400 Y76.4900
G01 Z-1.7000
G01 Z0
G00 Z2.0000
G00 X63.5000 Y76.4900
G01 Z-1.7000
G01 Z0
G00 Z2.0000
G00 X60.9600 Y76.4900
G01 Z-1.7000
G01 Z0
G00 Z2.0000
G00 X68.5800 Y84.1100
G01 Z-1.7000
G01 Z0
G00 Z2.0000
G00 X66.0400 Y84.1100
G01 Z-1.7000
G01 Z0
G00 Z2.0000
G00 X63.5000 Y84.1100
G01 Z-1.7000
G01 Z0
G00 Z2.0000
G00 X60.9600 Y89.1900
G01 Z-1.7000
G01 Z0
G00 Z2.0000
G00 X60.9600 Y84.1100
G01 Z-1.7000
G01 Z0
G00 Z2.0000
G00 X58.4200 Y84.1100
G01 Z-1.7000
G01 Z0
G00 Z2.0000
G00 X55.8800 Y84.1100
G01 Z-1.7000
G01 Z0
G00 Z2.0000
G00 X53.3400 Y84.1100
G01 Z-1.7000
G01 Z0
G00 Z2.0000
G00 X58.4200 Y76.4900
G01 Z-1.7000
G01 Z0
G00 Z2.0000
G00 X55.8800 Y72.6800
G01 Z-1.7000
G01 Z0
G00 Z2.0000
G00 X55.8800 Y76.4900
G01 Z-1.7000
G01 Z0
G00 Z2.0000
G00 X53.3400 Y76.4900
G01 Z-1.7000
G01 Z0
G00 Z2.0000
G00 X49.5300 Y76.4900
G01 Z-1.7000
G01 Z0
G00 Z2.0000
G00 X49.5300 Y81.5700
G01 Z-1.7000
G01 Z0
G00 Z2.0000
G00 X49.5300 Y85.3800
G01 Z-1.7000
G01 Z0
G00 Z2.0000
G00 X45.7200 Y82.8400
G01 Z-1.7000
G01 Z0
G00 Z2.0000
G00 X45.7200 Y90.4600
G01 Z-1.7000
G01 Z0
G00 Z2.0000
G00 X31.7500 Y89.1900
G01 Z-1.7000
G01 Z0
G00 Z2.0000
G00 X31.7500 Y85.3800
G01 Z-1.7000
G01 Z0
G00 Z2.0000
G00 X16.5100 Y72.6800
G01 Z-1.7000
G01 Z0
G00 Z2.0000
G00 X13.9700 Y72.6800
G01 Z-1.7000
G01 Z0
G00 Z2.0000
G00 X10.1600 Y73.9500
G01 Z-1.7000
G01 Z0
G00 Z2.0000
G00 X2.5400 Y76.4900
G01 Z-1.7000
G01 Z0
G00 Z2.0000
G00 X2.5400 Y73.9500
G01 Z-1.7000
G01 Z0
G00 Z2.0000
G00 X2.5400 Y71.4100
G01 Z-1.7000
G01 Z0
G00 Z2.0000
G00 X2.5400 Y68.8700
G01 Z-1.7000
G01 Z0
G00 Z2.0000
G00 X2.5400 Y66.3300
G01 Z-1.7000
G01 Z0
G00 Z2.0000
G00 X2.5400 Y63.7900
G01 Z-1.7000
G01 Z0
G00 Z2.0000
G00 X11.4300 Y68.8700
G01 Z-1.7000
G01 Z0
G00 Z2.0000
G00 X11.4300 Y66.3300
G01 Z-1.7000
G01 Z0
G00 Z2.0000
G00 X19.0500 Y66.3300
G01 Z-1.7000
G01 Z0
G00 Z2.0000
G00 X19.0500 Y68.8700
G01 Z-1.7000
G01 Z0
G00 Z2.0000
G00 X22.8600 Y66.3300
G01 Z-1.7000
G01 Z0
G00 Z2.0000
G00 X22.8600 Y56.1700
G01 Z-1.7000
G01 Z0
G00 Z2.0000
G00 X25.4000 Y56.1700
G01 Z-1.7000
G01 Z0
G00 Z2.0000
G00 X31.7500 Y58.7100
G01 Z-1.7000
G01 Z0
G00 Z2.0000
G00 X31.7500 Y61.2500
G01 Z-1.7000
G01 Z0
G00 Z2.0000
G00 X31.7500 Y63.7900
G01 Z-1.7000
G01 Z0
G00 Z2.0000
G00 X31.7500 Y66.3300
G01 Z-1.7000
G01 Z0
G00 Z2.0000
G00 X31.7500 Y68.8700
G01 Z-1.7000
G01 Z0
G00 Z2.0000
G00 X31.7500 Y71.4100
G01 Z-1.7000
G01 Z0
G00 Z2.0000
G00 X31.7500 Y73.9500
G01 Z-1.7000
G01 Z0
G00 Z2.0000
G00 X39.3700 Y73.9500
G01 Z-1.7000
G01 Z0
G00 Z2.0000
G00 X39.3700 Y71.4100
G01 Z-1.7000
G01 Z0
G00 Z2.0000
G00 X43.1800 Y71.4100
G01 Z-1.7000
G01 Z0
G00 Z2.0000
G00 X43.1800 Y68.8700
G01 Z-1.7000
G01 Z0
G00 Z2.0000
G00 X39.3700 Y68.8700
G01 Z-1.7000
G01 Z0
G00 Z2.0000
G00 X39.3700 Y66.3300
G01 Z-1.7000
G01 Z0
G00 Z2.0000
G00 X39.3700 Y63.7900
G01 Z-1.7000
G01 Z0
G00 Z2.0000
G00 X39.3700 Y61.2500
G01 Z-1.7000
G01 Z0
G00 Z2.0000
G00 X39.3700 Y58.7100
G01 Z-1.7000
G01 Z0
G00 Z2.0000
G00 X41.9100 Y52.3600
G01 Z-1.7000
G01 Z0
G00 Z2.0000
G00 X39.3700 Y54.9000
G01 Z-1.7000
G01 Z0
G00 Z2.0000
G00 X34.2900 Y54.9000
G01 Z-1.7000
G01 Z0
G00 Z2.0000
G00 X33.0200 Y42.2000
G01 Z-1.7000
G01 Z0
G00 Z2.0000
G00 X30.4800 Y43.4700
G01 Z-1.7000
G01 Z0
G00 Z2.0000
G00 X27.9400 Y44.7400
G01 Z-1.7000
G01 Z0
G00 Z2.0000
G00 X25.4000 Y46.0100
G01 Z-1.7000
G01 Z0
G00 Z2.0000
G00 X22.8600 Y47.2800
G01 Z-1.7000
G01 Z0
G00 Z2.0000
G00 X20.3200 Y48.5500
G01 Z-1.7000
G01 Z0
G00 Z2.0000
G00 X17.7800 Y49.8200
G01 Z-1.7000
G01 Z0
G00 Z2.0000
G00 X15.2400 Y51.0900
G01 Z-1.7000
G01 Z0
G00 Z2.0000
G00 X10.1600 Y51.0900
G01 Z-1.7000
G01 Z0
G00 Z2.0000
G00 X7.6200 Y38.3900
G01 Z-1.7000
G01 Z0
G00 Z2.0000
G00 X10.1600 Y38.3900
G01 Z-1.7000
G01 Z0
G00 Z2.0000
G00 X12.7000 Y38.3900
G01 Z-1.7000
G01 Z0
G00 Z2.0000
G00 X15.2400 Y38.3900
G01 Z-1.7000
G01 Z0
G00 Z2.0000
G00 X17.7800 Y38.3900
G01 Z-1.7000
G01 Z0
G00 Z2.0000
G00 X20.3200 Y38.3900
G01 Z-1.7000
G01 Z0
G00 Z2.0000
G00 X22.8600 Y38.3900
G01 Z-1.7000
G01 Z0
G00 Z2.0000
G00 X25.4000 Y38.3900
G01 Z-1.7000
G01 Z0
G00 Z2.0000
G00 X27.9400 Y38.3900
G01 Z-1.7000
G01 Z0
G00 Z2.0000
G00 X30.4800 Y38.3900
G01 Z-1.7000
G01 Z0
G00 Z2.0000
G00 X33.0200 Y38.3900
G01 Z-1.7000
G01 Z0
G00 Z2.0000
G00 X35.5600 Y38.3900
G01 Z-1.7000
G01 Z0
G00 Z2.0000
G00 X38.1000 Y38.3900
G01 Z-1.7000
G01 Z0
G00 Z2.0000
M05
G00 Z0.50


