(G-CODE GENERATED BY FLATCAM v8.994 - www.flatcam.org - Version Date: 2020/11/7)

(Name: copper_bottom.gbr_iso_combined_cnc)
(Type: G-code from Geometry)
(Units: MM)

(Created on sábado, 26 fevereiro 2022 at 17:38)

(This preprocessor is the default preprocessor used by FlatCAM.)
(It is made to work with MACH3 compatible motion controllers.)

(TOOL DIAMETER: 0.2268 mm)
(Feedrate_XY: 120.0 mm/min)
(Feedrate_Z: 60.0 mm/min)
(Feedrate rapids 1500.0 mm/min)

(Z_Cut: -0.05 mm)
(Z_Move: 3.0 mm)
(Z Start: None mm)
(Z End: 15.0 mm)
(X,Y End: None mm)
(Steps per circle: 64)
(Preprocessor Geometry: default)

(X range:    0.7416 ...  126.2244  mm)
(Y range:    0.6856 ...   84.0301  mm)

(Spindle Speed: 1000.0 RPM)
G21
G90
G94

G01 F120.00

M5
G00 Z15.0000
G00 X0.0000 Y0.0000
T1
M6    
(MSG, Change to Tool Dia = 0.2268)
M0
G00 Z15.0000

M03 S1000.0
G01 F120.00
G00 X16.3963 Y5.2448
G01 F60.00
G01 Z-0.0500
G01 F120.00
G01 X16.3224 Y5.1776
G01 X16.2457 Y5.0931
G01 X16.1777 Y5.0014
G01 X16.1190 Y4.9034
G01 X16.0702 Y4.8002
G01 X16.0317 Y4.6927
G01 X16.0040 Y4.5820
G01 X15.9872 Y4.4690
G01 X15.9816 Y4.3550
G01 X15.9872 Y4.2410
G01 X16.0040 Y4.1280
G01 X16.0317 Y4.0173
G01 X16.0702 Y3.9098
G01 X16.1190 Y3.8066
G01 X16.1777 Y3.7086
G01 X16.2457 Y3.6169
G01 X16.3224 Y3.5324
G01 X16.4069 Y3.4557
G01 X16.4986 Y3.3877
G01 X16.5966 Y3.3290
G01 X16.6998 Y3.2802
G01 X16.8073 Y3.2417
G01 X16.9180 Y3.2140
G01 X17.0310 Y3.1972
G01 X17.1450 Y3.1916
G01 X17.2590 Y3.1972
G01 X17.3720 Y3.2140
G01 X17.4827 Y3.2417
G01 X17.5902 Y3.2802
G01 X17.6934 Y3.3290
G01 X17.7914 Y3.3877
G01 X17.8831 Y3.4557
G01 X17.9676 Y3.5324
G01 X18.0443 Y3.6169
G01 X18.1123 Y3.7086
G01 X18.1683 Y3.8017
G01 X18.1735 Y3.8115
G01 X18.2176 Y3.9047
G01 X18.2218 Y3.9150
G01 X18.2583 Y4.0173
G01 X18.2848 Y4.1226
G01 X18.2870 Y4.1335
G01 X18.3028 Y4.2410
G01 X18.3084 Y4.3550
G01 X18.3028 Y4.4690
G01 X18.2860 Y4.5820
G01 X18.2583 Y4.6927
G01 X18.2218 Y4.7950
G01 X18.2176 Y4.8053
G01 X18.1710 Y4.9034
G01 X18.1153 Y4.9966
G01 X18.1091 Y5.0059
G01 X18.0477 Y5.0887
G01 X18.0407 Y5.0973
G01 X17.9676 Y5.1776
G01 X17.8937 Y5.2448
G01 X17.8937 Y69.6463
G01 X61.9752 Y69.6463
G01 X62.0424 Y69.5724
G01 X62.1227 Y69.4993
G01 X62.1313 Y69.4923
G01 X62.2141 Y69.4309
G01 X62.2234 Y69.4247
G01 X62.3166 Y69.3690
G01 X62.4147 Y69.3224
G01 X62.4250 Y69.3182
G01 X62.5273 Y69.2817
G01 X62.6380 Y69.2540
G01 X62.7510 Y69.2372
G01 X62.8594 Y69.2317
G01 X62.8706 Y69.2317
G01 X62.9790 Y69.2372
G01 X63.0865 Y69.2530
G01 X63.0974 Y69.2552
G01 X63.1974 Y69.2802
G01 X63.2080 Y69.2834
G01 X63.3102 Y69.3202
G01 X63.4134 Y69.3690
G01 X63.5114 Y69.4277
G01 X63.5987 Y69.4923
G01 X63.6073 Y69.4993
G01 X63.6836 Y69.5685
G01 X63.6915 Y69.5764
G01 X63.7643 Y69.6569
G01 X63.8323 Y69.7486
G01 X63.8883 Y69.8417
G01 X63.8935 Y69.8515
G01 X63.9398 Y69.9498
G01 X63.9783 Y70.0573
G01 X64.0048 Y70.1626
G01 X64.0070 Y70.1735
G01 X64.0228 Y70.2810
G01 X64.0284 Y70.3950
G01 X64.0228 Y70.5090
G01 X64.0070 Y70.6165
G01 X64.0048 Y70.6274
G01 X63.9798 Y70.7274
G01 X63.9766 Y70.7380
G01 X63.9398 Y70.8402
G01 X63.8910 Y70.9434
G01 X63.8323 Y71.0414
G01 X63.7677 Y71.1287
G01 X63.7607 Y71.1373
G01 X63.6915 Y71.2136
G01 X63.6836 Y71.2215
G01 X63.6031 Y71.2943
G01 X63.5136 Y71.3608
G01 X63.5066 Y71.3653
G01 X63.4134 Y71.4210
G01 X63.3102 Y71.4698
G01 X63.2027 Y71.5083
G01 X63.0974 Y71.5348
G01 X63.0865 Y71.5370
G01 X62.9790 Y71.5528
G01 X62.8706 Y71.5583
G01 X62.8594 Y71.5583
G01 X62.7565 Y71.5532
G01 X62.7454 Y71.5521
G01 X62.6380 Y71.5360
G01 X62.5273 Y71.5083
G01 X62.4198 Y71.4698
G01 X62.3166 Y71.4210
G01 X62.2186 Y71.3623
G01 X62.1269 Y71.2943
G01 X62.0424 Y71.2176
G01 X61.9752 Y71.1437
G01 X17.1450 Y71.1437
G01 X17.0716 Y71.1401
G01 X17.0044 Y71.1303
G01 X16.9935 Y71.1281
G01 X16.9277 Y71.1115
G01 X16.8637 Y71.0887
G01 X16.8534 Y71.0845
G01 X16.7921 Y71.0553
G01 X16.7290 Y71.0175
G01 X16.6744 Y70.9772
G01 X16.6658 Y70.9701
G01 X16.6156 Y70.9244
G01 X16.5699 Y70.8742
G01 X16.5628 Y70.8656
G01 X16.5240 Y70.8133
G01 X16.5195 Y70.8063
G01 X16.4874 Y70.7528
G01 X16.4822 Y70.7430
G01 X16.4533 Y70.6815
G01 X16.4285 Y70.6123
G01 X16.4107 Y70.5411
G01 X16.4006 Y70.4739
G01 X16.3995 Y70.4628
G01 X16.3963 Y70.3950
G01 X16.3963 Y5.2448
G00 Z3.0000
G00 X19.1556 Y8.9056
G01 F60.00
G01 Z-0.0500
G01 F120.00
G01 X25.2863 Y2.7749
G01 X25.2863 Y2.6590
G01 X25.2364 Y2.6136
G01 X25.1638 Y2.5336
G01 X25.1585 Y2.5271
G01 X25.0975 Y2.4448
G01 X25.0930 Y2.4378
G01 X25.0390 Y2.3474
G01 X24.9938 Y2.2523
G01 X24.9905 Y2.2446
G01 X24.9542 Y2.1428
G01 X24.9273 Y2.0353
G01 X24.9110 Y1.9257
G01 X24.9056 Y1.8178
G01 X24.9057 Y1.8094
G01 X24.9110 Y1.7043
G01 X24.9273 Y1.5947
G01 X24.9542 Y1.4872
G01 X24.9916 Y1.3828
G01 X25.0390 Y1.2826
G01 X25.0959 Y1.1875
G01 X25.1620 Y1.0985
G01 X25.2344 Y1.0184
G01 X25.2404 Y1.0126
G01 X25.3185 Y0.9420
G01 X25.4075 Y0.8759
G01 X25.5026 Y0.8190
G01 X25.6028 Y0.7716
G01 X25.7072 Y0.7342
G01 X25.8147 Y0.7073
G01 X25.9243 Y0.6910
G01 X26.0350 Y0.6856
G01 X26.1457 Y0.6910
G01 X26.2553 Y0.7073
G01 X26.3628 Y0.7342
G01 X26.4672 Y0.7716
G01 X26.5674 Y0.8190
G01 X26.6625 Y0.8759
G01 X26.7515 Y0.9420
G01 X26.8316 Y1.0144
G01 X26.8374 Y1.0204
G01 X26.9080 Y1.0985
G01 X26.9741 Y1.1875
G01 X27.0310 Y1.2826
G01 X27.0762 Y1.3777
G01 X27.0804 Y1.3880
G01 X27.1158 Y1.4872
G01 X27.1415 Y1.5892
G01 X27.1437 Y1.6001
G01 X27.1583 Y1.6988
G01 X27.1594 Y1.7099
G01 X27.1644 Y1.8150
G01 X27.1592 Y1.9229
G01 X27.1583 Y1.9312
G01 X27.1427 Y2.0353
G01 X27.1158 Y2.1428
G01 X27.0784 Y2.2472
G01 X27.0323 Y2.3449
G01 X27.0283 Y2.3522
G01 X26.9741 Y2.4425
G01 X26.9098 Y2.5293
G01 X26.9044 Y2.5357
G01 X26.8356 Y2.6116
G01 X26.8296 Y2.6174
G01 X26.7837 Y2.6590
G01 X26.7837 Y3.0878
G01 X26.7801 Y3.1584
G01 X26.7703 Y3.2256
G01 X26.7681 Y3.2365
G01 X26.7515 Y3.3023
G01 X26.7267 Y3.3715
G01 X26.6953 Y3.4379
G01 X26.6605 Y3.4963
G01 X26.6543 Y3.5055
G01 X26.6138 Y3.5600
G01 X26.5644 Y3.6144
G01 X20.4337 Y9.7451
G01 X20.4337 Y62.0263
G01 X86.2463 Y62.0263
G01 X86.2463 Y55.5028
G01 X86.2001 Y55.4517
G01 X86.1400 Y55.3707
G01 X86.0882 Y55.2841
G01 X86.0461 Y55.1955
G01 X86.0430 Y55.1877
G01 X86.0128 Y55.1032
G01 X86.0095 Y55.0925
G01 X85.9865 Y55.0000
G01 X85.9717 Y54.9002
G01 X85.9667 Y54.7994
G01 X85.9667 Y52.9706
G01 X85.9715 Y52.8726
G01 X85.9724 Y52.8643
G01 X85.9865 Y52.7700
G01 X86.0110 Y52.6721
G01 X86.0450 Y52.5771
G01 X86.0857 Y52.4909
G01 X86.0909 Y52.4810
G01 X86.1371 Y52.4040
G01 X86.1432 Y52.3948
G01 X86.2001 Y52.3183
G01 X86.2641 Y52.2475
G01 X86.2719 Y52.2397
G01 X86.3427 Y52.1757
G01 X86.4237 Y52.1156
G01 X86.5103 Y52.0638
G01 X86.6015 Y52.0206
G01 X86.6965 Y51.9866
G01 X86.7944 Y51.9621
G01 X86.8942 Y51.9473
G01 X86.9894 Y51.9425
G01 X86.9978 Y51.9424
G01 X87.0958 Y51.9473
G01 X87.1956 Y51.9621
G01 X87.2935 Y51.9866
G01 X87.3885 Y52.0206
G01 X87.4797 Y52.0638
G01 X87.5663 Y52.1156
G01 X87.6473 Y52.1757
G01 X87.7181 Y52.2397
G01 X87.7259 Y52.2475
G01 X87.7899 Y52.3183
G01 X87.8468 Y52.3948
G01 X87.8529 Y52.4040
G01 X87.8991 Y52.4810
G01 X87.9043 Y52.4909
G01 X87.9450 Y52.5771
G01 X87.9790 Y52.6721
G01 X88.0035 Y52.7700
G01 X88.0176 Y52.8643
G01 X88.0187 Y52.8754
G01 X88.0233 Y52.9706
G01 X88.0233 Y54.7994
G01 X88.0183 Y54.9002
G01 X88.0035 Y55.0000
G01 X87.9805 Y55.0925
G01 X87.9772 Y55.1032
G01 X87.9470 Y55.1877
G01 X87.9439 Y55.1955
G01 X87.9018 Y55.2841
G01 X87.8500 Y55.3707
G01 X87.7899 Y55.4517
G01 X87.7437 Y55.5028
G01 X87.7437 Y62.7778
G01 X87.7401 Y62.8484
G01 X87.7303 Y62.9156
G01 X87.7281 Y62.9265
G01 X87.7130 Y62.9870
G01 X87.7097 Y62.9976
G01 X87.6867 Y63.0615
G01 X87.6553 Y63.1279
G01 X87.6175 Y63.1910
G01 X87.5755 Y63.2478
G01 X87.5701 Y63.2542
G01 X87.5244 Y63.3044
G01 X87.4700 Y63.3538
G01 X87.4110 Y63.3975
G01 X87.3528 Y63.4326
G01 X87.3430 Y63.4378
G01 X87.2866 Y63.4645
G01 X87.2763 Y63.4687
G01 X87.2123 Y63.4915
G01 X87.1465 Y63.5081
G01 X87.1356 Y63.5103
G01 X87.0684 Y63.5201
G01 X86.9950 Y63.5237
G01 X19.6850 Y63.5237
G01 X19.6116 Y63.5201
G01 X19.5444 Y63.5103
G01 X19.5335 Y63.5081
G01 X19.4730 Y63.4930
G01 X19.4624 Y63.4897
G01 X19.3985 Y63.4667
G01 X19.3321 Y63.4353
G01 X19.2690 Y63.3975
G01 X19.2122 Y63.3555
G01 X19.2058 Y63.3501
G01 X19.1556 Y63.3044
G01 X19.1062 Y63.2500
G01 X19.0625 Y63.1910
G01 X19.0274 Y63.1328
G01 X19.0222 Y63.1230
G01 X18.9955 Y63.0666
G01 X18.9913 Y63.0563
G01 X18.9685 Y62.9923
G01 X18.9519 Y62.9265
G01 X18.9497 Y62.9156
G01 X18.9399 Y62.8484
G01 X18.9363 Y62.7750
G01 X18.9363 Y9.4350
G01 X18.9399 Y9.3616
G01 X18.9507 Y9.2889
G01 X18.9685 Y9.2177
G01 X18.9933 Y9.1485
G01 X19.0247 Y9.0821
G01 X19.0625 Y9.0190
G01 X19.1062 Y8.9600
G01 X19.1556 Y8.9056
G00 Z3.0000
G00 X21.6956 Y10.1756
G01 F60.00
G01 Z-0.0500
G01 F120.00
G01 X27.8263 Y4.0449
G01 X27.8263 Y2.6590
G01 X27.7764 Y2.6136
G01 X27.7038 Y2.5336
G01 X27.6985 Y2.5271
G01 X27.6375 Y2.4448
G01 X27.6330 Y2.4378
G01 X27.5790 Y2.3474
G01 X27.5327 Y2.2498
G01 X27.5296 Y2.2420
G01 X27.4942 Y2.1428
G01 X27.4673 Y2.0353
G01 X27.4510 Y1.9257
G01 X27.4457 Y1.8206
G01 X27.4457 Y1.8094
G01 X27.4506 Y1.7099
G01 X27.4517 Y1.6988
G01 X27.4673 Y1.5947
G01 X27.4927 Y1.4925
G01 X27.4960 Y1.4819
G01 X27.5316 Y1.3828
G01 X27.5790 Y1.2826
G01 X27.6359 Y1.1875
G01 X27.7020 Y1.0985
G01 X27.7764 Y1.0164
G01 X27.8585 Y0.9420
G01 X27.9475 Y0.8759
G01 X28.0426 Y0.8190
G01 X28.1428 Y0.7716
G01 X28.2472 Y0.7342
G01 X28.3547 Y0.7073
G01 X28.4643 Y0.6910
G01 X28.5750 Y0.6856
G01 X28.6857 Y0.6910
G01 X28.7953 Y0.7073
G01 X28.9028 Y0.7342
G01 X29.0072 Y0.7716
G01 X29.1074 Y0.8190
G01 X29.2025 Y0.8759
G01 X29.2915 Y0.9420
G01 X29.3736 Y1.0164
G01 X29.4444 Y1.0943
G01 X29.4515 Y1.1029
G01 X29.5141 Y1.1875
G01 X29.5683 Y1.2778
G01 X29.5735 Y1.2876
G01 X29.6162 Y1.3777
G01 X29.6204 Y1.3880
G01 X29.6558 Y1.4872
G01 X29.6827 Y1.5947
G01 X29.6990 Y1.7043
G01 X29.7043 Y1.8094
G01 X29.7044 Y1.8178
G01 X29.6990 Y1.9257
G01 X29.6827 Y2.0353
G01 X29.6558 Y2.1428
G01 X29.6204 Y2.2420
G01 X29.6173 Y2.2498
G01 X29.5710 Y2.3474
G01 X29.5170 Y2.4378
G01 X29.5125 Y2.4448
G01 X29.4515 Y2.5271
G01 X29.4462 Y2.5336
G01 X29.3736 Y2.6136
G01 X29.3237 Y2.6590
G01 X29.3237 Y4.3550
G01 X29.3205 Y4.4228
G01 X29.3194 Y4.4339
G01 X29.3093 Y4.5011
G01 X29.2930 Y4.5670
G01 X29.2897 Y4.5776
G01 X29.2667 Y4.6415
G01 X29.2378 Y4.7030
G01 X29.2326 Y4.7128
G01 X29.1991 Y4.7686
G01 X29.1943 Y4.7755
G01 X29.1538 Y4.8300
G01 X29.1044 Y4.8844
G01 X22.9737 Y11.0151
G01 X22.9737 Y59.4863
G01 X54.4963 Y59.4863
G01 X54.4963 Y54.9133
G01 X54.3278 Y54.9132
G01 X54.2354 Y54.9087
G01 X54.2243 Y54.9076
G01 X54.1300 Y54.8935
G01 X54.0375 Y54.8705
G01 X54.0268 Y54.8672
G01 X53.9397 Y54.8360
G01 X53.9320 Y54.8327
G01 X53.8459 Y54.7918
G01 X53.7640 Y54.7429
G01 X53.7548 Y54.7368
G01 X53.6783 Y54.6799
G01 X53.6075 Y54.6159
G01 X53.5997 Y54.6081
G01 X53.5375 Y54.5394
G01 X53.5323 Y54.5329
G01 X53.4756 Y54.4563
G01 X53.4265 Y54.3746
G01 X53.4213 Y54.3647
G01 X53.3806 Y54.2785
G01 X53.3484 Y54.1888
G01 X53.3451 Y54.1781
G01 X53.3221 Y54.0856
G01 X53.3073 Y53.9858
G01 X53.3025 Y53.8906
G01 X53.3025 Y53.8794
G01 X53.3073 Y53.7842
G01 X53.3211 Y53.6899
G01 X53.3233 Y53.6790
G01 X53.3458 Y53.5892
G01 X53.3484 Y53.5812
G01 X53.3786 Y53.4967
G01 X53.3829 Y53.4864
G01 X53.4238 Y53.4003
G01 X53.4727 Y53.3184
G01 X53.4788 Y53.3092
G01 X53.5357 Y53.2327
G01 X53.5997 Y53.1619
G01 X53.6075 Y53.1541
G01 X53.6783 Y53.0901
G01 X53.7548 Y53.0332
G01 X53.7640 Y53.0271
G01 X53.8459 Y52.9782
G01 X53.9320 Y52.9373
G01 X53.9423 Y52.9330
G01 X54.0321 Y52.9010
G01 X54.1246 Y52.8777
G01 X54.1355 Y52.8755
G01 X54.2298 Y52.8617
G01 X54.3306 Y52.8567
G01 X56.1594 Y52.8567
G01 X56.2574 Y52.8615
G01 X56.2657 Y52.8624
G01 X56.3600 Y52.8765
G01 X56.4579 Y52.9010
G01 X56.5529 Y52.9350
G01 X56.6441 Y52.9782
G01 X56.7307 Y53.0300
G01 X56.8117 Y53.0901
G01 X56.8865 Y53.1579
G01 X56.9543 Y53.2327
G01 X57.0144 Y53.3137
G01 X57.0662 Y53.4003
G01 X57.1094 Y53.4915
G01 X57.1434 Y53.5865
G01 X57.1679 Y53.6844
G01 X57.1827 Y53.7842
G01 X57.1877 Y53.8850
G01 X57.1829 Y53.9830
G01 X57.1820 Y53.9913
G01 X57.1679 Y54.0856
G01 X57.1434 Y54.1835
G01 X57.1094 Y54.2785
G01 X57.0662 Y54.3697
G01 X57.0144 Y54.4563
G01 X56.9543 Y54.5373
G01 X56.8865 Y54.6121
G01 X56.8159 Y54.6762
G01 X56.8095 Y54.6816
G01 X56.7307 Y54.7400
G01 X56.6441 Y54.7918
G01 X56.5529 Y54.8350
G01 X56.4632 Y54.8672
G01 X56.4552 Y54.8698
G01 X56.3600 Y54.8935
G01 X56.2602 Y54.9083
G01 X56.1622 Y54.9132
G01 X55.9937 Y54.9133
G01 X55.9937 Y60.2350
G01 X55.9905 Y60.3028
G01 X55.9894 Y60.3139
G01 X55.9793 Y60.3811
G01 X55.9615 Y60.4523
G01 X55.9367 Y60.5215
G01 X55.9078 Y60.5830
G01 X55.9026 Y60.5928
G01 X55.8705 Y60.6463
G01 X55.8643 Y60.6555
G01 X55.8238 Y60.7100
G01 X55.7783 Y60.7604
G01 X55.7704 Y60.7683
G01 X55.7200 Y60.8138
G01 X55.6610 Y60.8575
G01 X55.5979 Y60.8953
G01 X55.5366 Y60.9245
G01 X55.5263 Y60.9287
G01 X55.4623 Y60.9515
G01 X55.3911 Y60.9693
G01 X55.3239 Y60.9794
G01 X55.3128 Y60.9805
G01 X55.2450 Y60.9837
G01 X22.2250 Y60.9837
G01 X22.1516 Y60.9801
G01 X22.0844 Y60.9703
G01 X22.0735 Y60.9681
G01 X22.0077 Y60.9515
G01 X21.9437 Y60.9287
G01 X21.9334 Y60.9245
G01 X21.8721 Y60.8953
G01 X21.8090 Y60.8575
G01 X21.7544 Y60.8172
G01 X21.7458 Y60.8101
G01 X21.6956 Y60.7644
G01 X21.6499 Y60.7142
G01 X21.6428 Y60.7056
G01 X21.6025 Y60.6510
G01 X21.5647 Y60.5879
G01 X21.5355 Y60.5266
G01 X21.5313 Y60.5163
G01 X21.5085 Y60.4523
G01 X21.4907 Y60.3811
G01 X21.4806 Y60.3139
G01 X21.4795 Y60.3028
G01 X21.4763 Y60.2350
G01 X21.4763 Y10.7050
G01 X21.4799 Y10.6316
G01 X21.4907 Y10.5589
G01 X21.5085 Y10.4877
G01 X21.5333 Y10.4185
G01 X21.5647 Y10.3521
G01 X21.6025 Y10.2890
G01 X21.6462 Y10.2300
G01 X21.6956 Y10.1756
G00 Z3.0000
G00 X24.2356 Y11.4456
G01 F60.00
G01 Z-0.0500
G01 F120.00
G01 X30.3663 Y5.3149
G01 X30.3663 Y2.6590
G01 X30.3164 Y2.6136
G01 X30.2438 Y2.5336
G01 X30.2385 Y2.5271
G01 X30.1791 Y2.4470
G01 X30.1744 Y2.4401
G01 X30.1190 Y2.3474
G01 X30.0738 Y2.2523
G01 X30.0696 Y2.2420
G01 X30.0360 Y2.1481
G01 X30.0335 Y2.1402
G01 X30.0073 Y2.0353
G01 X29.9917 Y1.9312
G01 X29.9906 Y1.9201
G01 X29.9856 Y1.8150
G01 X29.9906 Y1.7099
G01 X29.9917 Y1.6988
G01 X30.0073 Y1.5947
G01 X30.0342 Y1.4872
G01 X30.0716 Y1.3828
G01 X30.1165 Y1.2876
G01 X30.1217 Y1.2778
G01 X30.1759 Y1.1875
G01 X30.2385 Y1.1029
G01 X30.2456 Y1.0943
G01 X30.3164 Y1.0164
G01 X30.3985 Y0.9420
G01 X30.4830 Y0.8791
G01 X30.4922 Y0.8730
G01 X30.5778 Y0.8217
G01 X30.5876 Y0.8165
G01 X30.6828 Y0.7716
G01 X30.7819 Y0.7360
G01 X30.7925 Y0.7327
G01 X30.8947 Y0.7073
G01 X31.0043 Y0.6910
G01 X31.1150 Y0.6856
G01 X31.2201 Y0.6906
G01 X31.2312 Y0.6917
G01 X31.3353 Y0.7073
G01 X31.4375 Y0.7327
G01 X31.4481 Y0.7360
G01 X31.5420 Y0.7696
G01 X31.5523 Y0.7738
G01 X31.6474 Y0.8190
G01 X31.7378 Y0.8730
G01 X31.7448 Y0.8775
G01 X31.8271 Y0.9385
G01 X31.8357 Y0.9456
G01 X31.9136 Y1.0164
G01 X31.9844 Y1.0943
G01 X31.9915 Y1.1029
G01 X32.0541 Y1.1875
G01 X32.1110 Y1.2826
G01 X32.1584 Y1.3828
G01 X32.1940 Y1.4819
G01 X32.1973 Y1.4925
G01 X32.2227 Y1.5947
G01 X32.2383 Y1.6988
G01 X32.2394 Y1.7099
G01 X32.2444 Y1.8150
G01 X32.2390 Y1.9257
G01 X32.2227 Y2.0353
G01 X32.1958 Y2.1428
G01 X32.1604 Y2.2420
G01 X32.1573 Y2.2498
G01 X32.1110 Y2.3474
G01 X32.0570 Y2.4378
G01 X32.0525 Y2.4448
G01 X31.9915 Y2.5271
G01 X31.9862 Y2.5336
G01 X31.9136 Y2.6136
G01 X31.8637 Y2.6590
G01 X31.8637 Y5.6278
G01 X31.8605 Y5.6928
G01 X31.8594 Y5.7039
G01 X31.8493 Y5.7711
G01 X31.8330 Y5.8370
G01 X31.8297 Y5.8476
G01 X31.8067 Y5.9115
G01 X31.7753 Y5.9779
G01 X31.7375 Y6.0410
G01 X31.6972 Y6.0956
G01 X31.6901 Y6.1042
G01 X31.6444 Y6.1544
G01 X25.5137 Y12.2851
G01 X25.5137 Y48.0563
G01 X38.3872 Y48.0563
G01 X38.4383 Y48.0101
G01 X38.5193 Y47.9500
G01 X38.6059 Y47.8982
G01 X38.6945 Y47.8561
G01 X38.7023 Y47.8530
G01 X38.7868 Y47.8228
G01 X38.7975 Y47.8195
G01 X38.8900 Y47.7965
G01 X38.9898 Y47.7817
G01 X39.0906 Y47.7767
G01 X40.9194 Y47.7767
G01 X41.0202 Y47.7817
G01 X41.1200 Y47.7965
G01 X41.2125 Y47.8195
G01 X41.2232 Y47.8228
G01 X41.3077 Y47.8530
G01 X41.3180 Y47.8573
G01 X41.4041 Y47.8982
G01 X41.4907 Y47.9500
G01 X41.5717 Y48.0101
G01 X41.6425 Y48.0741
G01 X41.6503 Y48.0819
G01 X41.7106 Y48.1485
G01 X41.7177 Y48.1571
G01 X41.7744 Y48.2337
G01 X41.8262 Y48.3203
G01 X41.8694 Y48.4115
G01 X41.9016 Y48.5012
G01 X41.9049 Y48.5119
G01 X41.9267 Y48.5990
G01 X41.9289 Y48.6099
G01 X41.9427 Y48.7042
G01 X41.9477 Y48.8050
G01 X41.9427 Y48.9058
G01 X41.9289 Y49.0001
G01 X41.9267 Y49.0110
G01 X41.9049 Y49.0981
G01 X41.9016 Y49.1088
G01 X41.8694 Y49.1985
G01 X41.8262 Y49.2897
G01 X41.7744 Y49.3763
G01 X41.7177 Y49.4529
G01 X41.7106 Y49.4615
G01 X41.6503 Y49.5281
G01 X41.6425 Y49.5359
G01 X41.5717 Y49.5999
G01 X41.4907 Y49.6600
G01 X41.4041 Y49.7118
G01 X41.3155 Y49.7539
G01 X41.3077 Y49.7570
G01 X41.2179 Y49.7890
G01 X41.1200 Y49.8135
G01 X41.0202 Y49.8283
G01 X40.9222 Y49.8332
G01 X39.0906 Y49.8333
G01 X38.9926 Y49.8285
G01 X38.9843 Y49.8276
G01 X38.8955 Y49.8145
G01 X38.8846 Y49.8123
G01 X38.7921 Y49.7890
G01 X38.7023 Y49.7570
G01 X38.6945 Y49.7539
G01 X38.6059 Y49.7118
G01 X38.5193 Y49.6600
G01 X38.4383 Y49.5999
G01 X38.3872 Y49.5537
G01 X24.7594 Y49.5536
G01 X24.6916 Y49.5501
G01 X24.6244 Y49.5403
G01 X24.6135 Y49.5381
G01 X24.5477 Y49.5215
G01 X24.4785 Y49.4967
G01 X24.4170 Y49.4678
G01 X24.4072 Y49.4626
G01 X24.3490 Y49.4275
G01 X24.2944 Y49.3872
G01 X24.2858 Y49.3801
G01 X24.2356 Y49.3344
G01 X24.1862 Y49.2800
G01 X24.1457 Y49.2255
G01 X24.1395 Y49.2163
G01 X24.1047 Y49.1579
G01 X24.0744 Y49.0941
G01 X24.0713 Y49.0863
G01 X24.0485 Y49.0223
G01 X24.0307 Y48.9511
G01 X24.0199 Y48.8784
G01 X24.0163 Y48.8050
G01 X24.0163 Y11.9750
G01 X24.0199 Y11.9016
G01 X24.0307 Y11.8289
G01 X24.0485 Y11.7577
G01 X24.0733 Y11.6885
G01 X24.1047 Y11.6221
G01 X24.1425 Y11.5590
G01 X24.1862 Y11.5000
G01 X24.2356 Y11.4456
G00 Z3.0000
G00 X26.9280 Y13.6653
G01 F60.00
G01 Z-0.0500
G01 F120.00
G01 X35.4463 Y5.1470
G01 X35.4463 Y2.6590
G01 X35.3964 Y2.6136
G01 X35.3238 Y2.5336
G01 X35.3185 Y2.5271
G01 X35.2591 Y2.4470
G01 X35.2544 Y2.4401
G01 X35.1990 Y2.3474
G01 X35.1538 Y2.2523
G01 X35.1496 Y2.2420
G01 X35.1160 Y2.1481
G01 X35.1135 Y2.1402
G01 X35.0873 Y2.0353
G01 X35.0717 Y1.9312
G01 X35.0706 Y1.9201
G01 X35.0656 Y1.8150
G01 X35.0710 Y1.7043
G01 X35.0863 Y1.6001
G01 X35.0885 Y1.5892
G01 X35.1127 Y1.4925
G01 X35.1160 Y1.4819
G01 X35.1496 Y1.3880
G01 X35.1538 Y1.3777
G01 X35.1990 Y1.2826
G01 X35.2530 Y1.1922
G01 X35.2591 Y1.1830
G01 X35.3220 Y1.0985
G01 X35.3964 Y1.0164
G01 X35.4785 Y0.9420
G01 X35.5630 Y0.8791
G01 X35.5722 Y0.8730
G01 X35.6626 Y0.8190
G01 X35.7577 Y0.7738
G01 X35.7680 Y0.7696
G01 X35.8672 Y0.7342
G01 X35.9692 Y0.7085
G01 X35.9801 Y0.7063
G01 X36.0843 Y0.6910
G01 X36.1894 Y0.6857
G01 X36.2006 Y0.6857
G01 X36.3057 Y0.6910
G01 X36.4153 Y0.7073
G01 X36.5228 Y0.7342
G01 X36.6220 Y0.7696
G01 X36.6323 Y0.7738
G01 X36.7274 Y0.8190
G01 X36.8178 Y0.8730
G01 X36.8270 Y0.8791
G01 X36.9093 Y0.9402
G01 X36.9157 Y0.9456
G01 X36.9936 Y1.0164
G01 X37.0680 Y1.0985
G01 X37.1341 Y1.1875
G01 X37.1883 Y1.2778
G01 X37.1935 Y1.2876
G01 X37.2362 Y1.3777
G01 X37.2404 Y1.3880
G01 X37.2758 Y1.4872
G01 X37.3015 Y1.5892
G01 X37.3037 Y1.6001
G01 X37.3190 Y1.7043
G01 X37.3243 Y1.8094
G01 X37.3244 Y1.8178
G01 X37.3190 Y1.9257
G01 X37.3027 Y2.0353
G01 X37.2758 Y2.1428
G01 X37.2404 Y2.2420
G01 X37.2373 Y2.2498
G01 X37.1910 Y2.3474
G01 X37.1370 Y2.4378
G01 X37.1325 Y2.4448
G01 X37.0715 Y2.5271
G01 X37.0662 Y2.5336
G01 X36.9936 Y2.6136
G01 X36.9437 Y2.6590
G01 X36.9436 Y5.4627
G01 X36.9401 Y5.5305
G01 X36.9303 Y5.5977
G01 X36.9281 Y5.6086
G01 X36.9115 Y5.6744
G01 X36.8887 Y5.7384
G01 X36.8845 Y5.7487
G01 X36.8553 Y5.8100
G01 X36.8191 Y5.8707
G01 X36.8143 Y5.8776
G01 X36.7738 Y5.9321
G01 X36.7244 Y5.9865
G01 X28.2061 Y14.5048
G01 X28.2061 Y40.4363
G01 X38.3872 Y40.4363
G01 X38.4383 Y40.3901
G01 X38.5193 Y40.3300
G01 X38.6059 Y40.2782
G01 X38.6945 Y40.2361
G01 X38.7023 Y40.2330
G01 X38.7868 Y40.2028
G01 X38.7975 Y40.1995
G01 X38.8900 Y40.1765
G01 X38.9898 Y40.1617
G01 X39.0906 Y40.1567
G01 X40.9194 Y40.1567
G01 X41.0146 Y40.1613
G01 X41.0230 Y40.1620
G01 X41.1200 Y40.1765
G01 X41.2125 Y40.1995
G01 X41.2232 Y40.2028
G01 X41.3077 Y40.2330
G01 X41.3180 Y40.2373
G01 X41.4041 Y40.2782
G01 X41.4907 Y40.3300
G01 X41.5717 Y40.3901
G01 X41.6425 Y40.4541
G01 X41.6503 Y40.4619
G01 X41.7106 Y40.5285
G01 X41.7177 Y40.5371
G01 X41.7744 Y40.6137
G01 X41.8262 Y40.7003
G01 X41.8671 Y40.7864
G01 X41.8714 Y40.7967
G01 X41.9034 Y40.8865
G01 X41.9279 Y40.9844
G01 X41.9427 Y41.0842
G01 X41.9475 Y41.1794
G01 X41.9475 Y41.1906
G01 X41.9431 Y41.2802
G01 X41.9420 Y41.2913
G01 X41.9279 Y41.3856
G01 X41.9034 Y41.4835
G01 X41.8694 Y41.5785
G01 X41.8287 Y41.6647
G01 X41.8235 Y41.6746
G01 X41.7773 Y41.7516
G01 X41.7712 Y41.7608
G01 X41.7143 Y41.8373
G01 X41.6465 Y41.9121
G01 X41.5717 Y41.9799
G01 X41.4952 Y42.0368
G01 X41.4860 Y42.0429
G01 X41.4090 Y42.0891
G01 X41.4016 Y42.0931
G01 X41.3129 Y42.1350
G01 X41.2179 Y42.1690
G01 X41.1200 Y42.1935
G01 X41.0257 Y42.2076
G01 X41.0146 Y42.2087
G01 X40.9194 Y42.2133
G01 X39.0906 Y42.2133
G01 X38.9898 Y42.2083
G01 X38.8900 Y42.1935
G01 X38.7921 Y42.1690
G01 X38.6997 Y42.1360
G01 X38.6920 Y42.1327
G01 X38.6059 Y42.0918
G01 X38.5217 Y42.0415
G01 X38.5148 Y42.0368
G01 X38.4383 Y41.9799
G01 X38.3872 Y41.9337
G01 X27.4518 Y41.9336
G01 X27.3840 Y41.9301
G01 X27.3168 Y41.9203
G01 X27.3059 Y41.9181
G01 X27.2401 Y41.9015
G01 X27.1761 Y41.8787
G01 X27.1658 Y41.8745
G01 X27.1045 Y41.8453
G01 X27.0461 Y41.8105
G01 X27.0369 Y41.8043
G01 X26.9824 Y41.7638
G01 X26.9320 Y41.7183
G01 X26.9241 Y41.7104
G01 X26.8786 Y41.6600
G01 X26.8381 Y41.6055
G01 X26.8319 Y41.5963
G01 X26.7998 Y41.5428
G01 X26.7958 Y41.5355
G01 X26.7679 Y41.4766
G01 X26.7637 Y41.4663
G01 X26.7409 Y41.4023
G01 X26.7243 Y41.3365
G01 X26.7221 Y41.3256
G01 X26.7123 Y41.2584
G01 X26.7087 Y41.1850
G01 X26.7087 Y14.1947
G01 X26.7123 Y14.1213
G01 X26.7231 Y14.0486
G01 X26.7409 Y13.9774
G01 X26.7657 Y13.9082
G01 X26.7971 Y13.8418
G01 X26.8349 Y13.7787
G01 X26.8786 Y13.7197
G01 X26.9280 Y13.6653
G00 Z3.0000
G00 X34.5448 Y21.6137
G01 F60.00
G01 Z-0.0500
G01 F120.00
G01 X34.4776 Y21.6876
G01 X34.3931 Y21.7643
G01 X34.3014 Y21.8323
G01 X34.2034 Y21.8910
G01 X34.1002 Y21.9398
G01 X33.9927 Y21.9783
G01 X33.8820 Y22.0060
G01 X33.7690 Y22.0228
G01 X33.6550 Y22.0284
G01 X33.5410 Y22.0228
G01 X33.4280 Y22.0060
G01 X33.3173 Y21.9783
G01 X33.2098 Y21.9398
G01 X33.1066 Y21.8910
G01 X33.0086 Y21.8323
G01 X32.9169 Y21.7643
G01 X32.8324 Y21.6876
G01 X32.7557 Y21.6031
G01 X32.6877 Y21.5114
G01 X32.6290 Y21.4134
G01 X32.5802 Y21.3102
G01 X32.5417 Y21.2027
G01 X32.5140 Y21.0920
G01 X32.4972 Y20.9790
G01 X32.4916 Y20.8650
G01 X32.4972 Y20.7510
G01 X32.5140 Y20.6380
G01 X32.5417 Y20.5273
G01 X32.5802 Y20.4198
G01 X32.6290 Y20.3166
G01 X32.6877 Y20.2186
G01 X32.7557 Y20.1269
G01 X32.8324 Y20.0424
G01 X32.9169 Y19.9657
G01 X33.0086 Y19.8977
G01 X33.1017 Y19.8417
G01 X33.1115 Y19.8365
G01 X33.2098 Y19.7902
G01 X33.3120 Y19.7534
G01 X33.3226 Y19.7502
G01 X33.4226 Y19.7252
G01 X33.4335 Y19.7230
G01 X33.5410 Y19.7072
G01 X33.6522 Y19.7016
G01 X33.6606 Y19.7017
G01 X33.7690 Y19.7072
G01 X33.8820 Y19.7240
G01 X33.9927 Y19.7517
G01 X34.0950 Y19.7882
G01 X34.1053 Y19.7924
G01 X34.2034 Y19.8390
G01 X34.2966 Y19.8947
G01 X34.3059 Y19.9009
G01 X34.3887 Y19.9623
G01 X34.3973 Y19.9693
G01 X34.4776 Y20.0424
G01 X34.5448 Y20.1163
G01 X38.3872 Y20.1163
G01 X38.4383 Y20.0701
G01 X38.5193 Y20.0100
G01 X38.6059 Y19.9582
G01 X38.6945 Y19.9161
G01 X38.7023 Y19.9130
G01 X38.7868 Y19.8828
G01 X38.7975 Y19.8795
G01 X38.8900 Y19.8565
G01 X38.9898 Y19.8417
G01 X39.0906 Y19.8367
G01 X40.9194 Y19.8367
G01 X41.0174 Y19.8415
G01 X41.0257 Y19.8424
G01 X41.1200 Y19.8565
G01 X41.2125 Y19.8795
G01 X41.2232 Y19.8828
G01 X41.3077 Y19.9130
G01 X41.3180 Y19.9173
G01 X41.4041 Y19.9582
G01 X41.4907 Y20.0100
G01 X41.5717 Y20.0701
G01 X41.6465 Y20.1379
G01 X41.7143 Y20.2127
G01 X41.7712 Y20.2892
G01 X41.7773 Y20.2984
G01 X41.8235 Y20.3754
G01 X41.8287 Y20.3853
G01 X41.8694 Y20.4715
G01 X41.9034 Y20.5665
G01 X41.9279 Y20.6644
G01 X41.9424 Y20.7614
G01 X41.9431 Y20.7698
G01 X41.9477 Y20.8650
G01 X41.9427 Y20.9658
G01 X41.9279 Y21.0656
G01 X41.9034 Y21.1635
G01 X41.8694 Y21.2585
G01 X41.8262 Y21.3497
G01 X41.7744 Y21.4363
G01 X41.7143 Y21.5173
G01 X41.6465 Y21.5921
G01 X41.5717 Y21.6599
G01 X41.4907 Y21.7200
G01 X41.4041 Y21.7718
G01 X41.3129 Y21.8150
G01 X41.2179 Y21.8490
G01 X41.1200 Y21.8735
G01 X41.0230 Y21.8880
G01 X41.0146 Y21.8887
G01 X40.9194 Y21.8933
G01 X39.0906 Y21.8933
G01 X38.9898 Y21.8883
G01 X38.8900 Y21.8735
G01 X38.7975 Y21.8505
G01 X38.7868 Y21.8472
G01 X38.7023 Y21.8170
G01 X38.6945 Y21.8139
G01 X38.6059 Y21.7718
G01 X38.5193 Y21.7200
G01 X38.4383 Y21.6599
G01 X38.3872 Y21.6137
G01 X34.5448 Y21.6137
G00 Z3.0000
G00 X35.1798 Y22.6563
G01 F60.00
G01 Z-0.0500
G01 F120.00
G01 X38.3872 Y22.6563
G01 X38.4383 Y22.6101
G01 X38.5193 Y22.5500
G01 X38.6059 Y22.4982
G01 X38.6945 Y22.4561
G01 X38.7023 Y22.4530
G01 X38.7868 Y22.4228
G01 X38.7975 Y22.4195
G01 X38.8900 Y22.3965
G01 X38.9898 Y22.3817
G01 X39.0906 Y22.3767
G01 X40.9194 Y22.3767
G01 X41.0146 Y22.3813
G01 X41.0230 Y22.3820
G01 X41.1200 Y22.3965
G01 X41.2179 Y22.4210
G01 X41.3129 Y22.4550
G01 X41.4041 Y22.4982
G01 X41.4907 Y22.5500
G01 X41.5717 Y22.6101
G01 X41.6465 Y22.6779
G01 X41.7143 Y22.7527
G01 X41.7744 Y22.8337
G01 X41.8262 Y22.9203
G01 X41.8694 Y23.0115
G01 X41.9034 Y23.1065
G01 X41.9279 Y23.2044
G01 X41.9427 Y23.3042
G01 X41.9477 Y23.4050
G01 X41.9431 Y23.5002
G01 X41.9424 Y23.5086
G01 X41.9279 Y23.6056
G01 X41.9034 Y23.7035
G01 X41.8694 Y23.7985
G01 X41.8287 Y23.8847
G01 X41.8235 Y23.8946
G01 X41.7773 Y23.9716
G01 X41.7712 Y23.9808
G01 X41.7143 Y24.0573
G01 X41.6465 Y24.1321
G01 X41.5717 Y24.1999
G01 X41.4907 Y24.2600
G01 X41.4041 Y24.3118
G01 X41.3180 Y24.3527
G01 X41.3077 Y24.3570
G01 X41.2232 Y24.3872
G01 X41.2125 Y24.3905
G01 X41.1200 Y24.4135
G01 X41.0257 Y24.4276
G01 X41.0174 Y24.4285
G01 X40.9194 Y24.4333
G01 X39.0906 Y24.4333
G01 X38.9898 Y24.4283
G01 X38.8900 Y24.4135
G01 X38.7975 Y24.3905
G01 X38.7868 Y24.3872
G01 X38.7023 Y24.3570
G01 X38.6945 Y24.3539
G01 X38.6059 Y24.3118
G01 X38.5193 Y24.2600
G01 X38.4383 Y24.1999
G01 X38.3872 Y24.1537
G01 X35.1798 Y24.1537
G01 X35.1126 Y24.2276
G01 X35.0323 Y24.3007
G01 X35.0237 Y24.3077
G01 X34.9409 Y24.3691
G01 X34.9316 Y24.3753
G01 X34.8384 Y24.4310
G01 X34.7403 Y24.4776
G01 X34.7300 Y24.4818
G01 X34.6277 Y24.5183
G01 X34.5170 Y24.5460
G01 X34.4040 Y24.5628
G01 X34.2956 Y24.5683
G01 X34.2844 Y24.5683
G01 X34.1760 Y24.5628
G01 X34.0685 Y24.5470
G01 X34.0576 Y24.5448
G01 X33.9523 Y24.5183
G01 X33.8500 Y24.4818
G01 X33.8397 Y24.4776
G01 X33.7465 Y24.4335
G01 X33.7367 Y24.4283
G01 X33.6436 Y24.3723
G01 X33.5519 Y24.3043
G01 X33.4674 Y24.2276
G01 X33.3907 Y24.1431
G01 X33.3227 Y24.0514
G01 X33.2640 Y23.9534
G01 X33.2152 Y23.8502
G01 X33.1767 Y23.7427
G01 X33.1490 Y23.6320
G01 X33.1322 Y23.5190
G01 X33.1266 Y23.4050
G01 X33.1322 Y23.2910
G01 X33.1490 Y23.1780
G01 X33.1767 Y23.0673
G01 X33.2152 Y22.9598
G01 X33.2640 Y22.8566
G01 X33.3227 Y22.7586
G01 X33.3907 Y22.6669
G01 X33.4674 Y22.5824
G01 X33.5519 Y22.5057
G01 X33.6436 Y22.4377
G01 X33.7416 Y22.3790
G01 X33.8448 Y22.3302
G01 X33.9523 Y22.2917
G01 X34.0630 Y22.2640
G01 X34.1760 Y22.2472
G01 X34.2900 Y22.2416
G01 X34.4040 Y22.2472
G01 X34.5170 Y22.2640
G01 X34.6277 Y22.2917
G01 X34.7352 Y22.3302
G01 X34.8384 Y22.3790
G01 X34.9364 Y22.4377
G01 X35.0281 Y22.5057
G01 X35.1126 Y22.5824
G01 X35.1798 Y22.6563
G00 Z3.0000
G00 X35.8148 Y25.1963
G01 F60.00
G01 Z-0.0500
G01 F120.00
G01 X38.3872 Y25.1963
G01 X38.4383 Y25.1501
G01 X38.5193 Y25.0900
G01 X38.6059 Y25.0382
G01 X38.6945 Y24.9961
G01 X38.7023 Y24.9930
G01 X38.7868 Y24.9628
G01 X38.7975 Y24.9595
G01 X38.8900 Y24.9365
G01 X38.9898 Y24.9217
G01 X39.0906 Y24.9167
G01 X40.9194 Y24.9167
G01 X41.0146 Y24.9213
G01 X41.0257 Y24.9224
G01 X41.1200 Y24.9365
G01 X41.2179 Y24.9610
G01 X41.3129 Y24.9950
G01 X41.4041 Y25.0382
G01 X41.4907 Y25.0900
G01 X41.5717 Y25.1501
G01 X41.6465 Y25.2179
G01 X41.7143 Y25.2927
G01 X41.7744 Y25.3737
G01 X41.8262 Y25.4603
G01 X41.8694 Y25.5515
G01 X41.9034 Y25.6465
G01 X41.9279 Y25.7444
G01 X41.9427 Y25.8442
G01 X41.9477 Y25.9450
G01 X41.9431 Y26.0402
G01 X41.9420 Y26.0513
G01 X41.9279 Y26.1456
G01 X41.9034 Y26.2435
G01 X41.8694 Y26.3385
G01 X41.8287 Y26.4247
G01 X41.8235 Y26.4346
G01 X41.7773 Y26.5116
G01 X41.7712 Y26.5208
G01 X41.7143 Y26.5973
G01 X41.6465 Y26.6721
G01 X41.5717 Y26.7399
G01 X41.4907 Y26.8000
G01 X41.4041 Y26.8518
G01 X41.3180 Y26.8927
G01 X41.3077 Y26.8970
G01 X41.2232 Y26.9272
G01 X41.2125 Y26.9305
G01 X41.1200 Y26.9535
G01 X41.0257 Y26.9676
G01 X41.0174 Y26.9685
G01 X40.9194 Y26.9733
G01 X39.0906 Y26.9733
G01 X38.9898 Y26.9683
G01 X38.8900 Y26.9535
G01 X38.7975 Y26.9305
G01 X38.7868 Y26.9272
G01 X38.7023 Y26.8970
G01 X38.6945 Y26.8939
G01 X38.6059 Y26.8518
G01 X38.5193 Y26.8000
G01 X38.4383 Y26.7399
G01 X38.3872 Y26.6937
G01 X35.8148 Y26.6937
G01 X35.7476 Y26.7676
G01 X35.6673 Y26.8407
G01 X35.6587 Y26.8477
G01 X35.5759 Y26.9091
G01 X35.5666 Y26.9153
G01 X35.4734 Y26.9710
G01 X35.3753 Y27.0176
G01 X35.3650 Y27.0218
G01 X35.2627 Y27.0583
G01 X35.1520 Y27.0860
G01 X35.0390 Y27.1028
G01 X34.9306 Y27.1083
G01 X34.9194 Y27.1083
G01 X34.8110 Y27.1028
G01 X34.7035 Y27.0870
G01 X34.6926 Y27.0848
G01 X34.5873 Y27.0583
G01 X34.4850 Y27.0218
G01 X34.4747 Y27.0176
G01 X34.3815 Y26.9735
G01 X34.3717 Y26.9683
G01 X34.2786 Y26.9123
G01 X34.1869 Y26.8443
G01 X34.1024 Y26.7676
G01 X34.0257 Y26.6831
G01 X33.9577 Y26.5914
G01 X33.8990 Y26.4934
G01 X33.8502 Y26.3902
G01 X33.8117 Y26.2827
G01 X33.7840 Y26.1720
G01 X33.7672 Y26.0590
G01 X33.7616 Y25.9450
G01 X33.7672 Y25.8310
G01 X33.7840 Y25.7180
G01 X33.8117 Y25.6073
G01 X33.8502 Y25.4998
G01 X33.8990 Y25.3966
G01 X33.9577 Y25.2986
G01 X34.0257 Y25.2069
G01 X34.1024 Y25.1224
G01 X34.1869 Y25.0457
G01 X34.2786 Y24.9777
G01 X34.3766 Y24.9190
G01 X34.4798 Y24.8702
G01 X34.5873 Y24.8317
G01 X34.6980 Y24.8040
G01 X34.8110 Y24.7872
G01 X34.9250 Y24.7816
G01 X35.0390 Y24.7872
G01 X35.1520 Y24.8040
G01 X35.2627 Y24.8317
G01 X35.3702 Y24.8702
G01 X35.4734 Y24.9190
G01 X35.5714 Y24.9777
G01 X35.6631 Y25.0457
G01 X35.7476 Y25.1224
G01 X35.8148 Y25.1963
G00 Z3.0000
G00 X37.0848 Y27.7363
G01 F60.00
G01 Z-0.0500
G01 F120.00
G01 X38.3872 Y27.7363
G01 X38.4383 Y27.6901
G01 X38.5193 Y27.6300
G01 X38.6059 Y27.5782
G01 X38.6945 Y27.5361
G01 X38.7023 Y27.5330
G01 X38.7868 Y27.5028
G01 X38.7975 Y27.4995
G01 X38.8900 Y27.4765
G01 X38.9843 Y27.4624
G01 X38.9926 Y27.4615
G01 X39.0906 Y27.4567
G01 X40.9194 Y27.4567
G01 X41.0202 Y27.4617
G01 X41.1200 Y27.4765
G01 X41.2179 Y27.5010
G01 X41.3129 Y27.5350
G01 X41.4041 Y27.5782
G01 X41.4907 Y27.6300
G01 X41.5717 Y27.6901
G01 X41.6465 Y27.7579
G01 X41.7143 Y27.8327
G01 X41.7744 Y27.9137
G01 X41.8262 Y28.0003
G01 X41.8694 Y28.0915
G01 X41.9034 Y28.1865
G01 X41.9279 Y28.2844
G01 X41.9427 Y28.3842
G01 X41.9477 Y28.4850
G01 X41.9427 Y28.5858
G01 X41.9279 Y28.6856
G01 X41.9034 Y28.7835
G01 X41.8714 Y28.8733
G01 X41.8671 Y28.8836
G01 X41.8287 Y28.9647
G01 X41.8235 Y28.9746
G01 X41.7744 Y29.0563
G01 X41.7143 Y29.1373
G01 X41.6465 Y29.2121
G01 X41.5759 Y29.2762
G01 X41.5673 Y29.2833
G01 X41.4952 Y29.3368
G01 X41.4860 Y29.3429
G01 X41.4041 Y29.3918
G01 X41.3129 Y29.4350
G01 X41.2179 Y29.4690
G01 X41.1254 Y29.4923
G01 X41.1145 Y29.4945
G01 X41.0257 Y29.5076
G01 X41.0174 Y29.5085
G01 X40.9194 Y29.5133
G01 X39.0906 Y29.5133
G01 X38.9926 Y29.5085
G01 X38.9843 Y29.5076
G01 X38.8955 Y29.4945
G01 X38.8846 Y29.4923
G01 X38.7921 Y29.4690
G01 X38.7023 Y29.4370
G01 X38.6945 Y29.4339
G01 X38.6059 Y29.3918
G01 X38.5193 Y29.3400
G01 X38.4383 Y29.2799
G01 X38.3872 Y29.2337
G01 X37.0848 Y29.2337
G01 X37.0176 Y29.3076
G01 X36.9373 Y29.3807
G01 X36.9287 Y29.3877
G01 X36.8459 Y29.4491
G01 X36.8366 Y29.4553
G01 X36.7434 Y29.5110
G01 X36.6402 Y29.5598
G01 X36.5327 Y29.5983
G01 X36.4274 Y29.6248
G01 X36.4165 Y29.6270
G01 X36.3146 Y29.6421
G01 X36.3035 Y29.6432
G01 X36.1950 Y29.6484
G01 X36.0865 Y29.6432
G01 X36.0754 Y29.6421
G01 X35.9680 Y29.6260
G01 X35.8573 Y29.5983
G01 X35.7498 Y29.5598
G01 X35.6466 Y29.5110
G01 X35.5486 Y29.4523
G01 X35.4569 Y29.3843
G01 X35.3724 Y29.3076
G01 X35.2957 Y29.2231
G01 X35.2277 Y29.1314
G01 X35.1690 Y29.0334
G01 X35.1202 Y28.9302
G01 X35.0817 Y28.8227
G01 X35.0540 Y28.7120
G01 X35.0372 Y28.5990
G01 X35.0316 Y28.4850
G01 X35.0372 Y28.3710
G01 X35.0540 Y28.2580
G01 X35.0817 Y28.1473
G01 X35.1202 Y28.0398
G01 X35.1690 Y27.9366
G01 X35.2277 Y27.8386
G01 X35.2957 Y27.7469
G01 X35.3724 Y27.6624
G01 X35.4569 Y27.5857
G01 X35.5486 Y27.5177
G01 X35.6466 Y27.4590
G01 X35.7498 Y27.4102
G01 X35.8573 Y27.3717
G01 X35.9680 Y27.3440
G01 X36.0810 Y27.3272
G01 X36.1950 Y27.3216
G01 X36.3090 Y27.3272
G01 X36.4220 Y27.3440
G01 X36.5327 Y27.3717
G01 X36.6402 Y27.4102
G01 X36.7434 Y27.4590
G01 X36.8414 Y27.5177
G01 X36.9331 Y27.5857
G01 X37.0176 Y27.6624
G01 X37.0848 Y27.7363
G00 Z3.0000
G00 X37.0848 Y30.2763
G01 F60.00
G01 Z-0.0500
G01 F120.00
G01 X38.3872 Y30.2763
G01 X38.4383 Y30.2301
G01 X38.5193 Y30.1700
G01 X38.6059 Y30.1182
G01 X38.6945 Y30.0761
G01 X38.7023 Y30.0730
G01 X38.7868 Y30.0428
G01 X38.7975 Y30.0395
G01 X38.8900 Y30.0165
G01 X38.9843 Y30.0024
G01 X38.9926 Y30.0015
G01 X39.0906 Y29.9967
G01 X40.9194 Y29.9967
G01 X41.0202 Y30.0017
G01 X41.1200 Y30.0165
G01 X41.2179 Y30.0410
G01 X41.3129 Y30.0750
G01 X41.4041 Y30.1182
G01 X41.4907 Y30.1700
G01 X41.5717 Y30.2301
G01 X41.6465 Y30.2979
G01 X41.7143 Y30.3727
G01 X41.7744 Y30.4537
G01 X41.8262 Y30.5403
G01 X41.8694 Y30.6315
G01 X41.9034 Y30.7265
G01 X41.9279 Y30.8244
G01 X41.9427 Y30.9242
G01 X41.9477 Y31.0250
G01 X41.9427 Y31.1258
G01 X41.9279 Y31.2256
G01 X41.9034 Y31.3235
G01 X41.8714 Y31.4133
G01 X41.8671 Y31.4236
G01 X41.8287 Y31.5047
G01 X41.8235 Y31.5146
G01 X41.7744 Y31.5963
G01 X41.7143 Y31.6773
G01 X41.6465 Y31.7521
G01 X41.5759 Y31.8162
G01 X41.5673 Y31.8233
G01 X41.4952 Y31.8768
G01 X41.4860 Y31.8829
G01 X41.4041 Y31.9318
G01 X41.3129 Y31.9750
G01 X41.2179 Y32.0090
G01 X41.1254 Y32.0323
G01 X41.1145 Y32.0345
G01 X41.0257 Y32.0476
G01 X41.0174 Y32.0485
G01 X40.9194 Y32.0533
G01 X39.0906 Y32.0533
G01 X38.9926 Y32.0485
G01 X38.9843 Y32.0476
G01 X38.8955 Y32.0345
G01 X38.8846 Y32.0323
G01 X38.7921 Y32.0090
G01 X38.7023 Y31.9770
G01 X38.6945 Y31.9739
G01 X38.6059 Y31.9318
G01 X38.5193 Y31.8800
G01 X38.4383 Y31.8199
G01 X38.3872 Y31.7737
G01 X37.0848 Y31.7737
G01 X37.0176 Y31.8476
G01 X36.9373 Y31.9207
G01 X36.9287 Y31.9277
G01 X36.8459 Y31.9891
G01 X36.8366 Y31.9953
G01 X36.7434 Y32.0510
G01 X36.6402 Y32.0998
G01 X36.5327 Y32.1383
G01 X36.4274 Y32.1648
G01 X36.4165 Y32.1670
G01 X36.3146 Y32.1821
G01 X36.3035 Y32.1832
G01 X36.1950 Y32.1884
G01 X36.0865 Y32.1832
G01 X36.0754 Y32.1821
G01 X35.9680 Y32.1660
G01 X35.8573 Y32.1383
G01 X35.7498 Y32.0998
G01 X35.6466 Y32.0510
G01 X35.5486 Y31.9923
G01 X35.4569 Y31.9243
G01 X35.3724 Y31.8476
G01 X35.2957 Y31.7631
G01 X35.2277 Y31.6714
G01 X35.1690 Y31.5734
G01 X35.1202 Y31.4702
G01 X35.0817 Y31.3627
G01 X35.0540 Y31.2520
G01 X35.0372 Y31.1390
G01 X35.0316 Y31.0250
G01 X35.0372 Y30.9110
G01 X35.0540 Y30.7980
G01 X35.0817 Y30.6873
G01 X35.1202 Y30.5798
G01 X35.1690 Y30.4766
G01 X35.2277 Y30.3786
G01 X35.2957 Y30.2869
G01 X35.3724 Y30.2024
G01 X35.4569 Y30.1257
G01 X35.5486 Y30.0577
G01 X35.6466 Y29.9990
G01 X35.7498 Y29.9502
G01 X35.8573 Y29.9117
G01 X35.9680 Y29.8840
G01 X36.0810 Y29.8672
G01 X36.1950 Y29.8616
G01 X36.3090 Y29.8672
G01 X36.4220 Y29.8840
G01 X36.5327 Y29.9117
G01 X36.6402 Y29.9502
G01 X36.7434 Y29.9990
G01 X36.8414 Y30.0577
G01 X36.9331 Y30.1257
G01 X37.0176 Y30.2024
G01 X37.0848 Y30.2763
G00 Z3.0000
G00 X37.0848 Y32.8163
G01 F60.00
G01 Z-0.0500
G01 F120.00
G01 X38.3872 Y32.8163
G01 X38.4383 Y32.7701
G01 X38.5193 Y32.7100
G01 X38.6059 Y32.6582
G01 X38.6945 Y32.6161
G01 X38.7023 Y32.6130
G01 X38.7868 Y32.5828
G01 X38.7975 Y32.5795
G01 X38.8900 Y32.5565
G01 X38.9843 Y32.5424
G01 X38.9926 Y32.5415
G01 X39.0906 Y32.5367
G01 X40.9194 Y32.5367
G01 X41.0202 Y32.5417
G01 X41.1200 Y32.5565
G01 X41.2179 Y32.5810
G01 X41.3129 Y32.6150
G01 X41.4041 Y32.6582
G01 X41.4907 Y32.7100
G01 X41.5717 Y32.7701
G01 X41.6465 Y32.8379
G01 X41.7143 Y32.9127
G01 X41.7744 Y32.9937
G01 X41.8262 Y33.0803
G01 X41.8694 Y33.1715
G01 X41.9034 Y33.2665
G01 X41.9279 Y33.3644
G01 X41.9427 Y33.4642
G01 X41.9477 Y33.5650
G01 X41.9427 Y33.6658
G01 X41.9279 Y33.7656
G01 X41.9034 Y33.8635
G01 X41.8714 Y33.9533
G01 X41.8671 Y33.9636
G01 X41.8287 Y34.0447
G01 X41.8235 Y34.0546
G01 X41.7744 Y34.1363
G01 X41.7143 Y34.2173
G01 X41.6465 Y34.2921
G01 X41.5759 Y34.3562
G01 X41.5673 Y34.3633
G01 X41.4952 Y34.4168
G01 X41.4860 Y34.4229
G01 X41.4041 Y34.4718
G01 X41.3129 Y34.5150
G01 X41.2179 Y34.5490
G01 X41.1254 Y34.5723
G01 X41.1145 Y34.5745
G01 X41.0257 Y34.5876
G01 X41.0174 Y34.5885
G01 X40.9194 Y34.5933
G01 X39.0906 Y34.5933
G01 X38.9926 Y34.5885
G01 X38.9843 Y34.5876
G01 X38.8955 Y34.5745
G01 X38.8846 Y34.5723
G01 X38.7921 Y34.5490
G01 X38.7023 Y34.5170
G01 X38.6945 Y34.5139
G01 X38.6059 Y34.4718
G01 X38.5193 Y34.4200
G01 X38.4383 Y34.3599
G01 X38.3872 Y34.3137
G01 X37.0848 Y34.3137
G01 X37.0176 Y34.3876
G01 X36.9373 Y34.4607
G01 X36.9287 Y34.4677
G01 X36.8459 Y34.5291
G01 X36.8366 Y34.5353
G01 X36.7434 Y34.5910
G01 X36.6402 Y34.6398
G01 X36.5327 Y34.6783
G01 X36.4274 Y34.7048
G01 X36.4165 Y34.7070
G01 X36.3146 Y34.7221
G01 X36.3035 Y34.7232
G01 X36.1950 Y34.7284
G01 X36.0865 Y34.7232
G01 X36.0754 Y34.7221
G01 X35.9680 Y34.7060
G01 X35.8573 Y34.6783
G01 X35.7498 Y34.6398
G01 X35.6466 Y34.5910
G01 X35.5486 Y34.5323
G01 X35.4569 Y34.4643
G01 X35.3724 Y34.3876
G01 X35.2957 Y34.3031
G01 X35.2277 Y34.2114
G01 X35.1690 Y34.1134
G01 X35.1202 Y34.0102
G01 X35.0817 Y33.9027
G01 X35.0540 Y33.7920
G01 X35.0372 Y33.6790
G01 X35.0316 Y33.5650
G01 X35.0372 Y33.4510
G01 X35.0540 Y33.3380
G01 X35.0817 Y33.2273
G01 X35.1202 Y33.1198
G01 X35.1690 Y33.0166
G01 X35.2277 Y32.9186
G01 X35.2957 Y32.8269
G01 X35.3724 Y32.7424
G01 X35.4569 Y32.6657
G01 X35.5486 Y32.5977
G01 X35.6466 Y32.5390
G01 X35.7498 Y32.4902
G01 X35.8573 Y32.4517
G01 X35.9680 Y32.4240
G01 X36.0810 Y32.4072
G01 X36.1950 Y32.4016
G01 X36.3090 Y32.4072
G01 X36.4220 Y32.4240
G01 X36.5327 Y32.4517
G01 X36.6402 Y32.4902
G01 X36.7434 Y32.5390
G01 X36.8414 Y32.5977
G01 X36.9331 Y32.6657
G01 X37.0176 Y32.7424
G01 X37.0848 Y32.8163
G00 Z3.0000
G00 X32.6398 Y39.3937
G01 F60.00
G01 Z-0.0500
G01 F120.00
G01 X32.5726 Y39.4676
G01 X32.4881 Y39.5443
G01 X32.3964 Y39.6123
G01 X32.2984 Y39.6710
G01 X32.1952 Y39.7198
G01 X32.0877 Y39.7583
G01 X31.9770 Y39.7860
G01 X31.8640 Y39.8028
G01 X31.7500 Y39.8084
G01 X31.6360 Y39.8028
G01 X31.5230 Y39.7860
G01 X31.4123 Y39.7583
G01 X31.3048 Y39.7198
G01 X31.2016 Y39.6710
G01 X31.1036 Y39.6123
G01 X31.0119 Y39.5443
G01 X30.9274 Y39.4676
G01 X30.8507 Y39.3831
G01 X30.7827 Y39.2914
G01 X30.7240 Y39.1934
G01 X30.6752 Y39.0902
G01 X30.6367 Y38.9827
G01 X30.6090 Y38.8720
G01 X30.5922 Y38.7590
G01 X30.5866 Y38.6450
G01 X30.5922 Y38.5310
G01 X30.6090 Y38.4180
G01 X30.6367 Y38.3073
G01 X30.6752 Y38.1998
G01 X30.7240 Y38.0966
G01 X30.7827 Y37.9986
G01 X30.8507 Y37.9069
G01 X30.9274 Y37.8224
G01 X31.0119 Y37.7457
G01 X31.1036 Y37.6777
G01 X31.1967 Y37.6217
G01 X31.2065 Y37.6165
G01 X31.2997 Y37.5724
G01 X31.3100 Y37.5682
G01 X31.4123 Y37.5317
G01 X31.5176 Y37.5052
G01 X31.5285 Y37.5030
G01 X31.6360 Y37.4872
G01 X31.7472 Y37.4816
G01 X31.7556 Y37.4817
G01 X31.8640 Y37.4872
G01 X31.9770 Y37.5040
G01 X32.0877 Y37.5317
G01 X32.1900 Y37.5682
G01 X32.2003 Y37.5724
G01 X32.2984 Y37.6190
G01 X32.3916 Y37.6747
G01 X32.4009 Y37.6809
G01 X32.4837 Y37.7423
G01 X32.4923 Y37.7493
G01 X32.5726 Y37.8224
G01 X32.6398 Y37.8963
G01 X38.3872 Y37.8963
G01 X38.4383 Y37.8501
G01 X38.5193 Y37.7900
G01 X38.6059 Y37.7382
G01 X38.6945 Y37.6961
G01 X38.7023 Y37.6930
G01 X38.7868 Y37.6628
G01 X38.7975 Y37.6595
G01 X38.8900 Y37.6365
G01 X38.9898 Y37.6217
G01 X39.0906 Y37.6167
G01 X40.9194 Y37.6167
G01 X41.0146 Y37.6213
G01 X41.0257 Y37.6224
G01 X41.1145 Y37.6355
G01 X41.1254 Y37.6377
G01 X41.2179 Y37.6610
G01 X41.3077 Y37.6930
G01 X41.3180 Y37.6973
G01 X41.4041 Y37.7382
G01 X41.4907 Y37.7900
G01 X41.5717 Y37.8501
G01 X41.6465 Y37.9179
G01 X41.7143 Y37.9927
G01 X41.7744 Y38.0737
G01 X41.8262 Y38.1603
G01 X41.8671 Y38.2464
G01 X41.8714 Y38.2567
G01 X41.9016 Y38.3412
G01 X41.9049 Y38.3519
G01 X41.9279 Y38.4444
G01 X41.9427 Y38.5442
G01 X41.9477 Y38.6450
G01 X41.9427 Y38.7458
G01 X41.9279 Y38.8456
G01 X41.9034 Y38.9435
G01 X41.8694 Y39.0385
G01 X41.8262 Y39.1297
G01 X41.7744 Y39.2163
G01 X41.7143 Y39.2973
G01 X41.6465 Y39.3721
G01 X41.5717 Y39.4399
G01 X41.4907 Y39.5000
G01 X41.4041 Y39.5518
G01 X41.3129 Y39.5950
G01 X41.2179 Y39.6290
G01 X41.1200 Y39.6535
G01 X41.0202 Y39.6683
G01 X40.9194 Y39.6733
G01 X39.0906 Y39.6733
G01 X38.9898 Y39.6683
G01 X38.8900 Y39.6535
G01 X38.7975 Y39.6305
G01 X38.7868 Y39.6272
G01 X38.7023 Y39.5970
G01 X38.6945 Y39.5939
G01 X38.6059 Y39.5518
G01 X38.5193 Y39.5000
G01 X38.4383 Y39.4399
G01 X38.3872 Y39.3937
G01 X32.6398 Y39.3937
G00 Z3.0000
G00 X29.0963 Y36.1050
G01 F60.00
G01 Z-0.0500
G01 F120.00
G01 X29.0963 Y15.7850
G01 X29.0995 Y15.7172
G01 X29.1006 Y15.7061
G01 X29.1107 Y15.6389
G01 X29.1277 Y15.5703
G01 X29.1303 Y15.5624
G01 X29.1533 Y15.4985
G01 X29.1822 Y15.4370
G01 X29.1874 Y15.4272
G01 X29.2225 Y15.3690
G01 X29.2628 Y15.3144
G01 X29.2699 Y15.3058
G01 X29.3156 Y15.2556
G01 X37.9863 Y6.5849
G01 X37.9863 Y2.6590
G01 X37.9364 Y2.6136
G01 X37.8638 Y2.5336
G01 X37.8585 Y2.5271
G01 X37.7991 Y2.4470
G01 X37.7944 Y2.4401
G01 X37.7417 Y2.3522
G01 X37.7365 Y2.3424
G01 X37.6916 Y2.2472
G01 X37.6551 Y2.1455
G01 X37.6527 Y2.1375
G01 X37.6273 Y2.0353
G01 X37.6117 Y1.9312
G01 X37.6106 Y1.9201
G01 X37.6056 Y1.8150
G01 X37.6106 Y1.7099
G01 X37.6117 Y1.6988
G01 X37.6268 Y1.5974
G01 X37.6285 Y1.5892
G01 X37.6542 Y1.4872
G01 X37.6916 Y1.3828
G01 X37.7390 Y1.2826
G01 X37.7959 Y1.1875
G01 X37.8620 Y1.0985
G01 X37.9364 Y1.0164
G01 X38.0185 Y0.9420
G01 X38.1030 Y0.8791
G01 X38.1122 Y0.8730
G01 X38.1978 Y0.8217
G01 X38.2076 Y0.8165
G01 X38.3028 Y0.7716
G01 X38.4019 Y0.7360
G01 X38.4125 Y0.7327
G01 X38.5147 Y0.7073
G01 X38.6188 Y0.6917
G01 X38.6299 Y0.6906
G01 X38.7350 Y0.6856
G01 X38.8457 Y0.6910
G01 X38.9553 Y0.7073
G01 X39.0602 Y0.7335
G01 X39.0681 Y0.7360
G01 X39.1620 Y0.7696
G01 X39.1723 Y0.7738
G01 X39.2674 Y0.8190
G01 X39.3625 Y0.8759
G01 X39.4515 Y0.9420
G01 X39.5296 Y1.0126
G01 X39.5374 Y1.0204
G01 X39.6080 Y1.0985
G01 X39.6709 Y1.1830
G01 X39.6770 Y1.1922
G01 X39.7310 Y1.2826
G01 X39.7784 Y1.3828
G01 X39.8158 Y1.4872
G01 X39.8415 Y1.5892
G01 X39.8437 Y1.6001
G01 X39.8583 Y1.6988
G01 X39.8594 Y1.7099
G01 X39.8643 Y1.8094
G01 X39.8643 Y1.8206
G01 X39.8590 Y1.9257
G01 X39.8437 Y2.0299
G01 X39.8415 Y2.0408
G01 X39.8158 Y2.1428
G01 X39.7795 Y2.2446
G01 X39.7762 Y2.2523
G01 X39.7310 Y2.3474
G01 X39.6770 Y2.4378
G01 X39.6725 Y2.4448
G01 X39.6115 Y2.5271
G01 X39.6062 Y2.5336
G01 X39.5336 Y2.6136
G01 X39.4837 Y2.6590
G01 X39.4837 Y6.8978
G01 X39.4805 Y6.9628
G01 X39.4794 Y6.9739
G01 X39.4693 Y7.0411
G01 X39.4530 Y7.1070
G01 X39.4497 Y7.1176
G01 X39.4267 Y7.1815
G01 X39.3978 Y7.2430
G01 X39.3940 Y7.2504
G01 X39.3575 Y7.3110
G01 X39.3172 Y7.3656
G01 X39.3101 Y7.3742
G01 X39.2644 Y7.4244
G01 X30.5937 Y16.0951
G01 X30.5937 Y35.3563
G01 X38.3872 Y35.3563
G01 X38.4383 Y35.3101
G01 X38.5193 Y35.2500
G01 X38.6059 Y35.1982
G01 X38.6945 Y35.1561
G01 X38.7023 Y35.1530
G01 X38.7868 Y35.1228
G01 X38.7975 Y35.1195
G01 X38.8900 Y35.0965
G01 X38.9898 Y35.0817
G01 X39.0906 Y35.0767
G01 X40.9194 Y35.0767
G01 X41.0202 Y35.0817
G01 X41.1200 Y35.0965
G01 X41.2179 Y35.1210
G01 X41.3129 Y35.1550
G01 X41.3991 Y35.1957
G01 X41.4090 Y35.2009
G01 X41.4860 Y35.2471
G01 X41.4952 Y35.2532
G01 X41.5717 Y35.3101
G01 X41.6425 Y35.3741
G01 X41.6503 Y35.3819
G01 X41.7143 Y35.4527
G01 X41.7744 Y35.5337
G01 X41.8262 Y35.6203
G01 X41.8694 Y35.7115
G01 X41.9034 Y35.8065
G01 X41.9267 Y35.8990
G01 X41.9289 Y35.9099
G01 X41.9420 Y35.9987
G01 X41.9431 Y36.0098
G01 X41.9477 Y36.1050
G01 X41.9431 Y36.2002
G01 X41.9420 Y36.2113
G01 X41.9279 Y36.3056
G01 X41.9042 Y36.4008
G01 X41.9016 Y36.4088
G01 X41.8694 Y36.4985
G01 X41.8287 Y36.5847
G01 X41.8235 Y36.5946
G01 X41.7744 Y36.6763
G01 X41.7177 Y36.7529
G01 X41.7106 Y36.7615
G01 X41.6465 Y36.8321
G01 X41.5759 Y36.8962
G01 X41.5673 Y36.9033
G01 X41.4907 Y36.9600
G01 X41.4090 Y37.0091
G01 X41.3991 Y37.0143
G01 X41.3129 Y37.0550
G01 X41.2232 Y37.0872
G01 X41.2125 Y37.0905
G01 X41.1200 Y37.1135
G01 X41.0257 Y37.1276
G01 X41.0146 Y37.1287
G01 X40.9222 Y37.1332
G01 X39.0878 Y37.1332
G01 X38.9898 Y37.1283
G01 X38.8900 Y37.1135
G01 X38.7921 Y37.0890
G01 X38.6997 Y37.0560
G01 X38.6920 Y37.0527
G01 X38.6059 Y37.0118
G01 X38.5217 Y36.9615
G01 X38.5148 Y36.9568
G01 X38.4383 Y36.8999
G01 X38.3872 Y36.8537
G01 X29.8450 Y36.8537
G01 X29.7716 Y36.8501
G01 X29.6989 Y36.8393
G01 X29.6277 Y36.8215
G01 X29.5585 Y36.7967
G01 X29.4921 Y36.7653
G01 X29.4290 Y36.7275
G01 X29.3700 Y36.6838
G01 X29.3156 Y36.6344
G01 X29.2699 Y36.5842
G01 X29.2628 Y36.5756
G01 X29.2257 Y36.5255
G01 X29.2195 Y36.5163
G01 X29.1847 Y36.4579
G01 X29.1555 Y36.3966
G01 X29.1513 Y36.3863
G01 X29.1285 Y36.3223
G01 X29.1107 Y36.2511
G01 X29.0999 Y36.1784
G01 X29.0963 Y36.1050
G00 Z3.0000
G00 X38.3548 Y42.9763
G01 F60.00
G01 Z-0.0500
G01 F120.00
G01 X38.3872 Y42.9763
G01 X38.4383 Y42.9301
G01 X38.5193 Y42.8700
G01 X38.6059 Y42.8182
G01 X38.6945 Y42.7761
G01 X38.7023 Y42.7730
G01 X38.7868 Y42.7428
G01 X38.7975 Y42.7395
G01 X38.8900 Y42.7165
G01 X38.9843 Y42.7024
G01 X38.9926 Y42.7015
G01 X39.0906 Y42.6967
G01 X40.9222 Y42.6968
G01 X41.0202 Y42.7017
G01 X41.1145 Y42.7155
G01 X41.1254 Y42.7177
G01 X41.2179 Y42.7410
G01 X41.3129 Y42.7750
G01 X41.4041 Y42.8182
G01 X41.4907 Y42.8700
G01 X41.5717 Y42.9301
G01 X41.6465 Y42.9979
G01 X41.7143 Y43.0727
G01 X41.7744 Y43.1537
G01 X41.8262 Y43.2403
G01 X41.8694 Y43.3315
G01 X41.9034 Y43.4265
G01 X41.9279 Y43.5244
G01 X41.9427 Y43.6242
G01 X41.9477 Y43.7250
G01 X41.9427 Y43.8258
G01 X41.9279 Y43.9256
G01 X41.9034 Y44.0235
G01 X41.8714 Y44.1133
G01 X41.8671 Y44.1236
G01 X41.8262 Y44.2097
G01 X41.7744 Y44.2963
G01 X41.7143 Y44.3773
G01 X41.6503 Y44.4481
G01 X41.6425 Y44.4559
G01 X41.5717 Y44.5199
G01 X41.4907 Y44.5800
G01 X41.4090 Y44.6291
G01 X41.3991 Y44.6343
G01 X41.3129 Y44.6750
G01 X41.2179 Y44.7090
G01 X41.1254 Y44.7323
G01 X41.1145 Y44.7345
G01 X41.0257 Y44.7476
G01 X41.0174 Y44.7485
G01 X40.9194 Y44.7533
G01 X39.0906 Y44.7533
G01 X38.9898 Y44.7483
G01 X38.8900 Y44.7335
G01 X38.7975 Y44.7105
G01 X38.7868 Y44.7072
G01 X38.7023 Y44.6770
G01 X38.6945 Y44.6739
G01 X38.6059 Y44.6318
G01 X38.5193 Y44.5800
G01 X38.4383 Y44.5199
G01 X38.3872 Y44.4737
G01 X38.3548 Y44.4737
G01 X38.2876 Y44.5476
G01 X38.2073 Y44.6207
G01 X38.1987 Y44.6277
G01 X38.1159 Y44.6891
G01 X38.1066 Y44.6953
G01 X38.0134 Y44.7510
G01 X37.9102 Y44.7998
G01 X37.8027 Y44.8383
G01 X37.6974 Y44.8648
G01 X37.6865 Y44.8670
G01 X37.5790 Y44.8828
G01 X37.4706 Y44.8883
G01 X37.4594 Y44.8883
G01 X37.3537 Y44.8830
G01 X37.3454 Y44.8821
G01 X37.2380 Y44.8660
G01 X37.1273 Y44.8383
G01 X37.0198 Y44.7998
G01 X36.9166 Y44.7510
G01 X36.8186 Y44.6923
G01 X36.7269 Y44.6243
G01 X36.6424 Y44.5476
G01 X36.5657 Y44.4631
G01 X36.4977 Y44.3714
G01 X36.4390 Y44.2734
G01 X36.3902 Y44.1702
G01 X36.3517 Y44.0627
G01 X36.3240 Y43.9520
G01 X36.3072 Y43.8390
G01 X36.3016 Y43.7250
G01 X36.3072 Y43.6110
G01 X36.3240 Y43.4980
G01 X36.3517 Y43.3873
G01 X36.3902 Y43.2798
G01 X36.4390 Y43.1766
G01 X36.4977 Y43.0786
G01 X36.5657 Y42.9869
G01 X36.6424 Y42.9024
G01 X36.7269 Y42.8257
G01 X36.8186 Y42.7577
G01 X36.9166 Y42.6990
G01 X37.0198 Y42.6502
G01 X37.1273 Y42.6117
G01 X37.2380 Y42.5840
G01 X37.3510 Y42.5672
G01 X37.4650 Y42.5616
G01 X37.5790 Y42.5672
G01 X37.6920 Y42.5840
G01 X37.8027 Y42.6117
G01 X37.9102 Y42.6502
G01 X38.0134 Y42.6990
G01 X38.1114 Y42.7577
G01 X38.2031 Y42.8257
G01 X38.2876 Y42.9024
G01 X38.3548 Y42.9763
G00 Z3.0000
G00 X39.0906 Y45.2367
G01 F60.00
G01 Z-0.0500
G01 F120.00
G01 X40.9194 Y45.2367
G01 X41.0174 Y45.2415
G01 X41.0257 Y45.2424
G01 X41.1145 Y45.2555
G01 X41.1254 Y45.2577
G01 X41.2179 Y45.2810
G01 X41.3077 Y45.3130
G01 X41.3155 Y45.3161
G01 X41.4041 Y45.3582
G01 X41.4907 Y45.4100
G01 X41.5717 Y45.4701
G01 X41.6228 Y45.5163
G01 X43.0663 Y45.5163
G01 X43.0663 Y2.6590
G01 X43.0164 Y2.6136
G01 X42.9438 Y2.5336
G01 X42.9385 Y2.5271
G01 X42.8775 Y2.4448
G01 X42.8730 Y2.4378
G01 X42.8190 Y2.3474
G01 X42.7727 Y2.2498
G01 X42.7696 Y2.2420
G01 X42.7342 Y2.1428
G01 X42.7073 Y2.0353
G01 X42.6910 Y1.9257
G01 X42.6857 Y1.8206
G01 X42.6856 Y1.8122
G01 X42.6910 Y1.7043
G01 X42.7073 Y1.5947
G01 X42.7342 Y1.4872
G01 X42.7696 Y1.3880
G01 X42.7738 Y1.3777
G01 X42.8165 Y1.2876
G01 X42.8217 Y1.2778
G01 X42.8759 Y1.1875
G01 X42.9385 Y1.1029
G01 X42.9456 Y1.0943
G01 X43.0164 Y1.0164
G01 X43.0943 Y0.9456
G01 X43.1029 Y0.9385
G01 X43.1875 Y0.8759
G01 X43.2826 Y0.8190
G01 X43.3828 Y0.7716
G01 X43.4872 Y0.7342
G01 X43.5947 Y0.7073
G01 X43.7043 Y0.6910
G01 X43.8150 Y0.6856
G01 X43.9257 Y0.6910
G01 X44.0353 Y0.7073
G01 X44.1428 Y0.7342
G01 X44.2472 Y0.7716
G01 X44.3424 Y0.8165
G01 X44.3522 Y0.8217
G01 X44.4378 Y0.8730
G01 X44.4470 Y0.8791
G01 X44.5315 Y0.9420
G01 X44.6096 Y1.0126
G01 X44.6174 Y1.0204
G01 X44.6880 Y1.0985
G01 X44.7541 Y1.1875
G01 X44.8110 Y1.2826
G01 X44.8584 Y1.3828
G01 X44.8958 Y1.4872
G01 X44.9227 Y1.5947
G01 X44.9390 Y1.7043
G01 X44.9444 Y1.8122
G01 X44.9443 Y1.8206
G01 X44.9390 Y1.9257
G01 X44.9227 Y2.0353
G01 X44.8958 Y2.1428
G01 X44.8604 Y2.2420
G01 X44.8573 Y2.2498
G01 X44.8110 Y2.3474
G01 X44.7570 Y2.4378
G01 X44.7525 Y2.4448
G01 X44.6915 Y2.5271
G01 X44.6862 Y2.5336
G01 X44.6136 Y2.6136
G01 X44.5637 Y2.6590
G01 X44.5637 Y46.2650
G01 X44.5601 Y46.3384
G01 X44.5503 Y46.4056
G01 X44.5488 Y46.4138
G01 X44.5315 Y46.4823
G01 X44.5087 Y46.5463
G01 X44.5045 Y46.5566
G01 X44.4753 Y46.6179
G01 X44.4405 Y46.6763
G01 X44.4343 Y46.6855
G01 X44.3938 Y46.7400
G01 X44.3444 Y46.7944
G01 X44.2942 Y46.8401
G01 X44.2856 Y46.8472
G01 X44.2310 Y46.8875
G01 X44.1679 Y46.9253
G01 X44.1015 Y46.9567
G01 X44.0376 Y46.9797
G01 X44.0270 Y46.9830
G01 X43.9665 Y46.9981
G01 X43.9556 Y47.0003
G01 X43.8884 Y47.0101
G01 X43.8150 Y47.0137
G01 X41.6228 Y47.0137
G01 X41.5717 Y47.0599
G01 X41.4907 Y47.1200
G01 X41.4041 Y47.1718
G01 X41.3155 Y47.2139
G01 X41.3077 Y47.2170
G01 X41.2179 Y47.2490
G01 X41.1254 Y47.2723
G01 X41.1145 Y47.2745
G01 X41.0257 Y47.2876
G01 X41.0146 Y47.2887
G01 X40.9194 Y47.2933
G01 X39.0906 Y47.2933
G01 X38.9898 Y47.2883
G01 X38.8955 Y47.2745
G01 X38.8873 Y47.2729
G01 X38.7921 Y47.2490
G01 X38.6971 Y47.2150
G01 X38.6059 Y47.1718
G01 X38.5193 Y47.1200
G01 X38.4383 Y47.0599
G01 X38.3635 Y46.9921
G01 X38.2957 Y46.9173
G01 X38.2388 Y46.8408
G01 X38.2327 Y46.8316
G01 X38.1838 Y46.7497
G01 X38.1429 Y46.6636
G01 X38.1386 Y46.6533
G01 X38.1084 Y46.5688
G01 X38.1051 Y46.5581
G01 X38.0821 Y46.4656
G01 X38.0673 Y46.3658
G01 X38.0623 Y46.2650
G01 X38.0673 Y46.1642
G01 X38.0821 Y46.0644
G01 X38.1066 Y45.9665
G01 X38.1406 Y45.8715
G01 X38.1838 Y45.7803
G01 X38.2356 Y45.6937
G01 X38.2957 Y45.6127
G01 X38.3635 Y45.5379
G01 X38.4341 Y45.4738
G01 X38.4427 Y45.4667
G01 X38.5193 Y45.4100
G01 X38.6010 Y45.3609
G01 X38.6109 Y45.3557
G01 X38.6920 Y45.3173
G01 X38.7023 Y45.3130
G01 X38.7921 Y45.2810
G01 X38.8900 Y45.2565
G01 X38.9898 Y45.2417
G01 X39.0906 Y45.2367
G00 Z3.0000
G00 X33.9098 Y52.0937
G01 F60.00
G01 Z-0.0500
G01 F120.00
G01 X33.8426 Y52.1676
G01 X33.7581 Y52.2443
G01 X33.6664 Y52.3123
G01 X33.5684 Y52.3710
G01 X33.4652 Y52.4198
G01 X33.3577 Y52.4583
G01 X33.2470 Y52.4860
G01 X33.1340 Y52.5028
G01 X33.0200 Y52.5084
G01 X32.9060 Y52.5028
G01 X32.7930 Y52.4860
G01 X32.6823 Y52.4583
G01 X32.5748 Y52.4198
G01 X32.4716 Y52.3710
G01 X32.3736 Y52.3123
G01 X32.2819 Y52.2443
G01 X32.1974 Y52.1676
G01 X32.1207 Y52.0831
G01 X32.0527 Y51.9914
G01 X31.9940 Y51.8934
G01 X31.9452 Y51.7902
G01 X31.9067 Y51.6827
G01 X31.8790 Y51.5720
G01 X31.8622 Y51.4590
G01 X31.8566 Y51.3450
G01 X31.8622 Y51.2310
G01 X31.8790 Y51.1180
G01 X31.9067 Y51.0073
G01 X31.9452 Y50.8998
G01 X31.9940 Y50.7966
G01 X32.0527 Y50.6986
G01 X32.1207 Y50.6069
G01 X32.1974 Y50.5224
G01 X32.2819 Y50.4457
G01 X32.3736 Y50.3777
G01 X32.4667 Y50.3217
G01 X32.4765 Y50.3165
G01 X32.5697 Y50.2724
G01 X32.5800 Y50.2682
G01 X32.6823 Y50.2317
G01 X32.7876 Y50.2052
G01 X32.7985 Y50.2030
G01 X32.9060 Y50.1872
G01 X33.0172 Y50.1816
G01 X33.0256 Y50.1817
G01 X33.1340 Y50.1872
G01 X33.2470 Y50.2040
G01 X33.3577 Y50.2317
G01 X33.4600 Y50.2682
G01 X33.4703 Y50.2724
G01 X33.5684 Y50.3190
G01 X33.6616 Y50.3747
G01 X33.6709 Y50.3809
G01 X33.7537 Y50.4423
G01 X33.7623 Y50.4493
G01 X33.8426 Y50.5224
G01 X33.9098 Y50.5963
G01 X38.3872 Y50.5963
G01 X38.4383 Y50.5501
G01 X38.5193 Y50.4900
G01 X38.6059 Y50.4382
G01 X38.6945 Y50.3961
G01 X38.7023 Y50.3930
G01 X38.7868 Y50.3628
G01 X38.7975 Y50.3595
G01 X38.8900 Y50.3365
G01 X38.9898 Y50.3217
G01 X39.0906 Y50.3167
G01 X40.9194 Y50.3167
G01 X41.0174 Y50.3215
G01 X41.0257 Y50.3224
G01 X41.1200 Y50.3365
G01 X41.2125 Y50.3595
G01 X41.2232 Y50.3628
G01 X41.3077 Y50.3930
G01 X41.3180 Y50.3973
G01 X41.4041 Y50.4382
G01 X41.4907 Y50.4900
G01 X41.5717 Y50.5501
G01 X41.6465 Y50.6179
G01 X41.7143 Y50.6927
G01 X41.7744 Y50.7737
G01 X41.8262 Y50.8603
G01 X41.8671 Y50.9464
G01 X41.8714 Y50.9567
G01 X41.9016 Y51.0412
G01 X41.9049 Y51.0519
G01 X41.9279 Y51.1444
G01 X41.9427 Y51.2442
G01 X41.9477 Y51.3450
G01 X41.9427 Y51.4458
G01 X41.9279 Y51.5456
G01 X41.9034 Y51.6435
G01 X41.8694 Y51.7385
G01 X41.8262 Y51.8297
G01 X41.7744 Y51.9163
G01 X41.7143 Y51.9973
G01 X41.6465 Y52.0721
G01 X41.5717 Y52.1399
G01 X41.4907 Y52.2000
G01 X41.4041 Y52.2518
G01 X41.3129 Y52.2950
G01 X41.2179 Y52.3290
G01 X41.1200 Y52.3535
G01 X41.0202 Y52.3683
G01 X40.9194 Y52.3733
G01 X39.0906 Y52.3733
G01 X38.9898 Y52.3683
G01 X38.8900 Y52.3535
G01 X38.7975 Y52.3305
G01 X38.7868 Y52.3272
G01 X38.7023 Y52.2970
G01 X38.6945 Y52.2939
G01 X38.6059 Y52.2518
G01 X38.5193 Y52.2000
G01 X38.4383 Y52.1399
G01 X38.3872 Y52.0937
G01 X33.9098 Y52.0937
G00 Z3.0000
G00 X33.9304 Y57.2361
G01 F60.00
G01 Z-0.0500
G01 F120.00
G01 X34.1763 Y56.9902
G01 X34.1763 Y56.0448
G01 X34.1024 Y55.9776
G01 X34.0257 Y55.8931
G01 X33.9577 Y55.8014
G01 X33.9017 Y55.7083
G01 X33.8965 Y55.6985
G01 X33.8524 Y55.6053
G01 X33.8482 Y55.5950
G01 X33.8117 Y55.4927
G01 X33.7840 Y55.3820
G01 X33.7672 Y55.2690
G01 X33.7617 Y55.1606
G01 X33.7617 Y55.1494
G01 X33.7668 Y55.0465
G01 X33.7679 Y55.0354
G01 X33.7840 Y54.9280
G01 X33.8117 Y54.8173
G01 X33.8502 Y54.7098
G01 X33.8977 Y54.6090
G01 X33.9017 Y54.6017
G01 X33.9577 Y54.5086
G01 X34.0257 Y54.4169
G01 X34.1024 Y54.3324
G01 X34.1869 Y54.2557
G01 X34.2786 Y54.1877
G01 X34.3766 Y54.1290
G01 X34.4798 Y54.0802
G01 X34.5873 Y54.0417
G01 X34.6980 Y54.0140
G01 X34.8110 Y53.9972
G01 X34.9250 Y53.9916
G01 X35.0390 Y53.9972
G01 X35.1520 Y54.0140
G01 X35.2627 Y54.0417
G01 X35.3702 Y54.0802
G01 X35.4710 Y54.1277
G01 X35.4783 Y54.1317
G01 X35.5714 Y54.1877
G01 X35.6587 Y54.2523
G01 X35.6673 Y54.2593
G01 X35.7476 Y54.3324
G01 X35.8207 Y54.4127
G01 X35.8277 Y54.4213
G01 X35.8923 Y54.5086
G01 X35.9510 Y54.6066
G01 X35.9976 Y54.7047
G01 X36.0018 Y54.7150
G01 X36.0383 Y54.8173
G01 X36.0648 Y54.9226
G01 X36.0670 Y54.9335
G01 X36.0825 Y55.0382
G01 X36.0832 Y55.0465
G01 X36.0884 Y55.1550
G01 X36.0832 Y55.2635
G01 X36.0821 Y55.2746
G01 X36.0660 Y55.3820
G01 X36.0398 Y55.4874
G01 X36.0366 Y55.4980
G01 X35.9998 Y55.6002
G01 X35.9510 Y55.7034
G01 X35.8953 Y55.7966
G01 X35.8891 Y55.8059
G01 X35.8277 Y55.8887
G01 X35.8207 Y55.8973
G01 X35.7476 Y55.9776
G01 X35.6737 Y56.0448
G01 X35.6737 Y56.9902
G01 X35.9234 Y57.2401
G01 X35.9288 Y57.2465
G01 X35.9337 Y57.2532
G01 X35.9407 Y57.2653
G01 X35.9462 Y57.2780
G01 X35.9500 Y57.2914
G01 X35.9523 Y57.3051
G01 X35.9528 Y57.3162
G01 X35.9528 Y58.0738
G01 X35.9519 Y58.0876
G01 X35.9494 Y58.1013
G01 X35.9462 Y58.1120
G01 X35.9407 Y58.1247
G01 X35.9367 Y58.1321
G01 X35.9321 Y58.1391
G01 X35.9253 Y58.1478
G01 X35.9196 Y58.1539
G01 X35.3839 Y58.6896
G01 X35.3757 Y58.6971
G01 X35.3668 Y58.7037
G01 X35.3572 Y58.7094
G01 X35.3472 Y58.7142
G01 X35.3367 Y58.7179
G01 X35.3259 Y58.7206
G01 X35.3149 Y58.7223
G01 X35.3038 Y58.7228
G01 X34.5462 Y58.7228
G01 X34.5351 Y58.7223
G01 X34.5214 Y58.7200
G01 X34.5107 Y58.7171
G01 X34.5003 Y58.7131
G01 X34.4903 Y58.7081
G01 X34.4809 Y58.7021
G01 X34.4722 Y58.6953
G01 X34.4661 Y58.6896
G01 X33.9304 Y58.1539
G01 X33.9229 Y58.1457
G01 X33.9148 Y58.1344
G01 X33.9093 Y58.1247
G01 X33.9048 Y58.1146
G01 X33.9013 Y58.1040
G01 X33.8989 Y58.0931
G01 X33.8977 Y58.0849
G01 X33.8972 Y58.0738
G01 X33.8972 Y57.3135
G01 X33.8977 Y57.3051
G01 X33.8994 Y57.2941
G01 X33.9021 Y57.2833
G01 X33.9058 Y57.2728
G01 X33.9106 Y57.2628
G01 X33.9163 Y57.2532
G01 X33.9229 Y57.2443
G01 X33.9304 Y57.2361
G00 Z3.0000
G00 X39.0104 Y57.2361
G01 F60.00
G01 Z-0.0500
G01 F120.00
G01 X39.2563 Y56.9902
G01 X39.2563 Y54.9133
G01 X39.0878 Y54.9132
G01 X38.9954 Y54.9087
G01 X38.9843 Y54.9076
G01 X38.8900 Y54.8935
G01 X38.7975 Y54.8705
G01 X38.7868 Y54.8672
G01 X38.6997 Y54.8360
G01 X38.6920 Y54.8327
G01 X38.6109 Y54.7943
G01 X38.6010 Y54.7891
G01 X38.5193 Y54.7400
G01 X38.4427 Y54.6833
G01 X38.4341 Y54.6762
G01 X38.3635 Y54.6121
G01 X38.2994 Y54.5415
G01 X38.2940 Y54.5351
G01 X38.2356 Y54.4563
G01 X38.1865 Y54.3746
G01 X38.1813 Y54.3647
G01 X38.1406 Y54.2785
G01 X38.1084 Y54.1888
G01 X38.1051 Y54.1781
G01 X38.0821 Y54.0856
G01 X38.0680 Y53.9913
G01 X38.0669 Y53.9802
G01 X38.0623 Y53.8850
G01 X38.0669 Y53.7898
G01 X38.0680 Y53.7787
G01 X38.0821 Y53.6844
G01 X38.1051 Y53.5919
G01 X38.1084 Y53.5812
G01 X38.1386 Y53.4967
G01 X38.1417 Y53.4889
G01 X38.1813 Y53.4053
G01 X38.1865 Y53.3954
G01 X38.2356 Y53.3137
G01 X38.2923 Y53.2371
G01 X38.2994 Y53.2285
G01 X38.3635 Y53.1579
G01 X38.4383 Y53.0901
G01 X38.5193 Y53.0300
G01 X38.6010 Y52.9809
G01 X38.6109 Y52.9757
G01 X38.6971 Y52.9350
G01 X38.7868 Y52.9028
G01 X38.7975 Y52.8995
G01 X38.8873 Y52.8771
G01 X38.8955 Y52.8755
G01 X38.9898 Y52.8617
G01 X39.0906 Y52.8567
G01 X40.9222 Y52.8568
G01 X41.0202 Y52.8617
G01 X41.1200 Y52.8765
G01 X41.2179 Y52.9010
G01 X41.3129 Y52.9350
G01 X41.4041 Y52.9782
G01 X41.4907 Y53.0300
G01 X41.5717 Y53.0901
G01 X41.6465 Y53.1579
G01 X41.7143 Y53.2327
G01 X41.7744 Y53.3137
G01 X41.8262 Y53.4003
G01 X41.8694 Y53.4915
G01 X41.9034 Y53.5865
G01 X41.9279 Y53.6844
G01 X41.9427 Y53.7842
G01 X41.9475 Y53.8794
G01 X41.9475 Y53.8906
G01 X41.9427 Y53.9858
G01 X41.9289 Y54.0801
G01 X41.9267 Y54.0910
G01 X41.9049 Y54.1781
G01 X41.9016 Y54.1888
G01 X41.8694 Y54.2785
G01 X41.8287 Y54.3647
G01 X41.8235 Y54.3746
G01 X41.7744 Y54.4563
G01 X41.7143 Y54.5373
G01 X41.6465 Y54.6121
G01 X41.5738 Y54.6781
G01 X41.5673 Y54.6833
G01 X41.4907 Y54.7400
G01 X41.4041 Y54.7918
G01 X41.3129 Y54.8350
G01 X41.2232 Y54.8672
G01 X41.2152 Y54.8698
G01 X41.1200 Y54.8935
G01 X41.0202 Y54.9083
G01 X40.9222 Y54.9132
G01 X40.7537 Y54.9133
G01 X40.7537 Y56.9463
G01 X50.5452 Y56.9463
G01 X50.6124 Y56.8724
G01 X50.6927 Y56.7993
G01 X50.7013 Y56.7923
G01 X50.7841 Y56.7309
G01 X50.7934 Y56.7247
G01 X50.8866 Y56.6690
G01 X50.9898 Y56.6202
G01 X51.0973 Y56.5817
G01 X51.2026 Y56.5552
G01 X51.2135 Y56.5530
G01 X51.3210 Y56.5372
G01 X51.4294 Y56.5317
G01 X51.4406 Y56.5317
G01 X51.5463 Y56.5370
G01 X51.5546 Y56.5379
G01 X51.6620 Y56.5540
G01 X51.7727 Y56.5817
G01 X51.8802 Y56.6202
G01 X51.9785 Y56.6665
G01 X51.9883 Y56.6717
G01 X52.0814 Y56.7277
G01 X52.1687 Y56.7923
G01 X52.1773 Y56.7993
G01 X52.2536 Y56.8685
G01 X52.2615 Y56.8764
G01 X52.3343 Y56.9569
G01 X52.4023 Y57.0486
G01 X52.4610 Y57.1466
G01 X52.5098 Y57.2498
G01 X52.5483 Y57.3573
G01 X52.5760 Y57.4680
G01 X52.5928 Y57.5810
G01 X52.5983 Y57.6894
G01 X52.5984 Y57.6978
G01 X52.5928 Y57.8090
G01 X52.5760 Y57.9220
G01 X52.5483 Y58.0327
G01 X52.5098 Y58.1402
G01 X52.4610 Y58.2434
G01 X52.4023 Y58.3414
G01 X52.3343 Y58.4331
G01 X52.2615 Y58.5136
G01 X52.2536 Y58.5215
G01 X52.1731 Y58.5943
G01 X52.0859 Y58.6591
G01 X52.0766 Y58.6653
G01 X51.9883 Y58.7183
G01 X51.9785 Y58.7235
G01 X51.8802 Y58.7698
G01 X51.7727 Y58.8083
G01 X51.6620 Y58.8360
G01 X51.5546 Y58.8521
G01 X51.5463 Y58.8530
G01 X51.4406 Y58.8583
G01 X51.4294 Y58.8583
G01 X51.3210 Y58.8528
G01 X51.2135 Y58.8370
G01 X51.2026 Y58.8348
G01 X51.0973 Y58.8083
G01 X50.9898 Y58.7698
G01 X50.8866 Y58.7210
G01 X50.7934 Y58.6653
G01 X50.7841 Y58.6591
G01 X50.7013 Y58.5977
G01 X50.6927 Y58.5907
G01 X50.6124 Y58.5176
G01 X50.5452 Y58.4437
G01 X40.7098 Y58.4437
G01 X40.4599 Y58.6934
G01 X40.4491 Y58.7021
G01 X40.4372 Y58.7094
G01 X40.4246 Y58.7152
G01 X40.4113 Y58.7194
G01 X40.3976 Y58.7219
G01 X40.3838 Y58.7228
G01 X39.6235 Y58.7228
G01 X39.6124 Y58.7219
G01 X39.6014 Y58.7200
G01 X39.5907 Y58.7171
G01 X39.5828 Y58.7142
G01 X39.5753 Y58.7107
G01 X39.5656 Y58.7052
G01 X39.5565 Y58.6988
G01 X39.5481 Y58.6915
G01 X39.0104 Y58.1539
G01 X39.0029 Y58.1457
G01 X38.9963 Y58.1368
G01 X38.9906 Y58.1272
G01 X38.9858 Y58.1172
G01 X38.9821 Y58.1067
G01 X38.9794 Y58.0959
G01 X38.9777 Y58.0849
G01 X38.9772 Y58.0738
G01 X38.9772 Y57.3135
G01 X38.9777 Y57.3051
G01 X38.9794 Y57.2941
G01 X38.9821 Y57.2833
G01 X38.9858 Y57.2728
G01 X38.9906 Y57.2628
G01 X38.9963 Y57.2532
G01 X39.0029 Y57.2443
G01 X39.0104 Y57.2361
G00 Z3.0000
G00 X33.9098 Y64.5663
G01 F60.00
G01 Z-0.0500
G01 F120.00
G01 X107.8363 Y64.5663
G01 X107.8363 Y24.1537
G01 X101.7137 Y24.1537
G01 X101.7137 Y25.5972
G01 X101.7599 Y25.6483
G01 X101.8200 Y25.7293
G01 X101.8718 Y25.8159
G01 X101.9139 Y25.9045
G01 X101.9170 Y25.9123
G01 X101.9472 Y25.9968
G01 X101.9505 Y26.0075
G01 X101.9735 Y26.1000
G01 X101.9876 Y26.1943
G01 X101.9885 Y26.2026
G01 X101.9933 Y26.3006
G01 X101.9933 Y28.1294
G01 X101.9883 Y28.2302
G01 X101.9735 Y28.3300
G01 X101.9505 Y28.4225
G01 X101.9472 Y28.4332
G01 X101.9150 Y28.5229
G01 X101.8718 Y28.6141
G01 X101.8229 Y28.6960
G01 X101.8168 Y28.7052
G01 X101.7599 Y28.7817
G01 X101.6959 Y28.8525
G01 X101.6881 Y28.8603
G01 X101.6173 Y28.9243
G01 X101.5363 Y28.9844
G01 X101.4497 Y29.0362
G01 X101.3636 Y29.0771
G01 X101.3533 Y29.0814
G01 X101.2688 Y29.1116
G01 X101.2608 Y29.1142
G01 X101.1656 Y29.1379
G01 X101.0658 Y29.1527
G01 X100.9650 Y29.1577
G01 X100.8698 Y29.1531
G01 X100.8587 Y29.1520
G01 X100.7644 Y29.1379
G01 X100.6719 Y29.1149
G01 X100.6612 Y29.1116
G01 X100.5767 Y29.0814
G01 X100.5664 Y29.0771
G01 X100.4803 Y29.0362
G01 X100.3937 Y28.9844
G01 X100.3127 Y28.9243
G01 X100.2379 Y28.8565
G01 X100.1701 Y28.7817
G01 X100.1100 Y28.7007
G01 X100.0582 Y28.6141
G01 X100.0173 Y28.5280
G01 X100.0130 Y28.5177
G01 X99.9810 Y28.4279
G01 X99.9565 Y28.3300
G01 X99.9417 Y28.2302
G01 X99.9368 Y28.1322
G01 X99.9368 Y26.2978
G01 X99.9417 Y26.1998
G01 X99.9565 Y26.1000
G01 X99.9810 Y26.0021
G01 X100.0140 Y25.9097
G01 X100.0173 Y25.9020
G01 X100.0582 Y25.8159
G01 X100.1085 Y25.7317
G01 X100.1132 Y25.7248
G01 X100.1701 Y25.6483
G01 X100.2163 Y25.5972
G01 X100.2163 Y23.4050
G01 X100.2199 Y23.3316
G01 X100.2297 Y23.2644
G01 X100.2312 Y23.2562
G01 X100.2470 Y23.1930
G01 X100.2503 Y23.1824
G01 X100.2733 Y23.1185
G01 X100.3022 Y23.0570
G01 X100.3074 Y23.0472
G01 X100.3425 Y22.9890
G01 X100.3828 Y22.9344
G01 X100.3899 Y22.9258
G01 X100.4356 Y22.8756
G01 X100.4858 Y22.8299
G01 X100.4944 Y22.8228
G01 X100.5490 Y22.7825
G01 X100.6072 Y22.7474
G01 X100.6170 Y22.7422
G01 X100.6785 Y22.7133
G01 X100.7424 Y22.6903
G01 X100.7530 Y22.6870
G01 X100.8135 Y22.6719
G01 X100.8244 Y22.6697
G01 X100.8916 Y22.6599
G01 X100.9650 Y22.6563
G01 X108.5906 Y22.6564
G01 X108.6584 Y22.6599
G01 X108.7256 Y22.6697
G01 X108.7365 Y22.6719
G01 X108.8023 Y22.6885
G01 X108.8663 Y22.7113
G01 X108.8766 Y22.7155
G01 X108.9379 Y22.7447
G01 X108.9963 Y22.7795
G01 X109.0055 Y22.7857
G01 X109.0600 Y22.8262
G01 X109.1104 Y22.8717
G01 X109.1183 Y22.8796
G01 X109.1638 Y22.9300
G01 X109.2043 Y22.9845
G01 X109.2105 Y22.9937
G01 X109.2440 Y23.0496
G01 X109.2478 Y23.0570
G01 X109.2767 Y23.1185
G01 X109.2997 Y23.1824
G01 X109.3030 Y23.1930
G01 X109.3193 Y23.2589
G01 X109.3294 Y23.3261
G01 X109.3305 Y23.3372
G01 X109.3337 Y23.4050
G01 X109.3337 Y65.3150
G01 X109.3305 Y65.3828
G01 X109.3294 Y65.3939
G01 X109.3193 Y65.4611
G01 X109.3030 Y65.5270
G01 X109.2997 Y65.5376
G01 X109.2767 Y65.6015
G01 X109.2478 Y65.6630
G01 X109.2426 Y65.6728
G01 X109.2075 Y65.7310
G01 X109.1672 Y65.7856
G01 X109.1601 Y65.7942
G01 X109.1144 Y65.8444
G01 X109.0642 Y65.8901
G01 X109.0556 Y65.8972
G01 X109.0010 Y65.9375
G01 X108.9404 Y65.9740
G01 X108.9330 Y65.9778
G01 X108.8715 Y66.0067
G01 X108.8076 Y66.0297
G01 X108.7970 Y66.0330
G01 X108.7311 Y66.0493
G01 X108.6639 Y66.0594
G01 X108.6528 Y66.0605
G01 X108.5850 Y66.0637
G01 X33.9098 Y66.0637
G01 X33.8426 Y66.1376
G01 X33.7623 Y66.2107
G01 X33.7537 Y66.2177
G01 X33.6709 Y66.2791
G01 X33.6616 Y66.2853
G01 X33.5684 Y66.3410
G01 X33.4703 Y66.3876
G01 X33.4600 Y66.3918
G01 X33.3577 Y66.4283
G01 X33.2470 Y66.4560
G01 X33.1340 Y66.4728
G01 X33.0200 Y66.4784
G01 X32.9060 Y66.4728
G01 X32.7930 Y66.4560
G01 X32.6823 Y66.4283
G01 X32.5800 Y66.3918
G01 X32.5697 Y66.3876
G01 X32.4765 Y66.3435
G01 X32.4667 Y66.3383
G01 X32.3736 Y66.2823
G01 X32.2863 Y66.2177
G01 X32.2777 Y66.2107
G01 X32.1974 Y66.1376
G01 X32.1207 Y66.0531
G01 X32.0527 Y65.9614
G01 X31.9940 Y65.8634
G01 X31.9452 Y65.7602
G01 X31.9067 Y65.6527
G01 X31.8790 Y65.5420
G01 X31.8622 Y65.4290
G01 X31.8566 Y65.3150
G01 X31.8622 Y65.2010
G01 X31.8790 Y65.0880
G01 X31.9067 Y64.9773
G01 X31.9452 Y64.8698
G01 X31.9940 Y64.7666
G01 X32.0527 Y64.6686
G01 X32.1207 Y64.5769
G01 X32.1974 Y64.4924
G01 X32.2819 Y64.4157
G01 X32.3736 Y64.3477
G01 X32.4716 Y64.2890
G01 X32.5748 Y64.2402
G01 X32.6823 Y64.2017
G01 X32.7930 Y64.1740
G01 X32.9060 Y64.1572
G01 X33.0200 Y64.1516
G01 X33.1340 Y64.1572
G01 X33.2470 Y64.1740
G01 X33.3577 Y64.2017
G01 X33.4652 Y64.2402
G01 X33.5684 Y64.2890
G01 X33.6664 Y64.3477
G01 X33.7581 Y64.4157
G01 X33.8426 Y64.4924
G01 X33.9098 Y64.5663
G00 Z3.0000
G00 X32.6398 Y67.1063
G01 F60.00
G01 Z-0.0500
G01 F120.00
G01 X110.3763 Y67.1063
G01 X110.3763 Y21.6137
G01 X101.8548 Y21.6137
G01 X101.7876 Y21.6876
G01 X101.7073 Y21.7607
G01 X101.6987 Y21.7677
G01 X101.6159 Y21.8291
G01 X101.6066 Y21.8353
G01 X101.5134 Y21.8910
G01 X101.4102 Y21.9398
G01 X101.3027 Y21.9783
G01 X101.1974 Y22.0048
G01 X101.1865 Y22.0070
G01 X101.0790 Y22.0228
G01 X100.9706 Y22.0283
G01 X100.9594 Y22.0283
G01 X100.8537 Y22.0230
G01 X100.8454 Y22.0221
G01 X100.7380 Y22.0060
G01 X100.6273 Y21.9783
G01 X100.5198 Y21.9398
G01 X100.4215 Y21.8935
G01 X100.4117 Y21.8883
G01 X100.3186 Y21.8323
G01 X100.2313 Y21.7677
G01 X100.2227 Y21.7607
G01 X100.1464 Y21.6915
G01 X100.1385 Y21.6836
G01 X100.0657 Y21.6031
G01 X99.9977 Y21.5114
G01 X99.9390 Y21.4134
G01 X99.8902 Y21.3102
G01 X99.8517 Y21.2027
G01 X99.8240 Y21.0920
G01 X99.8072 Y20.9790
G01 X99.8017 Y20.8706
G01 X99.8016 Y20.8622
G01 X99.8072 Y20.7510
G01 X99.8240 Y20.6380
G01 X99.8517 Y20.5273
G01 X99.8902 Y20.4198
G01 X99.9390 Y20.3166
G01 X99.9977 Y20.2186
G01 X100.0657 Y20.1269
G01 X100.1424 Y20.0424
G01 X100.2269 Y19.9657
G01 X100.3186 Y19.8977
G01 X100.4166 Y19.8390
G01 X100.5198 Y19.7902
G01 X100.6273 Y19.7517
G01 X100.7380 Y19.7240
G01 X100.8510 Y19.7072
G01 X100.9622 Y19.7016
G01 X100.9706 Y19.7017
G01 X101.0790 Y19.7072
G01 X101.1920 Y19.7240
G01 X101.3027 Y19.7517
G01 X101.4050 Y19.7882
G01 X101.4153 Y19.7924
G01 X101.5134 Y19.8390
G01 X101.6066 Y19.8947
G01 X101.6159 Y19.9009
G01 X101.6987 Y19.9623
G01 X101.7073 Y19.9693
G01 X101.7876 Y20.0424
G01 X101.8548 Y20.1163
G01 X111.1306 Y20.1164
G01 X111.1928 Y20.1195
G01 X111.2039 Y20.1206
G01 X111.2711 Y20.1307
G01 X111.3370 Y20.1470
G01 X111.3476 Y20.1503
G01 X111.4115 Y20.1733
G01 X111.4730 Y20.2022
G01 X111.4828 Y20.2074
G01 X111.5410 Y20.2425
G01 X111.5956 Y20.2828
G01 X111.6042 Y20.2899
G01 X111.6544 Y20.3356
G01 X111.7001 Y20.3858
G01 X111.7072 Y20.3944
G01 X111.7475 Y20.4490
G01 X111.7826 Y20.5072
G01 X111.7878 Y20.5170
G01 X111.8167 Y20.5785
G01 X111.8397 Y20.6424
G01 X111.8430 Y20.6530
G01 X111.8593 Y20.7189
G01 X111.8694 Y20.7861
G01 X111.8705 Y20.7972
G01 X111.8737 Y20.8650
G01 X111.8737 Y67.8550
G01 X111.8705 Y67.9228
G01 X111.8694 Y67.9339
G01 X111.8593 Y68.0011
G01 X111.8430 Y68.0670
G01 X111.8397 Y68.0776
G01 X111.8167 Y68.1415
G01 X111.7878 Y68.2030
G01 X111.7826 Y68.2128
G01 X111.7475 Y68.2710
G01 X111.7072 Y68.3256
G01 X111.7001 Y68.3342
G01 X111.6544 Y68.3844
G01 X111.6042 Y68.4301
G01 X111.5956 Y68.4372
G01 X111.5410 Y68.4775
G01 X111.4828 Y68.5126
G01 X111.4730 Y68.5178
G01 X111.4115 Y68.5467
G01 X111.3476 Y68.5697
G01 X111.3370 Y68.5730
G01 X111.2711 Y68.5893
G01 X111.2039 Y68.5994
G01 X111.1928 Y68.6005
G01 X111.1250 Y68.6037
G01 X32.6398 Y68.6037
G01 X32.5726 Y68.6776
G01 X32.4923 Y68.7507
G01 X32.4837 Y68.7577
G01 X32.4009 Y68.8191
G01 X32.3916 Y68.8253
G01 X32.2984 Y68.8810
G01 X32.2003 Y68.9276
G01 X32.1900 Y68.9318
G01 X32.0877 Y68.9683
G01 X31.9770 Y68.9960
G01 X31.8640 Y69.0128
G01 X31.7500 Y69.0184
G01 X31.6360 Y69.0128
G01 X31.5230 Y68.9960
G01 X31.4123 Y68.9683
G01 X31.3100 Y68.9318
G01 X31.2997 Y68.9276
G01 X31.2065 Y68.8835
G01 X31.1967 Y68.8783
G01 X31.1036 Y68.8223
G01 X31.0163 Y68.7577
G01 X31.0077 Y68.7507
G01 X30.9274 Y68.6776
G01 X30.8507 Y68.5931
G01 X30.7827 Y68.5014
G01 X30.7240 Y68.4034
G01 X30.6752 Y68.3002
G01 X30.6367 Y68.1927
G01 X30.6090 Y68.0820
G01 X30.5922 Y67.9690
G01 X30.5866 Y67.8550
G01 X30.5922 Y67.7410
G01 X30.6090 Y67.6280
G01 X30.6367 Y67.5173
G01 X30.6752 Y67.4098
G01 X30.7240 Y67.3066
G01 X30.7827 Y67.2086
G01 X30.8507 Y67.1169
G01 X30.9274 Y67.0324
G01 X31.0119 Y66.9557
G01 X31.1036 Y66.8877
G01 X31.2016 Y66.8290
G01 X31.3048 Y66.7802
G01 X31.4123 Y66.7417
G01 X31.5230 Y66.7140
G01 X31.6360 Y66.6972
G01 X31.7500 Y66.6916
G01 X31.8640 Y66.6972
G01 X31.9770 Y66.7140
G01 X32.0877 Y66.7417
G01 X32.1952 Y66.7802
G01 X32.2984 Y66.8290
G01 X32.3964 Y66.8877
G01 X32.4881 Y66.9557
G01 X32.5726 Y67.0324
G01 X32.6398 Y67.1063
G00 Z3.0000
G00 X56.8628 Y52.0937
G01 F60.00
G01 Z-0.0500
G01 F120.00
G01 X56.8117 Y52.1399
G01 X56.7307 Y52.2000
G01 X56.6441 Y52.2518
G01 X56.5555 Y52.2939
G01 X56.5477 Y52.2970
G01 X56.4632 Y52.3272
G01 X56.4525 Y52.3305
G01 X56.3600 Y52.3535
G01 X56.2657 Y52.3676
G01 X56.2574 Y52.3685
G01 X56.1594 Y52.3733
G01 X54.3278 Y52.3732
G01 X54.2298 Y52.3683
G01 X54.1355 Y52.3545
G01 X54.1246 Y52.3523
G01 X54.0321 Y52.3290
G01 X53.9371 Y52.2950
G01 X53.8459 Y52.2518
G01 X53.7593 Y52.2000
G01 X53.6783 Y52.1399
G01 X53.6035 Y52.0721
G01 X53.5357 Y51.9973
G01 X53.4756 Y51.9163
G01 X53.4238 Y51.8297
G01 X53.3806 Y51.7385
G01 X53.3466 Y51.6435
G01 X53.3221 Y51.5456
G01 X53.3073 Y51.4458
G01 X53.3023 Y51.3450
G01 X53.3073 Y51.2442
G01 X53.3221 Y51.1444
G01 X53.3466 Y51.0465
G01 X53.3786 Y50.9567
G01 X53.3829 Y50.9464
G01 X53.4238 Y50.8603
G01 X53.4756 Y50.7737
G01 X53.5357 Y50.6927
G01 X53.5997 Y50.6219
G01 X53.6075 Y50.6141
G01 X53.6783 Y50.5501
G01 X53.7593 Y50.4900
G01 X53.8410 Y50.4409
G01 X53.8509 Y50.4357
G01 X53.9371 Y50.3950
G01 X54.0268 Y50.3628
G01 X54.0375 Y50.3595
G01 X54.1300 Y50.3365
G01 X54.2298 Y50.3217
G01 X54.3306 Y50.3167
G01 X56.1594 Y50.3167
G01 X56.2602 Y50.3217
G01 X56.3600 Y50.3365
G01 X56.4525 Y50.3595
G01 X56.4632 Y50.3628
G01 X56.5477 Y50.3930
G01 X56.5555 Y50.3961
G01 X56.6441 Y50.4382
G01 X56.7307 Y50.4900
G01 X56.8117 Y50.5501
G01 X56.8628 Y50.5963
G01 X61.9752 Y50.5963
G01 X62.0424 Y50.5224
G01 X62.1227 Y50.4493
G01 X62.1313 Y50.4423
G01 X62.2141 Y50.3809
G01 X62.2234 Y50.3747
G01 X62.3166 Y50.3190
G01 X62.4147 Y50.2724
G01 X62.4250 Y50.2682
G01 X62.5273 Y50.2317
G01 X62.6380 Y50.2040
G01 X62.7510 Y50.1872
G01 X62.8594 Y50.1817
G01 X62.8678 Y50.1816
G01 X62.9790 Y50.1872
G01 X63.0920 Y50.2040
G01 X63.2027 Y50.2317
G01 X63.3050 Y50.2682
G01 X63.3153 Y50.2724
G01 X63.4085 Y50.3165
G01 X63.4183 Y50.3217
G01 X63.5114 Y50.3777
G01 X63.5987 Y50.4423
G01 X63.6073 Y50.4493
G01 X63.6876 Y50.5224
G01 X63.7643 Y50.6069
G01 X63.8323 Y50.6986
G01 X63.8910 Y50.7966
G01 X63.9398 Y50.8998
G01 X63.9783 Y51.0073
G01 X64.0060 Y51.1180
G01 X64.0225 Y51.2282
G01 X64.0232 Y51.2365
G01 X64.0284 Y51.3450
G01 X64.0228 Y51.4590
G01 X64.0060 Y51.5720
G01 X63.9783 Y51.6827
G01 X63.9398 Y51.7902
G01 X63.8910 Y51.8934
G01 X63.8323 Y51.9914
G01 X63.7643 Y52.0831
G01 X63.6876 Y52.1676
G01 X63.6031 Y52.2443
G01 X63.5114 Y52.3123
G01 X63.4134 Y52.3710
G01 X63.3102 Y52.4198
G01 X63.2027 Y52.4583
G01 X63.0920 Y52.4860
G01 X62.9818 Y52.5025
G01 X62.9735 Y52.5032
G01 X62.8650 Y52.5084
G01 X62.7565 Y52.5032
G01 X62.7454 Y52.5021
G01 X62.6380 Y52.4860
G01 X62.5326 Y52.4598
G01 X62.5220 Y52.4566
G01 X62.4198 Y52.4198
G01 X62.3166 Y52.3710
G01 X62.2234 Y52.3153
G01 X62.2141 Y52.3091
G01 X62.1313 Y52.2477
G01 X62.1227 Y52.2407
G01 X62.0424 Y52.1676
G01 X61.9752 Y52.0937
G01 X56.8628 Y52.0937
G00 Z3.0000
G00 X56.8628 Y41.9337
G01 F60.00
G01 Z-0.0500
G01 F120.00
G01 X56.8117 Y41.9799
G01 X56.7307 Y42.0400
G01 X56.6441 Y42.0918
G01 X56.5555 Y42.1339
G01 X56.5477 Y42.1370
G01 X56.4632 Y42.1672
G01 X56.4525 Y42.1705
G01 X56.3600 Y42.1935
G01 X56.2657 Y42.2076
G01 X56.2574 Y42.2085
G01 X56.1594 Y42.2133
G01 X54.3278 Y42.2132
G01 X54.2298 Y42.2083
G01 X54.1355 Y42.1945
G01 X54.1246 Y42.1923
G01 X54.0321 Y42.1690
G01 X53.9371 Y42.1350
G01 X53.8459 Y42.0918
G01 X53.7593 Y42.0400
G01 X53.6783 Y41.9799
G01 X53.6035 Y41.9121
G01 X53.5357 Y41.8373
G01 X53.4756 Y41.7563
G01 X53.4238 Y41.6697
G01 X53.3806 Y41.5785
G01 X53.3466 Y41.4835
G01 X53.3221 Y41.3856
G01 X53.3073 Y41.2858
G01 X53.3023 Y41.1850
G01 X53.3073 Y41.0842
G01 X53.3221 Y40.9844
G01 X53.3466 Y40.8865
G01 X53.3786 Y40.7967
G01 X53.3829 Y40.7864
G01 X53.4238 Y40.7003
G01 X53.4756 Y40.6137
G01 X53.5357 Y40.5327
G01 X53.5997 Y40.4619
G01 X53.6075 Y40.4541
G01 X53.6783 Y40.3901
G01 X53.7593 Y40.3300
G01 X53.8410 Y40.2809
G01 X53.8509 Y40.2757
G01 X53.9371 Y40.2350
G01 X54.0268 Y40.2028
G01 X54.0375 Y40.1995
G01 X54.1300 Y40.1765
G01 X54.2298 Y40.1617
G01 X54.3306 Y40.1567
G01 X56.1594 Y40.1567
G01 X56.2602 Y40.1617
G01 X56.3600 Y40.1765
G01 X56.4525 Y40.1995
G01 X56.4632 Y40.2028
G01 X56.5477 Y40.2330
G01 X56.5555 Y40.2361
G01 X56.6441 Y40.2782
G01 X56.7307 Y40.3300
G01 X56.8117 Y40.3901
G01 X56.8628 Y40.4363
G01 X61.9752 Y40.4363
G01 X62.0424 Y40.3624
G01 X62.1227 Y40.2893
G01 X62.1313 Y40.2823
G01 X62.2141 Y40.2209
G01 X62.2234 Y40.2147
G01 X62.3166 Y40.1590
G01 X62.4147 Y40.1124
G01 X62.4250 Y40.1082
G01 X62.5273 Y40.0717
G01 X62.6380 Y40.0440
G01 X62.7510 Y40.0272
G01 X62.8594 Y40.0217
G01 X62.8678 Y40.0216
G01 X62.9790 Y40.0272
G01 X63.0920 Y40.0440
G01 X63.2027 Y40.0717
G01 X63.3050 Y40.1082
G01 X63.3153 Y40.1124
G01 X63.4085 Y40.1565
G01 X63.4183 Y40.1617
G01 X63.5114 Y40.2177
G01 X63.5987 Y40.2823
G01 X63.6073 Y40.2893
G01 X63.6876 Y40.3624
G01 X63.7643 Y40.4469
G01 X63.8323 Y40.5386
G01 X63.8910 Y40.6366
G01 X63.9398 Y40.7398
G01 X63.9783 Y40.8473
G01 X64.0060 Y40.9580
G01 X64.0225 Y41.0682
G01 X64.0232 Y41.0765
G01 X64.0284 Y41.1850
G01 X64.0228 Y41.2990
G01 X64.0060 Y41.4120
G01 X63.9783 Y41.5227
G01 X63.9398 Y41.6302
G01 X63.8910 Y41.7334
G01 X63.8323 Y41.8314
G01 X63.7643 Y41.9231
G01 X63.6876 Y42.0076
G01 X63.6031 Y42.0843
G01 X63.5114 Y42.1523
G01 X63.4134 Y42.2110
G01 X63.3102 Y42.2598
G01 X63.2027 Y42.2983
G01 X63.0920 Y42.3260
G01 X62.9818 Y42.3425
G01 X62.9735 Y42.3432
G01 X62.8650 Y42.3484
G01 X62.7565 Y42.3432
G01 X62.7454 Y42.3421
G01 X62.6380 Y42.3260
G01 X62.5326 Y42.2998
G01 X62.5220 Y42.2966
G01 X62.4198 Y42.2598
G01 X62.3166 Y42.2110
G01 X62.2234 Y42.1553
G01 X62.2141 Y42.1491
G01 X62.1313 Y42.0877
G01 X62.1227 Y42.0807
G01 X62.0424 Y42.0076
G01 X61.9752 Y41.9337
G01 X56.8628 Y41.9337
G00 Z3.0000
G00 X54.3306 Y37.6167
G01 F60.00
G01 Z-0.0500
G01 F120.00
G01 X56.1594 Y37.6167
G01 X56.2574 Y37.6215
G01 X56.2657 Y37.6224
G01 X56.3545 Y37.6355
G01 X56.3654 Y37.6377
G01 X56.4579 Y37.6610
G01 X56.5477 Y37.6930
G01 X56.5555 Y37.6961
G01 X56.6441 Y37.7382
G01 X56.7307 Y37.7900
G01 X56.8117 Y37.8501
G01 X56.8628 Y37.8963
G01 X58.2326 Y37.8963
G01 X58.2639 Y37.8617
G01 X58.2697 Y37.8558
G01 X58.3465 Y37.7861
G01 X58.3531 Y37.7809
G01 X58.4319 Y37.7224
G01 X58.4388 Y37.7177
G01 X58.5301 Y37.6631
G01 X58.6238 Y37.6186
G01 X58.6341 Y37.6143
G01 X58.7291 Y37.5804
G01 X58.7372 Y37.5781
G01 X58.8378 Y37.5530
G01 X58.9403 Y37.5376
G01 X58.9514 Y37.5366
G01 X59.0550 Y37.5316
G01 X59.1586 Y37.5366
G01 X59.1697 Y37.5376
G01 X59.2667 Y37.5520
G01 X59.2749 Y37.5536
G01 X59.3782 Y37.5795
G01 X59.4811 Y37.6164
G01 X59.5799 Y37.6631
G01 X59.6736 Y37.7192
G01 X59.7613 Y37.7843
G01 X59.8423 Y37.8577
G01 X59.9157 Y37.9387
G01 X59.9808 Y38.0264
G01 X60.0369 Y38.1201
G01 X60.0836 Y38.2189
G01 X60.1205 Y38.3218
G01 X60.1470 Y38.4278
G01 X60.1630 Y38.5359
G01 X60.1684 Y38.6450
G01 X60.1630 Y38.7541
G01 X60.1480 Y38.8567
G01 X60.1464 Y38.8649
G01 X60.1205 Y38.9682
G01 X60.0857 Y39.0659
G01 X60.0814 Y39.0762
G01 X60.0369 Y39.1699
G01 X59.9808 Y39.2636
G01 X59.9191 Y39.3469
G01 X59.9120 Y39.3555
G01 X59.8461 Y39.4283
G01 X59.8383 Y39.4361
G01 X59.7613 Y39.5057
G01 X59.6736 Y39.5708
G01 X59.5799 Y39.6269
G01 X59.4862 Y39.6714
G01 X59.4759 Y39.6757
G01 X59.3835 Y39.7087
G01 X59.3728 Y39.7119
G01 X59.2722 Y39.7370
G01 X59.1669 Y39.7527
G01 X59.1586 Y39.7534
G01 X59.0550 Y39.7584
G01 X58.9514 Y39.7534
G01 X58.9403 Y39.7524
G01 X58.8378 Y39.7370
G01 X58.7372 Y39.7119
G01 X58.7265 Y39.7087
G01 X58.6315 Y39.6747
G01 X58.6238 Y39.6714
G01 X58.5301 Y39.6269
G01 X58.4411 Y39.5737
G01 X58.4341 Y39.5692
G01 X58.3531 Y39.5091
G01 X58.3465 Y39.5039
G01 X58.2697 Y39.4342
G01 X58.2639 Y39.4283
G01 X58.2326 Y39.3937
G01 X56.8628 Y39.3937
G01 X56.8117 Y39.4399
G01 X56.7307 Y39.5000
G01 X56.6441 Y39.5518
G01 X56.5555 Y39.5939
G01 X56.5477 Y39.5970
G01 X56.4632 Y39.6272
G01 X56.4525 Y39.6305
G01 X56.3600 Y39.6535
G01 X56.2657 Y39.6676
G01 X56.2574 Y39.6685
G01 X56.1594 Y39.6733
G01 X54.3306 Y39.6733
G01 X54.2298 Y39.6683
G01 X54.1355 Y39.6545
G01 X54.1273 Y39.6529
G01 X54.0321 Y39.6290
G01 X53.9371 Y39.5950
G01 X53.8459 Y39.5518
G01 X53.7593 Y39.5000
G01 X53.6783 Y39.4399
G01 X53.6035 Y39.3721
G01 X53.5357 Y39.2973
G01 X53.4788 Y39.2208
G01 X53.4727 Y39.2116
G01 X53.4238 Y39.1297
G01 X53.3829 Y39.0436
G01 X53.3786 Y39.0333
G01 X53.3484 Y38.9488
G01 X53.3451 Y38.9381
G01 X53.3221 Y38.8456
G01 X53.3073 Y38.7458
G01 X53.3023 Y38.6450
G01 X53.3073 Y38.5442
G01 X53.3221 Y38.4444
G01 X53.3466 Y38.3465
G01 X53.3806 Y38.2515
G01 X53.4238 Y38.1603
G01 X53.4756 Y38.0737
G01 X53.5357 Y37.9927
G01 X53.6035 Y37.9179
G01 X53.6741 Y37.8538
G01 X53.6827 Y37.8467
G01 X53.7593 Y37.7900
G01 X53.8410 Y37.7409
G01 X53.8509 Y37.7357
G01 X53.9320 Y37.6973
G01 X53.9423 Y37.6930
G01 X54.0321 Y37.6610
G01 X54.1300 Y37.6365
G01 X54.2298 Y37.6217
G01 X54.3306 Y37.6167
G00 Z3.0000
G00 X56.8628 Y36.8537
G01 F60.00
G01 Z-0.0500
G01 F120.00
G01 X56.8117 Y36.8999
G01 X56.7307 Y36.9600
G01 X56.6441 Y37.0118
G01 X56.5555 Y37.0539
G01 X56.5477 Y37.0570
G01 X56.4632 Y37.0872
G01 X56.4525 Y37.0905
G01 X56.3600 Y37.1135
G01 X56.2657 Y37.1276
G01 X56.2574 Y37.1285
G01 X56.1594 Y37.1333
G01 X54.3278 Y37.1332
G01 X54.2298 Y37.1283
G01 X54.1355 Y37.1145
G01 X54.1246 Y37.1123
G01 X54.0321 Y37.0890
G01 X53.9371 Y37.0550
G01 X53.8459 Y37.0118
G01 X53.7593 Y36.9600
G01 X53.6783 Y36.8999
G01 X53.6035 Y36.8321
G01 X53.5357 Y36.7573
G01 X53.4756 Y36.6763
G01 X53.4238 Y36.5897
G01 X53.3806 Y36.4985
G01 X53.3466 Y36.4035
G01 X53.3221 Y36.3056
G01 X53.3073 Y36.2058
G01 X53.3023 Y36.1050
G01 X53.3073 Y36.0042
G01 X53.3221 Y35.9044
G01 X53.3466 Y35.8065
G01 X53.3786 Y35.7167
G01 X53.3829 Y35.7064
G01 X53.4238 Y35.6203
G01 X53.4756 Y35.5337
G01 X53.5357 Y35.4527
G01 X53.5997 Y35.3819
G01 X53.6075 Y35.3741
G01 X53.6783 Y35.3101
G01 X53.7593 Y35.2500
G01 X53.8410 Y35.2009
G01 X53.8509 Y35.1957
G01 X53.9371 Y35.1550
G01 X54.0268 Y35.1228
G01 X54.0375 Y35.1195
G01 X54.1300 Y35.0965
G01 X54.2298 Y35.0817
G01 X54.3306 Y35.0767
G01 X56.1594 Y35.0767
G01 X56.2602 Y35.0817
G01 X56.3600 Y35.0965
G01 X56.4525 Y35.1195
G01 X56.4632 Y35.1228
G01 X56.5477 Y35.1530
G01 X56.5555 Y35.1561
G01 X56.6441 Y35.1982
G01 X56.7307 Y35.2500
G01 X56.8117 Y35.3101
G01 X56.8628 Y35.3563
G01 X60.7052 Y35.3563
G01 X60.7724 Y35.2824
G01 X60.8527 Y35.2093
G01 X60.8613 Y35.2023
G01 X60.9441 Y35.1409
G01 X60.9534 Y35.1347
G01 X61.0466 Y35.0790
G01 X61.1447 Y35.0324
G01 X61.1550 Y35.0282
G01 X61.2573 Y34.9917
G01 X61.3680 Y34.9640
G01 X61.4810 Y34.9472
G01 X61.5950 Y34.9416
G01 X61.7090 Y34.9472
G01 X61.8220 Y34.9640
G01 X61.9327 Y34.9917
G01 X62.0350 Y35.0282
G01 X62.0453 Y35.0324
G01 X62.1385 Y35.0765
G01 X62.1483 Y35.0817
G01 X62.2414 Y35.1377
G01 X62.3331 Y35.2057
G01 X62.4176 Y35.2824
G01 X62.4943 Y35.3669
G01 X62.5623 Y35.4586
G01 X62.6183 Y35.5517
G01 X62.6235 Y35.5615
G01 X62.6676 Y35.6547
G01 X62.6718 Y35.6650
G01 X62.7083 Y35.7673
G01 X62.7348 Y35.8726
G01 X62.7366 Y35.8808
G01 X62.7528 Y35.9910
G01 X62.7584 Y36.1050
G01 X62.7528 Y36.2190
G01 X62.7360 Y36.3320
G01 X62.7083 Y36.4427
G01 X62.6698 Y36.5502
G01 X62.6210 Y36.6534
G01 X62.5623 Y36.7514
G01 X62.4943 Y36.8431
G01 X62.4176 Y36.9276
G01 X62.3331 Y37.0043
G01 X62.2414 Y37.0723
G01 X62.1434 Y37.1310
G01 X62.0402 Y37.1798
G01 X61.9327 Y37.2183
G01 X61.8274 Y37.2448
G01 X61.8192 Y37.2466
G01 X61.7146 Y37.2621
G01 X61.7035 Y37.2632
G01 X61.5950 Y37.2684
G01 X61.4865 Y37.2632
G01 X61.4754 Y37.2621
G01 X61.3680 Y37.2460
G01 X61.2626 Y37.2198
G01 X61.2520 Y37.2166
G01 X61.1498 Y37.1798
G01 X61.0515 Y37.1335
G01 X61.0417 Y37.1283
G01 X60.9486 Y37.0723
G01 X60.8613 Y37.0077
G01 X60.8527 Y37.0007
G01 X60.7724 Y36.9276
G01 X60.7052 Y36.8537
G01 X56.8628 Y36.8537
G00 Z3.0000
G00 X54.3306 Y32.5367
G01 F60.00
G01 Z-0.0500
G01 F120.00
G01 X56.1594 Y32.5367
G01 X56.2602 Y32.5417
G01 X56.3600 Y32.5565
G01 X56.4525 Y32.5795
G01 X56.4632 Y32.5828
G01 X56.5477 Y32.6130
G01 X56.5555 Y32.6161
G01 X56.6441 Y32.6582
G01 X56.7307 Y32.7100
G01 X56.8117 Y32.7701
G01 X56.8628 Y32.8163
G01 X65.1502 Y32.8163
G01 X65.2174 Y32.7424
G01 X65.2977 Y32.6693
G01 X65.3063 Y32.6623
G01 X65.3891 Y32.6009
G01 X65.3984 Y32.5947
G01 X65.4916 Y32.5390
G01 X65.5948 Y32.4902
G01 X65.6970 Y32.4534
G01 X65.7076 Y32.4502
G01 X65.8130 Y32.4240
G01 X65.9204 Y32.4079
G01 X65.9315 Y32.4068
G01 X66.0400 Y32.4016
G01 X66.1540 Y32.4072
G01 X66.2670 Y32.4240
G01 X66.3777 Y32.4517
G01 X66.4852 Y32.4902
G01 X66.5884 Y32.5390
G01 X66.6864 Y32.5977
G01 X66.7781 Y32.6657
G01 X66.8626 Y32.7424
G01 X66.9393 Y32.8269
G01 X67.0073 Y32.9186
G01 X67.0660 Y33.0166
G01 X67.1148 Y33.1198
G01 X67.1533 Y33.2273
G01 X67.1810 Y33.3380
G01 X67.1978 Y33.4510
G01 X67.2034 Y33.5650
G01 X67.1978 Y33.6790
G01 X67.1810 Y33.7920
G01 X67.1533 Y33.9027
G01 X67.1148 Y34.0102
G01 X67.0685 Y34.1085
G01 X67.0633 Y34.1183
G01 X67.0103 Y34.2066
G01 X67.0041 Y34.2159
G01 X66.9393 Y34.3031
G01 X66.8626 Y34.3876
G01 X66.7781 Y34.4643
G01 X66.6864 Y34.5323
G01 X66.5884 Y34.5910
G01 X66.4903 Y34.6376
G01 X66.4800 Y34.6418
G01 X66.3830 Y34.6766
G01 X66.3724 Y34.6798
G01 X66.2670 Y34.7060
G01 X66.1596 Y34.7221
G01 X66.1513 Y34.7230
G01 X66.0456 Y34.7283
G01 X66.0344 Y34.7283
G01 X65.9260 Y34.7228
G01 X65.8185 Y34.7070
G01 X65.8076 Y34.7048
G01 X65.7023 Y34.6783
G01 X65.5948 Y34.6398
G01 X65.4916 Y34.5910
G01 X65.3984 Y34.5353
G01 X65.3891 Y34.5291
G01 X65.3063 Y34.4677
G01 X65.2977 Y34.4607
G01 X65.2174 Y34.3876
G01 X65.1502 Y34.3137
G01 X56.8628 Y34.3137
G01 X56.8117 Y34.3599
G01 X56.7307 Y34.4200
G01 X56.6441 Y34.4718
G01 X56.5555 Y34.5139
G01 X56.5477 Y34.5170
G01 X56.4632 Y34.5472
G01 X56.4525 Y34.5505
G01 X56.3600 Y34.5735
G01 X56.2602 Y34.5883
G01 X56.1594 Y34.5933
G01 X54.3306 Y34.5933
G01 X54.2298 Y34.5883
G01 X54.1300 Y34.5735
G01 X54.0321 Y34.5490
G01 X53.9371 Y34.5150
G01 X53.8459 Y34.4718
G01 X53.7593 Y34.4200
G01 X53.6783 Y34.3599
G01 X53.6035 Y34.2921
G01 X53.5357 Y34.2173
G01 X53.4756 Y34.1363
G01 X53.4238 Y34.0497
G01 X53.3806 Y33.9585
G01 X53.3466 Y33.8635
G01 X53.3221 Y33.7656
G01 X53.3073 Y33.6658
G01 X53.3023 Y33.5650
G01 X53.3069 Y33.4698
G01 X53.3080 Y33.4587
G01 X53.3211 Y33.3699
G01 X53.3233 Y33.3590
G01 X53.3466 Y33.2665
G01 X53.3786 Y33.1767
G01 X53.3829 Y33.1664
G01 X53.4238 Y33.0803
G01 X53.4756 Y32.9937
G01 X53.5357 Y32.9127
G01 X53.5997 Y32.8419
G01 X53.6075 Y32.8341
G01 X53.6783 Y32.7701
G01 X53.7593 Y32.7100
G01 X53.8459 Y32.6582
G01 X53.9371 Y32.6150
G01 X54.0321 Y32.5810
G01 X54.1300 Y32.5565
G01 X54.2298 Y32.5417
G01 X54.3306 Y32.5367
G00 Z3.0000
G00 X56.8628 Y31.7737
G01 F60.00
G01 Z-0.0500
G01 F120.00
G01 X56.8117 Y31.8199
G01 X56.7307 Y31.8800
G01 X56.6441 Y31.9318
G01 X56.5555 Y31.9739
G01 X56.5477 Y31.9770
G01 X56.4632 Y32.0072
G01 X56.4525 Y32.0105
G01 X56.3600 Y32.0335
G01 X56.2657 Y32.0476
G01 X56.2574 Y32.0485
G01 X56.1594 Y32.0533
G01 X54.3278 Y32.0532
G01 X54.2298 Y32.0483
G01 X54.1355 Y32.0345
G01 X54.1246 Y32.0323
G01 X54.0321 Y32.0090
G01 X53.9371 Y31.9750
G01 X53.8459 Y31.9318
G01 X53.7593 Y31.8800
G01 X53.6783 Y31.8199
G01 X53.6035 Y31.7521
G01 X53.5357 Y31.6773
G01 X53.4756 Y31.5963
G01 X53.4238 Y31.5097
G01 X53.3806 Y31.4185
G01 X53.3466 Y31.3235
G01 X53.3221 Y31.2256
G01 X53.3073 Y31.1258
G01 X53.3023 Y31.0250
G01 X53.3073 Y30.9242
G01 X53.3221 Y30.8244
G01 X53.3466 Y30.7265
G01 X53.3786 Y30.6367
G01 X53.3829 Y30.6264
G01 X53.4238 Y30.5403
G01 X53.4756 Y30.4537
G01 X53.5357 Y30.3727
G01 X53.5997 Y30.3019
G01 X53.6075 Y30.2941
G01 X53.6783 Y30.2301
G01 X53.7593 Y30.1700
G01 X53.8410 Y30.1209
G01 X53.8509 Y30.1157
G01 X53.9371 Y30.0750
G01 X54.0321 Y30.0410
G01 X54.1246 Y30.0177
G01 X54.1355 Y30.0155
G01 X54.2243 Y30.0024
G01 X54.2326 Y30.0015
G01 X54.3306 Y29.9967
G01 X56.1594 Y29.9967
G01 X56.2602 Y30.0017
G01 X56.3600 Y30.0165
G01 X56.4525 Y30.0395
G01 X56.4632 Y30.0428
G01 X56.5477 Y30.0730
G01 X56.5555 Y30.0761
G01 X56.6441 Y30.1182
G01 X56.7307 Y30.1700
G01 X56.8117 Y30.2301
G01 X56.8628 Y30.2763
G01 X63.2452 Y30.2763
G01 X63.3124 Y30.2024
G01 X63.3927 Y30.1293
G01 X63.4013 Y30.1223
G01 X63.4841 Y30.0609
G01 X63.4934 Y30.0547
G01 X63.5866 Y29.9990
G01 X63.6847 Y29.9524
G01 X63.6950 Y29.9482
G01 X63.7973 Y29.9117
G01 X63.9080 Y29.8840
G01 X64.0210 Y29.8672
G01 X64.1294 Y29.8617
G01 X64.1378 Y29.8616
G01 X64.2490 Y29.8672
G01 X64.3620 Y29.8840
G01 X64.4727 Y29.9117
G01 X64.5802 Y29.9502
G01 X64.6834 Y29.9990
G01 X64.7814 Y30.0577
G01 X64.8731 Y30.1257
G01 X64.9536 Y30.1985
G01 X64.9615 Y30.2064
G01 X65.0307 Y30.2827
G01 X65.0377 Y30.2913
G01 X65.1023 Y30.3786
G01 X65.1583 Y30.4717
G01 X65.1635 Y30.4815
G01 X65.2098 Y30.5798
G01 X65.2483 Y30.6873
G01 X65.2760 Y30.7980
G01 X65.2928 Y30.9110
G01 X65.2984 Y31.0250
G01 X65.2928 Y31.1390
G01 X65.2760 Y31.2520
G01 X65.2483 Y31.3627
G01 X65.2098 Y31.4702
G01 X65.1610 Y31.5734
G01 X65.1023 Y31.6714
G01 X65.0343 Y31.7631
G01 X64.9576 Y31.8476
G01 X64.8731 Y31.9243
G01 X64.7814 Y31.9923
G01 X64.6834 Y32.0510
G01 X64.5802 Y32.0998
G01 X64.4727 Y32.1383
G01 X64.3620 Y32.1660
G01 X64.2490 Y32.1828
G01 X64.1406 Y32.1883
G01 X64.1294 Y32.1883
G01 X64.0210 Y32.1828
G01 X63.9135 Y32.1670
G01 X63.9026 Y32.1648
G01 X63.7973 Y32.1383
G01 X63.6898 Y32.0998
G01 X63.5866 Y32.0510
G01 X63.4934 Y31.9953
G01 X63.4841 Y31.9891
G01 X63.4013 Y31.9277
G01 X63.3927 Y31.9207
G01 X63.3124 Y31.8476
G01 X63.2452 Y31.7737
G01 X56.8628 Y31.7737
G00 Z3.0000
G00 X54.3306 Y27.4567
G01 F60.00
G01 Z-0.0500
G01 F120.00
G01 X56.1594 Y27.4567
G01 X56.2602 Y27.4617
G01 X56.3600 Y27.4765
G01 X56.4525 Y27.4995
G01 X56.4632 Y27.5028
G01 X56.5477 Y27.5330
G01 X56.5555 Y27.5361
G01 X56.6441 Y27.5782
G01 X56.7307 Y27.6300
G01 X56.8117 Y27.6901
G01 X56.8628 Y27.7363
G01 X68.3252 Y27.7363
G01 X68.3924 Y27.6624
G01 X68.4727 Y27.5893
G01 X68.4813 Y27.5823
G01 X68.5641 Y27.5209
G01 X68.5734 Y27.5147
G01 X68.6666 Y27.4590
G01 X68.7698 Y27.4102
G01 X68.8773 Y27.3717
G01 X68.9826 Y27.3452
G01 X68.9935 Y27.3430
G01 X69.1010 Y27.3272
G01 X69.2094 Y27.3217
G01 X69.2206 Y27.3217
G01 X69.3263 Y27.3270
G01 X69.3346 Y27.3279
G01 X69.4420 Y27.3440
G01 X69.5527 Y27.3717
G01 X69.6602 Y27.4102
G01 X69.7634 Y27.4590
G01 X69.8614 Y27.5177
G01 X69.9531 Y27.5857
G01 X70.0376 Y27.6624
G01 X70.1143 Y27.7469
G01 X70.1823 Y27.8386
G01 X70.2410 Y27.9366
G01 X70.2898 Y28.0398
G01 X70.3283 Y28.1473
G01 X70.3560 Y28.2580
G01 X70.3728 Y28.3710
G01 X70.3784 Y28.4850
G01 X70.3730 Y28.5963
G01 X70.3721 Y28.6046
G01 X70.3560 Y28.7120
G01 X70.3298 Y28.8174
G01 X70.3266 Y28.8280
G01 X70.2918 Y28.9250
G01 X70.2876 Y28.9353
G01 X70.2410 Y29.0334
G01 X70.1823 Y29.1314
G01 X70.1143 Y29.2231
G01 X70.0376 Y29.3076
G01 X69.9531 Y29.3843
G01 X69.8614 Y29.4523
G01 X69.7634 Y29.5110
G01 X69.6653 Y29.5576
G01 X69.6550 Y29.5618
G01 X69.5580 Y29.5966
G01 X69.5474 Y29.5998
G01 X69.4420 Y29.6260
G01 X69.3346 Y29.6421
G01 X69.3235 Y29.6432
G01 X69.2150 Y29.6484
G01 X69.1065 Y29.6432
G01 X69.0954 Y29.6421
G01 X68.9935 Y29.6270
G01 X68.9826 Y29.6248
G01 X68.8773 Y29.5983
G01 X68.7698 Y29.5598
G01 X68.6666 Y29.5110
G01 X68.5734 Y29.4553
G01 X68.5641 Y29.4491
G01 X68.4813 Y29.3877
G01 X68.4727 Y29.3807
G01 X68.3924 Y29.3076
G01 X68.3252 Y29.2337
G01 X56.8628 Y29.2337
G01 X56.8117 Y29.2799
G01 X56.7307 Y29.3400
G01 X56.6441 Y29.3918
G01 X56.5555 Y29.4339
G01 X56.5477 Y29.4370
G01 X56.4632 Y29.4672
G01 X56.4525 Y29.4705
G01 X56.3600 Y29.4935
G01 X56.2602 Y29.5083
G01 X56.1594 Y29.5133
G01 X54.3306 Y29.5133
G01 X54.2326 Y29.5085
G01 X54.2243 Y29.5076
G01 X54.1300 Y29.4935
G01 X54.0321 Y29.4690
G01 X53.9371 Y29.4350
G01 X53.8459 Y29.3918
G01 X53.7593 Y29.3400
G01 X53.6783 Y29.2799
G01 X53.6035 Y29.2121
G01 X53.5394 Y29.1415
G01 X53.5323 Y29.1329
G01 X53.4756 Y29.0563
G01 X53.4265 Y28.9746
G01 X53.4213 Y28.9647
G01 X53.3829 Y28.8836
G01 X53.3786 Y28.8733
G01 X53.3466 Y28.7835
G01 X53.3221 Y28.6856
G01 X53.3073 Y28.5858
G01 X53.3025 Y28.4906
G01 X53.3025 Y28.4794
G01 X53.3073 Y28.3842
G01 X53.3221 Y28.2844
G01 X53.3466 Y28.1865
G01 X53.3806 Y28.0915
G01 X53.4238 Y28.0003
G01 X53.4756 Y27.9137
G01 X53.5357 Y27.8327
G01 X53.6035 Y27.7579
G01 X53.6783 Y27.6901
G01 X53.7593 Y27.6300
G01 X53.8459 Y27.5782
G01 X53.9371 Y27.5350
G01 X54.0321 Y27.5010
G01 X54.1300 Y27.4765
G01 X54.2298 Y27.4617
G01 X54.3306 Y27.4567
G00 Z3.0000
G00 X56.8628 Y26.6937
G01 F60.00
G01 Z-0.0500
G01 F120.00
G01 X56.8117 Y26.7399
G01 X56.7307 Y26.8000
G01 X56.6441 Y26.8518
G01 X56.5555 Y26.8939
G01 X56.5477 Y26.8970
G01 X56.4632 Y26.9272
G01 X56.4525 Y26.9305
G01 X56.3600 Y26.9535
G01 X56.2657 Y26.9676
G01 X56.2574 Y26.9685
G01 X56.1594 Y26.9733
G01 X54.3278 Y26.9732
G01 X54.2298 Y26.9683
G01 X54.1355 Y26.9545
G01 X54.1246 Y26.9523
G01 X54.0321 Y26.9290
G01 X53.9371 Y26.8950
G01 X53.8459 Y26.8518
G01 X53.7593 Y26.8000
G01 X53.6783 Y26.7399
G01 X53.6035 Y26.6721
G01 X53.5357 Y26.5973
G01 X53.4756 Y26.5163
G01 X53.4238 Y26.4297
G01 X53.3806 Y26.3385
G01 X53.3466 Y26.2435
G01 X53.3221 Y26.1456
G01 X53.3073 Y26.0458
G01 X53.3023 Y25.9450
G01 X53.3073 Y25.8442
G01 X53.3221 Y25.7444
G01 X53.3466 Y25.6465
G01 X53.3786 Y25.5567
G01 X53.3829 Y25.5464
G01 X53.4238 Y25.4603
G01 X53.4756 Y25.3737
G01 X53.5357 Y25.2927
G01 X53.5997 Y25.2219
G01 X53.6075 Y25.2141
G01 X53.6741 Y25.1538
G01 X53.6827 Y25.1467
G01 X53.7593 Y25.0900
G01 X53.8459 Y25.0382
G01 X53.9371 Y24.9950
G01 X54.0268 Y24.9628
G01 X54.0375 Y24.9595
G01 X54.1246 Y24.9377
G01 X54.1355 Y24.9355
G01 X54.2298 Y24.9217
G01 X54.3250 Y24.9169
G01 X56.1594 Y24.9167
G01 X56.2602 Y24.9217
G01 X56.3600 Y24.9365
G01 X56.4525 Y24.9595
G01 X56.4632 Y24.9628
G01 X56.5477 Y24.9930
G01 X56.5555 Y24.9961
G01 X56.6441 Y25.0382
G01 X56.7307 Y25.0900
G01 X56.8117 Y25.1501
G01 X56.8628 Y25.1963
G01 X70.8652 Y25.1963
G01 X70.9324 Y25.1224
G01 X71.0127 Y25.0493
G01 X71.0213 Y25.0423
G01 X71.1041 Y24.9809
G01 X71.1134 Y24.9747
G01 X71.2066 Y24.9190
G01 X71.3047 Y24.8724
G01 X71.3150 Y24.8682
G01 X71.4173 Y24.8317
G01 X71.5280 Y24.8040
G01 X71.6410 Y24.7872
G01 X71.7550 Y24.7816
G01 X71.8690 Y24.7872
G01 X71.9820 Y24.8040
G01 X72.0927 Y24.8317
G01 X72.2002 Y24.8702
G01 X72.3034 Y24.9190
G01 X72.4014 Y24.9777
G01 X72.4931 Y25.0457
G01 X72.5736 Y25.1185
G01 X72.5815 Y25.1264
G01 X72.6507 Y25.2027
G01 X72.6577 Y25.2113
G01 X72.7223 Y25.2986
G01 X72.7783 Y25.3917
G01 X72.7835 Y25.4015
G01 X72.8298 Y25.4998
G01 X72.8683 Y25.6073
G01 X72.8960 Y25.7180
G01 X72.9121 Y25.8254
G01 X72.9132 Y25.8365
G01 X72.9184 Y25.9450
G01 X72.9128 Y26.0590
G01 X72.8960 Y26.1720
G01 X72.8683 Y26.2827
G01 X72.8298 Y26.3902
G01 X72.7810 Y26.4934
G01 X72.7223 Y26.5914
G01 X72.6543 Y26.6831
G01 X72.5776 Y26.7676
G01 X72.4931 Y26.8443
G01 X72.4014 Y26.9123
G01 X72.3034 Y26.9710
G01 X72.2002 Y27.0198
G01 X72.0927 Y27.0583
G01 X71.9820 Y27.0860
G01 X71.8746 Y27.1021
G01 X71.8635 Y27.1032
G01 X71.7550 Y27.1084
G01 X71.6465 Y27.1032
G01 X71.6354 Y27.1021
G01 X71.5335 Y27.0870
G01 X71.5226 Y27.0848
G01 X71.4173 Y27.0583
G01 X71.3098 Y27.0198
G01 X71.2066 Y26.9710
G01 X71.1134 Y26.9153
G01 X71.1041 Y26.9091
G01 X71.0213 Y26.8477
G01 X71.0127 Y26.8407
G01 X70.9324 Y26.7676
G01 X70.8652 Y26.6937
G01 X56.8628 Y26.6937
G00 Z3.0000
G00 X56.1594 Y21.8933
G01 F60.00
G01 Z-0.0500
G01 F120.00
G01 X54.3306 Y21.8933
G01 X54.2354 Y21.8887
G01 X54.2243 Y21.8876
G01 X54.1300 Y21.8735
G01 X54.0321 Y21.8490
G01 X53.9371 Y21.8150
G01 X53.8509 Y21.7743
G01 X53.8434 Y21.7705
G01 X53.7593 Y21.7200
G01 X53.6783 Y21.6599
G01 X53.6035 Y21.5921
G01 X53.5357 Y21.5173
G01 X53.4756 Y21.4363
G01 X53.4238 Y21.3497
G01 X53.3806 Y21.2585
G01 X53.3466 Y21.1635
G01 X53.3221 Y21.0656
G01 X53.3073 Y20.9658
G01 X53.3023 Y20.8650
G01 X53.3073 Y20.7642
G01 X53.3221 Y20.6644
G01 X53.3466 Y20.5665
G01 X53.3806 Y20.4715
G01 X53.4213 Y20.3853
G01 X53.4251 Y20.3778
G01 X53.4756 Y20.2937
G01 X53.5323 Y20.2171
G01 X53.5394 Y20.2085
G01 X53.6035 Y20.1379
G01 X53.6741 Y20.0738
G01 X53.6827 Y20.0667
G01 X53.7593 Y20.0100
G01 X53.8410 Y19.9609
G01 X53.8509 Y19.9557
G01 X53.9371 Y19.9150
G01 X54.0268 Y19.8828
G01 X54.0375 Y19.8795
G01 X54.1300 Y19.8565
G01 X54.2243 Y19.8424
G01 X54.2354 Y19.8413
G01 X54.3306 Y19.8367
G01 X56.1594 Y19.8367
G01 X56.2602 Y19.8417
G01 X56.3600 Y19.8565
G01 X56.4525 Y19.8795
G01 X56.4632 Y19.8828
G01 X56.5477 Y19.9130
G01 X56.5555 Y19.9161
G01 X56.6441 Y19.9582
G01 X56.7307 Y20.0100
G01 X56.8117 Y20.0701
G01 X56.8628 Y20.1163
G01 X76.0863 Y20.1163
G01 X76.0863 Y8.2787
G01 X66.6722 Y8.2787
G01 X66.6016 Y8.2751
G01 X66.5344 Y8.2653
G01 X66.5235 Y8.2631
G01 X66.4577 Y8.2465
G01 X66.3885 Y8.2217
G01 X66.3270 Y8.1928
G01 X66.3172 Y8.1876
G01 X66.2637 Y8.1555
G01 X66.2545 Y8.1493
G01 X66.2000 Y8.1088
G01 X66.1496 Y8.0633
G01 X66.1417 Y8.0554
G01 X66.0962 Y8.0050
G01 X66.0557 Y7.9505
G01 X66.0495 Y7.9413
G01 X66.0174 Y7.8878
G01 X66.0122 Y7.8780
G01 X65.9833 Y7.8165
G01 X65.9585 Y7.7473
G01 X65.9407 Y7.6761
G01 X65.9306 Y7.6089
G01 X65.9295 Y7.5978
G01 X65.9263 Y7.5300
G01 X65.9263 Y2.6590
G01 X65.8764 Y2.6136
G01 X65.8038 Y2.5336
G01 X65.7985 Y2.5271
G01 X65.7375 Y2.4448
G01 X65.7330 Y2.4378
G01 X65.6790 Y2.3474
G01 X65.6327 Y2.2498
G01 X65.6296 Y2.2420
G01 X65.5942 Y2.1428
G01 X65.5673 Y2.0353
G01 X65.5510 Y1.9257
G01 X65.5456 Y1.8178
G01 X65.5457 Y1.8094
G01 X65.5510 Y1.7043
G01 X65.5663 Y1.6001
G01 X65.5685 Y1.5892
G01 X65.5942 Y1.4872
G01 X65.6296 Y1.3880
G01 X65.6338 Y1.3777
G01 X65.6790 Y1.2826
G01 X65.7359 Y1.1875
G01 X65.7985 Y1.1029
G01 X65.8056 Y1.0943
G01 X65.8764 Y1.0164
G01 X65.9543 Y0.9456
G01 X65.9629 Y0.9385
G01 X66.0452 Y0.8775
G01 X66.0522 Y0.8730
G01 X66.1426 Y0.8190
G01 X66.2377 Y0.7738
G01 X66.2480 Y0.7696
G01 X66.3472 Y0.7342
G01 X66.4492 Y0.7085
G01 X66.4601 Y0.7063
G01 X66.5643 Y0.6910
G01 X66.6694 Y0.6857
G01 X66.6806 Y0.6857
G01 X66.7857 Y0.6910
G01 X66.8899 Y0.7063
G01 X66.9008 Y0.7085
G01 X67.0028 Y0.7342
G01 X67.1072 Y0.7716
G01 X67.2024 Y0.8165
G01 X67.2122 Y0.8217
G01 X67.3025 Y0.8759
G01 X67.3871 Y0.9385
G01 X67.3957 Y0.9456
G01 X67.4736 Y1.0164
G01 X67.5480 Y1.0985
G01 X67.6141 Y1.1875
G01 X67.6683 Y1.2778
G01 X67.6735 Y1.2876
G01 X67.7184 Y1.3828
G01 X67.7540 Y1.4819
G01 X67.7573 Y1.4925
G01 X67.7821 Y1.5919
G01 X67.7837 Y1.6001
G01 X67.7990 Y1.7043
G01 X67.8043 Y1.8094
G01 X67.8043 Y1.8206
G01 X67.7990 Y1.9257
G01 X67.7837 Y2.0299
G01 X67.7815 Y2.0408
G01 X67.7573 Y2.1375
G01 X67.7549 Y2.1455
G01 X67.7184 Y2.2472
G01 X67.6735 Y2.3424
G01 X67.6683 Y2.3522
G01 X67.6156 Y2.4401
G01 X67.6109 Y2.4470
G01 X67.5515 Y2.5271
G01 X67.5462 Y2.5336
G01 X67.4736 Y2.6136
G01 X67.4237 Y2.6590
G01 X67.4237 Y6.7813
G01 X76.8378 Y6.7813
G01 X76.9084 Y6.7849
G01 X76.9756 Y6.7947
G01 X76.9865 Y6.7969
G01 X77.0523 Y6.8135
G01 X77.1163 Y6.8363
G01 X77.1266 Y6.8405
G01 X77.1879 Y6.8697
G01 X77.2486 Y6.9059
G01 X77.2555 Y6.9107
G01 X77.3100 Y6.9512
G01 X77.3604 Y6.9967
G01 X77.3683 Y7.0046
G01 X77.4138 Y7.0550
G01 X77.4543 Y7.1095
G01 X77.4605 Y7.1187
G01 X77.4953 Y7.1771
G01 X77.5245 Y7.2384
G01 X77.5287 Y7.2487
G01 X77.5515 Y7.3127
G01 X77.5681 Y7.3785
G01 X77.5703 Y7.3894
G01 X77.5801 Y7.4566
G01 X77.5837 Y7.5300
G01 X77.5837 Y59.4863
G01 X83.7063 Y59.4863
G01 X83.7063 Y50.0750
G01 X83.7099 Y50.0016
G01 X83.7207 Y49.9289
G01 X83.7385 Y49.8577
G01 X83.7613 Y49.7937
G01 X83.7655 Y49.7834
G01 X83.7947 Y49.7221
G01 X83.8295 Y49.6637
G01 X83.8357 Y49.6545
G01 X83.8762 Y49.6000
G01 X83.9217 Y49.5496
G01 X83.9296 Y49.5417
G01 X83.9758 Y49.4999
G01 X83.9844 Y49.4928
G01 X84.0390 Y49.4525
G01 X84.0972 Y49.4174
G01 X84.1070 Y49.4122
G01 X84.1685 Y49.3833
G01 X84.2324 Y49.3603
G01 X84.2430 Y49.3570
G01 X84.3089 Y49.3407
G01 X84.3816 Y49.3299
G01 X84.4550 Y49.3263
G01 X88.7863 Y49.3263
G01 X88.7863 Y47.8828
G01 X88.7401 Y47.8317
G01 X88.6800 Y47.7507
G01 X88.6282 Y47.6641
G01 X88.5861 Y47.5755
G01 X88.5830 Y47.5677
G01 X88.5528 Y47.4832
G01 X88.5495 Y47.4725
G01 X88.5265 Y47.3800
G01 X88.5124 Y47.2857
G01 X88.5115 Y47.2774
G01 X88.5067 Y47.1794
G01 X88.5067 Y45.3506
G01 X88.5117 Y45.2498
G01 X88.5265 Y45.1500
G01 X88.5495 Y45.0575
G01 X88.5528 Y45.0468
G01 X88.5850 Y44.9571
G01 X88.6282 Y44.8659
G01 X88.6771 Y44.7840
G01 X88.6832 Y44.7748
G01 X88.7367 Y44.7027
G01 X88.7438 Y44.6941
G01 X88.8079 Y44.6235
G01 X88.8827 Y44.5557
G01 X88.9637 Y44.4956
G01 X89.0454 Y44.4465
G01 X89.0553 Y44.4413
G01 X89.1364 Y44.4029
G01 X89.1467 Y44.3986
G01 X89.2365 Y44.3666
G01 X89.3317 Y44.3427
G01 X89.3399 Y44.3411
G01 X89.4342 Y44.3273
G01 X89.5350 Y44.3223
G01 X89.6358 Y44.3273
G01 X89.7356 Y44.3421
G01 X89.8335 Y44.3666
G01 X89.9285 Y44.4006
G01 X90.0197 Y44.4438
G01 X90.1063 Y44.4956
G01 X90.1873 Y44.5557
G01 X90.2621 Y44.6235
G01 X90.3299 Y44.6983
G01 X90.3900 Y44.7793
G01 X90.4418 Y44.8659
G01 X90.4850 Y44.9571
G01 X90.5190 Y45.0521
G01 X90.5435 Y45.1500
G01 X90.5583 Y45.2498
G01 X90.5633 Y45.3506
G01 X90.5633 Y47.1794
G01 X90.5585 Y47.2774
G01 X90.5576 Y47.2857
G01 X90.5435 Y47.3800
G01 X90.5205 Y47.4725
G01 X90.5172 Y47.4832
G01 X90.4870 Y47.5677
G01 X90.4839 Y47.5755
G01 X90.4418 Y47.6641
G01 X90.3900 Y47.7507
G01 X90.3299 Y47.8317
G01 X90.2837 Y47.8828
G01 X90.2837 Y49.3263
G01 X93.8663 Y49.3263
G01 X93.8663 Y47.8828
G01 X93.8201 Y47.8317
G01 X93.7600 Y47.7507
G01 X93.7082 Y47.6641
G01 X93.6661 Y47.5755
G01 X93.6630 Y47.5677
G01 X93.6328 Y47.4832
G01 X93.6295 Y47.4725
G01 X93.6065 Y47.3800
G01 X93.5924 Y47.2857
G01 X93.5915 Y47.2774
G01 X93.5867 Y47.1794
G01 X93.5867 Y45.3506
G01 X93.5917 Y45.2498
G01 X93.6055 Y45.1555
G01 X93.6077 Y45.1446
G01 X93.6295 Y45.0575
G01 X93.6328 Y45.0468
G01 X93.6650 Y44.9571
G01 X93.7057 Y44.8709
G01 X93.7109 Y44.8610
G01 X93.7600 Y44.7793
G01 X93.8201 Y44.6983
G01 X93.8879 Y44.6235
G01 X93.9627 Y44.5557
G01 X94.0437 Y44.4956
G01 X94.1303 Y44.4438
G01 X94.2215 Y44.4006
G01 X94.3112 Y44.3684
G01 X94.3219 Y44.3651
G01 X94.4090 Y44.3433
G01 X94.4199 Y44.3411
G01 X94.5142 Y44.3273
G01 X94.6150 Y44.3223
G01 X94.7158 Y44.3273
G01 X94.8101 Y44.3411
G01 X94.8210 Y44.3433
G01 X94.9081 Y44.3651
G01 X94.9188 Y44.3684
G01 X95.0085 Y44.4006
G01 X95.0997 Y44.4438
G01 X95.1863 Y44.4956
G01 X95.2673 Y44.5557
G01 X95.3421 Y44.6235
G01 X95.4099 Y44.6983
G01 X95.4700 Y44.7793
G01 X95.5191 Y44.8610
G01 X95.5243 Y44.8709
G01 X95.5650 Y44.9571
G01 X95.5972 Y45.0468
G01 X95.6005 Y45.0575
G01 X95.6223 Y45.1446
G01 X95.6245 Y45.1555
G01 X95.6383 Y45.2498
G01 X95.6433 Y45.3506
G01 X95.6433 Y47.1794
G01 X95.6385 Y47.2774
G01 X95.6376 Y47.2857
G01 X95.6235 Y47.3800
G01 X95.6005 Y47.4725
G01 X95.5972 Y47.4832
G01 X95.5670 Y47.5677
G01 X95.5639 Y47.5755
G01 X95.5218 Y47.6641
G01 X95.4700 Y47.7507
G01 X95.4099 Y47.8317
G01 X95.3637 Y47.8828
G01 X95.3637 Y49.3263
G01 X98.9463 Y49.3263
G01 X98.9463 Y47.8828
G01 X98.9001 Y47.8317
G01 X98.8400 Y47.7507
G01 X98.7882 Y47.6641
G01 X98.7461 Y47.5755
G01 X98.7430 Y47.5677
G01 X98.7110 Y47.4779
G01 X98.6877 Y47.3854
G01 X98.6855 Y47.3745
G01 X98.6724 Y47.2857
G01 X98.6713 Y47.2746
G01 X98.6667 Y47.1794
G01 X98.6668 Y45.3478
G01 X98.6713 Y45.2554
G01 X98.6724 Y45.2443
G01 X98.6865 Y45.1500
G01 X98.7095 Y45.0575
G01 X98.7128 Y45.0468
G01 X98.7450 Y44.9571
G01 X98.7882 Y44.8659
G01 X98.8400 Y44.7793
G01 X98.8967 Y44.7027
G01 X98.9038 Y44.6941
G01 X98.9641 Y44.6275
G01 X98.9719 Y44.6197
G01 X99.0427 Y44.5557
G01 X99.1192 Y44.4988
G01 X99.1284 Y44.4927
G01 X99.2103 Y44.4438
G01 X99.3015 Y44.4006
