(G-CODE GENERATED BY FLATCAM v8.994 - www.flatcam.org - Version Date: 2020/11/7)

(Name: drill_1_16.xln_cnc)
(Type: G-code from Geometry)
(Units: MM)

(Created on sábado, 26 fevereiro 2022 at 17:38)

(This preprocessor is the default preprocessor used by FlatCAM.)
(It is made to work with MACH3 compatible motion controllers.)


(TOOLS DIAMETER: )
(Tool: 1 -> Dia: 0.813)
(Tool: 2 -> Dia: 0.9)
(Tool: 3 -> Dia: 1.016)

(FEEDRATE Z: )
(Tool: 1 -> Feedrate: 300)
(Tool: 2 -> Feedrate: 300)
(Tool: 3 -> Feedrate: 300)

(FEEDRATE RAPIDS: )
(Tool: 1 -> Feedrate Rapids: 1500)
(Tool: 2 -> Feedrate Rapids: 1500)
(Tool: 3 -> Feedrate Rapids: 1500)

(Z_CUT: )
(Tool: 1 -> Z_Cut: -1.7)
(Tool: 2 -> Z_Cut: -1.7)
(Tool: 3 -> Z_Cut: -1.7)

(Tools Offset: )
(Tool: 1 -> Offset Z: 0.0)
(Tool: 2 -> Offset Z: 0.0)
(Tool: 3 -> Offset Z: 0.0)

(Z_MOVE: )
(Tool: 1 -> Z_Move: 2)
(Tool: 2 -> Z_Move: 2)
(Tool: 3 -> Z_Move: 2)

(Z Toolchange: 15.0 mm)
(X,Y Toolchange: 0.0000, 0.0000 mm)
(Z Start: None mm)
(Z End: 0.5 mm)
(X,Y End: None mm)
(Steps per circle: 64)
(Preprocessor Excellon: default)

(X range:    1.4550 ...  125.6030  mm)
(Y range:    1.3070 ...   70.8450  mm)

(Spindle Speed: 0 RPM)
G21
G90
G94

G01 F300.00

M5
G00 Z15.0000
T1
G00 X0.0000 Y0.0000                
M6
(MSG, Change to Tool Dia = 0.8130 ||| Total drills for tool T1 = 156)
M0
G00 Z15.0000

G01 F300.00
M03
G00 X97.1550 Y46.2650
G01 Z-1.7000
G01 Z0
G00 Z2.0000
G00 X97.1550 Y53.8850
G01 Z-1.7000
G01 Z0
G00 Z2.0000
G00 X99.6950 Y53.8850
G01 Z-1.7000
G01 Z0
G00 Z2.0000
G00 X102.2350 Y53.8850
G01 Z-1.7000
G01 Z0
G00 Z2.0000
G00 X102.2350 Y46.2650
G01 Z-1.7000
G01 Z0
G00 Z2.0000
G00 X99.6950 Y46.2650
G01 Z-1.7000
G01 Z0
G00 Z2.0000
G00 X100.9650 Y34.8350
G01 Z-1.7000
G01 Z0
G00 Z2.0000
G00 X98.4250 Y34.8350
G01 Z-1.7000
G01 Z0
G00 Z2.0000
G00 X95.8850 Y34.8350
G01 Z-1.7000
G01 Z0
G00 Z2.0000
G00 X93.3450 Y34.8350
G01 Z-1.7000
G01 Z0
G00 Z2.0000
G00 X90.8050 Y34.8350
G01 Z-1.7000
G01 Z0
G00 Z2.0000
G00 X88.2650 Y34.8350
G01 Z-1.7000
G01 Z0
G00 Z2.0000
G00 X85.7250 Y34.8350
G01 Z-1.7000
G01 Z0
G00 Z2.0000
G00 X83.1850 Y39.9150
G01 Z-1.7000
G01 Z0
G00 Z2.0000
G00 X81.9150 Y33.5650
G01 Z-1.7000
G01 Z0
G00 Z2.0000
G00 X81.9150 Y28.4850
G01 Z-1.7000
G01 Z0
G00 Z2.0000
G00 X85.7250 Y27.2150
G01 Z-1.7000
G01 Z0
G00 Z2.0000
G00 X88.2650 Y27.2150
G01 Z-1.7000
G01 Z0
G00 Z2.0000
G00 X90.8050 Y27.2150
G01 Z-1.7000
G01 Z0
G00 Z2.0000
G00 X93.3450 Y27.2150
G01 Z-1.7000
G01 Z0
G00 Z2.0000
G00 X95.8850 Y27.2150
G01 Z-1.7000
G01 Z0
G00 Z2.0000
G00 X98.4250 Y27.2150
G01 Z-1.7000
G01 Z0
G00 Z2.0000
G00 X100.9650 Y27.2150
G01 Z-1.7000
G01 Z0
G00 Z2.0000
G00 X100.9650 Y20.8650
G01 Z-1.7000
G01 Z0
G00 Z2.0000
G00 X93.3450 Y20.8650
G01 Z-1.7000
G01 Z0
G00 Z2.0000
G00 X90.8050 Y22.7700
G01 Z-1.7000
G01 Z0
G00 Z2.0000
G00 X90.8050 Y14.5150
G01 Z-1.7000
G01 Z0
G00 Z2.0000
G00 X92.0750 Y9.4350
G01 Z-1.7000
G01 Z0
G00 Z2.0000
G00 X94.6150 Y11.3400
G01 Z-1.7000
G01 Z0
G00 Z2.0000
G00 X97.1550 Y13.2450
G01 Z-1.7000
G01 Z0
G00 Z2.0000
G00 X125.0950 Y1.8150
G01 Z-1.7000
G01 Z0
G00 Z2.0000
G00 X122.5550 Y1.8150
G01 Z-1.7000
G01 Z0
G00 Z2.0000
G00 X120.0150 Y1.8150
G01 Z-1.7000
G01 Z0
G00 Z2.0000
G00 X117.4750 Y1.8150
G01 Z-1.7000
G01 Z0
G00 Z2.0000
G00 X114.9350 Y1.8150
G01 Z-1.7000
G01 Z0
G00 Z2.0000
G00 X112.3950 Y1.8150
G01 Z-1.7000
G01 Z0
G00 Z2.0000
G00 X109.8550 Y1.8150
G01 Z-1.7000
G01 Z0
G00 Z2.0000
G00 X107.3150 Y1.8150
G01 Z-1.7000
G01 Z0
G00 Z2.0000
G00 X104.7750 Y1.8150
G01 Z-1.7000
G01 Z0
G00 Z2.0000
G00 X102.2350 Y1.8150
G01 Z-1.7000
G01 Z0
G00 Z2.0000
G00 X99.6950 Y1.8150
G01 Z-1.7000
G01 Z0
G00 Z2.0000
G00 X97.1550 Y1.8150
G01 Z-1.7000
G01 Z0
G00 Z2.0000
G00 X94.6150 Y1.8150
G01 Z-1.7000
G01 Z0
G00 Z2.0000
G00 X92.0750 Y1.8150
G01 Z-1.7000
G01 Z0
G00 Z2.0000
G00 X89.5350 Y1.8150
G01 Z-1.7000
G01 Z0
G00 Z2.0000
G00 X86.9950 Y1.8150
G01 Z-1.7000
G01 Z0
G00 Z2.0000
G00 X84.4550 Y1.8150
G01 Z-1.7000
G01 Z0
G00 Z2.0000
G00 X81.9150 Y1.8150
G01 Z-1.7000
G01 Z0
G00 Z2.0000
G00 X79.3750 Y1.8150
G01 Z-1.7000
G01 Z0
G00 Z2.0000
G00 X76.8350 Y1.8150
G01 Z-1.7000
G01 Z0
G00 Z2.0000
G00 X74.2950 Y1.8150
G01 Z-1.7000
G01 Z0
G00 Z2.0000
G00 X71.7550 Y1.8150
G01 Z-1.7000
G01 Z0
G00 Z2.0000
G00 X69.2150 Y1.8150
G01 Z-1.7000
G01 Z0
G00 Z2.0000
G00 X66.6750 Y1.8150
G01 Z-1.7000
G01 Z0
G00 Z2.0000
G00 X64.1350 Y4.3550
G01 Z-1.7000
G01 Z0
G00 Z2.0000
G00 X64.1350 Y1.8150
G01 Z-1.7000
G01 Z0
G00 Z2.0000
G00 X61.5950 Y1.8150
G01 Z-1.7000
G01 Z0
G00 Z2.0000
G00 X59.0550 Y1.8150
G01 Z-1.7000
G01 Z0
G00 Z2.0000
G00 X56.5150 Y1.8150
G01 Z-1.7000
G01 Z0
G00 Z2.0000
G00 X53.9750 Y1.8150
G01 Z-1.7000
G01 Z0
G00 Z2.0000
G00 X51.4350 Y1.8150
G01 Z-1.7000
G01 Z0
G00 Z2.0000
G00 X48.8950 Y1.8150
G01 Z-1.7000
G01 Z0
G00 Z2.0000
G00 X46.3550 Y1.8150
G01 Z-1.7000
G01 Z0
G00 Z2.0000
G00 X43.8150 Y1.8150
G01 Z-1.7000
G01 Z0
G00 Z2.0000
G00 X41.2750 Y1.8150
G01 Z-1.7000
G01 Z0
G00 Z2.0000
G00 X38.7350 Y1.8150
G01 Z-1.7000
G01 Z0
G00 Z2.0000
G00 X36.1950 Y1.8150
G01 Z-1.7000
G01 Z0
G00 Z2.0000
G00 X33.6550 Y4.3550
G01 Z-1.7000
G01 Z0
G00 Z2.0000
G00 X33.6550 Y1.8150
G01 Z-1.7000
G01 Z0
G00 Z2.0000
G00 X31.1150 Y1.8150
G01 Z-1.7000
G01 Z0
G00 Z2.0000
G00 X28.5750 Y1.8150
G01 Z-1.7000
G01 Z0
G00 Z2.0000
G00 X26.0350 Y1.8150
G01 Z-1.7000
G01 Z0
G00 Z2.0000
G00 X17.1450 Y4.3550
G01 Z-1.7000
G01 Z0
G00 Z2.0000
G00 X12.0650 Y20.8650
G01 Z-1.7000
G01 Z0
G00 Z2.0000
G00 X9.5250 Y23.4050
G01 Z-1.7000
G01 Z0
G00 Z2.0000
G00 X6.9850 Y25.9450
G01 Z-1.7000
G01 Z0
G00 Z2.0000
G00 X4.4450 Y28.4850
G01 Z-1.7000
G01 Z0
G00 Z2.0000
G00 X1.9050 Y31.0250
G01 Z-1.7000
G01 Z0
G00 Z2.0000
G00 X14.6050 Y34.2000
G01 Z-1.7000
G01 Z0
G00 Z2.0000
G00 X14.6050 Y61.5050
G01 Z-1.7000
G01 Z0
G00 Z2.0000
G00 X31.7500 Y67.8550
G01 Z-1.7000
G01 Z0
G00 Z2.0000
G00 X33.0200 Y65.3150
G01 Z-1.7000
G01 Z0
G00 Z2.0000
G00 X34.9250 Y57.6950
G01 Z-1.7000
G01 Z0
G00 Z2.0000
G00 X34.9250 Y55.1550
G01 Z-1.7000
G01 Z0
G00 Z2.0000
G00 X33.0200 Y51.3450
G01 Z-1.7000
G01 Z0
G00 Z2.0000
G00 X31.7500 Y38.6450
G01 Z-1.7000
G01 Z0
G00 Z2.0000
G00 X40.0050 Y36.1050
G01 Z-1.7000
G01 Z0
G00 Z2.0000
G00 X40.0050 Y38.6450
G01 Z-1.7000
G01 Z0
G00 Z2.0000
G00 X40.0050 Y41.1850
G01 Z-1.7000
G01 Z0
G00 Z2.0000
G00 X37.4650 Y43.7250
G01 Z-1.7000
G01 Z0
G00 Z2.0000
G00 X40.0050 Y43.7250
G01 Z-1.7000
G01 Z0
G00 Z2.0000
G00 X40.0050 Y46.2650
G01 Z-1.7000
G01 Z0
G00 Z2.0000
G00 X40.0050 Y48.8050
G01 Z-1.7000
G01 Z0
G00 Z2.0000
G00 X40.0050 Y51.3450
G01 Z-1.7000
G01 Z0
G00 Z2.0000
G00 X40.0050 Y53.8850
G01 Z-1.7000
G01 Z0
G00 Z2.0000
G00 X40.0050 Y57.6950
G01 Z-1.7000
G01 Z0
G00 Z2.0000
G00 X51.4350 Y57.6950
G01 Z-1.7000
G01 Z0
G00 Z2.0000
G00 X55.2450 Y53.8850
G01 Z-1.7000
G01 Z0
G00 Z2.0000
G00 X55.2450 Y51.3450
G01 Z-1.7000
G01 Z0
G00 Z2.0000
G00 X55.2450 Y48.8050
G01 Z-1.7000
G01 Z0
G00 Z2.0000
G00 X55.2450 Y46.2650
G01 Z-1.7000
G01 Z0
G00 Z2.0000
G00 X55.2450 Y43.7250
G01 Z-1.7000
G01 Z0
G00 Z2.0000
G00 X55.2450 Y41.1850
G01 Z-1.7000
G01 Z0
G00 Z2.0000
G00 X55.2450 Y38.6450
G01 Z-1.7000
G01 Z0
G00 Z2.0000
G00 X55.2450 Y36.1050
G01 Z-1.7000
G01 Z0
G00 Z2.0000
G00 X55.2450 Y33.5650
G01 Z-1.7000
G01 Z0
G00 Z2.0000
G00 X55.2450 Y31.0250
G01 Z-1.7000
G01 Z0
G00 Z2.0000
G00 X55.2450 Y28.4850
G01 Z-1.7000
G01 Z0
G00 Z2.0000
G00 X55.2450 Y25.9450
G01 Z-1.7000
G01 Z0
G00 Z2.0000
G00 X55.2450 Y23.4050
G01 Z-1.7000
G01 Z0
G00 Z2.0000
G00 X55.2450 Y20.8650
G01 Z-1.7000
G01 Z0
G00 Z2.0000
G00 X40.0050 Y20.8650
G01 Z-1.7000
G01 Z0
G00 Z2.0000
G00 X40.0050 Y23.4050
G01 Z-1.7000
G01 Z0
G00 Z2.0000
G00 X40.0050 Y25.9450
G01 Z-1.7000
G01 Z0
G00 Z2.0000
G00 X40.0050 Y28.4850
G01 Z-1.7000
G01 Z0
G00 Z2.0000
G00 X40.0050 Y31.0250
G01 Z-1.7000
G01 Z0
G00 Z2.0000
G00 X40.0050 Y33.5650
G01 Z-1.7000
G01 Z0
G00 Z2.0000
G00 X36.1950 Y33.5650
G01 Z-1.7000
G01 Z0
G00 Z2.0000
G00 X36.1950 Y31.0250
G01 Z-1.7000
G01 Z0
G00 Z2.0000
G00 X36.1950 Y28.4850
G01 Z-1.7000
G01 Z0
G00 Z2.0000
G00 X34.9250 Y25.9450
G01 Z-1.7000
G01 Z0
G00 Z2.0000
G00 X34.2900 Y23.4050
G01 Z-1.7000
G01 Z0
G00 Z2.0000
G00 X33.6550 Y20.8650
G01 Z-1.7000
G01 Z0
G00 Z2.0000
G00 X37.4650 Y11.9750
G01 Z-1.7000
G01 Z0
G00 Z2.0000
G00 X59.0550 Y11.9750
G01 Z-1.7000
G01 Z0
G00 Z2.0000
G00 X61.5950 Y9.4350
G01 Z-1.7000
G01 Z0
G00 Z2.0000
G00 X62.8650 Y14.5150
G01 Z-1.7000
G01 Z0
G00 Z2.0000
G00 X66.0400 Y17.6900
G01 Z-1.7000
G01 Z0
G00 Z2.0000
G00 X69.2150 Y14.5150
G01 Z-1.7000
G01 Z0
G00 Z2.0000
G00 X69.2150 Y10.0700
G01 Z-1.7000
G01 Z0
G00 Z2.0000
G00 X71.7550 Y11.3400
G01 Z-1.7000
G01 Z0
G00 Z2.0000
G00 X74.2950 Y13.2450
G01 Z-1.7000
G01 Z0
G00 Z2.0000
G00 X71.7550 Y16.4200
G01 Z-1.7000
G01 Z0
G00 Z2.0000
G00 X74.2950 Y17.6900
G01 Z-1.7000
G01 Z0
G00 Z2.0000
G00 X74.2950 Y23.4050
G01 Z-1.7000
G01 Z0
G00 Z2.0000
G00 X71.7550 Y25.9450
G01 Z-1.7000
G01 Z0
G00 Z2.0000
G00 X69.2150 Y28.4850
G01 Z-1.7000
G01 Z0
G00 Z2.0000
G00 X66.0400 Y33.5650
G01 Z-1.7000
G01 Z0
G00 Z2.0000
G00 X64.1350 Y31.0250
G01 Z-1.7000
G01 Z0
G00 Z2.0000
G00 X61.5950 Y36.1050
G01 Z-1.7000
G01 Z0
G00 Z2.0000
G00 X59.0550 Y38.6450
G01 Z-1.7000
G01 Z0
G00 Z2.0000
G00 X62.8650 Y41.1850
G01 Z-1.7000
G01 Z0
G00 Z2.0000
G00 X62.8650 Y51.3450
G01 Z-1.7000
G01 Z0
G00 Z2.0000
G00 X67.9450 Y55.1550
G01 Z-1.7000
G01 Z0
G00 Z2.0000
G00 X62.8650 Y70.3950
G01 Z-1.7000
G01 Z0
G00 Z2.0000
G00 X79.3750 Y57.6950
G01 Z-1.7000
G01 Z0
G00 Z2.0000
G00 X89.5350 Y62.1400
G01 Z-1.7000
G01 Z0
G00 Z2.0000
G00 X94.6150 Y53.8850
G01 Z-1.7000
G01 Z0
G00 Z2.0000
G00 X92.0750 Y53.8850
G01 Z-1.7000
G01 Z0
G00 Z2.0000
G00 X89.5350 Y53.8850
G01 Z-1.7000
G01 Z0
G00 Z2.0000
G00 X86.9950 Y53.8850
G01 Z-1.7000
G01 Z0
G00 Z2.0000
G00 X83.1850 Y44.9950
G01 Z-1.7000
G01 Z0
G00 Z2.0000
G00 X86.9950 Y46.2650
G01 Z-1.7000
G01 Z0
G00 Z2.0000
G00 X89.5350 Y46.2650
G01 Z-1.7000
G01 Z0
G00 Z2.0000
G00 X92.0750 Y46.2650
G01 Z-1.7000
G01 Z0
G00 Z2.0000
G00 X94.6150 Y46.2650
G01 Z-1.7000
G01 Z0
G00 Z2.0000
M05
G00 Z0.50


