(G-CODE GENERATED BY FLATCAM v8.994 - www.flatcam.org - Version Date: 2020/11/7)

(Name: copper_bottom.gbr_iso_combined_cnc)
(Type: G-code from Geometry)
(Units: MM)

(Created on terça, 22 fevereiro 2022 at 12:48)

(This preprocessor is the default preprocessor used by FlatCAM.)
(It is made to work with MACH3 compatible motion controllers.)

(TOOL DIAMETER: 0.2214 mm)
(Feedrate_XY: 90.0 mm/min)
(Feedrate_Z: 60.0 mm/min)
(Feedrate rapids 1500.0 mm/min)

(Z_Cut: -0.0399 mm)
(Z_Move: 3.0 mm)
(Z Start: None mm)
(Z End: 15.0 mm)
(X,Y End: None mm)
(Steps per circle: 64)
(Preprocessor Geometry: default)

(X range:    0.3968 ...  102.7272  mm)
(Y range:    0.4028 ...   77.5707  mm)

(Spindle Speed: 1000.0 RPM)
G21
G90
G94

G01 F90.00

M5
G00 Z15.0000
G00 X0.0000 Y0.0000
T1
M6    
(MSG, Change to Tool Dia = 0.2214)
M0
G00 Z15.0000

M03 S1000.0
G01 F90.00
G00 X3.6672 Y1.5300
G01 F60.00
G01 Z-0.0399
G01 F90.00
G01 X3.6672 Y3.5620
G01 X3.6622 Y3.6671
G01 X3.6611 Y3.6779
G01 X3.6455 Y3.7819
G01 X3.6187 Y3.8892
G01 X3.5814 Y3.9934
G01 X3.5341 Y4.0934
G01 X3.4772 Y4.1882
G01 X3.4113 Y4.2771
G01 X3.3371 Y4.3591
G01 X3.2551 Y4.4333
G01 X3.1662 Y4.4992
G01 X3.0714 Y4.5561
G01 X2.9714 Y4.6034
G01 X2.8672 Y4.6407
G01 X2.7599 Y4.6675
G01 X2.6505 Y4.6838
G01 X2.5400 Y4.6892
G01 X2.4295 Y4.6838
G01 X2.3201 Y4.6675
G01 X2.2128 Y4.6407
G01 X2.1086 Y4.6034
G01 X2.0086 Y4.5561
G01 X1.9183 Y4.5021
G01 X1.9093 Y4.4961
G01 X1.8249 Y4.4333
G01 X1.7469 Y4.3628
G01 X1.7392 Y4.3551
G01 X1.6687 Y4.2771
G01 X1.6028 Y4.1882
G01 X1.5459 Y4.0934
G01 X1.5008 Y3.9983
G01 X1.4966 Y3.9883
G01 X1.4613 Y3.8892
G01 X1.4356 Y3.7872
G01 X1.4335 Y3.7766
G01 X1.4185 Y3.6752
G01 X1.4178 Y3.6671
G01 X1.4128 Y3.5620
G01 X1.4129 Y1.5246
G01 X1.4178 Y1.4249
G01 X1.4189 Y1.4141
G01 X1.4345 Y1.3101
G01 X1.4599 Y1.2080
G01 X1.4630 Y1.1976
G01 X1.4986 Y1.0986
G01 X1.5459 Y0.9986
G01 X1.6028 Y0.9038
G01 X1.6687 Y0.8149
G01 X1.7429 Y0.7329
G01 X1.8208 Y0.6622
G01 X1.8292 Y0.6553
G01 X1.9093 Y0.5959
G01 X1.9183 Y0.5899
G01 X2.0086 Y0.5359
G01 X2.1086 Y0.4886
G01 X2.2128 Y0.4513
G01 X2.3148 Y0.4256
G01 X2.3254 Y0.4235
G01 X2.4241 Y0.4089
G01 X2.4349 Y0.4078
G01 X2.5400 Y0.4028
G01 X2.6505 Y0.4082
G01 X2.7599 Y0.4245
G01 X2.8620 Y0.4499
G01 X2.8724 Y0.4530
G01 X2.9663 Y0.4866
G01 X2.9763 Y0.4908
G01 X3.0714 Y0.5359
G01 X3.1662 Y0.5928
G01 X3.2551 Y0.6587
G01 X3.3331 Y0.7292
G01 X3.3408 Y0.7369
G01 X3.4078 Y0.8108
G01 X3.4147 Y0.8192
G01 X3.4772 Y0.9038
G01 X3.5341 Y0.9986
G01 X3.5814 Y1.0986
G01 X3.6170 Y1.1976
G01 X3.6201 Y1.2080
G01 X3.6444 Y1.3048
G01 X3.6465 Y1.3154
G01 X3.6618 Y1.4195
G01 X3.6672 Y1.5300
G00 Z3.0000
G00 X3.9528 Y3.5620
G01 F60.00
G01 Z-0.0399
G01 F90.00
G01 X3.9528 Y1.5300
G01 X3.9578 Y1.4249
G01 X3.9589 Y1.4141
G01 X3.9745 Y1.3101
G01 X4.0013 Y1.2028
G01 X4.0386 Y1.0986
G01 X4.0859 Y0.9986
G01 X4.1428 Y0.9038
G01 X4.2087 Y0.8149
G01 X4.2829 Y0.7329
G01 X4.3649 Y0.6587
G01 X4.4538 Y0.5928
G01 X4.5486 Y0.5359
G01 X4.6486 Y0.4886
G01 X4.7528 Y0.4513
G01 X4.8601 Y0.4245
G01 X4.9695 Y0.4082
G01 X5.0800 Y0.4028
G01 X5.1905 Y0.4082
G01 X5.2999 Y0.4245
G01 X5.4072 Y0.4513
G01 X5.5114 Y0.4886
G01 X5.6114 Y0.5359
G01 X5.7062 Y0.5928
G01 X5.7908 Y0.6553
G01 X5.7992 Y0.6622
G01 X5.8771 Y0.7329
G01 X5.9478 Y0.8108
G01 X5.9547 Y0.8192
G01 X6.0172 Y0.9038
G01 X6.0741 Y0.9986
G01 X6.1192 Y1.0937
G01 X6.1234 Y1.1037
G01 X6.1587 Y1.2028
G01 X6.1844 Y1.3048
G01 X6.1865 Y1.3154
G01 X6.2015 Y1.4168
G01 X6.2022 Y1.4249
G01 X6.2072 Y1.5300
G01 X6.2071 Y3.5674
G01 X6.2022 Y3.6671
G01 X6.2011 Y3.6779
G01 X6.1855 Y3.7819
G01 X6.1601 Y3.8840
G01 X6.1570 Y3.8944
G01 X6.1214 Y3.9934
G01 X6.0741 Y4.0934
G01 X6.0172 Y4.1882
G01 X5.9513 Y4.2771
G01 X5.8771 Y4.3591
G01 X5.7992 Y4.4298
G01 X5.7908 Y4.4367
G01 X5.7107 Y4.4961
G01 X5.7017 Y4.5021
G01 X5.6114 Y4.5561
G01 X5.5114 Y4.6034
G01 X5.4072 Y4.6407
G01 X5.3052 Y4.6664
G01 X5.2946 Y4.6685
G01 X5.1959 Y4.6831
G01 X5.1851 Y4.6842
G01 X5.0800 Y4.6892
G01 X4.9695 Y4.6838
G01 X4.8601 Y4.6675
G01 X4.7580 Y4.6421
G01 X4.7476 Y4.6390
G01 X4.6537 Y4.6054
G01 X4.6437 Y4.6012
G01 X4.5486 Y4.5561
G01 X4.4538 Y4.4992
G01 X4.3649 Y4.4333
G01 X4.2869 Y4.3628
G01 X4.2792 Y4.3551
G01 X4.2122 Y4.2812
G01 X4.2053 Y4.2728
G01 X4.1428 Y4.1882
G01 X4.0859 Y4.0934
G01 X4.0386 Y3.9934
G01 X4.0030 Y3.8944
G01 X3.9999 Y3.8840
G01 X3.9756 Y3.7872
G01 X3.9735 Y3.7766
G01 X3.9582 Y3.6725
G01 X3.9528 Y3.5620
G00 Z3.0000
G00 X9.0328 Y3.5620
G01 F60.00
G01 Z-0.0399
G01 F90.00
G01 X9.0328 Y1.5300
G01 X9.0378 Y1.4249
G01 X9.0389 Y1.4141
G01 X9.0545 Y1.3101
G01 X9.0813 Y1.2028
G01 X9.1186 Y1.0986
G01 X9.1659 Y0.9986
G01 X9.2228 Y0.9038
G01 X9.2887 Y0.8149
G01 X9.3629 Y0.7329
G01 X9.4449 Y0.6587
G01 X9.5338 Y0.5928
G01 X9.6286 Y0.5359
G01 X9.7286 Y0.4886
G01 X9.8328 Y0.4513
G01 X9.9401 Y0.4245
G01 X10.0495 Y0.4082
G01 X10.1600 Y0.4028
G01 X10.2705 Y0.4082
G01 X10.3799 Y0.4245
G01 X10.4872 Y0.4513
G01 X10.5914 Y0.4886
G01 X10.6914 Y0.5359
G01 X10.7817 Y0.5899
G01 X10.7907 Y0.5959
G01 X10.8751 Y0.6587
G01 X10.9531 Y0.7292
G01 X10.9608 Y0.7369
G01 X11.0313 Y0.8149
G01 X11.0972 Y0.9038
G01 X11.1541 Y0.9986
G01 X11.1992 Y1.0937
G01 X11.2034 Y1.1037
G01 X11.2387 Y1.2028
G01 X11.2644 Y1.3048
G01 X11.2665 Y1.3154
G01 X11.2815 Y1.4168
G01 X11.2822 Y1.4249
G01 X11.2872 Y1.5300
G01 X11.2871 Y3.5674
G01 X11.2822 Y3.6671
G01 X11.2811 Y3.6779
G01 X11.2655 Y3.7819
G01 X11.2401 Y3.8840
G01 X11.2370 Y3.8944
G01 X11.2014 Y3.9934
G01 X11.1541 Y4.0934
G01 X11.0972 Y4.1882
G01 X11.0313 Y4.2771
G01 X10.9571 Y4.3591
G01 X10.8792 Y4.4298
G01 X10.8708 Y4.4367
G01 X10.7907 Y4.4961
G01 X10.7817 Y4.5021
G01 X10.6914 Y4.5561
G01 X10.5914 Y4.6034
G01 X10.4872 Y4.6407
G01 X10.3852 Y4.6664
G01 X10.3746 Y4.6685
G01 X10.2759 Y4.6831
G01 X10.2651 Y4.6842
G01 X10.1600 Y4.6892
G01 X10.0495 Y4.6838
G01 X9.9401 Y4.6675
G01 X9.8380 Y4.6421
G01 X9.8276 Y4.6390
G01 X9.7337 Y4.6054
G01 X9.7237 Y4.6012
G01 X9.6286 Y4.5561
G01 X9.5338 Y4.4992
G01 X9.4449 Y4.4333
G01 X9.3669 Y4.3628
G01 X9.3592 Y4.3551
G01 X9.2922 Y4.2812
G01 X9.2853 Y4.2728
G01 X9.2228 Y4.1882
G01 X9.1659 Y4.0934
G01 X9.1186 Y3.9934
G01 X9.0830 Y3.8944
G01 X9.0799 Y3.8840
G01 X9.0556 Y3.7872
G01 X9.0535 Y3.7766
G01 X9.0382 Y3.6725
G01 X9.0328 Y3.5620
G00 Z3.0000
G00 X8.7472 Y1.5300
G01 F60.00
G01 Z-0.0399
G01 F90.00
G01 X8.7472 Y3.5620
G01 X8.7422 Y3.6671
G01 X8.7411 Y3.6779
G01 X8.7255 Y3.7819
G01 X8.6987 Y3.8892
G01 X8.6614 Y3.9934
G01 X8.6141 Y4.0934
G01 X8.5572 Y4.1882
G01 X8.4913 Y4.2771
G01 X8.4171 Y4.3591
G01 X8.3351 Y4.4333
G01 X8.2462 Y4.4992
G01 X8.1514 Y4.5561
G01 X8.0514 Y4.6034
G01 X7.9472 Y4.6407
G01 X7.8399 Y4.6675
G01 X7.7305 Y4.6838
G01 X7.6200 Y4.6892
G01 X7.5095 Y4.6838
G01 X7.4001 Y4.6675
G01 X7.2928 Y4.6407
G01 X7.1886 Y4.6034
G01 X7.0886 Y4.5561
G01 X6.9938 Y4.4992
G01 X6.9092 Y4.4367
G01 X6.9008 Y4.4298
G01 X6.8229 Y4.3591
G01 X6.7522 Y4.2812
G01 X6.7453 Y4.2728
G01 X6.6828 Y4.1882
G01 X6.6259 Y4.0934
G01 X6.5808 Y3.9983
G01 X6.5766 Y3.9883
G01 X6.5413 Y3.8892
G01 X6.5156 Y3.7872
G01 X6.5135 Y3.7766
G01 X6.4985 Y3.6752
G01 X6.4978 Y3.6671
G01 X6.4928 Y3.5620
G01 X6.4929 Y1.5246
G01 X6.4978 Y1.4249
G01 X6.4989 Y1.4141
G01 X6.5145 Y1.3101
G01 X6.5399 Y1.2080
G01 X6.5430 Y1.1976
G01 X6.5786 Y1.0986
G01 X6.6259 Y0.9986
G01 X6.6828 Y0.9038
G01 X6.7487 Y0.8149
G01 X6.8229 Y0.7329
G01 X6.9008 Y0.6622
G01 X6.9092 Y0.6553
G01 X6.9893 Y0.5959
G01 X6.9983 Y0.5899
G01 X7.0886 Y0.5359
G01 X7.1886 Y0.4886
G01 X7.2928 Y0.4513
G01 X7.3948 Y0.4256
G01 X7.4054 Y0.4235
G01 X7.5041 Y0.4089
G01 X7.5149 Y0.4078
G01 X7.6200 Y0.4028
G01 X7.7305 Y0.4082
G01 X7.8399 Y0.4245
G01 X7.9420 Y0.4499
G01 X7.9524 Y0.4530
G01 X8.0463 Y0.4866
G01 X8.0563 Y0.4908
G01 X8.1514 Y0.5359
G01 X8.2462 Y0.5928
G01 X8.3351 Y0.6587
G01 X8.4131 Y0.7292
G01 X8.4208 Y0.7369
G01 X8.4878 Y0.8108
G01 X8.4947 Y0.8192
G01 X8.5572 Y0.9038
G01 X8.6141 Y0.9986
G01 X8.6614 Y1.0986
G01 X8.6970 Y1.1976
G01 X8.7001 Y1.2080
G01 X8.7244 Y1.3048
G01 X8.7265 Y1.3154
G01 X8.7418 Y1.4195
G01 X8.7472 Y1.5300
G00 Z3.0000
G00 X13.8272 Y1.5300
G01 F60.00
G01 Z-0.0399
G01 F90.00
G01 X13.8272 Y3.5620
G01 X13.8222 Y3.6671
G01 X13.8211 Y3.6779
G01 X13.8055 Y3.7819
G01 X13.7787 Y3.8892
G01 X13.7414 Y3.9934
G01 X13.6941 Y4.0934
G01 X13.6372 Y4.1882
G01 X13.5713 Y4.2771
G01 X13.4971 Y4.3591
G01 X13.4151 Y4.4333
G01 X13.3262 Y4.4992
G01 X13.2314 Y4.5561
G01 X13.1314 Y4.6034
G01 X13.0272 Y4.6407
G01 X12.9199 Y4.6675
G01 X12.8105 Y4.6838
G01 X12.7000 Y4.6892
G01 X12.5895 Y4.6838
G01 X12.4801 Y4.6675
G01 X12.3728 Y4.6407
G01 X12.2686 Y4.6034
G01 X12.1686 Y4.5561
G01 X12.0783 Y4.5021
G01 X12.0693 Y4.4961
G01 X11.9849 Y4.4333
G01 X11.9069 Y4.3628
G01 X11.8992 Y4.3551
G01 X11.8287 Y4.2771
G01 X11.7628 Y4.1882
G01 X11.7059 Y4.0934
G01 X11.6608 Y3.9983
G01 X11.6566 Y3.9883
G01 X11.6213 Y3.8892
G01 X11.5956 Y3.7872
G01 X11.5935 Y3.7766
G01 X11.5785 Y3.6752
G01 X11.5778 Y3.6671
G01 X11.5728 Y3.5620
G01 X11.5729 Y1.5246
G01 X11.5778 Y1.4249
G01 X11.5789 Y1.4141
G01 X11.5945 Y1.3101
G01 X11.6199 Y1.2080
G01 X11.6230 Y1.1976
G01 X11.6586 Y1.0986
G01 X11.7059 Y0.9986
G01 X11.7628 Y0.9038
G01 X11.8287 Y0.8149
G01 X11.9029 Y0.7329
G01 X11.9808 Y0.6622
G01 X11.9892 Y0.6553
G01 X12.0693 Y0.5959
G01 X12.0783 Y0.5899
G01 X12.1686 Y0.5359
G01 X12.2686 Y0.4886
G01 X12.3728 Y0.4513
G01 X12.4748 Y0.4256
G01 X12.4854 Y0.4235
G01 X12.5841 Y0.4089
G01 X12.5949 Y0.4078
G01 X12.7000 Y0.4028
G01 X12.8105 Y0.4082
G01 X12.9199 Y0.4245
G01 X13.0220 Y0.4499
G01 X13.0324 Y0.4530
G01 X13.1263 Y0.4866
G01 X13.1363 Y0.4908
G01 X13.2314 Y0.5359
G01 X13.3262 Y0.5928
G01 X13.4151 Y0.6587
G01 X13.4931 Y0.7292
G01 X13.5008 Y0.7369
G01 X13.5678 Y0.8108
G01 X13.5747 Y0.8192
G01 X13.6372 Y0.9038
G01 X13.6941 Y0.9986
G01 X13.7414 Y1.0986
G01 X13.7770 Y1.1976
G01 X13.7801 Y1.2080
G01 X13.8044 Y1.3048
G01 X13.8065 Y1.3154
G01 X13.8218 Y1.4195
G01 X13.8272 Y1.5300
G00 Z3.0000
G00 X14.1128 Y3.5620
G01 F60.00
G01 Z-0.0399
G01 F90.00
G01 X14.1128 Y1.5300
G01 X14.1178 Y1.4249
G01 X14.1189 Y1.4141
G01 X14.1345 Y1.3101
G01 X14.1613 Y1.2028
G01 X14.1986 Y1.0986
G01 X14.2459 Y0.9986
G01 X14.3028 Y0.9038
G01 X14.3687 Y0.8149
G01 X14.4429 Y0.7329
G01 X14.5249 Y0.6587
G01 X14.6138 Y0.5928
G01 X14.7086 Y0.5359
G01 X14.8086 Y0.4886
G01 X14.9128 Y0.4513
G01 X15.0201 Y0.4245
G01 X15.1295 Y0.4082
G01 X15.2400 Y0.4028
G01 X15.3505 Y0.4082
G01 X15.4599 Y0.4245
G01 X15.5672 Y0.4513
G01 X15.6714 Y0.4886
G01 X15.7714 Y0.5359
G01 X15.8617 Y0.5899
G01 X15.8707 Y0.5959
G01 X15.9551 Y0.6587
G01 X16.0331 Y0.7292
G01 X16.0408 Y0.7369
G01 X16.1113 Y0.8149
G01 X16.1772 Y0.9038
G01 X16.2341 Y0.9986
G01 X16.2792 Y1.0937
G01 X16.2834 Y1.1037
G01 X16.3187 Y1.2028
G01 X16.3444 Y1.3048
G01 X16.3465 Y1.3154
G01 X16.3615 Y1.4168
G01 X16.3622 Y1.4249
G01 X16.3672 Y1.5300
G01 X16.3671 Y3.5674
G01 X16.3622 Y3.6671
G01 X16.3611 Y3.6779
G01 X16.3455 Y3.7819
G01 X16.3201 Y3.8840
G01 X16.3170 Y3.8944
G01 X16.2814 Y3.9934
G01 X16.2341 Y4.0934
G01 X16.1772 Y4.1882
G01 X16.1113 Y4.2771
G01 X16.0371 Y4.3591
G01 X15.9592 Y4.4298
G01 X15.9508 Y4.4367
G01 X15.8707 Y4.4961
G01 X15.8617 Y4.5021
G01 X15.7714 Y4.5561
G01 X15.6714 Y4.6034
G01 X15.5672 Y4.6407
G01 X15.4652 Y4.6664
G01 X15.4546 Y4.6685
G01 X15.3559 Y4.6831
G01 X15.3451 Y4.6842
G01 X15.2400 Y4.6892
G01 X15.1295 Y4.6838
G01 X15.0201 Y4.6675
G01 X14.9180 Y4.6421
G01 X14.9076 Y4.6390
G01 X14.8137 Y4.6054
G01 X14.8037 Y4.6012
G01 X14.7086 Y4.5561
G01 X14.6138 Y4.4992
G01 X14.5249 Y4.4333
G01 X14.4469 Y4.3628
G01 X14.4392 Y4.3551
G01 X14.3722 Y4.2812
G01 X14.3653 Y4.2728
G01 X14.3028 Y4.1882
G01 X14.2459 Y4.0934
G01 X14.1986 Y3.9934
G01 X14.1630 Y3.8944
G01 X14.1599 Y3.8840
G01 X14.1356 Y3.7872
G01 X14.1335 Y3.7766
G01 X14.1182 Y3.6725
G01 X14.1128 Y3.5620
G00 Z3.0000
G00 X19.1928 Y3.5620
G01 F60.00
G01 Z-0.0399
G01 F90.00
G01 X19.1928 Y1.5300
G01 X19.1978 Y1.4249
G01 X19.1989 Y1.4141
G01 X19.2145 Y1.3101
G01 X19.2413 Y1.2028
G01 X19.2786 Y1.0986
G01 X19.3259 Y0.9986
G01 X19.3828 Y0.9038
G01 X19.4487 Y0.8149
G01 X19.5229 Y0.7329
G01 X19.6049 Y0.6587
G01 X19.6938 Y0.5928
G01 X19.7886 Y0.5359
G01 X19.8886 Y0.4886
G01 X19.9928 Y0.4513
G01 X20.1001 Y0.4245
G01 X20.2095 Y0.4082
G01 X20.3200 Y0.4028
G01 X20.4305 Y0.4082
G01 X20.5399 Y0.4245
G01 X20.6472 Y0.4513
G01 X20.7514 Y0.4886
G01 X20.8514 Y0.5359
G01 X20.9417 Y0.5899
G01 X20.9507 Y0.5959
G01 X21.0351 Y0.6587
G01 X21.1131 Y0.7292
G01 X21.1208 Y0.7369
G01 X21.1913 Y0.8149
G01 X21.2572 Y0.9038
G01 X21.3141 Y0.9986
G01 X21.3592 Y1.0937
G01 X21.3634 Y1.1037
G01 X21.3987 Y1.2028
G01 X21.4244 Y1.3048
G01 X21.4265 Y1.3154
G01 X21.4415 Y1.4168
G01 X21.4422 Y1.4249
G01 X21.4472 Y1.5300
G01 X21.4471 Y3.5674
G01 X21.4422 Y3.6671
G01 X21.4411 Y3.6779
G01 X21.4255 Y3.7819
G01 X21.4001 Y3.8840
G01 X21.3970 Y3.8944
G01 X21.3614 Y3.9934
G01 X21.3141 Y4.0934
G01 X21.2572 Y4.1882
G01 X21.1947 Y4.2728
G01 X21.1878 Y4.2812
G01 X21.1208 Y4.3551
G01 X21.1131 Y4.3628
G01 X21.0351 Y4.4333
G01 X20.9462 Y4.4992
G01 X20.8514 Y4.5561
G01 X20.7514 Y4.6034
G01 X20.6472 Y4.6407
G01 X20.5452 Y4.6664
G01 X20.5346 Y4.6685
G01 X20.4359 Y4.6831
G01 X20.4251 Y4.6842
G01 X20.3200 Y4.6892
G01 X20.2095 Y4.6838
G01 X20.1001 Y4.6675
G01 X19.9980 Y4.6421
G01 X19.9876 Y4.6390
G01 X19.8937 Y4.6054
G01 X19.8837 Y4.6012
G01 X19.7886 Y4.5561
G01 X19.6938 Y4.4992
G01 X19.6049 Y4.4333
G01 X19.5269 Y4.3628
G01 X19.5192 Y4.3551
G01 X19.4522 Y4.2812
G01 X19.4453 Y4.2728
G01 X19.3828 Y4.1882
G01 X19.3259 Y4.0934
G01 X19.2786 Y3.9934
G01 X19.2430 Y3.8944
G01 X19.2399 Y3.8840
G01 X19.2156 Y3.7872
G01 X19.2135 Y3.7766
G01 X19.1982 Y3.6725
G01 X19.1928 Y3.5620
G00 Z3.0000
G00 X18.9072 Y1.5300
G01 F60.00
G01 Z-0.0399
G01 F90.00
G01 X18.9072 Y3.5620
G01 X18.9022 Y3.6671
G01 X18.9011 Y3.6779
G01 X18.8855 Y3.7819
G01 X18.8587 Y3.8892
G01 X18.8214 Y3.9934
G01 X18.7741 Y4.0934
G01 X18.7172 Y4.1882
G01 X18.6513 Y4.2771
G01 X18.5771 Y4.3591
G01 X18.4951 Y4.4333
G01 X18.4062 Y4.4992
G01 X18.3114 Y4.5561
G01 X18.2114 Y4.6034
G01 X18.1072 Y4.6407
G01 X17.9999 Y4.6675
G01 X17.8905 Y4.6838
G01 X17.7800 Y4.6892
G01 X17.6695 Y4.6838
G01 X17.5601 Y4.6675
G01 X17.4528 Y4.6407
G01 X17.3486 Y4.6034
G01 X17.2486 Y4.5561
G01 X17.1583 Y4.5021
G01 X17.1493 Y4.4961
G01 X17.0649 Y4.4333
G01 X16.9869 Y4.3628
G01 X16.9792 Y4.3551
G01 X16.9087 Y4.2771
G01 X16.8428 Y4.1882
G01 X16.7859 Y4.0934
G01 X16.7408 Y3.9983
G01 X16.7366 Y3.9883
G01 X16.7013 Y3.8892
G01 X16.6756 Y3.7872
G01 X16.6735 Y3.7766
G01 X16.6585 Y3.6752
G01 X16.6578 Y3.6671
G01 X16.6528 Y3.5620
G01 X16.6529 Y1.5246
G01 X16.6578 Y1.4249
G01 X16.6589 Y1.4141
G01 X16.6745 Y1.3101
G01 X16.6999 Y1.2080
G01 X16.7030 Y1.1976
G01 X16.7386 Y1.0986
G01 X16.7859 Y0.9986
G01 X16.8428 Y0.9038
G01 X16.9053 Y0.8192
G01 X16.9122 Y0.8108
G01 X16.9792 Y0.7369
G01 X16.9869 Y0.7292
G01 X17.0649 Y0.6587
G01 X17.1538 Y0.5928
G01 X17.2486 Y0.5359
G01 X17.3486 Y0.4886
G01 X17.4528 Y0.4513
G01 X17.5548 Y0.4256
G01 X17.5654 Y0.4235
G01 X17.6641 Y0.4089
G01 X17.6749 Y0.4078
G01 X17.7800 Y0.4028
G01 X17.8905 Y0.4082
G01 X17.9999 Y0.4245
G01 X18.1020 Y0.4499
G01 X18.1124 Y0.4530
G01 X18.2063 Y0.4866
G01 X18.2163 Y0.4908
G01 X18.3114 Y0.5359
G01 X18.4062 Y0.5928
G01 X18.4951 Y0.6587
G01 X18.5731 Y0.7292
G01 X18.5808 Y0.7369
G01 X18.6478 Y0.8108
G01 X18.6547 Y0.8192
G01 X18.7172 Y0.9038
G01 X18.7741 Y0.9986
G01 X18.8214 Y1.0986
G01 X18.8570 Y1.1976
G01 X18.8601 Y1.2080
G01 X18.8844 Y1.3048
G01 X18.8865 Y1.3154
G01 X18.9018 Y1.4195
G01 X18.9072 Y1.5300
G00 Z3.0000
G00 X22.1140 Y4.4055
G01 F60.00
G01 Z-0.0399
G01 F90.00
G01 X22.0669 Y4.3628
G01 X22.0610 Y4.3571
G01 X21.9922 Y4.2812
G01 X21.9870 Y4.2750
G01 X21.9228 Y4.1882
G01 X21.8686 Y4.0981
G01 X21.8646 Y4.0910
G01 X21.8186 Y3.9934
G01 X21.7813 Y3.8892
G01 X21.7545 Y3.7819
G01 X21.7382 Y3.6725
G01 X21.7328 Y3.5620
G01 X21.7328 Y1.5273
G01 X21.7378 Y1.4249
G01 X21.7389 Y1.4141
G01 X21.7545 Y1.3101
G01 X21.7806 Y1.2054
G01 X21.7830 Y1.1976
G01 X21.8186 Y1.0986
G01 X21.8659 Y0.9986
G01 X21.9228 Y0.9038
G01 X21.9887 Y0.8149
G01 X22.0629 Y0.7329
G01 X22.1449 Y0.6587
G01 X22.2338 Y0.5928
G01 X22.3286 Y0.5359
G01 X22.4286 Y0.4886
G01 X22.5328 Y0.4513
G01 X22.6401 Y0.4245
G01 X22.7495 Y0.4082
G01 X22.8600 Y0.4028
G01 X22.9705 Y0.4082
G01 X23.0799 Y0.4245
G01 X23.1846 Y0.4506
G01 X23.1924 Y0.4530
G01 X23.2863 Y0.4866
G01 X23.2963 Y0.4908
G01 X23.3914 Y0.5359
G01 X23.4862 Y0.5928
G01 X23.5751 Y0.6587
G01 X23.6531 Y0.7292
G01 X23.6608 Y0.7369
G01 X23.7278 Y0.8108
G01 X23.7347 Y0.8192
G01 X23.7972 Y0.9038
G01 X23.8541 Y0.9986
G01 X23.9014 Y1.0986
G01 X23.9370 Y1.1976
G01 X23.9401 Y1.2080
G01 X23.9644 Y1.3048
G01 X23.9665 Y1.3154
G01 X23.9818 Y1.4195
G01 X23.9872 Y1.5300
G01 X23.9872 Y3.5620
G01 X23.9822 Y3.6671
G01 X23.9815 Y3.6752
G01 X23.9655 Y3.7819
G01 X23.9387 Y3.8892
G01 X23.9014 Y3.9934
G01 X23.8554 Y4.0910
G01 X23.8514 Y4.0981
G01 X23.7972 Y4.1882
G01 X23.7330 Y4.2750
G01 X23.7278 Y4.2812
G01 X23.6590 Y4.3571
G01 X23.6531 Y4.3628
G01 X23.6060 Y4.4055
G01 X23.6060 Y50.3140
G01 X37.7532 Y50.3140
G01 X37.8050 Y50.2672
G01 X37.8858 Y50.2073
G01 X37.9722 Y50.1555
G01 X38.0606 Y50.1136
G01 X38.0682 Y50.1106
G01 X38.1527 Y50.0803
G01 X38.1631 Y50.0772
G01 X38.2555 Y50.0541
G01 X38.3551 Y50.0394
G01 X38.4556 Y50.0344
G01 X40.2844 Y50.0344
G01 X40.3849 Y50.0394
G01 X40.4845 Y50.0541
G01 X40.5769 Y50.0772
G01 X40.5873 Y50.0803
G01 X40.6718 Y50.1106
G01 X40.6818 Y50.1147
G01 X40.7678 Y50.1555
G01 X40.8542 Y50.2073
G01 X40.9350 Y50.2672
G01 X41.0096 Y50.3348
G01 X41.0772 Y50.4094
G01 X41.1340 Y50.4858
G01 X41.1400 Y50.4948
G01 X41.1862 Y50.5718
G01 X41.1913 Y50.5814
G01 X41.2319 Y50.6675
G01 X41.2658 Y50.7623
G01 X41.2903 Y50.8599
G01 X41.3044 Y50.9541
G01 X41.3054 Y50.9649
G01 X41.3098 Y51.0546
G01 X41.3098 Y51.0654
G01 X41.3050 Y51.1605
G01 X41.2903 Y51.2601
G01 X41.2658 Y51.3577
G01 X41.2338 Y51.4474
G01 X41.2297 Y51.4574
G01 X41.1913 Y51.5386
G01 X41.1862 Y51.5482
G01 X41.1371 Y51.6298
G01 X41.0772 Y51.7106
G01 X41.0096 Y51.7852
G01 X40.9391 Y51.8492
G01 X40.9307 Y51.8561
G01 X40.8586 Y51.9096
G01 X40.8496 Y51.9156
G01 X40.7678 Y51.9645
G01 X40.6818 Y52.0053
G01 X40.6743 Y52.0085
G01 X40.5821 Y52.0414
G01 X40.4845 Y52.0659
G01 X40.3849 Y52.0806
G01 X40.2871 Y52.0855
G01 X38.4556 Y52.0856
G01 X38.3578 Y52.0809
G01 X38.3497 Y52.0800
G01 X38.2555 Y52.0659
G01 X38.1631 Y52.0428
G01 X38.1527 Y52.0397
G01 X38.0682 Y52.0094
G01 X38.0606 Y52.0064
G01 X37.9722 Y51.9645
G01 X37.8858 Y51.9127
G01 X37.8050 Y51.8528
G01 X37.7532 Y51.8060
G01 X22.8573 Y51.8060
G01 X22.7869 Y51.8024
G01 X22.7198 Y51.7926
G01 X22.7092 Y51.7905
G01 X22.6434 Y51.7739
G01 X22.5745 Y51.7492
G01 X22.5132 Y51.7204
G01 X22.5036 Y51.7153
G01 X22.4455 Y51.6803
G01 X22.3867 Y51.6367
G01 X22.3364 Y51.5913
G01 X22.3287 Y51.5836
G01 X22.2833 Y51.5333
G01 X22.2397 Y51.4745
G01 X22.2047 Y51.4164
G01 X22.1996 Y51.4068
G01 X22.1730 Y51.3505
G01 X22.1698 Y51.3430
G01 X22.1461 Y51.2766
G01 X22.1283 Y51.2055
G01 X22.1176 Y51.1331
G01 X22.1140 Y51.0600
G01 X22.1140 Y4.4055
G00 Z3.0000
G00 X24.2728 Y3.5620
G01 F60.00
G01 Z-0.0399
G01 F90.00
G01 X24.2728 Y1.5300
G01 X24.2778 Y1.4249
G01 X24.2789 Y1.4141
G01 X24.2945 Y1.3101
G01 X24.3213 Y1.2028
G01 X24.3586 Y1.0986
G01 X24.4059 Y0.9986
G01 X24.4628 Y0.9038
G01 X24.5287 Y0.8149
G01 X24.6029 Y0.7329
G01 X24.6849 Y0.6587
G01 X24.7738 Y0.5928
G01 X24.8686 Y0.5359
G01 X24.9686 Y0.4886
G01 X25.0728 Y0.4513
G01 X25.1801 Y0.4245
G01 X25.2895 Y0.4082
G01 X25.4000 Y0.4028
G01 X25.5105 Y0.4082
G01 X25.6199 Y0.4245
G01 X25.7272 Y0.4513
G01 X25.8314 Y0.4886
G01 X25.9314 Y0.5359
G01 X26.0217 Y0.5899
G01 X26.0307 Y0.5959
G01 X26.1151 Y0.6587
G01 X26.1971 Y0.7329
G01 X26.2678 Y0.8108
G01 X26.2747 Y0.8192
G01 X26.3372 Y0.9038
G01 X26.3914 Y0.9939
G01 X26.3966 Y1.0035
G01 X26.4414 Y1.0986
G01 X26.4770 Y1.1976
G01 X26.4801 Y1.2080
G01 X26.5055 Y1.3101
G01 X26.5211 Y1.4141
G01 X26.5222 Y1.4249
G01 X26.5272 Y1.5300
G01 X26.5272 Y3.5620
G01 X26.5222 Y3.6671
G01 X26.5215 Y3.6752
G01 X26.5055 Y3.7819
G01 X26.4787 Y3.8892
G01 X26.4414 Y3.9934
G01 X26.3954 Y4.0910
G01 X26.3914 Y4.0981
G01 X26.3372 Y4.1882
G01 X26.2730 Y4.2750
G01 X26.2678 Y4.2812
G01 X26.1990 Y4.3571
G01 X26.1931 Y4.3628
G01 X26.1460 Y4.4055
G01 X26.1460 Y47.7740
G01 X37.7532 Y47.7740
G01 X37.8050 Y47.7272
G01 X37.8858 Y47.6673
G01 X37.9722 Y47.6155
G01 X38.0606 Y47.5736
G01 X38.0682 Y47.5706
G01 X38.1527 Y47.5403
G01 X38.1631 Y47.5372
G01 X38.2555 Y47.5141
G01 X38.3551 Y47.4994
G01 X38.4556 Y47.4944
G01 X40.2844 Y47.4944
G01 X40.3795 Y47.4990
G01 X40.3876 Y47.4997
G01 X40.4845 Y47.5141
G01 X40.5821 Y47.5386
G01 X40.6769 Y47.5725
G01 X40.7630 Y47.6131
G01 X40.7726 Y47.6182
G01 X40.8496 Y47.6644
G01 X40.8586 Y47.6704
G01 X40.9350 Y47.7272
G01 X41.0096 Y47.7948
G01 X41.0772 Y47.8694
G01 X41.1371 Y47.9502
G01 X41.1889 Y48.0366
G01 X41.2297 Y48.1226
G01 X41.2338 Y48.1326
G01 X41.2641 Y48.2171
G01 X41.2672 Y48.2275
G01 X41.2903 Y48.3199
G01 X41.3050 Y48.4195
G01 X41.3100 Y48.5200
G01 X41.3054 Y48.6151
G01 X41.3044 Y48.6259
G01 X41.2912 Y48.7147
G01 X41.2891 Y48.7254
G01 X41.2658 Y48.8177
G01 X41.2319 Y48.9125
G01 X41.1889 Y49.0034
G01 X41.1371 Y49.0898
G01 X41.0772 Y49.1706
G01 X41.0133 Y49.2412
G01 X41.0056 Y49.2489
G01 X40.9391 Y49.3092
G01 X40.9307 Y49.3161
G01 X40.8542 Y49.3727
G01 X40.7678 Y49.4245
G01 X40.6769 Y49.4675
G01 X40.5873 Y49.4997
G01 X40.5769 Y49.5028
G01 X40.4898 Y49.5247
G01 X40.4791 Y49.5268
G01 X40.3849 Y49.5406
G01 X40.2871 Y49.5455
G01 X38.4556 Y49.5456
G01 X38.3578 Y49.5409
G01 X38.3497 Y49.5400
G01 X38.2609 Y49.5268
G01 X38.2502 Y49.5247
G01 X38.1579 Y49.5014
G01 X38.0682 Y49.4694
G01 X38.0606 Y49.4664
G01 X37.9722 Y49.4245
G01 X37.8858 Y49.3727
G01 X37.8050 Y49.3128
G01 X37.7532 Y49.2660
G01 X25.3946 Y49.2659
G01 X25.3269 Y49.2624
G01 X25.2598 Y49.2526
G01 X25.2492 Y49.2505
G01 X25.1834 Y49.2339
G01 X25.1145 Y49.2092
G01 X25.0532 Y49.1804
G01 X25.0436 Y49.1753
G01 X24.9901 Y49.1432
G01 X24.9811 Y49.1372
G01 X24.9267 Y49.0967
G01 X24.8764 Y49.0513
G01 X24.8687 Y49.0436
G01 X24.8269 Y48.9974
G01 X24.8200 Y48.9890
G01 X24.7797 Y48.9345
G01 X24.7421 Y48.8717
G01 X24.7108 Y48.8055
G01 X24.6878 Y48.7417
G01 X24.6847 Y48.7313
G01 X24.6695 Y48.6708
G01 X24.6674 Y48.6602
G01 X24.6576 Y48.5931
G01 X24.6540 Y48.5200
G01 X24.6540 Y4.4055
G01 X24.6029 Y4.3591
G01 X24.5304 Y4.2792
G01 X24.5253 Y4.2728
G01 X24.4643 Y4.1905
G01 X24.4599 Y4.1837
G01 X24.4059 Y4.0934
G01 X24.3597 Y3.9959
G01 X24.3566 Y3.9883
G01 X24.3213 Y3.8892
G01 X24.2945 Y3.7819
G01 X24.2782 Y3.6725
G01 X24.2728 Y3.5620
G00 Z3.0000
G00 X29.3528 Y3.5620
G01 F60.00
G01 Z-0.0399
G01 F90.00
G01 X29.3528 Y1.5300
G01 X29.3578 Y1.4249
G01 X29.3589 Y1.4141
G01 X29.3745 Y1.3101
G01 X29.4013 Y1.2028
G01 X29.4386 Y1.0986
G01 X29.4859 Y0.9986
G01 X29.5428 Y0.9038
G01 X29.6087 Y0.8149
G01 X29.6829 Y0.7329
G01 X29.7649 Y0.6587
G01 X29.8538 Y0.5928
G01 X29.9486 Y0.5359
G01 X30.0486 Y0.4886
G01 X30.1528 Y0.4513
G01 X30.2601 Y0.4245
G01 X30.3695 Y0.4082
G01 X30.4800 Y0.4028
G01 X30.5905 Y0.4082
G01 X30.6999 Y0.4245
G01 X30.8072 Y0.4513
G01 X30.9114 Y0.4886
G01 X31.0114 Y0.5359
G01 X31.1017 Y0.5899
G01 X31.1107 Y0.5959
G01 X31.1951 Y0.6587
G01 X31.2731 Y0.7292
G01 X31.2808 Y0.7369
G01 X31.3513 Y0.8149
G01 X31.4172 Y0.9038
G01 X31.4741 Y0.9986
G01 X31.5192 Y1.0937
G01 X31.5234 Y1.1037
G01 X31.5587 Y1.2028
G01 X31.5844 Y1.3048
G01 X31.5865 Y1.3154
G01 X31.6015 Y1.4168
G01 X31.6022 Y1.4249
G01 X31.6072 Y1.5300
G01 X31.6071 Y3.5674
G01 X31.6022 Y3.6671
G01 X31.6011 Y3.6779
G01 X31.5855 Y3.7819
G01 X31.5601 Y3.8840
G01 X31.5570 Y3.8944
G01 X31.5214 Y3.9934
G01 X31.4741 Y4.0934
G01 X31.4172 Y4.1882
G01 X31.3547 Y4.2728
G01 X31.3478 Y4.2812
G01 X31.2808 Y4.3551
G01 X31.2731 Y4.3628
G01 X31.1951 Y4.4333
G01 X31.1062 Y4.4992
G01 X31.0114 Y4.5561
G01 X30.9114 Y4.6034
G01 X30.8072 Y4.6407
G01 X30.7052 Y4.6664
G01 X30.6946 Y4.6685
G01 X30.5959 Y4.6831
G01 X30.5851 Y4.6842
G01 X30.4800 Y4.6892
G01 X30.3695 Y4.6838
G01 X30.2601 Y4.6675
G01 X30.1580 Y4.6421
G01 X30.1476 Y4.6390
G01 X30.0537 Y4.6054
G01 X30.0437 Y4.6012
G01 X29.9486 Y4.5561
G01 X29.8538 Y4.4992
G01 X29.7649 Y4.4333
G01 X29.6869 Y4.3628
G01 X29.6792 Y4.3551
G01 X29.6122 Y4.2812
G01 X29.6053 Y4.2728
G01 X29.5428 Y4.1882
G01 X29.4859 Y4.0934
G01 X29.4386 Y3.9934
G01 X29.4030 Y3.8944
G01 X29.3999 Y3.8840
G01 X29.3756 Y3.7872
G01 X29.3735 Y3.7766
G01 X29.3582 Y3.6725
G01 X29.3528 Y3.5620
G00 Z3.0000
G00 X29.0672 Y1.5300
G01 F60.00
G01 Z-0.0399
G01 F90.00
G01 X29.0672 Y3.5620
G01 X29.0622 Y3.6671
G01 X29.0611 Y3.6779
G01 X29.0455 Y3.7819
G01 X29.0187 Y3.8892
G01 X28.9814 Y3.9934
G01 X28.9341 Y4.0934
G01 X28.8772 Y4.1882
G01 X28.8113 Y4.2771
G01 X28.7371 Y4.3591
G01 X28.6551 Y4.4333
G01 X28.5662 Y4.4992
G01 X28.4714 Y4.5561
G01 X28.3714 Y4.6034
G01 X28.2672 Y4.6407
G01 X28.1599 Y4.6675
G01 X28.0505 Y4.6838
G01 X27.9400 Y4.6892
G01 X27.8295 Y4.6838
G01 X27.7201 Y4.6675
G01 X27.6128 Y4.6407
G01 X27.5086 Y4.6034
G01 X27.4086 Y4.5561
G01 X27.3183 Y4.5021
G01 X27.3093 Y4.4961
G01 X27.2249 Y4.4333
G01 X27.1469 Y4.3628
G01 X27.1392 Y4.3551
G01 X27.0687 Y4.2771
G01 X27.0028 Y4.1882
G01 X26.9459 Y4.0934
G01 X26.9008 Y3.9983
G01 X26.8966 Y3.9883
G01 X26.8613 Y3.8892
G01 X26.8356 Y3.7872
G01 X26.8335 Y3.7766
G01 X26.8185 Y3.6752
G01 X26.8178 Y3.6671
G01 X26.8128 Y3.5620
G01 X26.8129 Y1.5246
G01 X26.8178 Y1.4249
G01 X26.8189 Y1.4141
G01 X26.8345 Y1.3101
G01 X26.8599 Y1.2080
G01 X26.8630 Y1.1976
G01 X26.8986 Y1.0986
G01 X26.9459 Y0.9986
G01 X27.0028 Y0.9038
G01 X27.0653 Y0.8192
G01 X27.0722 Y0.8108
G01 X27.1392 Y0.7369
G01 X27.1469 Y0.7292
G01 X27.2249 Y0.6587
G01 X27.3138 Y0.5928
G01 X27.4086 Y0.5359
G01 X27.5086 Y0.4886
G01 X27.6128 Y0.4513
G01 X27.7148 Y0.4256
G01 X27.7254 Y0.4235
G01 X27.8241 Y0.4089
G01 X27.8349 Y0.4078
G01 X27.9400 Y0.4028
G01 X28.0505 Y0.4082
G01 X28.1599 Y0.4245
G01 X28.2620 Y0.4499
G01 X28.2724 Y0.4530
G01 X28.3663 Y0.4866
G01 X28.3763 Y0.4908
G01 X28.4714 Y0.5359
G01 X28.5662 Y0.5928
G01 X28.6551 Y0.6587
G01 X28.7331 Y0.7292
G01 X28.7408 Y0.7369
G01 X28.8078 Y0.8108
G01 X28.8147 Y0.8192
G01 X28.8772 Y0.9038
G01 X28.9341 Y0.9986
G01 X28.9814 Y1.0986
G01 X29.0170 Y1.1976
G01 X29.0201 Y1.2080
G01 X29.0444 Y1.3048
G01 X29.0465 Y1.3154
G01 X29.0618 Y1.4195
G01 X29.0672 Y1.5300
G00 Z3.0000
G00 X34.1472 Y1.5300
G01 F60.00
G01 Z-0.0399
G01 F90.00
G01 X34.1472 Y3.5620
G01 X34.1422 Y3.6671
G01 X34.1411 Y3.6779
G01 X34.1255 Y3.7819
G01 X34.0987 Y3.8892
G01 X34.0614 Y3.9934
G01 X34.0141 Y4.0934
G01 X33.9572 Y4.1882
G01 X33.8913 Y4.2771
G01 X33.8171 Y4.3591
G01 X33.7351 Y4.4333
G01 X33.6462 Y4.4992
G01 X33.5514 Y4.5561
G01 X33.4514 Y4.6034
G01 X33.3472 Y4.6407
G01 X33.2399 Y4.6675
G01 X33.1305 Y4.6838
G01 X33.0200 Y4.6892
G01 X32.9095 Y4.6838
G01 X32.8001 Y4.6675
G01 X32.6928 Y4.6407
G01 X32.5886 Y4.6034
G01 X32.4886 Y4.5561
G01 X32.3983 Y4.5021
G01 X32.3893 Y4.4961
G01 X32.3049 Y4.4333
G01 X32.2269 Y4.3628
G01 X32.2192 Y4.3551
G01 X32.1487 Y4.2771
G01 X32.0828 Y4.1882
G01 X32.0259 Y4.0934
G01 X31.9808 Y3.9983
G01 X31.9766 Y3.9883
G01 X31.9413 Y3.8892
G01 X31.9156 Y3.7872
G01 X31.9135 Y3.7766
G01 X31.8985 Y3.6752
G01 X31.8978 Y3.6671
G01 X31.8928 Y3.5620
G01 X31.8929 Y1.5246
G01 X31.8978 Y1.4249
G01 X31.8989 Y1.4141
G01 X31.9145 Y1.3101
G01 X31.9399 Y1.2080
G01 X31.9430 Y1.1976
G01 X31.9786 Y1.0986
G01 X32.0259 Y0.9986
G01 X32.0828 Y0.9038
G01 X32.1487 Y0.8149
G01 X32.2229 Y0.7329
G01 X32.3008 Y0.6622
G01 X32.3092 Y0.6553
G01 X32.3893 Y0.5959
G01 X32.3983 Y0.5899
G01 X32.4886 Y0.5359
G01 X32.5886 Y0.4886
G01 X32.6928 Y0.4513
G01 X32.7948 Y0.4256
G01 X32.8054 Y0.4235
G01 X32.9041 Y0.4089
G01 X32.9149 Y0.4078
G01 X33.0200 Y0.4028
G01 X33.1305 Y0.4082
G01 X33.2399 Y0.4245
G01 X33.3420 Y0.4499
G01 X33.3524 Y0.4530
G01 X33.4463 Y0.4866
G01 X33.4563 Y0.4908
G01 X33.5514 Y0.5359
G01 X33.6462 Y0.5928
G01 X33.7351 Y0.6587
G01 X33.8131 Y0.7292
G01 X33.8208 Y0.7369
G01 X33.8878 Y0.8108
G01 X33.8947 Y0.8192
G01 X33.9572 Y0.9038
G01 X34.0141 Y0.9986
G01 X34.0614 Y1.0986
G01 X34.0970 Y1.1976
G01 X34.1001 Y1.2080
G01 X34.1244 Y1.3048
G01 X34.1265 Y1.3154
G01 X34.1418 Y1.4195
G01 X34.1472 Y1.5300
G00 Z3.0000
G00 X34.4328 Y3.5620
G01 F60.00
G01 Z-0.0399
G01 F90.00
G01 X34.4328 Y1.5300
G01 X34.4378 Y1.4249
G01 X34.4389 Y1.4141
G01 X34.4545 Y1.3101
G01 X34.4813 Y1.2028
G01 X34.5186 Y1.0986
G01 X34.5659 Y0.9986
G01 X34.6228 Y0.9038
G01 X34.6887 Y0.8149
G01 X34.7629 Y0.7329
G01 X34.8449 Y0.6587
G01 X34.9338 Y0.5928
G01 X35.0286 Y0.5359
G01 X35.1286 Y0.4886
G01 X35.2328 Y0.4513
G01 X35.3401 Y0.4245
G01 X35.4495 Y0.4082
G01 X35.5600 Y0.4028
G01 X35.6705 Y0.4082
G01 X35.7799 Y0.4245
G01 X35.8872 Y0.4513
G01 X35.9914 Y0.4886
G01 X36.0914 Y0.5359
G01 X36.1817 Y0.5899
G01 X36.1907 Y0.5959
G01 X36.2751 Y0.6587
G01 X36.3531 Y0.7292
G01 X36.3608 Y0.7369
G01 X36.4313 Y0.8149
G01 X36.4972 Y0.9038
G01 X36.5541 Y0.9986
G01 X36.5992 Y1.0937
G01 X36.6034 Y1.1037
G01 X36.6387 Y1.2028
G01 X36.6644 Y1.3048
G01 X36.6665 Y1.3154
G01 X36.6815 Y1.4168
G01 X36.6822 Y1.4249
G01 X36.6872 Y1.5300
G01 X36.6871 Y3.5674
G01 X36.6822 Y3.6671
G01 X36.6811 Y3.6779
G01 X36.6655 Y3.7819
G01 X36.6401 Y3.8840
G01 X36.6370 Y3.8944
G01 X36.6014 Y3.9934
G01 X36.5541 Y4.0934
G01 X36.4972 Y4.1882
G01 X36.4313 Y4.2771
G01 X36.3571 Y4.3591
G01 X36.2792 Y4.4298
G01 X36.2708 Y4.4367
G01 X36.1907 Y4.4961
G01 X36.1817 Y4.5021
G01 X36.0914 Y4.5561
G01 X35.9914 Y4.6034
G01 X35.8872 Y4.6407
G01 X35.7852 Y4.6664
G01 X35.7746 Y4.6685
G01 X35.6759 Y4.6831
G01 X35.6651 Y4.6842
G01 X35.5600 Y4.6892
G01 X35.4495 Y4.6838
G01 X35.3401 Y4.6675
G01 X35.2380 Y4.6421
G01 X35.2276 Y4.6390
G01 X35.1337 Y4.6054
G01 X35.1237 Y4.6012
G01 X35.0286 Y4.5561
G01 X34.9338 Y4.4992
G01 X34.8449 Y4.4333
G01 X34.7669 Y4.3628
G01 X34.7592 Y4.3551
G01 X34.6922 Y4.2812
G01 X34.6853 Y4.2728
G01 X34.6228 Y4.1882
G01 X34.5659 Y4.0934
G01 X34.5186 Y3.9934
G01 X34.4830 Y3.8944
G01 X34.4799 Y3.8840
G01 X34.4556 Y3.7872
G01 X34.4535 Y3.7766
G01 X34.4382 Y3.6725
G01 X34.4328 Y3.5620
G00 Z3.0000
G00 X39.2272 Y1.5300
G01 F60.00
G01 Z-0.0399
G01 F90.00
G01 X39.2272 Y3.5620
G01 X39.2222 Y3.6671
G01 X39.2211 Y3.6779
G01 X39.2055 Y3.7819
G01 X39.1787 Y3.8892
G01 X39.1414 Y3.9934
G01 X39.0941 Y4.0934
G01 X39.0372 Y4.1882
G01 X38.9713 Y4.2771
G01 X38.8971 Y4.3591
G01 X38.8151 Y4.4333
G01 X38.7262 Y4.4992
G01 X38.6314 Y4.5561
G01 X38.5314 Y4.6034
G01 X38.4272 Y4.6407
G01 X38.3199 Y4.6675
G01 X38.2105 Y4.6838
G01 X38.1000 Y4.6892
G01 X37.9895 Y4.6838
G01 X37.8801 Y4.6675
G01 X37.7728 Y4.6407
G01 X37.6686 Y4.6034
G01 X37.5686 Y4.5561
G01 X37.4783 Y4.5021
G01 X37.4693 Y4.4961
G01 X37.3849 Y4.4333
G01 X37.3069 Y4.3628
G01 X37.2992 Y4.3551
G01 X37.2287 Y4.2771
G01 X37.1628 Y4.1882
G01 X37.1059 Y4.0934
G01 X37.0608 Y3.9983
G01 X37.0566 Y3.9883
G01 X37.0213 Y3.8892
G01 X36.9956 Y3.7872
G01 X36.9935 Y3.7766
G01 X36.9785 Y3.6752
G01 X36.9778 Y3.6671
G01 X36.9728 Y3.5620
G01 X36.9729 Y1.5246
G01 X36.9778 Y1.4249
G01 X36.9789 Y1.4141
G01 X36.9945 Y1.3101
G01 X37.0199 Y1.2080
G01 X37.0230 Y1.1976
G01 X37.0586 Y1.0986
G01 X37.1059 Y0.9986
G01 X37.1628 Y0.9038
G01 X37.2287 Y0.8149
G01 X37.3029 Y0.7329
G01 X37.3808 Y0.6622
G01 X37.3892 Y0.6553
G01 X37.4693 Y0.5959
G01 X37.4783 Y0.5899
G01 X37.5686 Y0.5359
G01 X37.6686 Y0.4886
G01 X37.7728 Y0.4513
G01 X37.8748 Y0.4256
G01 X37.8854 Y0.4235
G01 X37.9841 Y0.4089
G01 X37.9949 Y0.4078
G01 X38.1000 Y0.4028
G01 X38.2105 Y0.4082
G01 X38.3199 Y0.4245
G01 X38.4220 Y0.4499
G01 X38.4324 Y0.4530
G01 X38.5263 Y0.4866
G01 X38.5363 Y0.4908
G01 X38.6314 Y0.5359
G01 X38.7262 Y0.5928
G01 X38.8151 Y0.6587
G01 X38.8931 Y0.7292
G01 X38.9008 Y0.7369
G01 X38.9678 Y0.8108
G01 X38.9747 Y0.8192
G01 X39.0372 Y0.9038
G01 X39.0941 Y0.9986
G01 X39.1414 Y1.0986
G01 X39.1770 Y1.1976
G01 X39.1801 Y1.2080
G01 X39.2044 Y1.3048
G01 X39.2065 Y1.3154
G01 X39.2218 Y1.4195
G01 X39.2272 Y1.5300
G00 Z3.0000
G00 X49.6728 Y3.5620
G01 F60.00
G01 Z-0.0399
G01 F90.00
G01 X49.6728 Y1.5300
G01 X49.6778 Y1.4249
G01 X49.6789 Y1.4141
G01 X49.6945 Y1.3101
G01 X49.7213 Y1.2028
G01 X49.7586 Y1.0986
G01 X49.8059 Y0.9986
G01 X49.8628 Y0.9038
G01 X49.9287 Y0.8149
G01 X50.0029 Y0.7329
G01 X50.0849 Y0.6587
G01 X50.1738 Y0.5928
G01 X50.2686 Y0.5359
G01 X50.3686 Y0.4886
G01 X50.4728 Y0.4513
G01 X50.5801 Y0.4245
G01 X50.6895 Y0.4082
G01 X50.8000 Y0.4028
G01 X50.9105 Y0.4082
G01 X51.0199 Y0.4245
G01 X51.1272 Y0.4513
G01 X51.2314 Y0.4886
G01 X51.3314 Y0.5359
G01 X51.4217 Y0.5899
G01 X51.4307 Y0.5959
G01 X51.5151 Y0.6587
G01 X51.5931 Y0.7292
G01 X51.6008 Y0.7369
G01 X51.6713 Y0.8149
G01 X51.7372 Y0.9038
G01 X51.7941 Y0.9986
G01 X51.8392 Y1.0937
G01 X51.8434 Y1.1037
G01 X51.8787 Y1.2028
G01 X51.9044 Y1.3048
G01 X51.9065 Y1.3154
G01 X51.9215 Y1.4168
G01 X51.9222 Y1.4249
G01 X51.9272 Y1.5300
G01 X51.9271 Y3.5674
G01 X51.9222 Y3.6671
G01 X51.9211 Y3.6779
G01 X51.9055 Y3.7819
G01 X51.8801 Y3.8840
G01 X51.8770 Y3.8944
G01 X51.8414 Y3.9934
G01 X51.7941 Y4.0934
G01 X51.7372 Y4.1882
G01 X51.6713 Y4.2771
G01 X51.5971 Y4.3591
G01 X51.5192 Y4.4298
G01 X51.5108 Y4.4367
G01 X51.4307 Y4.4961
G01 X51.4217 Y4.5021
G01 X51.3314 Y4.5561
G01 X51.2314 Y4.6034
G01 X51.1272 Y4.6407
G01 X51.0252 Y4.6664
G01 X51.0146 Y4.6685
G01 X50.9159 Y4.6831
G01 X50.9051 Y4.6842
G01 X50.8000 Y4.6892
G01 X50.6895 Y4.6838
G01 X50.5801 Y4.6675
G01 X50.4780 Y4.6421
G01 X50.4676 Y4.6390
G01 X50.3737 Y4.6054
G01 X50.3637 Y4.6012
G01 X50.2686 Y4.5561
G01 X50.1738 Y4.4992
G01 X50.0849 Y4.4333
G01 X50.0069 Y4.3628
G01 X49.9992 Y4.3551
G01 X49.9322 Y4.2812
G01 X49.9253 Y4.2728
G01 X49.8628 Y4.1882
G01 X49.8059 Y4.0934
G01 X49.7586 Y3.9934
G01 X49.7230 Y3.8944
G01 X49.7199 Y3.8840
G01 X49.6956 Y3.7872
G01 X49.6935 Y3.7766
G01 X49.6782 Y3.6725
G01 X49.6728 Y3.5620
G00 Z3.0000
G00 X59.5472 Y1.5300
G01 F60.00
G01 Z-0.0399
G01 F90.00
G01 X59.5472 Y3.5620
G01 X59.5422 Y3.6671
G01 X59.5411 Y3.6779
G01 X59.5255 Y3.7819
G01 X59.4987 Y3.8892
G01 X59.4614 Y3.9934
G01 X59.4141 Y4.0934
G01 X59.3572 Y4.1882
G01 X59.2913 Y4.2771
G01 X59.2171 Y4.3591
G01 X59.1351 Y4.4333
G01 X59.0462 Y4.4992
G01 X58.9514 Y4.5561
G01 X58.8514 Y4.6034
G01 X58.7472 Y4.6407
G01 X58.6399 Y4.6675
G01 X58.5305 Y4.6838
G01 X58.4200 Y4.6892
G01 X58.3095 Y4.6838
G01 X58.2001 Y4.6675
G01 X58.0928 Y4.6407
G01 X57.9886 Y4.6034
G01 X57.8886 Y4.5561
G01 X57.7983 Y4.5021
G01 X57.7893 Y4.4961
G01 X57.7049 Y4.4333
G01 X57.6269 Y4.3628
G01 X57.6192 Y4.3551
G01 X57.5487 Y4.2771
G01 X57.4828 Y4.1882
G01 X57.4259 Y4.0934
G01 X57.3808 Y3.9983
G01 X57.3766 Y3.9883
G01 X57.3413 Y3.8892
G01 X57.3156 Y3.7872
G01 X57.3135 Y3.7766
G01 X57.2985 Y3.6752
G01 X57.2978 Y3.6671
G01 X57.2928 Y3.5620
G01 X57.2929 Y1.5246
G01 X57.2978 Y1.4249
G01 X57.2989 Y1.4141
G01 X57.3145 Y1.3101
G01 X57.3399 Y1.2080
G01 X57.3430 Y1.1976
G01 X57.3786 Y1.0986
G01 X57.4259 Y0.9986
G01 X57.4828 Y0.9038
G01 X57.5487 Y0.8149
G01 X57.6229 Y0.7329
G01 X57.7008 Y0.6622
G01 X57.7092 Y0.6553
G01 X57.7893 Y0.5959
G01 X57.7983 Y0.5899
G01 X57.8886 Y0.5359
G01 X57.9886 Y0.4886
G01 X58.0928 Y0.4513
G01 X58.1948 Y0.4256
G01 X58.2054 Y0.4235
G01 X58.3041 Y0.4089
G01 X58.3149 Y0.4078
G01 X58.4200 Y0.4028
G01 X58.5305 Y0.4082
G01 X58.6399 Y0.4245
G01 X58.7420 Y0.4499
G01 X58.7524 Y0.4530
G01 X58.8463 Y0.4866
G01 X58.8563 Y0.4908
G01 X58.9514 Y0.5359
G01 X59.0462 Y0.5928
G01 X59.1351 Y0.6587
G01 X59.2131 Y0.7292
G01 X59.2208 Y0.7369
G01 X59.2878 Y0.8108
G01 X59.2947 Y0.8192
G01 X59.3572 Y0.9038
G01 X59.4141 Y0.9986
G01 X59.4614 Y1.0986
G01 X59.4970 Y1.1976
G01 X59.5001 Y1.2080
G01 X59.5244 Y1.3048
G01 X59.5265 Y1.3154
G01 X59.5418 Y1.4195
G01 X59.5472 Y1.5300
G00 Z3.0000
G00 X64.6272 Y1.5300
G01 F60.00
G01 Z-0.0399
G01 F90.00
G01 X64.6272 Y3.5620
G01 X64.6222 Y3.6671
G01 X64.6211 Y3.6779
G01 X64.6055 Y3.7819
G01 X64.5787 Y3.8892
G01 X64.5414 Y3.9934
G01 X64.4941 Y4.0934
G01 X64.4372 Y4.1882
G01 X64.3713 Y4.2771
G01 X64.2971 Y4.3591
G01 X64.2151 Y4.4333
G01 X64.1262 Y4.4992
G01 X64.0314 Y4.5561
G01 X63.9314 Y4.6034
G01 X63.8272 Y4.6407
G01 X63.7199 Y4.6675
G01 X63.6105 Y4.6838
G01 X63.5000 Y4.6892
G01 X63.3895 Y4.6838
G01 X63.2801 Y4.6675
G01 X63.1728 Y4.6407
G01 X63.0686 Y4.6034
G01 X62.9686 Y4.5561
G01 X62.8783 Y4.5021
G01 X62.8693 Y4.4961
G01 X62.7849 Y4.4333
G01 X62.7069 Y4.3628
G01 X62.6992 Y4.3551
G01 X62.6287 Y4.2771
G01 X62.5628 Y4.1882
G01 X62.5059 Y4.0934
G01 X62.4608 Y3.9983
G01 X62.4566 Y3.9883
G01 X62.4213 Y3.8892
G01 X62.3956 Y3.7872
G01 X62.3935 Y3.7766
G01 X62.3785 Y3.6752
G01 X62.3778 Y3.6671
G01 X62.3728 Y3.5620
G01 X62.3729 Y1.5246
G01 X62.3778 Y1.4249
G01 X62.3789 Y1.4141
G01 X62.3945 Y1.3101
G01 X62.4199 Y1.2080
G01 X62.4230 Y1.1976
G01 X62.4586 Y1.0986
G01 X62.5059 Y0.9986
G01 X62.5628 Y0.9038
G01 X62.6287 Y0.8149
G01 X62.7029 Y0.7329
G01 X62.7808 Y0.6622
G01 X62.7892 Y0.6553
G01 X62.8693 Y0.5959
G01 X62.8783 Y0.5899
G01 X62.9686 Y0.5359
G01 X63.0686 Y0.4886
G01 X63.1728 Y0.4513
G01 X63.2748 Y0.4256
G01 X63.2854 Y0.4235
G01 X63.3841 Y0.4089
G01 X63.3949 Y0.4078
G01 X63.5000 Y0.4028
G01 X63.6105 Y0.4082
G01 X63.7199 Y0.4245
G01 X63.8220 Y0.4499
G01 X63.8324 Y0.4530
G01 X63.9263 Y0.4866
G01 X63.9363 Y0.4908
G01 X64.0314 Y0.5359
G01 X64.1262 Y0.5928
G01 X64.2151 Y0.6587
G01 X64.2931 Y0.7292
G01 X64.3008 Y0.7369
G01 X64.3678 Y0.8108
G01 X64.3747 Y0.8192
G01 X64.4372 Y0.9038
G01 X64.4941 Y0.9986
G01 X64.5414 Y1.0986
G01 X64.5770 Y1.1976
G01 X64.5801 Y1.2080
G01 X64.6044 Y1.3048
G01 X64.6065 Y1.3154
G01 X64.6218 Y1.4195
G01 X64.6272 Y1.5300
G00 Z3.0000
G00 X64.9128 Y3.5620
G01 F60.00
G01 Z-0.0399
G01 F90.00
G01 X64.9128 Y1.5300
G01 X64.9178 Y1.4249
G01 X64.9189 Y1.4141
G01 X64.9345 Y1.3101
G01 X64.9613 Y1.2028
G01 X64.9986 Y1.0986
G01 X65.0459 Y0.9986
G01 X65.1028 Y0.9038
G01 X65.1687 Y0.8149
G01 X65.2429 Y0.7329
G01 X65.3249 Y0.6587
G01 X65.4138 Y0.5928
G01 X65.5086 Y0.5359
G01 X65.6086 Y0.4886
G01 X65.7128 Y0.4513
G01 X65.8201 Y0.4245
G01 X65.9295 Y0.4082
G01 X66.0400 Y0.4028
G01 X66.1505 Y0.4082
G01 X66.2599 Y0.4245
G01 X66.3672 Y0.4513
G01 X66.4714 Y0.4886
G01 X66.5714 Y0.5359
G01 X66.6617 Y0.5899
G01 X66.6707 Y0.5959
G01 X66.7551 Y0.6587
G01 X66.8331 Y0.7292
G01 X66.8408 Y0.7369
G01 X66.9113 Y0.8149
G01 X66.9741 Y0.8993
G01 X66.9801 Y0.9083
G01 X67.0341 Y0.9986
G01 X67.0792 Y1.0937
G01 X67.0834 Y1.1037
G01 X67.1187 Y1.2028
G01 X67.1444 Y1.3048
G01 X67.1465 Y1.3154
G01 X67.1618 Y1.4195
G01 X67.1672 Y1.5273
G01 X67.1672 Y3.5620
G01 X67.1622 Y3.6671
G01 X67.1615 Y3.6752
G01 X67.1455 Y3.7819
G01 X67.1187 Y3.8892
G01 X67.0814 Y3.9934
G01 X67.0354 Y4.0910
G01 X67.0314 Y4.0981
G01 X66.9772 Y4.1882
G01 X66.9130 Y4.2750
G01 X66.9078 Y4.2812
G01 X66.8390 Y4.3571
G01 X66.8331 Y4.3628
G01 X66.7860 Y4.4055
G01 X66.7860 Y29.9188
G01 X66.8214 Y29.9509
G01 X66.8273 Y29.9566
G01 X66.8968 Y30.0333
G01 X66.9019 Y30.0397
G01 X66.9620 Y30.1207
G01 X66.9664 Y30.1275
G01 X67.0195 Y30.2164
G01 X67.0651 Y30.3125
G01 X67.0681 Y30.3200
G01 X67.1029 Y30.4176
G01 X67.1294 Y30.5233
G01 X67.1454 Y30.6311
G01 X67.1506 Y30.7346
G01 X67.1507 Y30.7427
G01 X67.1454 Y30.8489
G01 X67.1294 Y30.9567
G01 X67.1029 Y31.0624
G01 X67.0662 Y31.1650
G01 X67.0195 Y31.2636
G01 X66.9635 Y31.3571
G01 X66.8986 Y31.4446
G01 X66.8254 Y31.5254
G01 X66.7446 Y31.5986
G01 X66.6571 Y31.6635
G01 X66.5636 Y31.7195
G01 X66.4650 Y31.7662
G01 X66.3624 Y31.8029
G01 X66.2567 Y31.8294
G01 X66.1489 Y31.8454
G01 X66.0454 Y31.8506
G01 X66.0346 Y31.8506
G01 X65.9311 Y31.8454
G01 X65.8233 Y31.8294
G01 X65.7176 Y31.8029
G01 X65.6150 Y31.7662
G01 X65.5164 Y31.7195
G01 X65.4229 Y31.6635
G01 X65.3354 Y31.5986
G01 X65.2546 Y31.5254
G01 X65.1814 Y31.4446
G01 X65.1165 Y31.3571
G01 X65.0605 Y31.2636
G01 X65.0138 Y31.1650
G01 X64.9771 Y31.0624
G01 X64.9506 Y30.9567
G01 X64.9346 Y30.8489
G01 X64.9294 Y30.7454
G01 X64.9294 Y30.7346
G01 X64.9346 Y30.6311
G01 X64.9506 Y30.5233
G01 X64.9771 Y30.4176
G01 X65.0119 Y30.3200
G01 X65.0149 Y30.3125
G01 X65.0605 Y30.2164
G01 X65.1136 Y30.1275
G01 X65.1180 Y30.1207
G01 X65.1781 Y30.0397
G01 X65.1832 Y30.0333
G01 X65.2527 Y29.9566
G01 X65.2586 Y29.9509
G01 X65.2940 Y29.9188
G01 X65.2940 Y4.4055
G01 X65.2429 Y4.3591
G01 X65.1704 Y4.2792
G01 X65.1653 Y4.2728
G01 X65.1043 Y4.1905
G01 X65.0999 Y4.1837
G01 X65.0459 Y4.0934
G01 X64.9997 Y3.9959
G01 X64.9966 Y3.9883
G01 X64.9613 Y3.8892
G01 X64.9345 Y3.7819
G01 X64.9182 Y3.6725
G01 X64.9128 Y3.5620
G00 Z3.0000
G00 X53.6956 Y27.1744
G01 F60.00
G01 Z-0.0399
G01 F90.00
G01 X53.8640 Y27.1744
G01 X53.8640 Y25.2112
G01 X53.8286 Y25.1791
G01 X53.8227 Y25.1734
G01 X53.7532 Y25.0967
G01 X53.7481 Y25.0903
G01 X53.6880 Y25.0093
G01 X53.6836 Y25.0025
G01 X53.6305 Y24.9136
G01 X53.5860 Y24.8200
G01 X53.5828 Y24.8125
G01 X53.5488 Y24.7176
G01 X53.5457 Y24.7072
G01 X53.5206 Y24.6067
G01 X53.5053 Y24.5043
G01 X53.5042 Y24.4934
G01 X53.4993 Y24.3900
G01 X53.5042 Y24.2866
G01 X53.5049 Y24.2784
G01 X53.5206 Y24.1733
G01 X53.5457 Y24.0728
G01 X53.5488 Y24.0624
G01 X53.5838 Y23.9650
G01 X53.6280 Y23.8713
G01 X53.6331 Y23.8617
G01 X53.6865 Y23.7729
G01 X53.7481 Y23.6897
G01 X53.7550 Y23.6813
G01 X53.8246 Y23.6046
G01 X53.9013 Y23.5350
G01 X53.9097 Y23.5281
G01 X53.9929 Y23.4665
G01 X54.0817 Y23.4131
G01 X54.0913 Y23.4080
G01 X54.1800 Y23.3660
G01 X54.1875 Y23.3628
G01 X54.2876 Y23.3271
G01 X54.3880 Y23.3018
G01 X54.3987 Y23.2997
G01 X54.5011 Y23.2846
G01 X54.6100 Y23.2793
G01 X54.7134 Y23.2842
G01 X54.7243 Y23.2853
G01 X54.8213 Y23.2997
G01 X54.8293 Y23.3012
G01 X54.9324 Y23.3271
G01 X55.0300 Y23.3619
G01 X55.0400 Y23.3660
G01 X55.1287 Y23.4080
G01 X55.1360 Y23.4118
G01 X55.2271 Y23.4665
G01 X55.3125 Y23.5297
G01 X55.3187 Y23.5350
G01 X55.3934 Y23.6027
G01 X55.3991 Y23.6086
G01 X55.4312 Y23.6440
G01 X57.5988 Y23.6440
G01 X57.6309 Y23.6086
G01 X57.6366 Y23.6027
G01 X57.7133 Y23.5332
G01 X57.7197 Y23.5281
G01 X57.8007 Y23.4680
G01 X57.8075 Y23.4636
G01 X57.8964 Y23.4105
G01 X57.9925 Y23.3649
G01 X58.0000 Y23.3619
G01 X58.0976 Y23.3271
G01 X58.2033 Y23.3006
G01 X58.3111 Y23.2846
G01 X58.4146 Y23.2794
G01 X58.4254 Y23.2794
G01 X58.5289 Y23.2846
G01 X58.6367 Y23.3006
G01 X58.7424 Y23.3271
G01 X58.8400 Y23.3619
G01 X58.8475 Y23.3649
G01 X58.9436 Y23.4105
G01 X59.0325 Y23.4636
G01 X59.0393 Y23.4680
G01 X59.1203 Y23.5281
G01 X59.1267 Y23.5332
G01 X59.2034 Y23.6027
G01 X59.2091 Y23.6086
G01 X59.2412 Y23.6440
G01 X60.1388 Y23.6440
G01 X60.1709 Y23.6086
G01 X60.1766 Y23.6027
G01 X60.2533 Y23.5332
G01 X60.2597 Y23.5281
G01 X60.3407 Y23.4680
G01 X60.3475 Y23.4636
G01 X60.4364 Y23.4105
G01 X60.5300 Y23.3660
G01 X60.5375 Y23.3628
G01 X60.6324 Y23.3288
G01 X60.6428 Y23.3257
G01 X60.7433 Y23.3006
G01 X60.8457 Y23.2853
G01 X60.8566 Y23.2842
G01 X60.9600 Y23.2793
G01 X61.0662 Y23.2844
G01 X61.0743 Y23.2853
G01 X61.1713 Y23.2997
G01 X61.1820 Y23.3018
G01 X61.2824 Y23.3271
G01 X61.3800 Y23.3619
G01 X61.3900 Y23.3660
G01 X61.4836 Y23.4105
G01 X61.5725 Y23.4636
G01 X61.5815 Y23.4696
G01 X61.6646 Y23.5314
G01 X61.7414 Y23.6009
G01 X61.7491 Y23.6086
G01 X61.8186 Y23.6854
G01 X61.8835 Y23.7729
G01 X61.9369 Y23.8617
G01 X61.9420 Y23.8713
G01 X61.9840 Y23.9600
G01 X61.9872 Y23.9675
G01 X62.0229 Y24.0676
G01 X62.0482 Y24.1680
G01 X62.0503 Y24.1787
G01 X62.0654 Y24.2811
G01 X62.0706 Y24.3846
G01 X62.0706 Y24.3954
G01 X62.0658 Y24.4934
G01 X62.0647 Y24.5043
G01 X62.0494 Y24.6067
G01 X62.0229 Y24.7124
G01 X61.9862 Y24.8150
G01 X61.9395 Y24.9136
G01 X61.8835 Y25.0071
G01 X61.8186 Y25.0946
G01 X61.7454 Y25.1754
G01 X61.6687 Y25.2450
G01 X61.6603 Y25.2519
G01 X61.5771 Y25.3135
G01 X61.4883 Y25.3669
G01 X61.4787 Y25.3720
G01 X61.3900 Y25.4140
G01 X61.3800 Y25.4181
G01 X61.2824 Y25.4529
G01 X61.1767 Y25.4794
G01 X61.0743 Y25.4947
G01 X61.0634 Y25.4958
G01 X60.9600 Y25.5007
G01 X60.8566 Y25.4958
G01 X60.8457 Y25.4947
G01 X60.7433 Y25.4794
G01 X60.6428 Y25.4543
G01 X60.6350 Y25.4521
G01 X60.5350 Y25.4162
G01 X60.4413 Y25.3720
G01 X60.4317 Y25.3669
G01 X60.3452 Y25.3150
G01 X60.3385 Y25.3104
G01 X60.2597 Y25.2519
G01 X60.2533 Y25.2468
G01 X60.1766 Y25.1773
G01 X60.1709 Y25.1714
G01 X60.1388 Y25.1360
G01 X59.2412 Y25.1360
G01 X59.2091 Y25.1714
G01 X59.2034 Y25.1773
G01 X59.1267 Y25.2468
G01 X59.1203 Y25.2519
G01 X59.0393 Y25.3120
G01 X59.0325 Y25.3164
G01 X58.9436 Y25.3695
G01 X58.8475 Y25.4151
G01 X58.8400 Y25.4181
G01 X58.7424 Y25.4529
G01 X58.6367 Y25.4794
G01 X58.5289 Y25.4954
G01 X58.4227 Y25.5007
G01 X58.4146 Y25.5006
G01 X58.3111 Y25.4954
G01 X58.2033 Y25.4794
G01 X58.0976 Y25.4529
G01 X58.0000 Y25.4181
G01 X57.9925 Y25.4151
G01 X57.8964 Y25.3695
G01 X57.8075 Y25.3164
G01 X57.8007 Y25.3120
G01 X57.7197 Y25.2519
G01 X57.7133 Y25.2468
G01 X57.6366 Y25.1773
G01 X57.6309 Y25.1714
G01 X57.5988 Y25.1360
G01 X55.4312 Y25.1360
G01 X55.3954 Y25.1754
G01 X55.3560 Y25.2112
G01 X55.3560 Y27.1744
G01 X55.5271 Y27.1745
G01 X55.6249 Y27.1794
G01 X55.7245 Y27.1941
G01 X55.8195 Y27.2178
G01 X55.8273 Y27.2203
G01 X55.9169 Y27.2525
G01 X56.0078 Y27.2955
G01 X56.0942 Y27.3473
G01 X56.1729 Y27.4055
G01 X56.1791 Y27.4108
G01 X56.2496 Y27.4748
G01 X56.3172 Y27.5494
G01 X56.3771 Y27.6302
G01 X56.4289 Y27.7166
G01 X56.4719 Y27.8075
G01 X56.5058 Y27.9023
G01 X56.5303 Y27.9999
G01 X56.5450 Y28.0995
G01 X56.5500 Y28.2000
G01 X56.5454 Y28.2951
G01 X56.5444 Y28.3059
G01 X56.5312 Y28.3947
G01 X56.5291 Y28.4054
G01 X56.5058 Y28.4977
G01 X56.4738 Y28.5874
G01 X56.4697 Y28.5974
G01 X56.4289 Y28.6834
G01 X56.3771 Y28.7698
G01 X56.3172 Y28.8506
G01 X56.2533 Y28.9212
G01 X56.2476 Y28.9271
G01 X56.1791 Y28.9892
G01 X56.1707 Y28.9961
G01 X56.0942 Y29.0527
G01 X56.0126 Y29.1018
G01 X56.0030 Y29.1069
G01 X55.9169 Y29.1475
G01 X55.8247 Y29.1806
G01 X55.8169 Y29.1828
G01 X55.7245 Y29.2059
G01 X55.6249 Y29.2206
G01 X55.5271 Y29.2255
G01 X55.3560 Y29.2256
G01 X55.3560 Y29.7144
G01 X55.5271 Y29.7145
G01 X55.6195 Y29.7190
G01 X55.6303 Y29.7200
G01 X55.7191 Y29.7332
G01 X55.7271 Y29.7347
G01 X55.8221 Y29.7586
G01 X55.9169 Y29.7925
G01 X56.0078 Y29.8355
G01 X56.0896 Y29.8844
G01 X56.0964 Y29.8888
G01 X56.1750 Y29.9472
G01 X56.2496 Y30.0148
G01 X56.3172 Y30.0894
G01 X56.3771 Y30.1702
G01 X56.4289 Y30.2566
G01 X56.4719 Y30.3475
G01 X56.5058 Y30.4423
G01 X56.5297 Y30.5373
G01 X56.5312 Y30.5453
G01 X56.5450 Y30.6395
G01 X56.5498 Y30.7346
G01 X56.5498 Y30.7454
G01 X56.5454 Y30.8351
G01 X56.5444 Y30.8459
G01 X56.5303 Y30.9401
G01 X56.5058 Y31.0377
G01 X56.4719 Y31.1325
G01 X56.4289 Y31.2234
G01 X56.3771 Y31.3098
G01 X56.3172 Y31.3906
G01 X56.2496 Y31.4652
G01 X56.1791 Y31.5292
G01 X56.1707 Y31.5361
G01 X56.0986 Y31.5896
G01 X56.0896 Y31.5956
G01 X56.0078 Y31.6445
G01 X55.9218 Y31.6853
G01 X55.9143 Y31.6885
G01 X55.8221 Y31.7214
G01 X55.7245 Y31.7459
G01 X55.6249 Y31.7606
G01 X55.5271 Y31.7655
G01 X53.6956 Y31.7656
G01 X53.5951 Y31.7606
G01 X53.5009 Y31.7468
G01 X53.4902 Y31.7447
G01 X53.3979 Y31.7214
G01 X53.3031 Y31.6875
G01 X53.2122 Y31.6445
G01 X53.1304 Y31.5956
G01 X53.1214 Y31.5896
G01 X53.0450 Y31.5328
G01 X52.9744 Y31.4689
G01 X52.9667 Y31.4612
G01 X52.9064 Y31.3947
G01 X52.8995 Y31.3863
G01 X52.8429 Y31.3098
G01 X52.7938 Y31.2282
G01 X52.7899 Y31.2210
G01 X52.7503 Y31.1374
G01 X52.7462 Y31.1274
G01 X52.7142 Y31.0377
G01 X52.6909 Y30.9454
G01 X52.6888 Y30.9347
G01 X52.6750 Y30.8405
G01 X52.6700 Y30.7400
G01 X52.6750 Y30.6395
G01 X52.6888 Y30.5453
G01 X52.6909 Y30.5346
G01 X52.7142 Y30.4423
G01 X52.7462 Y30.3526
G01 X52.7503 Y30.3426
G01 X52.7911 Y30.2566
G01 X52.8400 Y30.1748
G01 X52.8460 Y30.1658
G01 X52.9028 Y30.0894
G01 X52.9704 Y30.0148
G01 X53.0450 Y29.9472
G01 X53.1214 Y29.8904
G01 X53.1304 Y29.8844
G01 X53.2074 Y29.8382
G01 X53.2146 Y29.8343
G01 X53.3031 Y29.7925
G01 X53.3927 Y29.7603
G01 X53.4031 Y29.7572
G01 X53.4902 Y29.7353
G01 X53.4982 Y29.7337
G01 X53.5897 Y29.7200
G01 X53.6005 Y29.7190
G01 X53.6929 Y29.7145
G01 X53.8640 Y29.7144
G01 X53.8640 Y29.2256
G01 X53.6929 Y29.2255
G01 X53.5951 Y29.2206
G01 X53.4955 Y29.2059
G01 X53.4031 Y29.1828
G01 X53.3953 Y29.1806
G01 X53.3082 Y29.1494
G01 X53.2982 Y29.1453
G01 X53.2122 Y29.1045
G01 X53.1304 Y29.0556
G01 X53.1214 Y29.0496
G01 X53.0450 Y28.9928
G01 X52.9744 Y28.9289
G01 X52.9685 Y28.9232
G01 X52.9064 Y28.8547
G01 X52.8995 Y28.8463
G01 X52.8429 Y28.7698
G01 X52.7938 Y28.6882
G01 X52.7887 Y28.6786
G01 X52.7481 Y28.5925
G01 X52.7142 Y28.4977
G01 X52.6909 Y28.4054
G01 X52.6888 Y28.3947
G01 X52.6750 Y28.3005
G01 X52.6702 Y28.2054
G01 X52.6702 Y28.1946
G01 X52.6750 Y28.0995
G01 X52.6888 Y28.0053
G01 X52.6903 Y27.9973
G01 X52.7142 Y27.9023
G01 X52.7481 Y27.8075
G01 X52.7911 Y27.7166
G01 X52.8400 Y27.6348
G01 X52.8460 Y27.6258
G01 X52.8995 Y27.5537
G01 X52.9064 Y27.5453
G01 X52.9704 Y27.4748
G01 X53.0450 Y27.4072
G01 X53.1258 Y27.3473
G01 X53.2074 Y27.2982
G01 X53.2170 Y27.2931
G01 X53.2982 Y27.2547
G01 X53.3082 Y27.2506
G01 X53.3979 Y27.2186
G01 X53.4955 Y27.1941
G01 X53.5951 Y27.1794
G01 X53.6956 Y27.1744
G00 Z3.0000
G00 X53.6956 Y32.2544
G01 F60.00
G01 Z-0.0399
G01 F90.00
G01 X55.5244 Y32.2544
G01 X55.6249 Y32.2594
G01 X55.7245 Y32.2741
G01 X55.8169 Y32.2972
G01 X55.8273 Y32.3003
G01 X55.9118 Y32.3306
G01 X55.9194 Y32.3336
G01 X56.0078 Y32.3755
G01 X56.0942 Y32.4273
G01 X56.1750 Y32.4872
G01 X56.2268 Y32.5340
G01 X67.8340 Y32.5340
G01 X67.8340 Y4.4055
G01 X67.7869 Y4.3628
G01 X67.7810 Y4.3571
G01 X67.7122 Y4.2812
G01 X67.7070 Y4.2750
G01 X67.6428 Y4.1882
G01 X67.5886 Y4.0981
G01 X67.5846 Y4.0910
G01 X67.5386 Y3.9934
G01 X67.5013 Y3.8892
G01 X67.4745 Y3.7819
G01 X67.4585 Y3.6752
G01 X67.4578 Y3.6671
G01 X67.4528 Y3.5620
G01 X67.4529 Y1.5246
G01 X67.4578 Y1.4249
G01 X67.4589 Y1.4141
G01 X67.4745 Y1.3101
G01 X67.4999 Y1.2080
G01 X67.5030 Y1.1976
G01 X67.5386 Y1.0986
G01 X67.5859 Y0.9986
G01 X67.6399 Y0.9083
G01 X67.6459 Y0.8993
G01 X67.7087 Y0.8149
G01 X67.7792 Y0.7369
G01 X67.7869 Y0.7292
G01 X67.8649 Y0.6587
G01 X67.9493 Y0.5959
G01 X67.9583 Y0.5899
G01 X68.0439 Y0.5386
G01 X68.0535 Y0.5334
G01 X68.1486 Y0.4886
G01 X68.2476 Y0.4530
G01 X68.2580 Y0.4499
G01 X68.3601 Y0.4245
G01 X68.4641 Y0.4089
G01 X68.4749 Y0.4078
G01 X68.5800 Y0.4028
G01 X68.6851 Y0.4078
G01 X68.6959 Y0.4089
G01 X68.7999 Y0.4245
G01 X68.9020 Y0.4499
G01 X68.9124 Y0.4530
G01 X69.0114 Y0.4886
G01 X69.1065 Y0.5334
G01 X69.1161 Y0.5386
G01 X69.2017 Y0.5899
G01 X69.2107 Y0.5959
G01 X69.2951 Y0.6587
G01 X69.3731 Y0.7292
G01 X69.3808 Y0.7369
G01 X69.4513 Y0.8149
G01 X69.5141 Y0.8993
G01 X69.5201 Y0.9083
G01 X69.5741 Y0.9986
G01 X69.6192 Y1.0937
G01 X69.6234 Y1.1037
G01 X69.6587 Y1.2028
G01 X69.6855 Y1.3101
G01 X69.7011 Y1.4141
G01 X69.7022 Y1.4249
G01 X69.7072 Y1.5300
G01 X69.7072 Y3.5620
G01 X69.7022 Y3.6671
G01 X69.7015 Y3.6752
G01 X69.6855 Y3.7819
G01 X69.6587 Y3.8892
G01 X69.6214 Y3.9934
G01 X69.5754 Y4.0910
G01 X69.5714 Y4.0981
G01 X69.5172 Y4.1882
G01 X69.4530 Y4.2750
G01 X69.4478 Y4.2812
G01 X69.3790 Y4.3571
G01 X69.3731 Y4.3628
G01 X69.3260 Y4.4055
G01 X69.3260 Y33.2800
G01 X69.3224 Y33.3531
G01 X69.3126 Y33.4202
G01 X69.3105 Y33.4308
G01 X69.2953 Y33.4913
G01 X69.2922 Y33.5017
G01 X69.2692 Y33.5655
G01 X69.2404 Y33.6268
G01 X69.2353 Y33.6364
G01 X69.2032 Y33.6899
G01 X69.1972 Y33.6989
G01 X69.1567 Y33.7533
G01 X69.1113 Y33.8036
G01 X69.1036 Y33.8113
G01 X69.0533 Y33.8567
G01 X68.9989 Y33.8972
G01 X68.9899 Y33.9032
G01 X68.9317 Y33.9379
G01 X68.8705 Y33.9670
G01 X68.8604 Y33.9712
G01 X68.7966 Y33.9939
G01 X68.7308 Y34.0105
G01 X68.7202 Y34.0126
G01 X68.6531 Y34.0224
G01 X68.5854 Y34.0259
G01 X56.2268 Y34.0260
G01 X56.1750 Y34.0728
G01 X56.0942 Y34.1327
G01 X56.0078 Y34.1845
G01 X55.9194 Y34.2264
G01 X55.9118 Y34.2294
G01 X55.8273 Y34.2597
G01 X55.8169 Y34.2628
G01 X55.7245 Y34.2859
G01 X55.6249 Y34.3006
G01 X55.5244 Y34.3056
G01 X53.6956 Y34.3056
G01 X53.5951 Y34.3006
G01 X53.4955 Y34.2859
G01 X53.3979 Y34.2614
G01 X53.3031 Y34.2275
G01 X53.2122 Y34.1845
G01 X53.1258 Y34.1327
G01 X53.0450 Y34.0728
G01 X52.9704 Y34.0052
G01 X52.9028 Y33.9306
G01 X52.8429 Y33.8498
G01 X52.7911 Y33.7634
G01 X52.7481 Y33.6725
G01 X52.7142 Y33.5777
G01 X52.6897 Y33.4801
G01 X52.6750 Y33.3805
G01 X52.6700 Y33.2800
G01 X52.6746 Y33.1849
G01 X52.6756 Y33.1741
G01 X52.6888 Y33.0853
G01 X52.6909 Y33.0746
G01 X52.7142 Y32.9823
G01 X52.7462 Y32.8926
G01 X52.7503 Y32.8826
G01 X52.7911 Y32.7966
G01 X52.8429 Y32.7102
G01 X52.9028 Y32.6294
G01 X52.9667 Y32.5588
G01 X52.9744 Y32.5511
G01 X53.0450 Y32.4872
G01 X53.1258 Y32.4273
G01 X53.2122 Y32.3755
G01 X53.3031 Y32.3325
G01 X53.3979 Y32.2986
G01 X53.4955 Y32.2741
G01 X53.5951 Y32.2594
G01 X53.6956 Y32.2544
G00 Z3.0000
G00 X56.2268 Y36.5660
G01 F60.00
G01 Z-0.0399
G01 F90.00
G01 X56.1750 Y36.6128
G01 X56.0942 Y36.6727
G01 X56.0078 Y36.7245
G01 X55.9194 Y36.7664
G01 X55.9118 Y36.7694
G01 X55.8273 Y36.7997
G01 X55.8169 Y36.8028
G01 X55.7245 Y36.8259
G01 X55.6303 Y36.8400
G01 X55.6222 Y36.8409
G01 X55.5244 Y36.8456
G01 X53.6929 Y36.8455
G01 X53.5951 Y36.8406
G01 X53.5009 Y36.8268
G01 X53.4902 Y36.8247
G01 X53.3979 Y36.8014
G01 X53.3031 Y36.7675
G01 X53.2122 Y36.7245
G01 X53.1258 Y36.6727
G01 X53.0450 Y36.6128
G01 X52.9704 Y36.5452
G01 X52.9028 Y36.4706
G01 X52.8429 Y36.3898
G01 X52.7911 Y36.3034
G01 X52.7481 Y36.2125
G01 X52.7142 Y36.1177
G01 X52.6897 Y36.0201
G01 X52.6750 Y35.9205
G01 X52.6700 Y35.8200
G01 X52.6750 Y35.7195
G01 X52.6897 Y35.6199
G01 X52.7142 Y35.5223
G01 X52.7462 Y35.4326
G01 X52.7503 Y35.4226
G01 X52.7911 Y35.3366
G01 X52.8429 Y35.2502
G01 X52.9028 Y35.1694
G01 X52.9667 Y35.0988
G01 X52.9744 Y35.0911
G01 X53.0409 Y35.0308
G01 X53.0493 Y35.0239
G01 X53.1258 Y34.9673
G01 X53.2122 Y34.9155
G01 X53.3031 Y34.8725
G01 X53.3927 Y34.8403
G01 X53.4031 Y34.8372
G01 X53.4902 Y34.8153
G01 X53.5009 Y34.8132
G01 X53.5951 Y34.7994
G01 X53.6929 Y34.7945
G01 X55.5244 Y34.7944
G01 X55.6249 Y34.7994
G01 X55.7245 Y34.8141
G01 X55.8169 Y34.8372
G01 X55.8273 Y34.8403
G01 X55.9118 Y34.8706
G01 X55.9194 Y34.8736
G01 X56.0078 Y34.9155
G01 X56.0942 Y34.9673
G01 X56.1750 Y35.0272
G01 X56.2268 Y35.0740
G01 X70.3740 Y35.0740
G01 X70.3740 Y4.4055
G01 X70.3269 Y4.3628
G01 X70.3210 Y4.3571
G01 X70.2522 Y4.2812
G01 X70.2470 Y4.2750
G01 X70.1828 Y4.1882
G01 X70.1286 Y4.0981
G01 X70.1246 Y4.0910
G01 X70.0786 Y3.9934
G01 X70.0413 Y3.8892
G01 X70.0145 Y3.7819
G01 X69.9985 Y3.6752
G01 X69.9978 Y3.6671
G01 X69.9928 Y3.5620
G01 X69.9928 Y1.5273
G01 X69.9978 Y1.4249
G01 X69.9989 Y1.4141
G01 X70.0145 Y1.3101
G01 X70.0399 Y1.2080
G01 X70.0430 Y1.1976
G01 X70.0786 Y1.0986
G01 X70.1259 Y0.9986
G01 X70.1799 Y0.9083
G01 X70.1859 Y0.8993
G01 X70.2487 Y0.8149
G01 X70.3192 Y0.7369
G01 X70.3269 Y0.7292
G01 X70.4049 Y0.6587
G01 X70.4938 Y0.5928
G01 X70.5886 Y0.5359
G01 X70.6837 Y0.4908
G01 X70.6937 Y0.4866
G01 X70.7928 Y0.4513
G01 X70.8948 Y0.4256
G01 X70.9054 Y0.4235
G01 X71.0095 Y0.4082
G01 X71.1146 Y0.4029
G01 X71.1254 Y0.4029
G01 X71.2305 Y0.4082
G01 X71.3346 Y0.4235
G01 X71.3452 Y0.4256
G01 X71.4472 Y0.4513
G01 X71.5514 Y0.4886
G01 X71.6465 Y0.5334
G01 X71.6561 Y0.5386
G01 X71.7462 Y0.5928
G01 X71.8351 Y0.6587
G01 X71.9131 Y0.7292
G01 X71.9208 Y0.7369
G01 X71.9913 Y0.8149
G01 X72.0572 Y0.9038
G01 X72.1114 Y0.9939
G01 X72.1166 Y1.0035
G01 X72.1614 Y1.0986
G01 X72.1987 Y1.2028
G01 X72.2255 Y1.3101
G01 X72.2411 Y1.4141
G01 X72.2422 Y1.4249
G01 X72.2472 Y1.5300
G01 X72.2472 Y3.5620
G01 X72.2422 Y3.6671
G01 X72.2415 Y3.6752
G01 X72.2255 Y3.7819
G01 X72.1987 Y3.8892
G01 X72.1614 Y3.9934
G01 X72.1154 Y4.0910
G01 X72.1114 Y4.0981
G01 X72.0572 Y4.1882
G01 X71.9930 Y4.2750
G01 X71.9878 Y4.2812
G01 X71.9190 Y4.3571
G01 X71.9131 Y4.3628
G01 X71.8660 Y4.4055
G01 X71.8660 Y35.8200
G01 X71.8624 Y35.8931
G01 X71.8517 Y35.9655
G01 X71.8339 Y36.0366
G01 X71.8092 Y36.1055
G01 X71.7804 Y36.1668
G01 X71.7753 Y36.1764
G01 X71.7403 Y36.2345
G01 X71.6967 Y36.2933
G01 X71.6513 Y36.3436
G01 X71.6436 Y36.3513
G01 X71.5933 Y36.3967
G01 X71.5345 Y36.4403
G01 X71.4717 Y36.4779
G01 X71.4105 Y36.5070
G01 X71.4004 Y36.5112
G01 X71.3366 Y36.5339
G01 X71.2708 Y36.5505
G01 X71.2602 Y36.5526
G01 X71.1931 Y36.5624
G01 X71.1227 Y36.5660
G01 X56.2268 Y36.5660
G00 Z3.0000
G00 X53.6956 Y37.3344
G01 F60.00
G01 Z-0.0399
G01 F90.00
G01 X55.5244 Y37.3344
G01 X55.6249 Y37.3394
G01 X55.7245 Y37.3541
G01 X55.8169 Y37.3772
G01 X55.8273 Y37.3803
G01 X55.9118 Y37.4106
G01 X55.9194 Y37.4136
G01 X56.0078 Y37.4555
G01 X56.0942 Y37.5073
G01 X56.1750 Y37.5672
G01 X56.2268 Y37.6140
G01 X72.9140 Y37.6140
G01 X72.9140 Y4.4055
G01 X72.8669 Y4.3628
G01 X72.8610 Y4.3571
G01 X72.7922 Y4.2812
G01 X72.7870 Y4.2750
G01 X72.7228 Y4.1882
G01 X72.6686 Y4.0981
G01 X72.6646 Y4.0910
G01 X72.6186 Y3.9934
G01 X72.5813 Y3.8892
G01 X72.5545 Y3.7819
G01 X72.5385 Y3.6752
G01 X72.5378 Y3.6671
G01 X72.5328 Y3.5620
G01 X72.5328 Y1.5273
G01 X72.5378 Y1.4249
G01 X72.5389 Y1.4141
G01 X72.5545 Y1.3101
G01 X72.5799 Y1.2080
G01 X72.5830 Y1.1976
G01 X72.6186 Y1.0986
G01 X72.6634 Y1.0035
G01 X72.6686 Y0.9939
G01 X72.7228 Y0.9038
G01 X72.7853 Y0.8192
G01 X72.7922 Y0.8108
G01 X72.8629 Y0.7329
G01 X72.9408 Y0.6622
G01 X72.9492 Y0.6553
G01 X73.0338 Y0.5928
G01 X73.1239 Y0.5386
G01 X73.1335 Y0.5334
G01 X73.2286 Y0.4886
G01 X73.3276 Y0.4530
G01 X73.3380 Y0.4499
G01 X73.4401 Y0.4245
G01 X73.5441 Y0.4089
G01 X73.5549 Y0.4078
G01 X73.6600 Y0.4028
G01 X73.7651 Y0.4078
G01 X73.7759 Y0.4089
G01 X73.8799 Y0.4245
G01 X73.9820 Y0.4499
G01 X73.9924 Y0.4530
G01 X74.0914 Y0.4886
G01 X74.1865 Y0.5334
G01 X74.1937 Y0.5372
G01 X74.2862 Y0.5928
G01 X74.3708 Y0.6553
G01 X74.3792 Y0.6622
G01 X74.4571 Y0.7329
G01 X74.5278 Y0.8108
G01 X74.5347 Y0.8192
G01 X74.5972 Y0.9038
G01 X74.6514 Y0.9939
G01 X74.6566 Y1.0035
G01 X74.7014 Y1.0986
G01 X74.7370 Y1.1976
G01 X74.7401 Y1.2080
G01 X74.7655 Y1.3101
G01 X74.7811 Y1.4141
G01 X74.7822 Y1.4249
G01 X74.7872 Y1.5300
G01 X74.7872 Y3.5620
G01 X74.7822 Y3.6671
G01 X74.7815 Y3.6752
G01 X74.7655 Y3.7819
G01 X74.7387 Y3.8892
G01 X74.7014 Y3.9934
G01 X74.6554 Y4.0910
G01 X74.6514 Y4.0981
G01 X74.5972 Y4.1882
G01 X74.5330 Y4.2750
G01 X74.5278 Y4.2812
G01 X74.4590 Y4.3571
G01 X74.4531 Y4.3628
G01 X74.4060 Y4.4055
G01 X74.4060 Y38.3600
G01 X74.4028 Y38.4277
G01 X74.4018 Y38.4385
G01 X74.3917 Y38.5055
G01 X74.3753 Y38.5713
G01 X74.3722 Y38.5817
G01 X74.3492 Y38.6455
G01 X74.3204 Y38.7068
G01 X74.3166 Y38.7141
G01 X74.2803 Y38.7745
G01 X74.2400 Y38.8290
G01 X74.2331 Y38.8374
G01 X74.1875 Y38.8875
G01 X74.1374 Y38.9331
G01 X74.1290 Y38.9400
G01 X74.0745 Y38.9803
G01 X74.0164 Y39.0153
G01 X74.0068 Y39.0204
G01 X73.9455 Y39.0492
G01 X73.8817 Y39.0722
G01 X73.8713 Y39.0753
G01 X73.8055 Y39.0917
G01 X73.7385 Y39.1018
G01 X73.7277 Y39.1028
G01 X73.6627 Y39.1060
G01 X56.2268 Y39.1060
G01 X56.1750 Y39.1528
G01 X56.0942 Y39.2127
G01 X56.0078 Y39.2645
G01 X55.9194 Y39.3064
G01 X55.9118 Y39.3094
G01 X55.8273 Y39.3397
G01 X55.8169 Y39.3428
G01 X55.7245 Y39.3659
G01 X55.6249 Y39.3806
G01 X55.5244 Y39.3856
G01 X53.6956 Y39.3856
G01 X53.5978 Y39.3809
G01 X53.5897 Y39.3800
G01 X53.4955 Y39.3659
G01 X53.3979 Y39.3414
G01 X53.3031 Y39.3075
G01 X53.2122 Y39.2645
G01 X53.1258 Y39.2127
G01 X53.0450 Y39.1528
G01 X52.9704 Y39.0852
G01 X52.9064 Y39.0147
G01 X52.8995 Y39.0063
G01 X52.8429 Y38.9298
G01 X52.7938 Y38.8482
G01 X52.7887 Y38.8386
G01 X52.7503 Y38.7574
G01 X52.7462 Y38.7474
G01 X52.7142 Y38.6577
G01 X52.6897 Y38.5601
G01 X52.6750 Y38.4605
G01 X52.6702 Y38.3654
G01 X52.6702 Y38.3546
G01 X52.6750 Y38.2595
G01 X52.6897 Y38.1599
G01 X52.7142 Y38.0623
G01 X52.7481 Y37.9675
G01 X52.7911 Y37.8766
G01 X52.8429 Y37.7902
G01 X52.9028 Y37.7094
G01 X52.9704 Y37.6348
G01 X53.0450 Y37.5672
G01 X53.1258 Y37.5073
G01 X53.2122 Y37.4555
G01 X53.3031 Y37.4125
G01 X53.3979 Y37.3786
G01 X53.4955 Y37.3541
G01 X53.5951 Y37.3394
G01 X53.6956 Y37.3344
G00 Z3.0000
G00 X56.2268 Y41.6460
G01 F60.00
G01 Z-0.0399
G01 F90.00
G01 X56.1750 Y41.6928
G01 X56.0942 Y41.7527
G01 X56.0078 Y41.8045
G01 X55.9194 Y41.8464
G01 X55.9118 Y41.8494
G01 X55.8273 Y41.8797
G01 X55.8169 Y41.8828
G01 X55.7245 Y41.9059
G01 X55.6303 Y41.9200
G01 X55.6222 Y41.9209
G01 X55.5244 Y41.9256
G01 X53.6929 Y41.9255
G01 X53.5951 Y41.9206
G01 X53.5009 Y41.9068
G01 X53.4902 Y41.9047
G01 X53.3979 Y41.8814
G01 X53.3031 Y41.8475
G01 X53.2122 Y41.8045
G01 X53.1258 Y41.7527
G01 X53.0450 Y41.6928
G01 X52.9704 Y41.6252
G01 X52.9028 Y41.5506
G01 X52.8429 Y41.4698
G01 X52.7911 Y41.3834
G01 X52.7481 Y41.2925
G01 X52.7142 Y41.1977
G01 X52.6897 Y41.1001
G01 X52.6750 Y41.0005
G01 X52.6700 Y40.9000
G01 X52.6750 Y40.7995
G01 X52.6897 Y40.6999
G01 X52.7142 Y40.6023
G01 X52.7462 Y40.5126
G01 X52.7503 Y40.5026
G01 X52.7911 Y40.4166
G01 X52.8429 Y40.3302
G01 X52.9028 Y40.2494
G01 X52.9667 Y40.1788
G01 X52.9744 Y40.1711
G01 X53.0409 Y40.1108
G01 X53.0493 Y40.1039
G01 X53.1258 Y40.0473
G01 X53.2122 Y39.9955
G01 X53.3031 Y39.9525
G01 X53.3927 Y39.9203
G01 X53.4031 Y39.9172
G01 X53.4902 Y39.8953
G01 X53.5009 Y39.8932
G01 X53.5951 Y39.8794
G01 X53.6929 Y39.8745
G01 X55.5244 Y39.8744
G01 X55.6249 Y39.8794
G01 X55.7245 Y39.8941
G01 X55.8169 Y39.9172
G01 X55.8273 Y39.9203
G01 X55.9118 Y39.9506
G01 X55.9194 Y39.9536
G01 X56.0078 Y39.9955
G01 X56.0942 Y40.0473
G01 X56.1750 Y40.1072
G01 X56.2268 Y40.1540
G01 X75.4540 Y40.1540
G01 X75.4540 Y4.4055
G01 X75.4069 Y4.3628
G01 X75.4010 Y4.3571
G01 X75.3322 Y4.2812
G01 X75.3270 Y4.2750
G01 X75.2628 Y4.1882
G01 X75.2086 Y4.0981
G01 X75.2046 Y4.0910
G01 X75.1586 Y3.9934
G01 X75.1213 Y3.8892
G01 X75.0945 Y3.7819
G01 X75.0785 Y3.6752
G01 X75.0778 Y3.6671
G01 X75.0728 Y3.5620
G01 X75.0728 Y1.5273
G01 X75.0778 Y1.4249
G01 X75.0789 Y1.4141
G01 X75.0945 Y1.3101
G01 X75.1199 Y1.2080
G01 X75.1230 Y1.1976
G01 X75.1586 Y1.0986
G01 X75.2059 Y0.9986
G01 X75.2599 Y0.9083
G01 X75.2659 Y0.8993
G01 X75.3287 Y0.8149
G01 X75.3992 Y0.7369
G01 X75.4069 Y0.7292
G01 X75.4849 Y0.6587
G01 X75.5693 Y0.5959
G01 X75.5783 Y0.5899
G01 X75.6686 Y0.5359
G01 X75.7637 Y0.4908
G01 X75.7737 Y0.4866
G01 X75.8728 Y0.4513
G01 X75.9748 Y0.4256
G01 X75.9854 Y0.4235
G01 X76.0895 Y0.4082
G01 X76.1946 Y0.4029
G01 X76.2054 Y0.4029
G01 X76.3105 Y0.4082
G01 X76.4146 Y0.4235
G01 X76.4252 Y0.4256
G01 X76.5272 Y0.4513
G01 X76.6263 Y0.4866
G01 X76.6363 Y0.4908
G01 X76.7290 Y0.5346
G01 X76.7361 Y0.5386
G01 X76.8217 Y0.5899
G01 X76.8307 Y0.5959
G01 X76.9151 Y0.6587
G01 X76.9931 Y0.7292
G01 X77.0008 Y0.7369
G01 X77.0713 Y0.8149
G01 X77.1341 Y0.8993
G01 X77.1401 Y0.9083
G01 X77.1941 Y0.9986
G01 X77.2392 Y1.0937
G01 X77.2434 Y1.1037
G01 X77.2787 Y1.2028
G01 X77.3055 Y1.3101
G01 X77.3211 Y1.4141
G01 X77.3222 Y1.4249
G01 X77.3272 Y1.5300
G01 X77.3272 Y3.5620
G01 X77.3222 Y3.6671
G01 X77.3215 Y3.6752
G01 X77.3055 Y3.7819
G01 X77.2787 Y3.8892
G01 X77.2414 Y3.9934
G01 X77.1954 Y4.0910
G01 X77.1914 Y4.0981
G01 X77.1372 Y4.1882
G01 X77.0730 Y4.2750
G01 X77.0678 Y4.2812
G01 X76.9990 Y4.3571
G01 X76.9931 Y4.3628
G01 X76.9460 Y4.4055
G01 X76.9460 Y40.9000
G01 X76.9424 Y40.9731
G01 X76.9326 Y41.0402
G01 X76.9305 Y41.0508
G01 X76.9139 Y41.1166
G01 X76.8912 Y41.1804
G01 X76.8870 Y41.1905
G01 X76.8592 Y41.2493
G01 X76.8553 Y41.2564
G01 X76.8232 Y41.3099
G01 X76.8172 Y41.3189
G01 X76.7767 Y41.3733
G01 X76.7313 Y41.4236
G01 X76.7236 Y41.4313
G01 X76.6733 Y41.4767
G01 X76.6189 Y41.5172
G01 X76.6099 Y41.5232
G01 X76.5517 Y41.5579
G01 X76.4905 Y41.5870
G01 X76.4804 Y41.5912
G01 X76.4166 Y41.6139
G01 X76.3508 Y41.6305
G01 X76.3402 Y41.6326
G01 X76.2731 Y41.6424
G01 X76.2027 Y41.6460
G01 X56.2268 Y41.6460
G00 Z3.0000
G00 X53.6956 Y42.4144
G01 F60.00
G01 Z-0.0399
G01 F90.00
G01 X55.5244 Y42.4144
G01 X55.6249 Y42.4194
G01 X55.7245 Y42.4341
G01 X55.8169 Y42.4572
G01 X55.8273 Y42.4603
G01 X55.9118 Y42.4906
G01 X55.9194 Y42.4936
G01 X56.0078 Y42.5355
G01 X56.0942 Y42.5873
G01 X56.1750 Y42.6472
G01 X56.2268 Y42.6940
G01 X77.9940 Y42.6940
G01 X77.9940 Y4.4055
G01 X77.9469 Y4.3628
G01 X77.9410 Y4.3571
G01 X77.8722 Y4.2812
G01 X77.8670 Y4.2750
G01 X77.8028 Y4.1882
G01 X77.7486 Y4.0981
G01 X77.7446 Y4.0910
G01 X77.6986 Y3.9934
G01 X77.6613 Y3.8892
G01 X77.6345 Y3.7819
G01 X77.6185 Y3.6752
G01 X77.6178 Y3.6671
G01 X77.6128 Y3.5620
G01 X77.6128 Y1.5273
G01 X77.6182 Y1.4195
G01 X77.6335 Y1.3154
G01 X77.6356 Y1.3048
G01 X77.6613 Y1.2028
G01 X77.6966 Y1.1037
G01 X77.7008 Y1.0937
G01 X77.7459 Y0.9986
G01 X77.7999 Y0.9083
G01 X77.8059 Y0.8993
G01 X77.8687 Y0.8149
G01 X77.9392 Y0.7369
G01 X77.9469 Y0.7292
G01 X78.0249 Y0.6587
G01 X78.1093 Y0.5959
G01 X78.1183 Y0.5899
G01 X78.2086 Y0.5359
G01 X78.3037 Y0.4908
G01 X78.3137 Y0.4866
G01 X78.4128 Y0.4513
G01 X78.5148 Y0.4256
G01 X78.5254 Y0.4235
G01 X78.6295 Y0.4082
G01 X78.7346 Y0.4029
G01 X78.7454 Y0.4029
G01 X78.8505 Y0.4082
G01 X78.9546 Y0.4235
G01 X78.9652 Y0.4256
G01 X79.0672 Y0.4513
G01 X79.1663 Y0.4866
G01 X79.1763 Y0.4908
G01 X79.2714 Y0.5359
G01 X79.3617 Y0.5899
G01 X79.3707 Y0.5959
G01 X79.4551 Y0.6587
G01 X79.5331 Y0.7292
G01 X79.5408 Y0.7369
G01 X79.6113 Y0.8149
G01 X79.6741 Y0.8993
G01 X79.6801 Y0.9083
G01 X79.7341 Y0.9986
G01 X79.7792 Y1.0937
G01 X79.7834 Y1.1037
G01 X79.8187 Y1.2028
G01 X79.8444 Y1.3048
G01 X79.8465 Y1.3154
G01 X79.8618 Y1.4195
G01 X79.8672 Y1.5300
G01 X79.8672 Y3.5620
G01 X79.8622 Y3.6671
G01 X79.8615 Y3.6752
G01 X79.8455 Y3.7819
G01 X79.8187 Y3.8892
G01 X79.7814 Y3.9934
G01 X79.7354 Y4.0910
G01 X79.7314 Y4.0981
G01 X79.6772 Y4.1882
G01 X79.6130 Y4.2750
G01 X79.6078 Y4.2812
G01 X79.5390 Y4.3571
G01 X79.5331 Y4.3628
G01 X79.4860 Y4.4055
G01 X79.4860 Y43.4400
G01 X79.4828 Y43.5077
G01 X79.4818 Y43.5185
G01 X79.4717 Y43.5855
G01 X79.4539 Y43.6566
G01 X79.4312 Y43.7204
G01 X79.4270 Y43.7305
G01 X79.3979 Y43.7917
G01 X79.3632 Y43.8499
G01 X79.3572 Y43.8589
G01 X79.3167 Y43.9133
G01 X79.2713 Y43.9636
G01 X79.2636 Y43.9713
G01 X79.2133 Y44.0167
G01 X79.1589 Y44.0572
G01 X79.1499 Y44.0632
G01 X79.0917 Y44.0979
G01 X79.0255 Y44.1292
G01 X78.9617 Y44.1522
G01 X78.9513 Y44.1553
G01 X78.8855 Y44.1717
G01 X78.8185 Y44.1818
G01 X78.8077 Y44.1828
G01 X78.7427 Y44.1860
G01 X56.2268 Y44.1860
G01 X56.1750 Y44.2328
G01 X56.0942 Y44.2927
G01 X56.0078 Y44.3445
G01 X55.9194 Y44.3864
G01 X55.9118 Y44.3894
G01 X55.8273 Y44.4197
G01 X55.8169 Y44.4228
G01 X55.7245 Y44.4459
G01 X55.6249 Y44.4606
G01 X55.5244 Y44.4656
G01 X53.6956 Y44.4656
G01 X53.6005 Y44.4610
G01 X53.5897 Y44.4600
G01 X53.5009 Y44.4468
G01 X53.4902 Y44.4447
G01 X53.3979 Y44.4214
G01 X53.3082 Y44.3894
G01 X53.2982 Y44.3853
G01 X53.2122 Y44.3445
G01 X53.1258 Y44.2927
G01 X53.0450 Y44.2328
G01 X52.9744 Y44.1689
G01 X52.9667 Y44.1612
G01 X52.9028 Y44.0906
G01 X52.8429 Y44.0098
G01 X52.7911 Y43.9234
G01 X52.7481 Y43.8325
G01 X52.7142 Y43.7377
G01 X52.6897 Y43.6401
G01 X52.6750 Y43.5405
G01 X52.6702 Y43.4454
G01 X52.6702 Y43.4346
G01 X52.6750 Y43.3395
G01 X52.6897 Y43.2399
G01 X52.7142 Y43.1423
G01 X52.7481 Y43.0475
G01 X52.7911 Y42.9566
G01 X52.8429 Y42.8702
G01 X52.9028 Y42.7894
G01 X52.9704 Y42.7148
G01 X53.0450 Y42.6472
G01 X53.1258 Y42.5873
G01 X53.2122 Y42.5355
G01 X53.3031 Y42.4925
G01 X53.3979 Y42.4586
G01 X53.4955 Y42.4341
G01 X53.5951 Y42.4194
G01 X53.6956 Y42.4144
G00 Z3.0000
G00 X55.5244 Y47.0056
G01 F60.00
G01 Z-0.0399
G01 F90.00
G01 X53.6956 Y47.0056
G01 X53.6005 Y47.0010
G01 X53.5897 Y47.0000
G01 X53.4955 Y46.9859
G01 X53.3979 Y46.9614
G01 X53.3031 Y46.9275
G01 X53.2170 Y46.8869
G01 X53.2098 Y46.8832
G01 X53.1258 Y46.8327
G01 X53.0450 Y46.7728
G01 X52.9704 Y46.7052
G01 X52.9028 Y46.6306
G01 X52.8429 Y46.5498
G01 X52.7911 Y46.4634
G01 X52.7481 Y46.3725
G01 X52.7142 Y46.2777
G01 X52.6897 Y46.1801
G01 X52.6750 Y46.0805
G01 X52.6700 Y45.9800
G01 X52.6750 Y45.8795
G01 X52.6897 Y45.7799
G01 X52.7142 Y45.6823
G01 X52.7481 Y45.5875
G01 X52.7887 Y45.5014
G01 X52.7924 Y45.4942
G01 X52.8429 Y45.4102
G01 X52.8995 Y45.3337
G01 X52.9064 Y45.3253
G01 X52.9704 Y45.2548
G01 X53.0409 Y45.1908
G01 X53.0493 Y45.1839
G01 X53.1258 Y45.1273
G01 X53.2074 Y45.0782
G01 X53.2170 Y45.0731
G01 X53.3031 Y45.0325
G01 X53.3927 Y45.0003
G01 X53.4031 Y44.9972
G01 X53.4955 Y44.9741
G01 X53.5897 Y44.9600
G01 X53.6005 Y44.9590
G01 X53.6956 Y44.9544
G01 X55.5244 Y44.9544
G01 X55.6249 Y44.9594
G01 X55.7245 Y44.9741
G01 X55.8169 Y44.9972
G01 X55.8273 Y45.0003
G01 X55.9118 Y45.0306
G01 X55.9194 Y45.0336
G01 X56.0078 Y45.0755
G01 X56.0942 Y45.1273
G01 X56.1750 Y45.1872
G01 X56.2268 Y45.2340
G01 X80.5340 Y45.2340
G01 X80.5340 Y4.4055
G01 X80.4869 Y4.3628
G01 X80.4810 Y4.3571
G01 X80.4122 Y4.2812
G01 X80.4070 Y4.2750
G01 X80.3428 Y4.1882
G01 X80.2886 Y4.0981
G01 X80.2846 Y4.0910
G01 X80.2386 Y3.9934
G01 X80.2013 Y3.8892
G01 X80.1745 Y3.7819
G01 X80.1585 Y3.6752
G01 X80.1578 Y3.6671
G01 X80.1528 Y3.5620
G01 X80.1528 Y1.5273
G01 X80.1578 Y1.4249
G01 X80.1589 Y1.4141
G01 X80.1745 Y1.3101
G01 X80.1999 Y1.2080
G01 X80.2030 Y1.1976
G01 X80.2386 Y1.0986
G01 X80.2834 Y1.0035
G01 X80.2886 Y0.9939
G01 X80.3428 Y0.9038
G01 X80.4053 Y0.8192
G01 X80.4122 Y0.8108
G01 X80.4829 Y0.7329
G01 X80.5608 Y0.6622
G01 X80.5692 Y0.6553
G01 X80.6538 Y0.5928
G01 X80.7439 Y0.5386
G01 X80.7535 Y0.5334
G01 X80.8486 Y0.4886
G01 X80.9476 Y0.4530
G01 X80.9580 Y0.4499
G01 X81.0601 Y0.4245
G01 X81.1641 Y0.4089
G01 X81.1749 Y0.4078
G01 X81.2800 Y0.4028
G01 X81.3851 Y0.4078
G01 X81.3959 Y0.4089
G01 X81.4999 Y0.4245
G01 X81.6020 Y0.4499
G01 X81.6124 Y0.4530
G01 X81.7114 Y0.4886
G01 X81.8065 Y0.5334
G01 X81.8137 Y0.5372
G01 X81.9062 Y0.5928
G01 X81.9908 Y0.6553
G01 X81.9992 Y0.6622
G01 X82.0771 Y0.7329
G01 X82.1478 Y0.8108
G01 X82.1547 Y0.8192
G01 X82.2172 Y0.9038
G01 X82.2714 Y0.9939
G01 X82.2766 Y1.0035
G01 X82.3214 Y1.0986
G01 X82.3570 Y1.1976
G01 X82.3601 Y1.2080
G01 X82.3855 Y1.3101
G01 X82.4011 Y1.4141
G01 X82.4022 Y1.4249
G01 X82.4072 Y1.5300
G01 X82.4072 Y3.5620
G01 X82.4022 Y3.6671
G01 X82.4015 Y3.6752
G01 X82.3855 Y3.7819
G01 X82.3587 Y3.8892
G01 X82.3214 Y3.9934
G01 X82.2754 Y4.0910
G01 X82.2714 Y4.0981
G01 X82.2172 Y4.1882
G01 X82.1530 Y4.2750
G01 X82.1478 Y4.2812
G01 X82.0790 Y4.3571
G01 X82.0731 Y4.3628
G01 X82.0260 Y4.4055
G01 X82.0260 Y45.9800
G01 X82.0228 Y46.0477
G01 X82.0218 Y46.0585
G01 X82.0117 Y46.1255
G01 X81.9953 Y46.1913
G01 X81.9922 Y46.2017
G01 X81.9692 Y46.2655
G01 X81.9404 Y46.3268
G01 X81.9366 Y46.3341
G01 X81.9003 Y46.3945
G01 X81.8600 Y46.4490
G01 X81.8531 Y46.4574
G01 X81.8075 Y46.5075
G01 X81.7574 Y46.5531
G01 X81.7490 Y46.5600
G01 X81.6945 Y46.6003
G01 X81.6364 Y46.6353
G01 X81.6268 Y46.6404
G01 X81.5655 Y46.6692
G01 X81.5017 Y46.6922
G01 X81.4913 Y46.6953
G01 X81.4255 Y46.7117
G01 X81.3585 Y46.7218
G01 X81.3477 Y46.7228
G01 X81.2827 Y46.7260
G01 X56.2268 Y46.7260
G01 X56.1750 Y46.7728
G01 X56.0986 Y46.8296
G01 X56.0919 Y46.8342
G01 X56.0078 Y46.8845
G01 X55.9218 Y46.9253
G01 X55.9143 Y46.9285
G01 X55.8221 Y46.9614
G01 X55.7245 Y46.9859
G01 X55.6249 Y47.0006
G01 X55.5244 Y47.0056
G00 Z3.0000
G00 X53.6956 Y47.4944
G01 F60.00
G01 Z-0.0399
G01 F90.00
G01 X55.5244 Y47.4944
G01 X55.6249 Y47.4994
G01 X55.7245 Y47.5141
G01 X55.8169 Y47.5372
G01 X55.8273 Y47.5403
G01 X55.9118 Y47.5706
G01 X55.9194 Y47.5736
G01 X56.0078 Y47.6155
G01 X56.0942 Y47.6673
G01 X56.1750 Y47.7272
G01 X56.2268 Y47.7740
G01 X83.0740 Y47.7740
G01 X83.0740 Y4.4055
G01 X83.0269 Y4.3628
G01 X83.0210 Y4.3571
G01 X82.9522 Y4.2812
G01 X82.9470 Y4.2750
G01 X82.8828 Y4.1882
G01 X82.8286 Y4.0981
G01 X82.8246 Y4.0910
G01 X82.7786 Y3.9934
G01 X82.7413 Y3.8892
G01 X82.7145 Y3.7819
G01 X82.6985 Y3.6752
G01 X82.6978 Y3.6671
G01 X82.6928 Y3.5620
G01 X82.6928 Y1.5273
G01 X82.6982 Y1.4195
G01 X82.7135 Y1.3154
G01 X82.7156 Y1.3048
G01 X82.7413 Y1.2028
G01 X82.7766 Y1.1037
G01 X82.7808 Y1.0937
G01 X82.8259 Y0.9986
G01 X82.8799 Y0.9083
G01 X82.8859 Y0.8993
G01 X82.9487 Y0.8149
G01 X83.0192 Y0.7369
G01 X83.0269 Y0.7292
G01 X83.1049 Y0.6587
G01 X83.1893 Y0.5959
G01 X83.1983 Y0.5899
G01 X83.2886 Y0.5359
G01 X83.3837 Y0.4908
G01 X83.3937 Y0.4866
G01 X83.4928 Y0.4513
G01 X83.5948 Y0.4256
G01 X83.6054 Y0.4235
G01 X83.7095 Y0.4082
G01 X83.8146 Y0.4029
G01 X83.8254 Y0.4029
G01 X83.9305 Y0.4082
G01 X84.0346 Y0.4235
G01 X84.0452 Y0.4256
G01 X84.1472 Y0.4513
G01 X84.2514 Y0.4886
G01 X84.3465 Y0.5334
G01 X84.3561 Y0.5386
G01 X84.4462 Y0.5928
G01 X84.5351 Y0.6587
G01 X84.6171 Y0.7329
G01 X84.6913 Y0.8149
G01 X84.7572 Y0.9038
G01 X84.8141 Y0.9986
G01 X84.8614 Y1.0986
G01 X84.8987 Y1.2028
G01 X84.9244 Y1.3048
G01 X84.9260 Y1.3128
G01 X84.9418 Y1.4195
G01 X84.9472 Y1.5300
G01 X84.9472 Y3.5620
G01 X84.9418 Y3.6725
G01 X84.9255 Y3.7819
G01 X84.8987 Y3.8892
G01 X84.8634 Y3.9883
G01 X84.8603 Y3.9959
G01 X84.8141 Y4.0934
G01 X84.7601 Y4.1837
G01 X84.7557 Y4.1905
G01 X84.6947 Y4.2728
G01 X84.6896 Y4.2792
G01 X84.6171 Y4.3591
G01 X84.5660 Y4.4055
G01 X84.5660 Y48.5200
G01 X84.5628 Y48.5877
G01 X84.5618 Y48.5985
G01 X84.5517 Y48.6655
G01 X84.5339 Y48.7366
G01 X84.5092 Y48.8055
G01 X84.4804 Y48.8668
G01 X84.4753 Y48.8764
G01 X84.4403 Y48.9345
G01 X84.3967 Y48.9933
G01 X84.3513 Y49.0436
G01 X84.3436 Y49.0513
G01 X84.2933 Y49.0967
G01 X84.2389 Y49.1372
G01 X84.2299 Y49.1432
G01 X84.1717 Y49.1779
G01 X84.1055 Y49.2092
G01 X84.0417 Y49.2322
G01 X84.0313 Y49.2353
G01 X83.9655 Y49.2517
G01 X83.8985 Y49.2618
G01 X83.8877 Y49.2628
G01 X83.8227 Y49.2660
G01 X56.2268 Y49.2660
G01 X56.1750 Y49.3128
G01 X56.0942 Y49.3727
G01 X56.0078 Y49.4245
G01 X55.9194 Y49.4664
G01 X55.9118 Y49.4694
G01 X55.8273 Y49.4997
G01 X55.8169 Y49.5028
G01 X55.7245 Y49.5259
G01 X55.6249 Y49.5406
G01 X55.5244 Y49.5456
G01 X53.6902 Y49.5454
G01 X53.5951 Y49.5406
G01 X53.4955 Y49.5259
G01 X53.3979 Y49.5014
G01 X53.3031 Y49.4675
G01 X53.2122 Y49.4245
G01 X53.1258 Y49.3727
G01 X53.0450 Y49.3128
G01 X52.9704 Y49.2452
G01 X52.9028 Y49.1706
G01 X52.8429 Y49.0898
G01 X52.7911 Y49.0034
G01 X52.7481 Y48.9125
G01 X52.7142 Y48.8177
G01 X52.6897 Y48.7201
G01 X52.6750 Y48.6205
G01 X52.6700 Y48.5200
G01 X52.6750 Y48.4195
G01 X52.6897 Y48.3199
G01 X52.7142 Y48.2223
G01 X52.7481 Y48.1275
G01 X52.7911 Y48.0366
G01 X52.8429 Y47.9502
G01 X52.9028 Y47.8694
G01 X52.9704 Y47.7948
G01 X53.0450 Y47.7272
G01 X53.1258 Y47.6673
G01 X53.2122 Y47.6155
G01 X53.3031 Y47.5725
G01 X53.3979 Y47.5386
G01 X53.4955 Y47.5141
G01 X53.5951 Y47.4994
G01 X53.6956 Y47.4944
G00 Z3.0000
G00 X56.2268 Y51.8060
G01 F60.00
G01 Z-0.0399
G01 F90.00
G01 X56.1750 Y51.8528
G01 X56.0942 Y51.9127
G01 X56.0078 Y51.9645
G01 X55.9194 Y52.0064
G01 X55.9118 Y52.0094
G01 X55.8273 Y52.0397
G01 X55.8169 Y52.0428
G01 X55.7245 Y52.0659
G01 X55.6303 Y52.0800
G01 X55.6222 Y52.0809
G01 X55.5244 Y52.0856
G01 X53.6929 Y52.0855
G01 X53.5951 Y52.0806
G01 X53.5009 Y52.0668
G01 X53.4902 Y52.0647
G01 X53.3979 Y52.0414
G01 X53.3031 Y52.0075
G01 X53.2122 Y51.9645
G01 X53.1258 Y51.9127
G01 X53.0450 Y51.8528
G01 X52.9704 Y51.7852
G01 X52.9028 Y51.7106
G01 X52.8429 Y51.6298
G01 X52.7911 Y51.5434
G01 X52.7481 Y51.4525
G01 X52.7142 Y51.3577
G01 X52.6897 Y51.2601
G01 X52.6750 Y51.1605
G01 X52.6700 Y51.0600
G01 X52.6750 Y50.9595
G01 X52.6897 Y50.8599
G01 X52.7142 Y50.7623
G01 X52.7481 Y50.6675
G01 X52.7887 Y50.5814
G01 X52.7938 Y50.5718
G01 X52.8429 Y50.4902
G01 X52.9028 Y50.4094
G01 X52.9667 Y50.3388
G01 X52.9744 Y50.3311
G01 X53.0409 Y50.2708
G01 X53.0493 Y50.2639
G01 X53.1258 Y50.2073
G01 X53.2122 Y50.1555
G01 X53.3031 Y50.1125
G01 X53.3927 Y50.0803
G01 X53.4031 Y50.0772
G01 X53.4902 Y50.0553
G01 X53.5009 Y50.0532
G01 X53.5951 Y50.0394
G01 X53.6929 Y50.0345
G01 X55.5244 Y50.0344
G01 X55.6249 Y50.0394
G01 X55.7245 Y50.0541
G01 X55.8169 Y50.0772
G01 X55.8273 Y50.0803
G01 X55.9118 Y50.1106
G01 X55.9194 Y50.1136
G01 X56.0078 Y50.1555
G01 X56.0942 Y50.2073
G01 X56.1750 Y50.2672
G01 X56.2268 Y50.3140
G01 X85.6140 Y50.3140
G01 X85.6140 Y4.4055
G01 X85.5669 Y4.3628
G01 X85.5610 Y4.3571
G01 X85.4922 Y4.2812
G01 X85.4870 Y4.2750
G01 X85.4228 Y4.1882
G01 X85.3686 Y4.0981
G01 X85.3646 Y4.0910
G01 X85.3186 Y3.9934
G01 X85.2813 Y3.8892
G01 X85.2545 Y3.7819
G01 X85.2385 Y3.6752
G01 X85.2378 Y3.6671
G01 X85.2328 Y3.5620
G01 X85.2328 Y1.5273
G01 X85.2378 Y1.4249
G01 X85.2389 Y1.4141
G01 X85.2545 Y1.3101
G01 X85.2799 Y1.2080
G01 X85.2830 Y1.1976
G01 X85.3186 Y1.0986
G01 X85.3634 Y1.0035
G01 X85.3686 Y0.9939
G01 X85.4228 Y0.9038
G01 X85.4853 Y0.8192
G01 X85.4922 Y0.8108
G01 X85.5629 Y0.7329
G01 X85.6408 Y0.6622
G01 X85.6492 Y0.6553
G01 X85.7338 Y0.5928
G01 X85.8239 Y0.5386
G01 X85.8335 Y0.5334
G01 X85.9286 Y0.4886
G01 X86.0276 Y0.4530
G01 X86.0380 Y0.4499
G01 X86.1401 Y0.4245
G01 X86.2441 Y0.4089
G01 X86.2549 Y0.4078
G01 X86.3600 Y0.4028
G01 X86.4651 Y0.4078
G01 X86.4759 Y0.4089
G01 X86.5799 Y0.4245
G01 X86.6820 Y0.4499
G01 X86.6924 Y0.4530
G01 X86.7914 Y0.4886
G01 X86.8865 Y0.5334
G01 X86.8961 Y0.5386
G01 X86.9862 Y0.5928
G01 X87.0708 Y0.6553
G01 X87.0792 Y0.6622
G01 X87.1571 Y0.7329
G01 X87.2278 Y0.8108
G01 X87.2347 Y0.8192
G01 X87.2972 Y0.9038
G01 X87.3514 Y0.9939
G01 X87.3566 Y1.0035
G01 X87.4014 Y1.0986
G01 X87.4370 Y1.1976
G01 X87.4401 Y1.2080
G01 X87.4655 Y1.3101
G01 X87.4811 Y1.4141
G01 X87.4822 Y1.4249
G01 X87.4872 Y1.5300
G01 X87.4872 Y3.5620
G01 X87.4822 Y3.6671
G01 X87.4815 Y3.6752
G01 X87.4655 Y3.7819
G01 X87.4387 Y3.8892
G01 X87.4014 Y3.9934
G01 X87.3554 Y4.0910
G01 X87.3514 Y4.0981
G01 X87.2972 Y4.1882
G01 X87.2330 Y4.2750
G01 X87.2278 Y4.2812
G01 X87.1590 Y4.3571
G01 X87.1531 Y4.3628
G01 X87.1060 Y4.4055
G01 X87.1060 Y51.0600
G01 X87.1028 Y51.1277
G01 X87.1018 Y51.1385
G01 X87.0917 Y51.2055
G01 X87.0753 Y51.2713
G01 X87.0722 Y51.2817
G01 X87.0492 Y51.3455
G01 X87.0204 Y51.4068
G01 X87.0153 Y51.4164
G01 X86.9803 Y51.4745
G01 X86.9400 Y51.5290
G01 X86.9331 Y51.5374
G01 X86.8875 Y51.5875
G01 X86.8374 Y51.6331
G01 X86.8290 Y51.6400
G01 X86.7745 Y51.6803
G01 X86.7164 Y51.7153
G01 X86.7068 Y51.7204
G01 X86.6455 Y51.7492
G01 X86.5817 Y51.7722
G01 X86.5713 Y51.7753
G01 X86.5055 Y51.7917
G01 X86.4385 Y51.8018
G01 X86.4277 Y51.8028
G01 X86.3627 Y51.8060
G01 X56.2268 Y51.8060
G00 Z3.0000
G00 X53.6956 Y52.5744
G01 F60.00
G01 Z-0.0399
G01 F90.00
G01 X55.5244 Y52.5744
G01 X55.6249 Y52.5794
G01 X55.7245 Y52.5941
G01 X55.8169 Y52.6172
G01 X55.8273 Y52.6203
G01 X55.9118 Y52.6506
G01 X55.9194 Y52.6536
G01 X56.0078 Y52.6955
G01 X56.0942 Y52.7473
G01 X56.1750 Y52.8072
G01 X56.2268 Y52.8540
G01 X90.1700 Y52.8540
G01 X90.2431 Y52.8576
G01 X90.3155 Y52.8683
G01 X90.3866 Y52.8861
G01 X90.4504 Y52.9088
G01 X90.4580 Y52.9118
G01 X90.5217 Y52.9421
G01 X90.5799 Y52.9768
G01 X90.5889 Y52.9828
G01 X90.6433 Y53.0233
G01 X90.6936 Y53.0687
G01 X90.7013 Y53.0764
G01 X90.7467 Y53.1267
G01 X90.7903 Y53.1855
G01 X90.8253 Y53.2436
G01 X90.8304 Y53.2532
G01 X90.8592 Y53.3145
G01 X90.8839 Y53.3834
G01 X90.9005 Y53.4492
G01 X90.9026 Y53.4598
G01 X90.9124 Y53.5269
G01 X90.9160 Y53.5973
G01 X90.9160 Y68.8400
G01 X90.9124 Y68.9131
G01 X90.9017 Y68.9855
G01 X90.8839 Y69.0566
G01 X90.8612 Y69.1204
G01 X90.8582 Y69.1280
G01 X90.8279 Y69.1917
G01 X90.7932 Y69.2499
G01 X90.7872 Y69.2589
G01 X90.7467 Y69.3133
G01 X90.6975 Y69.3675
G01 X90.6474 Y69.4131
G01 X90.6390 Y69.4200
G01 X90.5845 Y69.4603
G01 X90.5217 Y69.4979
G01 X90.4605 Y69.5270
G01 X90.4504 Y69.5312
G01 X90.3866 Y69.5539
G01 X90.3208 Y69.5705
G01 X90.3102 Y69.5726
G01 X90.2431 Y69.5824
G01 X90.1727 Y69.5860
G01 X74.9273 Y69.5860
G01 X74.8569 Y69.5824
G01 X74.7845 Y69.5717
G01 X74.7134 Y69.5539
G01 X74.6445 Y69.5292
G01 X74.5783 Y69.4979
G01 X74.5155 Y69.4603
G01 X74.4567 Y69.4167
G01 X74.4064 Y69.3713
G01 X74.3987 Y69.3636
G01 X74.3533 Y69.3133
G01 X74.3128 Y69.2589
G01 X74.3068 Y69.2499
G01 X74.2747 Y69.1964
G01 X74.2696 Y69.1868
G01 X74.2408 Y69.1255
G01 X74.2161 Y69.0566
G01 X74.1983 Y68.9855
G01 X74.1876 Y68.9131
G01 X74.1840 Y68.8400
G01 X74.1840 Y66.6468
G01 X74.1372 Y66.5950
G01 X74.0773 Y66.5142
G01 X74.0255 Y66.4278
G01 X73.9836 Y66.3394
G01 X73.9806 Y66.3318
G01 X73.9503 Y66.2473
G01 X73.9472 Y66.2369
G01 X73.9241 Y66.1445
G01 X73.9094 Y66.0449
G01 X73.9044 Y65.9444
G01 X73.9044 Y64.1156
G01 X73.9090 Y64.0205
G01 X73.9097 Y64.0124
G01 X73.9241 Y63.9155
G01 X73.9486 Y63.8179
G01 X73.9825 Y63.7231
G01 X74.0231 Y63.6370
G01 X74.0282 Y63.6274
G01 X74.0744 Y63.5504
G01 X74.0804 Y63.5414
G01 X74.1372 Y63.4650
G01 X74.2048 Y63.3904
G01 X74.2794 Y63.3228
G01 X74.3602 Y63.2629
G01 X74.4466 Y63.2111
G01 X74.5326 Y63.1703
G01 X74.5426 Y63.1662
G01 X74.6271 Y63.1359
G01 X74.6375 Y63.1328
G01 X74.7299 Y63.1097
G01 X74.8241 Y63.0956
G01 X74.8349 Y63.0946
G01 X74.9300 Y63.0900
G01 X75.0305 Y63.0950
G01 X75.1301 Y63.1097
G01 X75.2277 Y63.1342
G01 X75.3225 Y63.1681
G01 X75.4134 Y63.2111
G01 X75.4998 Y63.2629
G01 X75.5763 Y63.3195
G01 X75.5847 Y63.3264
G01 X75.6552 Y63.3904
G01 X75.7192 Y63.4609
G01 X75.7261 Y63.4693
G01 X75.7796 Y63.5414
G01 X75.7856 Y63.5504
G01 X75.8345 Y63.6322
G01 X75.8775 Y63.7231
G01 X75.9114 Y63.8179
G01 X75.9347 Y63.9102
G01 X75.9363 Y63.9182
G01 X75.9506 Y64.0151
G01 X75.9556 Y64.1156
G01 X75.9556 Y65.9444
G01 X75.9509 Y66.0422
G01 X75.9500 Y66.0503
G01 X75.9359 Y66.1445
G01 X75.9128 Y66.2369
G01 X75.9097 Y66.2473
G01 X75.8794 Y66.3318
G01 X75.8764 Y66.3394
G01 X75.8345 Y66.4278
G01 X75.7827 Y66.5142
G01 X75.7228 Y66.5950
G01 X75.6760 Y66.6468
G01 X75.6760 Y68.0940
G01 X89.4240 Y68.0940
G01 X89.4240 Y54.3460
G01 X56.2268 Y54.3460
G01 X56.1750 Y54.3928
G01 X56.0942 Y54.4527
G01 X56.0078 Y54.5045
G01 X55.9194 Y54.5464
G01 X55.9118 Y54.5494
G01 X55.8273 Y54.5797
G01 X55.8169 Y54.5828
G01 X55.7245 Y54.6059
G01 X55.6249 Y54.6206
G01 X55.5244 Y54.6256
G01 X53.6956 Y54.6256
G01 X53.6005 Y54.6210
G01 X53.5897 Y54.6200
G01 X53.5009 Y54.6068
G01 X53.4902 Y54.6047
G01 X53.3979 Y54.5814
G01 X53.3082 Y54.5494
G01 X53.2982 Y54.5453
G01 X53.2122 Y54.5045
G01 X53.1258 Y54.4527
G01 X53.0450 Y54.3928
G01 X52.9744 Y54.3289
G01 X52.9667 Y54.3212
G01 X52.9028 Y54.2506
G01 X52.8429 Y54.1698
G01 X52.7911 Y54.0834
G01 X52.7481 Y53.9925
G01 X52.7142 Y53.8977
G01 X52.6897 Y53.8001
G01 X52.6750 Y53.7005
G01 X52.6702 Y53.6054
G01 X52.6702 Y53.5946
G01 X52.6750 Y53.4995
G01 X52.6897 Y53.3999
G01 X52.7142 Y53.3023
G01 X52.7481 Y53.2075
G01 X52.7911 Y53.1166
G01 X52.8429 Y53.0302
G01 X52.9028 Y52.9494
G01 X52.9704 Y52.8748
G01 X53.0450 Y52.8072
G01 X53.1258 Y52.7473
G01 X53.2122 Y52.6955
G01 X53.3031 Y52.6525
G01 X53.3979 Y52.6186
G01 X53.4955 Y52.5941
G01 X53.5951 Y52.5794
G01 X53.6956 Y52.5744
G00 Z3.0000
G00 X50.0540 Y56.1400
G01 F60.00
G01 Z-0.0399
G01 F90.00
G01 X50.0540 Y21.8500
G01 X50.0576 Y21.7769
G01 X50.0683 Y21.7045
G01 X50.0861 Y21.6334
G01 X50.1088 Y21.5696
G01 X50.1130 Y21.5595
G01 X50.1311 Y21.5213
G01 X50.1408 Y21.5007
G01 X50.1447 Y21.4936
G01 X50.1797 Y21.4355
G01 X50.2233 Y21.3767
G01 X50.2725 Y21.3225
G01 X50.3226 Y21.2769
G01 X50.3310 Y21.2700
G01 X50.3811 Y21.2328
G01 X50.3901 Y21.2268
G01 X50.4483 Y21.1921
G01 X50.5145 Y21.1608
G01 X50.5834 Y21.1361
G01 X50.6492 Y21.1195
G01 X50.6598 Y21.1174
G01 X50.7215 Y21.1082
G01 X50.7323 Y21.1072
G01 X50.8000 Y21.1040
G01 X60.2140 Y21.1040
G01 X60.2140 Y4.4055
G01 X60.1669 Y4.3628
G01 X60.1610 Y4.3571
G01 X60.0922 Y4.2812
G01 X60.0870 Y4.2750
G01 X60.0228 Y4.1882
G01 X59.9686 Y4.0981
G01 X59.9646 Y4.0910
G01 X59.9186 Y3.9934
G01 X59.8813 Y3.8892
G01 X59.8545 Y3.7819
G01 X59.8385 Y3.6752
G01 X59.8378 Y3.6671
G01 X59.8328 Y3.5620
G01 X59.8329 Y1.5246
G01 X59.8382 Y1.4195
G01 X59.8535 Y1.3154
G01 X59.8556 Y1.3048
G01 X59.8799 Y1.2080
G01 X59.8830 Y1.1976
G01 X59.9186 Y1.0986
G01 X59.9634 Y1.0035
G01 X59.9686 Y0.9939
G01 X60.0228 Y0.9038
G01 X60.0887 Y0.8149
G01 X60.1629 Y0.7329
G01 X60.2449 Y0.6587
G01 X60.3338 Y0.5928
G01 X60.4286 Y0.5359
G01 X60.5286 Y0.4886
G01 X60.6276 Y0.4530
G01 X60.6380 Y0.4499
G01 X60.7348 Y0.4256
G01 X60.7454 Y0.4235
G01 X60.8495 Y0.4082
G01 X60.9546 Y0.4029
G01 X60.9654 Y0.4029
G01 X61.0705 Y0.4082
G01 X61.1799 Y0.4245
G01 X61.2872 Y0.4513
G01 X61.3863 Y0.4866
G01 X61.3963 Y0.4908
G01 X61.4865 Y0.5334
G01 X61.4961 Y0.5386
G01 X61.5862 Y0.5928
G01 X61.6751 Y0.6587
G01 X61.7571 Y0.7329
G01 X61.8313 Y0.8149
G01 X61.8972 Y0.9038
G01 X61.9514 Y0.9939
G01 X61.9566 Y1.0035
G01 X61.9992 Y1.0937
G01 X62.0034 Y1.1037
G01 X62.0387 Y1.2028
G01 X62.0655 Y1.3101
G01 X62.0818 Y1.4195
G01 X62.0872 Y1.5273
G01 X62.0872 Y3.5620
G01 X62.0822 Y3.6671
G01 X62.0815 Y3.6752
G01 X62.0655 Y3.7819
G01 X62.0387 Y3.8892
G01 X62.0014 Y3.9934
G01 X61.9554 Y4.0910
G01 X61.9514 Y4.0981
G01 X61.8972 Y4.1882
G01 X61.8330 Y4.2750
G01 X61.8278 Y4.2812
G01 X61.7590 Y4.3571
G01 X61.7531 Y4.3628
G01 X61.7060 Y4.4055
G01 X61.7060 Y21.8500
G01 X61.7024 Y21.9231
G01 X61.6917 Y21.9955
G01 X61.6739 Y22.0666
G01 X61.6512 Y22.1304
G01 X61.6482 Y22.1380
G01 X61.6179 Y22.2017
G01 X61.5832 Y22.2599
G01 X61.5772 Y22.2689
G01 X61.5367 Y22.3233
G01 X61.4913 Y22.3736
G01 X61.4836 Y22.3813
G01 X61.4333 Y22.4267
G01 X61.3745 Y22.4703
G01 X61.3117 Y22.5079
G01 X61.2505 Y22.5370
G01 X61.2404 Y22.5412
G01 X61.1766 Y22.5639
G01 X61.1108 Y22.5805
G01 X61.1002 Y22.5826
G01 X61.0331 Y22.5924
G01 X60.9654 Y22.5959
G01 X51.5460 Y22.5960
G01 X51.5460 Y55.3940
G01 X52.9932 Y55.3940
G01 X53.0450 Y55.3472
G01 X53.1258 Y55.2873
G01 X53.2122 Y55.2355
G01 X53.3006 Y55.1936
G01 X53.3082 Y55.1906
G01 X53.3927 Y55.1603
G01 X53.4031 Y55.1572
G01 X53.4955 Y55.1341
G01 X53.5897 Y55.1200
G01 X53.5978 Y55.1191
G01 X53.6956 Y55.1144
G01 X55.5244 Y55.1144
G01 X55.6249 Y55.1194
G01 X55.7245 Y55.1341
G01 X55.8221 Y55.1586
G01 X55.9169 Y55.1925
G01 X56.0078 Y55.2355
G01 X56.0942 Y55.2873
G01 X56.1750 Y55.3472
G01 X56.2496 Y55.4148
G01 X56.3172 Y55.4894
G01 X56.3771 Y55.5702
G01 X56.4289 Y55.6566
G01 X56.4719 Y55.7475
G01 X56.5058 Y55.8423
G01 X56.5303 Y55.9399
G01 X56.5450 Y56.0395
G01 X56.5500 Y56.1400
G01 X56.5450 Y56.2405
G01 X56.5303 Y56.3401
G01 X56.5072 Y56.4325
G01 X56.5041 Y56.4429
G01 X56.4719 Y56.5325
G01 X56.4313 Y56.6186
G01 X56.4262 Y56.6282
G01 X56.3771 Y56.7098
G01 X56.3205 Y56.7863
G01 X56.3136 Y56.7947
G01 X56.2496 Y56.8652
G01 X56.1791 Y56.9292
G01 X56.1707 Y56.9361
G01 X56.0942 Y56.9927
G01 X56.0126 Y57.0418
G01 X56.0030 Y57.0469
G01 X55.9169 Y57.0875
G01 X55.8221 Y57.1214
G01 X55.7298 Y57.1447
G01 X55.7191 Y57.1468
G01 X55.6249 Y57.1606
G01 X55.5271 Y57.1655
G01 X53.6929 Y57.1655
G01 X53.5951 Y57.1606
G01 X53.4955 Y57.1459
G01 X53.3979 Y57.1214
G01 X53.3057 Y57.0885
G01 X53.2982 Y57.0853
G01 X53.2122 Y57.0445
G01 X53.1281 Y56.9942
G01 X53.1214 Y56.9896
G01 X53.0450 Y56.9328
G01 X52.9932 Y56.8860
G01 X50.7973 Y56.8860
G01 X50.7323 Y56.8828
G01 X50.7215 Y56.8818
G01 X50.6545 Y56.8717
G01 X50.5861 Y56.8547
G01 X50.5783 Y56.8522
G01 X50.5196 Y56.8312
G01 X50.5095 Y56.8270
G01 X50.4483 Y56.7979
G01 X50.3855 Y56.7603
G01 X50.3267 Y56.7167
G01 X50.2764 Y56.6713
G01 X50.2687 Y56.6636
G01 X50.2269 Y56.6174
G01 X50.2200 Y56.6090
G01 X50.1797 Y56.5545
G01 X50.1421 Y56.4917
G01 X50.1108 Y56.4255
G01 X50.0878 Y56.3617
G01 X50.0847 Y56.3513
G01 X50.0695 Y56.2908
G01 X50.0674 Y56.2802
G01 X50.0576 Y56.2131
G01 X50.0540 Y56.1400
G00 Z3.0000
G00 X51.6212 Y59.4260
G01 F60.00
G01 Z-0.0399
G01 F90.00
G01 X51.5891 Y59.4614
G01 X51.5834 Y59.4673
G01 X51.5067 Y59.5368
G01 X51.5003 Y59.5419
G01 X51.4193 Y59.6020
G01 X51.4125 Y59.6064
G01 X51.3236 Y59.6595
G01 X51.2275 Y59.7051
G01 X51.2200 Y59.7081
G01 X51.1224 Y59.7429
G01 X51.0167 Y59.7694
G01 X50.9089 Y59.7854
G01 X50.8027 Y59.7907
G01 X50.7946 Y59.7906
G01 X50.6911 Y59.7854
G01 X50.5833 Y59.7694
G01 X50.4776 Y59.7429
G01 X50.3750 Y59.7062
G01 X50.2764 Y59.6595
G01 X50.1829 Y59.6035
G01 X50.0954 Y59.5386
G01 X50.0166 Y59.4673
G01 X50.0109 Y59.4614
G01 X49.9414 Y59.3846
G01 X49.8765 Y59.2971
G01 X49.8205 Y59.2036
G01 X49.7738 Y59.1050
G01 X49.7371 Y59.0024
G01 X49.7106 Y58.8967
G01 X49.6946 Y58.7889
G01 X49.6893 Y58.6800
G01 X49.6946 Y58.5711
G01 X49.7106 Y58.4633
G01 X49.7371 Y58.3576
G01 X49.7738 Y58.2550
G01 X49.8205 Y58.1564
G01 X49.8765 Y58.0629
G01 X49.9414 Y57.9754
G01 X50.0127 Y57.8966
G01 X50.0186 Y57.8909
G01 X50.0954 Y57.8214
G01 X50.1829 Y57.7565
G01 X50.2764 Y57.7005
G01 X50.3750 Y57.6538
G01 X50.4776 Y57.6171
G01 X50.5833 Y57.5906
G01 X50.6911 Y57.5746
G01 X50.8000 Y57.5693
G01 X50.9089 Y57.5746
G01 X51.0167 Y57.5906
G01 X51.1224 Y57.6171
G01 X51.2200 Y57.6519
G01 X51.2275 Y57.6549
G01 X51.3236 Y57.7005
G01 X51.4125 Y57.7536
G01 X51.4193 Y57.7580
G01 X51.5003 Y57.8181
G01 X51.5067 Y57.8232
G01 X51.5834 Y57.8927
G01 X51.5891 Y57.8986
G01 X51.6212 Y57.9340
G01 X64.0240 Y57.9340
G01 X64.0240 Y57.4100
G01 X64.0273 Y57.3396
G01 X64.0282 Y57.3315
G01 X64.0374 Y57.2698
G01 X64.0395 Y57.2592
G01 X64.0561 Y57.1934
G01 X64.0808 Y57.1245
G01 X64.1121 Y57.0583
G01 X64.1468 Y57.0001
G01 X64.1528 Y56.9911
G01 X64.1933 Y56.9367
G01 X64.2387 Y56.8864
G01 X64.2464 Y56.8787
G01 X64.2926 Y56.8369
G01 X64.3010 Y56.8300
G01 X64.3555 Y56.7897
G01 X64.4183 Y56.7521
G01 X64.4845 Y56.7208
G01 X64.5534 Y56.6961
G01 X64.6245 Y56.6783
G01 X64.6915 Y56.6682
G01 X64.7023 Y56.6672
G01 X64.7700 Y56.6640
G01 X67.8763 Y56.6640
G01 X68.1230 Y56.4173
G01 X68.1289 Y56.4118
G01 X68.1375 Y56.4051
G01 X68.1443 Y56.4007
G01 X68.1515 Y56.3967
G01 X68.1614 Y56.3923
G01 X68.1717 Y56.3889
G01 X68.1823 Y56.3865
G01 X68.1931 Y56.3852
G01 X68.2012 Y56.3849
G01 X68.9588 Y56.3849
G01 X68.9723 Y56.3857
G01 X68.9857 Y56.3882
G01 X68.9986 Y56.3923
G01 X69.0109 Y56.3980
G01 X69.0225 Y56.4051
G01 X69.0331 Y56.4136
G01 X69.2837 Y56.6640
G01 X71.3644 Y56.6640
G01 X71.3645 Y56.4929
G01 X71.3694 Y56.3951
G01 X71.3841 Y56.2955
G01 X71.4078 Y56.2005
G01 X71.4103 Y56.1927
G01 X71.4425 Y56.1031
G01 X71.4855 Y56.0122
G01 X71.5373 Y55.9258
G01 X71.5955 Y55.8471
G01 X71.6008 Y55.8409
G01 X71.6648 Y55.7704
G01 X71.7394 Y55.7028
G01 X71.8202 Y55.6429
G01 X71.9066 Y55.5911
G01 X71.9975 Y55.5481
G01 X72.0923 Y55.5142
G01 X72.1899 Y55.4897
G01 X72.2841 Y55.4756
G01 X72.2922 Y55.4747
G01 X72.3900 Y55.4700
G01 X72.4905 Y55.4750
G01 X72.5901 Y55.4897
G01 X72.6877 Y55.5142
G01 X72.7825 Y55.5481
G01 X72.8734 Y55.5911
G01 X72.9598 Y55.6429
G01 X73.0406 Y55.7028
G01 X73.1152 Y55.7704
G01 X73.1828 Y55.8450
G01 X73.2427 Y55.9258
G01 X73.2945 Y56.0122
G01 X73.3375 Y56.1031
G01 X73.3714 Y56.1979
G01 X73.3959 Y56.2955
G01 X73.4100 Y56.3897
G01 X73.4110 Y56.4005
G01 X73.4156 Y56.4956
G01 X73.4155 Y58.3271
G01 X73.4106 Y58.4249
G01 X73.3968 Y58.5191
G01 X73.3947 Y58.5298
G01 X73.3714 Y58.6221
G01 X73.3375 Y58.7169
G01 X73.2969 Y58.8030
G01 X73.2918 Y58.8126
G01 X73.2427 Y58.8942
G01 X73.1828 Y58.9750
G01 X73.1189 Y59.0456
G01 X73.1112 Y59.0533
G01 X73.0406 Y59.1172
G01 X72.9598 Y59.1771
G01 X72.8782 Y59.2262
G01 X72.8686 Y59.2313
G01 X72.7825 Y59.2719
G01 X72.6929 Y59.3041
G01 X72.6825 Y59.3072
G01 X72.5901 Y59.3303
G01 X72.4959 Y59.3444
G01 X72.4851 Y59.3454
G01 X72.3900 Y59.3500
G01 X72.2895 Y59.3450
G01 X72.1899 Y59.3303
G01 X72.0975 Y59.3072
G01 X72.0871 Y59.3041
G01 X71.9975 Y59.2719
G01 X71.9114 Y59.2313
G01 X71.9018 Y59.2262
G01 X71.8248 Y59.1800
G01 X71.8158 Y59.1740
G01 X71.7394 Y59.1172
G01 X71.6688 Y59.0533
G01 X71.6629 Y59.0476
G01 X71.5972 Y58.9750
G01 X71.5404 Y58.8986
G01 X71.5344 Y58.8896
G01 X71.4855 Y58.8078
G01 X71.4447 Y58.7218
G01 X71.4406 Y58.7118
G01 X71.4094 Y58.6247
G01 X71.4072 Y58.6169
G01 X71.3841 Y58.5245
G01 X71.3694 Y58.4249
G01 X71.3645 Y58.3271
G01 X71.3644 Y58.1560
G01 X69.2837 Y58.1560
G01 X69.0370 Y58.4027
G01 X69.0311 Y58.4082
G01 X69.0225 Y58.4149
G01 X69.0157 Y58.4193
G01 X69.0061 Y58.4245
G01 X68.9960 Y58.4286
G01 X68.9883 Y58.4311
G01 X68.9777 Y58.4335
G01 X68.9669 Y58.4348
G01 X68.9588 Y58.4351
G01 X68.2012 Y58.4351
G01 X68.1877 Y58.4343
G01 X68.1743 Y58.4318
G01 X68.1614 Y58.4277
G01 X68.1491 Y58.4220
G01 X68.1375 Y58.4149
G01 X68.1269 Y58.4064
G01 X67.8763 Y58.1560
G01 X65.5160 Y58.1560
G01 X65.5160 Y58.6800
G01 X65.5124 Y58.7531
G01 X65.5017 Y58.8255
G01 X65.4839 Y58.8966
G01 X65.4592 Y58.9655
G01 X65.4279 Y59.0317
G01 X65.3932 Y59.0899
G01 X65.3872 Y59.0989
G01 X65.3467 Y59.1533
G01 X65.3013 Y59.2036
G01 X65.2936 Y59.2113
G01 X65.2433 Y59.2567
G01 X65.1845 Y59.3003
G01 X65.1217 Y59.3379
G01 X65.0605 Y59.3670
G01 X65.0504 Y59.3712
G01 X64.9866 Y59.3939
G01 X64.9208 Y59.4105
G01 X64.9102 Y59.4126
G01 X64.8431 Y59.4224
G01 X64.7700 Y59.4260
G01 X51.6212 Y59.4260
G00 Z3.0000
G00 X61.7812 Y61.7440
G01 F60.00
G01 Z-0.0399
G01 F90.00
G01 X67.8340 Y61.7440
G01 X67.8340 Y61.2200
G01 X67.8376 Y61.1469
G01 X67.8483 Y61.0745
G01 X67.8661 Y61.0034
G01 X67.8908 Y60.9345
G01 X67.9196 Y60.8732
G01 X67.9247 Y60.8636
G01 X67.9597 Y60.8055
G01 X68.0033 Y60.7467
G01 X68.0525 Y60.6925
G01 X68.1026 Y60.6469
G01 X68.1110 Y60.6400
G01 X68.1611 Y60.6028
G01 X68.1701 Y60.5968
G01 X68.2283 Y60.5621
G01 X68.2895 Y60.5330
G01 X68.2996 Y60.5288
G01 X68.3634 Y60.5061
G01 X68.4345 Y60.4883
G01 X68.5069 Y60.4776
G01 X68.5800 Y60.4740
G01 X74.1840 Y60.4740
G01 X74.1840 Y59.0268
G01 X74.1372 Y58.9750
G01 X74.0773 Y58.8942
G01 X74.0255 Y58.8078
G01 X73.9836 Y58.7194
G01 X73.9806 Y58.7118
G01 X73.9503 Y58.6273
G01 X73.9472 Y58.6169
G01 X73.9241 Y58.5245
G01 X73.9100 Y58.4303
G01 X73.9091 Y58.4222
G01 X73.9044 Y58.3244
G01 X73.9044 Y56.4956
G01 X73.9090 Y56.4005
G01 X73.9097 Y56.3924
G01 X73.9241 Y56.2955
G01 X73.9486 Y56.1979
G01 X73.9825 Y56.1031
G01 X74.0231 Y56.0170
G01 X74.0282 Y56.0074
G01 X74.0744 Y55.9304
G01 X74.0804 Y55.9214
G01 X74.1372 Y55.8450
G01 X74.2048 Y55.7704
G01 X74.2794 Y55.7028
G01 X74.3602 Y55.6429
G01 X74.4466 Y55.5911
G01 X74.5326 Y55.5503
G01 X74.5426 Y55.5462
G01 X74.6323 Y55.5142
G01 X74.7246 Y55.4909
G01 X74.7353 Y55.4888
G01 X74.8241 Y55.4756
G01 X74.8349 Y55.4746
G01 X74.9300 Y55.4700
G01 X75.0305 Y55.4750
G01 X75.1301 Y55.4897
G01 X75.2277 Y55.5142
G01 X75.3225 Y55.5481
G01 X75.4134 Y55.5911
G01 X75.4998 Y55.6429
G01 X75.5763 Y55.6995
G01 X75.5847 Y55.7064
G01 X75.6512 Y55.7667
G01 X75.6589 Y55.7744
G01 X75.7228 Y55.8450
G01 X75.7796 Y55.9214
G01 X75.7856 Y55.9304
G01 X75.8345 Y56.0122
G01 X75.8775 Y56.1031
G01 X75.9114 Y56.1979
G01 X75.9347 Y56.2902
G01 X75.9363 Y56.2982
G01 X75.9506 Y56.3951
G01 X75.9556 Y56.4956
G01 X75.9556 Y58.3244
G01 X75.9509 Y58.4222
G01 X75.9500 Y58.4303
G01 X75.9359 Y58.5245
G01 X75.9128 Y58.6169
G01 X75.9097 Y58.6273
G01 X75.8794 Y58.7118
G01 X75.8764 Y58.7194
G01 X75.8345 Y58.8078
G01 X75.7827 Y58.8942
G01 X75.7228 Y58.9750
G01 X75.6760 Y59.0268
G01 X75.6760 Y60.4740
G01 X79.2640 Y60.4740
G01 X79.2640 Y59.0268
G01 X79.2172 Y58.9750
G01 X79.1573 Y58.8942
G01 X79.1055 Y58.8078
G01 X79.0636 Y58.7194
G01 X79.0606 Y58.7118
G01 X79.0303 Y58.6273
G01 X79.0272 Y58.6169
G01 X79.0041 Y58.5245
G01 X78.9900 Y58.4303
G01 X78.9891 Y58.4222
G01 X78.9844 Y58.3244
G01 X78.9844 Y56.4956
G01 X78.9894 Y56.3951
G01 X79.0032 Y56.3009
G01 X79.0053 Y56.2902
G01 X79.0272 Y56.2031
G01 X79.0303 Y56.1927
G01 X79.0625 Y56.1031
G01 X79.1031 Y56.0170
G01 X79.1082 Y56.0074
G01 X79.1573 Y55.9258
G01 X79.2172 Y55.8450
G01 X79.2848 Y55.7704
G01 X79.3594 Y55.7028
G01 X79.4402 Y55.6429
G01 X79.5266 Y55.5911
G01 X79.6175 Y55.5481
G01 X79.7071 Y55.5159
G01 X79.7175 Y55.5128
G01 X79.8046 Y55.4909
G01 X79.8153 Y55.4888
G01 X79.9095 Y55.4750
G01 X80.0100 Y55.4700
G01 X80.1105 Y55.4750
G01 X80.2047 Y55.4888
G01 X80.2154 Y55.4909
G01 X80.3025 Y55.5128
G01 X80.3129 Y55.5159
G01 X80.4025 Y55.5481
G01 X80.4934 Y55.5911
G01 X80.5798 Y55.6429
G01 X80.6606 Y55.7028
G01 X80.7352 Y55.7704
G01 X80.8028 Y55.8450
G01 X80.8627 Y55.9258
G01 X80.9118 Y56.0074
G01 X80.9169 Y56.0170
G01 X80.9575 Y56.1031
G01 X80.9897 Y56.1927
G01 X80.9928 Y56.2031
G01 X81.0147 Y56.2902
G01 X81.0168 Y56.3009
G01 X81.0306 Y56.3951
G01 X81.0356 Y56.4956
G01 X81.0356 Y58.3244
G01 X81.0309 Y58.4222
G01 X81.0300 Y58.4303
G01 X81.0159 Y58.5245
G01 X80.9928 Y58.6169
G01 X80.9897 Y58.6273
G01 X80.9594 Y58.7118
G01 X80.9564 Y58.7194
G01 X80.9145 Y58.8078
G01 X80.8627 Y58.8942
G01 X80.8028 Y58.9750
G01 X80.7560 Y59.0268
G01 X80.7560 Y60.4740
G01 X84.3440 Y60.4740
G01 X84.3440 Y59.0268
G01 X84.2972 Y58.9750
G01 X84.2373 Y58.8942
G01 X84.1855 Y58.8078
G01 X84.1436 Y58.7194
G01 X84.1406 Y58.7118
G01 X84.1103 Y58.6273
G01 X84.1072 Y58.6169
G01 X84.0841 Y58.5245
G01 X84.0700 Y58.4303
G01 X84.0691 Y58.4222
G01 X84.0644 Y58.3244
G01 X84.0644 Y56.4956
G01 X84.0694 Y56.3951
G01 X84.0841 Y56.2955
G01 X84.1086 Y56.1979
G01 X84.1425 Y56.1031
G01 X84.1855 Y56.0122
G01 X84.2373 Y55.9258
G01 X84.2972 Y55.8450
G01 X84.3648 Y55.7704
G01 X84.4394 Y55.7028
G01 X84.5202 Y55.6429
G01 X84.6066 Y55.5911
G01 X84.6975 Y55.5481
G01 X84.7923 Y55.5142
G01 X84.8899 Y55.4897
G01 X84.9895 Y55.4750
G01 X85.0900 Y55.4700
G01 X85.1905 Y55.4750
G01 X85.2874 Y55.4893
G01 X85.2954 Y55.4909
G01 X85.3825 Y55.5128
G01 X85.3929 Y55.5159
G01 X85.4825 Y55.5481
G01 X85.5734 Y55.5911
G01 X85.6598 Y55.6429
G01 X85.7363 Y55.6995
G01 X85.7447 Y55.7064
G01 X85.8112 Y55.7667
G01 X85.8189 Y55.7744
G01 X85.8828 Y55.8450
G01 X85.9427 Y55.9258
G01 X85.9945 Y56.0122
G01 X86.0353 Y56.0982
G01 X86.0394 Y56.1082
G01 X86.0697 Y56.1927
G01 X86.0728 Y56.2031
G01 X86.0959 Y56.2955
G01 X86.1106 Y56.3951
G01 X86.1156 Y56.4956
G01 X86.1156 Y58.3244
G01 X86.1109 Y58.4222
G01 X86.1100 Y58.4303
G01 X86.0959 Y58.5245
G01 X86.0728 Y58.6169
G01 X86.0697 Y58.6273
G01 X86.0394 Y58.7118
G01 X86.0364 Y58.7194
G01 X85.9945 Y58.8078
G01 X85.9427 Y58.8942
G01 X85.8828 Y58.9750
G01 X85.8360 Y59.0268
G01 X85.8360 Y60.4740
G01 X87.6300 Y60.4740
G01 X87.7031 Y60.4776
G01 X87.7755 Y60.4883
G01 X87.8413 Y60.5047
G01 X87.8517 Y60.5078
G01 X87.9155 Y60.5308
G01 X87.9768 Y60.5596
G01 X87.9864 Y60.5647
G01 X88.0445 Y60.5997
G01 X88.0990 Y60.6400
G01 X88.1074 Y60.6469
G01 X88.1575 Y60.6925
G01 X88.2031 Y60.7426
G01 X88.2100 Y60.7510
G01 X88.2503 Y60.8055
G01 X88.2853 Y60.8636
G01 X88.2904 Y60.8732
G01 X88.3192 Y60.9345
G01 X88.3439 Y61.0034
G01 X88.3605 Y61.0692
G01 X88.3626 Y61.0798
G01 X88.3724 Y61.1469
G01 X88.3760 Y61.2173
G01 X88.3760 Y63.4132
G01 X88.4228 Y63.4650
G01 X88.4827 Y63.5458
G01 X88.5345 Y63.6322
G01 X88.5764 Y63.7206
G01 X88.5794 Y63.7282
G01 X88.6114 Y63.8179
G01 X88.6347 Y63.9102
G01 X88.6368 Y63.9209
G01 X88.6500 Y64.0097
G01 X88.6510 Y64.0205
G01 X88.6556 Y64.1156
G01 X88.6556 Y65.9444
G01 X88.6506 Y66.0449
G01 X88.6363 Y66.1418
G01 X88.6347 Y66.1498
G01 X88.6128 Y66.2369
G01 X88.6097 Y66.2473
G01 X88.5775 Y66.3369
G01 X88.5345 Y66.4278
G01 X88.4827 Y66.5142
G01 X88.4261 Y66.5907
G01 X88.4192 Y66.5991
G01 X88.3589 Y66.6656
G01 X88.3512 Y66.6733
G01 X88.2806 Y66.7372
G01 X88.1998 Y66.7971
G01 X88.1134 Y66.8489
G01 X88.0274 Y66.8897
G01 X88.0174 Y66.8938
G01 X87.9329 Y66.9241
G01 X87.9225 Y66.9272
G01 X87.8301 Y66.9503
G01 X87.7305 Y66.9650
G01 X87.6354 Y66.9698
G01 X87.6246 Y66.9698
G01 X87.5295 Y66.9650
G01 X87.4299 Y66.9503
G01 X87.3323 Y66.9258
G01 X87.2426 Y66.8938
G01 X87.2326 Y66.8897
G01 X87.1514 Y66.8513
G01 X87.1418 Y66.8462
G01 X87.0602 Y66.7971
G01 X86.9794 Y66.7372
G01 X86.9048 Y66.6696
G01 X86.8408 Y66.5991
G01 X86.8339 Y66.5907
G01 X86.7804 Y66.5186
G01 X86.7744 Y66.5096
G01 X86.7255 Y66.4278
G01 X86.6825 Y66.3369
G01 X86.6486 Y66.2421
G01 X86.6241 Y66.1445
G01 X86.6094 Y66.0449
G01 X86.6045 Y65.9471
G01 X86.6046 Y64.1102
G01 X86.6094 Y64.0151
G01 X86.6241 Y63.9155
G01 X86.6486 Y63.8179
G01 X86.6825 Y63.7231
G01 X86.7255 Y63.6322
G01 X86.7758 Y63.5481
G01 X86.7804 Y63.5414
G01 X86.8372 Y63.4650
G01 X86.8840 Y63.4132
G01 X86.8840 Y61.9660
G01 X83.2960 Y61.9660
G01 X83.2960 Y63.4132
G01 X83.3428 Y63.4650
G01 X83.4027 Y63.5458
G01 X83.4545 Y63.6322
G01 X83.4964 Y63.7206
G01 X83.4994 Y63.7282
G01 X83.5297 Y63.8127
G01 X83.5328 Y63.8231
G01 X83.5559 Y63.9155
G01 X83.5700 Y64.0097
G01 X83.5709 Y64.0178
G01 X83.5756 Y64.1156
G01 X83.5756 Y65.9444
G01 X83.5706 Y66.0449
G01 X83.5568 Y66.1391
G01 X83.5547 Y66.1498
G01 X83.5328 Y66.2369
G01 X83.5297 Y66.2473
G01 X83.4975 Y66.3369
G01 X83.4569 Y66.4230
G01 X83.4518 Y66.4326
G01 X83.4027 Y66.5142
G01 X83.3428 Y66.5950
G01 X83.2752 Y66.6696
G01 X83.2006 Y66.7372
G01 X83.1198 Y66.7971
G01 X83.0382 Y66.8462
G01 X83.0286 Y66.8513
G01 X82.9474 Y66.8897
G01 X82.9374 Y66.8938
G01 X82.8477 Y66.9258
G01 X82.7501 Y66.9503
G01 X82.6505 Y66.9650
G01 X82.5500 Y66.9700
G01 X82.4495 Y66.9650
G01 X82.3499 Y66.9503
G01 X82.2523 Y66.9258
G01 X82.1626 Y66.8938
G01 X82.1526 Y66.8897
G01 X82.0714 Y66.8513
G01 X82.0618 Y66.8462
G01 X81.9802 Y66.7971
G01 X81.8994 Y66.7372
G01 X81.8248 Y66.6696
G01 X81.7572 Y66.5950
G01 X81.6973 Y66.5142
G01 X81.6482 Y66.4326
G01 X81.6431 Y66.4230
G01 X81.6025 Y66.3369
G01 X81.5703 Y66.2473
G01 X81.5672 Y66.2369
G01 X81.5453 Y66.1498
G01 X81.5432 Y66.1391
G01 X81.5294 Y66.0449
G01 X81.5244 Y65.9444
G01 X81.5244 Y64.1156
G01 X81.5291 Y64.0178
G01 X81.5300 Y64.0097
G01 X81.5441 Y63.9155
G01 X81.5672 Y63.8231
G01 X81.5703 Y63.8127
G01 X81.6006 Y63.7282
G01 X81.6036 Y63.7206
G01 X81.6455 Y63.6322
G01 X81.6973 Y63.5458
G01 X81.7572 Y63.4650
G01 X81.8040 Y63.4132
G01 X81.8040 Y61.9660
G01 X78.2160 Y61.9660
G01 X78.2160 Y63.4132
G01 X78.2628 Y63.4650
G01 X78.3227 Y63.5458
G01 X78.3745 Y63.6322
G01 X78.4164 Y63.7206
G01 X78.4194 Y63.7282
G01 X78.4497 Y63.8127
G01 X78.4528 Y63.8231
G01 X78.4759 Y63.9155
G01 X78.4900 Y64.0097
G01 X78.4909 Y64.0178
G01 X78.4956 Y64.1156
G01 X78.4956 Y65.9444
G01 X78.4906 Y66.0449
G01 X78.4768 Y66.1391
G01 X78.4747 Y66.1498
G01 X78.4528 Y66.2369
G01 X78.4497 Y66.2473
G01 X78.4175 Y66.3369
G01 X78.3769 Y66.4230
G01 X78.3718 Y66.4326
G01 X78.3227 Y66.5142
G01 X78.2628 Y66.5950
G01 X78.1952 Y66.6696
G01 X78.1206 Y66.7372
G01 X78.0398 Y66.7971
G01 X77.9582 Y66.8462
G01 X77.9486 Y66.8513
G01 X77.8674 Y66.8897
G01 X77.8574 Y66.8938
G01 X77.7677 Y66.9258
G01 X77.6701 Y66.9503
G01 X77.5705 Y66.9650
G01 X77.4700 Y66.9700
G01 X77.3695 Y66.9650
G01 X77.2699 Y66.9503
G01 X77.1723 Y66.9258
G01 X77.0826 Y66.8938
G01 X77.0726 Y66.8897
G01 X76.9914 Y66.8513
G01 X76.9818 Y66.8462
G01 X76.9002 Y66.7971
G01 X76.8194 Y66.7372
G01 X76.7448 Y66.6696
G01 X76.6772 Y66.5950
G01 X76.6173 Y66.5142
G01 X76.5682 Y66.4326
G01 X76.5631 Y66.4230
G01 X76.5225 Y66.3369
G01 X76.4903 Y66.2473
G01 X76.4872 Y66.2369
G01 X76.4653 Y66.1498
G01 X76.4632 Y66.1391
G01 X76.4494 Y66.0449
