(G-CODE GENERATED BY FLATCAM v8.994 - www.flatcam.org - Version Date: 2020/11/7)

(Name: drill_1_16.xln_cnc)
(Type: G-code from Geometry)
(Units: MM)

(Created on terça, 22 fevereiro 2022 at 12:48)

(This preprocessor is the default preprocessor used by FlatCAM.)
(It is made to work with MACH3 compatible motion controllers.)


(TOOLS DIAMETER: )
(Tool: 1 -> Dia: 0.813)
(Tool: 2 -> Dia: 0.9)
(Tool: 3 -> Dia: 1.016)

(FEEDRATE Z: )
(Tool: 1 -> Feedrate: 300)
(Tool: 2 -> Feedrate: 300)
(Tool: 3 -> Feedrate: 300)

(FEEDRATE RAPIDS: )
(Tool: 1 -> Feedrate Rapids: 1500)
(Tool: 2 -> Feedrate Rapids: 1500)
(Tool: 3 -> Feedrate Rapids: 1500)

(Z_CUT: )
(Tool: 1 -> Z_Cut: -1.7)
(Tool: 2 -> Z_Cut: -1.7)
(Tool: 3 -> Z_Cut: -1.7)

(Tools Offset: )
(Tool: 1 -> Offset Z: 0.0)
(Tool: 2 -> Offset Z: 0.0)
(Tool: 3 -> Offset Z: 0.0)

(Z_MOVE: )
(Tool: 1 -> Z_Move: 2)
(Tool: 2 -> Z_Move: 2)
(Tool: 3 -> Z_Move: 2)

(Z Toolchange: 15 mm)
(X,Y Toolchange: 0.0000, 0.0000 mm)
(Z Start: None mm)
(Z End: 0.5 mm)
(X,Y End: None mm)
(Steps per circle: 64)
(Preprocessor Excellon: default)

(X range:    2.0320 ...  102.1080  mm)
(Y range:    1.0220 ...   76.9100  mm)

(Spindle Speed: 0 RPM)
G21
G90
G94

G01 F300.00

M5
G00 Z15.0000
T1
G00 X0.0000 Y0.0000                
M6
(MSG, Change to Tool Dia = 0.8130 ||| Total drills for tool T1 = 128)
M0
G00 Z15.0000

G01 F300.00
M03
G00 X8.8900 Y56.1400
G01 Z-1.7000
G01 Z0
G00 Z2.0000
G00 X13.9700 Y56.1400
G01 Z-1.7000
G01 Z0
G00 Z2.0000
G00 X20.3200 Y56.1400
G01 Z-1.7000
G01 Z0
G00 Z2.0000
G00 X27.9400 Y56.1400
G01 Z-1.7000
G01 Z0
G00 Z2.0000
G00 X34.2900 Y57.4100
G01 Z-1.7000
G01 Z0
G00 Z2.0000
G00 X34.2900 Y61.2200
G01 Z-1.7000
G01 Z0
G00 Z2.0000
G00 X36.8300 Y63.7600
G01 Z-1.7000
G01 Z0
G00 Z2.0000
G00 X39.3700 Y61.2200
G01 Z-1.7000
G01 Z0
G00 Z2.0000
G00 X39.3700 Y56.1400
G01 Z-1.7000
G01 Z0
G00 Z2.0000
G00 X39.3700 Y53.6000
G01 Z-1.7000
G01 Z0
G00 Z2.0000
G00 X39.3700 Y51.0600
G01 Z-1.7000
G01 Z0
G00 Z2.0000
G00 X39.3700 Y48.5200
G01 Z-1.7000
G01 Z0
G00 Z2.0000
G00 X54.6100 Y51.0600
G01 Z-1.7000
G01 Z0
G00 Z2.0000
G00 X54.6100 Y53.6000
G01 Z-1.7000
G01 Z0
G00 Z2.0000
G00 X54.6100 Y56.1400
G01 Z-1.7000
G01 Z0
G00 Z2.0000
G00 X50.8000 Y58.6800
G01 Z-1.7000
G01 Z0
G00 Z2.0000
G00 X45.7200 Y63.7600
G01 Z-1.7000
G01 Z0
G00 Z2.0000
G00 X48.2600 Y67.5700
G01 Z-1.7000
G01 Z0
G00 Z2.0000
G00 X41.9100 Y71.3800
G01 Z-1.7000
G01 Z0
G00 Z2.0000
G00 X41.9100 Y76.4600
G01 Z-1.7000
G01 Z0
G00 Z2.0000
G00 X48.2600 Y76.4600
G01 Z-1.7000
G01 Z0
G00 Z2.0000
G00 X60.9600 Y62.4900
G01 Z-1.7000
G01 Z0
G00 Z2.0000
G00 X66.0400 Y65.0300
G01 Z-1.7000
G01 Z0
G00 Z2.0000
G00 X68.5800 Y62.4900
G01 Z-1.7000
G01 Z0
G00 Z2.0000
G00 X72.3900 Y65.0300
G01 Z-1.7000
G01 Z0
G00 Z2.0000
G00 X74.9300 Y65.0300
G01 Z-1.7000
G01 Z0
G00 Z2.0000
G00 X77.4700 Y65.0300
G01 Z-1.7000
G01 Z0
G00 Z2.0000
G00 X80.0100 Y65.0300
G01 Z-1.7000
G01 Z0
G00 Z2.0000
G00 X82.5500 Y65.0300
G01 Z-1.7000
G01 Z0
G00 Z2.0000
G00 X85.0900 Y65.0300
G01 Z-1.7000
G01 Z0
G00 Z2.0000
G00 X87.6300 Y65.0300
G01 Z-1.7000
G01 Z0
G00 Z2.0000
G00 X87.6300 Y57.4100
G01 Z-1.7000
G01 Z0
G00 Z2.0000
G00 X85.0900 Y57.4100
G01 Z-1.7000
G01 Z0
G00 Z2.0000
G00 X82.5500 Y57.4100
G01 Z-1.7000
G01 Z0
G00 Z2.0000
G00 X80.0100 Y57.4100
G01 Z-1.7000
G01 Z0
G00 Z2.0000
G00 X77.4700 Y57.4100
G01 Z-1.7000
G01 Z0
G00 Z2.0000
G00 X74.9300 Y57.4100
G01 Z-1.7000
G01 Z0
G00 Z2.0000
G00 X72.3900 Y57.4100
G01 Z-1.7000
G01 Z0
G00 Z2.0000
G00 X68.5800 Y57.4100
G01 Z-1.7000
G01 Z0
G00 Z2.0000
G00 X54.6100 Y48.5200
G01 Z-1.7000
G01 Z0
G00 Z2.0000
G00 X54.6100 Y45.9800
G01 Z-1.7000
G01 Z0
G00 Z2.0000
G00 X54.6100 Y43.4400
G01 Z-1.7000
G01 Z0
G00 Z2.0000
G00 X54.6100 Y40.9000
G01 Z-1.7000
G01 Z0
G00 Z2.0000
G00 X54.6100 Y38.3600
G01 Z-1.7000
G01 Z0
G00 Z2.0000
G00 X54.6100 Y35.8200
G01 Z-1.7000
G01 Z0
G00 Z2.0000
G00 X54.6100 Y33.2800
G01 Z-1.7000
G01 Z0
G00 Z2.0000
G00 X54.6100 Y30.7400
G01 Z-1.7000
G01 Z0
G00 Z2.0000
G00 X54.6100 Y28.2000
G01 Z-1.7000
G01 Z0
G00 Z2.0000
G00 X54.6100 Y24.3900
G01 Z-1.7000
G01 Z0
G00 Z2.0000
G00 X58.4200 Y24.3900
G01 Z-1.7000
G01 Z0
G00 Z2.0000
G00 X60.9600 Y24.3900
G01 Z-1.7000
G01 Z0
G00 Z2.0000
G00 X66.0400 Y30.7400
G01 Z-1.7000
G01 Z0
G00 Z2.0000
G00 X101.6000 Y1.5300
G01 Z-1.7000
G01 Z0
G00 Z2.0000
G00 X99.0600 Y1.5300
G01 Z-1.7000
G01 Z0
G00 Z2.0000
G00 X96.5200 Y1.5300
G01 Z-1.7000
G01 Z0
G00 Z2.0000
G00 X93.9800 Y1.5300
G01 Z-1.7000
G01 Z0
G00 Z2.0000
G00 X91.4400 Y1.5300
G01 Z-1.7000
G01 Z0
G00 Z2.0000
G00 X88.9000 Y1.5300
G01 Z-1.7000
G01 Z0
G00 Z2.0000
G00 X86.3600 Y1.5300
G01 Z-1.7000
G01 Z0
G00 Z2.0000
G00 X83.8200 Y1.5300
G01 Z-1.7000
G01 Z0
G00 Z2.0000
G00 X81.2800 Y1.5300
G01 Z-1.7000
G01 Z0
G00 Z2.0000
G00 X78.7400 Y1.5300
G01 Z-1.7000
G01 Z0
G00 Z2.0000
G00 X76.2000 Y1.5300
G01 Z-1.7000
G01 Z0
G00 Z2.0000
G00 X73.6600 Y1.5300
G01 Z-1.7000
G01 Z0
G00 Z2.0000
G00 X71.1200 Y1.5300
G01 Z-1.7000
G01 Z0
G00 Z2.0000
G00 X68.5800 Y1.5300
G01 Z-1.7000
G01 Z0
G00 Z2.0000
G00 X66.0400 Y1.5300
G01 Z-1.7000
G01 Z0
G00 Z2.0000
G00 X63.5000 Y1.5300
G01 Z-1.7000
G01 Z0
G00 Z2.0000
G00 X60.9600 Y1.5300
G01 Z-1.7000
G01 Z0
G00 Z2.0000
G00 X58.4200 Y1.5300
G01 Z-1.7000
G01 Z0
G00 Z2.0000
G00 X55.8800 Y1.5300
G01 Z-1.7000
G01 Z0
G00 Z2.0000
G00 X53.3400 Y1.5300
G01 Z-1.7000
G01 Z0
G00 Z2.0000
G00 X50.8000 Y1.5300
G01 Z-1.7000
G01 Z0
G00 Z2.0000
G00 X48.2600 Y1.5300
G01 Z-1.7000
G01 Z0
G00 Z2.0000
G00 X45.7200 Y1.5300
G01 Z-1.7000
G01 Z0
G00 Z2.0000
G00 X43.1800 Y9.1500
G01 Z-1.7000
G01 Z0
G00 Z2.0000
G00 X43.1800 Y1.5300
G01 Z-1.7000
G01 Z0
G00 Z2.0000
G00 X40.6400 Y1.5300
G01 Z-1.7000
G01 Z0
G00 Z2.0000
G00 X38.1000 Y1.5300
G01 Z-1.7000
G01 Z0
G00 Z2.0000
G00 X35.5600 Y1.5300
G01 Z-1.7000
G01 Z0
G00 Z2.0000
G00 X33.0200 Y1.5300
G01 Z-1.7000
G01 Z0
G00 Z2.0000
G00 X30.4800 Y1.5300
G01 Z-1.7000
G01 Z0
G00 Z2.0000
G00 X27.9400 Y1.5300
G01 Z-1.7000
G01 Z0
G00 Z2.0000
G00 X25.4000 Y1.5300
G01 Z-1.7000
G01 Z0
G00 Z2.0000
G00 X22.8600 Y1.5300
G01 Z-1.7000
G01 Z0
G00 Z2.0000
G00 X20.3200 Y1.5300
G01 Z-1.7000
G01 Z0
G00 Z2.0000
G00 X17.7800 Y1.5300
G01 Z-1.7000
G01 Z0
G00 Z2.0000
G00 X15.2400 Y1.5300
G01 Z-1.7000
G01 Z0
G00 Z2.0000
G00 X12.7000 Y1.5300
G01 Z-1.7000
G01 Z0
G00 Z2.0000
G00 X10.1600 Y1.5300
G01 Z-1.7000
G01 Z0
G00 Z2.0000
G00 X7.6200 Y1.5300
G01 Z-1.7000
G01 Z0
G00 Z2.0000
G00 X5.0800 Y1.5300
G01 Z-1.7000
G01 Z0
G00 Z2.0000
G00 X2.5400 Y1.5300
G01 Z-1.7000
G01 Z0
G00 Z2.0000
G00 X17.7800 Y9.1500
G01 Z-1.7000
G01 Z0
G00 Z2.0000
G00 X20.3200 Y6.6100
G01 Z-1.7000
G01 Z0
G00 Z2.0000
G00 X27.9400 Y6.6100
G01 Z-1.7000
G01 Z0
G00 Z2.0000
G00 X27.9400 Y9.1500
G01 Z-1.7000
G01 Z0
G00 Z2.0000
G00 X35.5600 Y19.3100
G01 Z-1.7000
G01 Z0
G00 Z2.0000
G00 X39.3700 Y24.3900
G01 Z-1.7000
G01 Z0
G00 Z2.0000
G00 X39.3700 Y28.2000
G01 Z-1.7000
G01 Z0
G00 Z2.0000
G00 X39.3700 Y30.7400
G01 Z-1.7000
G01 Z0
G00 Z2.0000
G00 X39.3700 Y33.2800
G01 Z-1.7000
G01 Z0
G00 Z2.0000
G00 X39.3700 Y35.8200
G01 Z-1.7000
G01 Z0
G00 Z2.0000
G00 X39.3700 Y38.3600
G01 Z-1.7000
G01 Z0
G00 Z2.0000
G00 X39.3700 Y40.9000
G01 Z-1.7000
G01 Z0
G00 Z2.0000
G00 X39.3700 Y43.4400
G01 Z-1.7000
G01 Z0
G00 Z2.0000
G00 X39.3700 Y45.9800
G01 Z-1.7000
G01 Z0
G00 Z2.0000
G00 X35.5600 Y43.4400
G01 Z-1.7000
G01 Z0
G00 Z2.0000
G00 X35.5600 Y40.9000
G01 Z-1.7000
G01 Z0
G00 Z2.0000
G00 X27.9400 Y45.9800
G01 Z-1.7000
G01 Z0
G00 Z2.0000
G00 X13.9700 Y40.9000
G01 Z-1.7000
G01 Z0
G00 Z2.0000
G00 X8.8900 Y40.9000
G01 Z-1.7000
G01 Z0
G00 Z2.0000
G00 X8.8900 Y43.4400
G01 Z-1.7000
G01 Z0
G00 Z2.0000
G00 X8.8900 Y48.5200
G01 Z-1.7000
G01 Z0
G00 Z2.0000
G00 X2.5400 Y61.2200
G01 Z-1.7000
G01 Z0
G00 Z2.0000
G00 X2.5400 Y63.7600
G01 Z-1.7000
G01 Z0
G00 Z2.0000
G00 X2.5400 Y66.3000
G01 Z-1.7000
G01 Z0
G00 Z2.0000
G00 X2.5400 Y68.8400
G01 Z-1.7000
G01 Z0
G00 Z2.0000
G00 X2.5400 Y71.3800
G01 Z-1.7000
G01 Z0
G00 Z2.0000
G00 X2.5400 Y73.9200
G01 Z-1.7000
G01 Z0
G00 Z2.0000
G00 X13.9700 Y68.8400
G01 Z-1.7000
G01 Z0
G00 Z2.0000
G00 X16.5100 Y68.8400
G01 Z-1.7000
G01 Z0
G00 Z2.0000
G00 X19.0500 Y73.9200
G01 Z-1.7000
G01 Z0
G00 Z2.0000
G00 X19.0500 Y76.4600
G01 Z-1.7000
G01 Z0
G00 Z2.0000
G00 X26.6700 Y76.4600
G01 Z-1.7000
G01 Z0
G00 Z2.0000
G00 X26.6700 Y73.9200
G01 Z-1.7000
G01 Z0
G00 Z2.0000
G00 X26.6700 Y63.7600
G01 Z-1.7000
G01 Z0
G00 Z2.0000
G00 X19.0500 Y63.7600
G01 Z-1.7000
G01 Z0
G00 Z2.0000
M05
G00 Z0.50


