(G-CODE GENERATED BY FLATCAM v8.994 - www.flatcam.org - Version Date: 2020/11/7)

(Name: copper_bottom.gbr_iso_combined_cnc)
(Type: G-code from Geometry)
(Units: MM)

(Created on sexta, 04 fevereiro 2022 at 18:53)

(This preprocessor is the default preprocessor used by FlatCAM.)
(It is made to work with MACH3 compatible motion controllers.)

(TOOL DIAMETER: 0.2268 mm)
(Feedrate_XY: 60.0 mm/min)
(Feedrate_Z: 60.0 mm/min)
(Feedrate rapids 1500.0 mm/min)

(Z_Cut: -0.05 mm)
(Z_Move: 3.0 mm)
(Z Start: None mm)
(Z End: 15.0 mm)
(X,Y End: None mm)
(Steps per circle: 64)
(Preprocessor Geometry: default)

(X range:    1.3906 ...  102.7094  mm)
(Y range:    1.0806 ...   30.8987  mm)

(Spindle Speed: 1000.0 RPM)
G21
G90
G94

G01 F60.00

M5
G00 Z15.0000
G00 X0.0000 Y0.0000
T1
M6    
(MSG, Change to Tool Dia = 0.2268)
M0
G00 Z15.0000

M03 S1000.0
G01 F60.00
G00 X1.5254 Y9.3711
G01 F60.00
G01 Z-0.0500
G01 F60.00
G01 X1.7713 Y9.1252
G01 X1.7713 Y3.0540
G01 X1.7214 Y3.0086
G01 X1.6488 Y2.9286
G01 X1.6435 Y2.9221
G01 X1.5825 Y2.8398
G01 X1.5780 Y2.8328
G01 X1.5240 Y2.7424
G01 X1.4788 Y2.6473
G01 X1.4755 Y2.6396
G01 X1.4410 Y2.5431
G01 X1.4377 Y2.5325
G01 X1.4123 Y2.4303
G01 X1.3967 Y2.3262
G01 X1.3956 Y2.3151
G01 X1.3906 Y2.2100
G01 X1.3956 Y2.1049
G01 X1.3963 Y2.0965
G01 X1.4123 Y1.9897
G01 X1.4392 Y1.8822
G01 X1.4766 Y1.7778
G01 X1.5240 Y1.6776
G01 X1.5809 Y1.5825
G01 X1.6470 Y1.4935
G01 X1.7214 Y1.4114
G01 X1.8035 Y1.3370
G01 X1.8925 Y1.2709
G01 X1.9876 Y1.2140
G01 X2.0878 Y1.1666
G01 X2.1922 Y1.1292
G01 X2.2997 Y1.1023
G01 X2.4093 Y1.0860
G01 X2.5200 Y1.0806
G01 X2.6251 Y1.0856
G01 X2.6335 Y1.0863
G01 X2.7403 Y1.1023
G01 X2.8478 Y1.1292
G01 X2.9522 Y1.1666
G01 X3.0474 Y1.2115
G01 X3.0572 Y1.2167
G01 X3.1428 Y1.2680
G01 X3.1520 Y1.2741
G01 X3.2365 Y1.3370
G01 X3.3186 Y1.4114
G01 X3.3930 Y1.4935
G01 X3.4559 Y1.5780
G01 X3.4620 Y1.5872
G01 X3.5133 Y1.6728
G01 X3.5185 Y1.6826
G01 X3.5634 Y1.7778
G01 X3.6008 Y1.8822
G01 X3.6277 Y1.9897
G01 X3.6440 Y2.0993
G01 X3.6494 Y2.2100
G01 X3.6444 Y2.3151
G01 X3.6433 Y2.3262
G01 X3.6277 Y2.4303
G01 X3.6023 Y2.5325
G01 X3.5990 Y2.5431
G01 X3.5645 Y2.6396
G01 X3.5612 Y2.6473
G01 X3.5160 Y2.7424
G01 X3.4620 Y2.8328
G01 X3.4575 Y2.8398
G01 X3.3965 Y2.9221
G01 X3.3912 Y2.9286
G01 X3.3186 Y3.0086
G01 X3.2687 Y3.0540
G01 X3.2687 Y9.1252
G01 X3.5184 Y9.3751
G01 X3.5271 Y9.3859
G01 X3.5344 Y9.3978
G01 X3.5402 Y9.4104
G01 X3.5444 Y9.4237
G01 X3.5469 Y9.4374
G01 X3.5478 Y9.4512
G01 X3.5478 Y10.2088
G01 X3.5473 Y10.2199
G01 X3.5456 Y10.2309
G01 X3.5429 Y10.2417
G01 X3.5381 Y10.2547
G01 X3.5331 Y10.2647
G01 X3.5271 Y10.2741
G01 X3.5221 Y10.2807
G01 X3.5146 Y10.2889
G01 X2.9789 Y10.8246
G01 X2.9707 Y10.8321
G01 X2.9618 Y10.8387
G01 X2.9522 Y10.8444
G01 X2.9422 Y10.8492
G01 X2.9317 Y10.8529
G01 X2.9209 Y10.8556
G01 X2.9099 Y10.8573
G01 X2.8988 Y10.8578
G01 X2.1412 Y10.8578
G01 X2.1301 Y10.8573
G01 X2.1191 Y10.8556
G01 X2.1057 Y10.8521
G01 X2.0953 Y10.8481
G01 X2.0878 Y10.8444
G01 X2.0782 Y10.8387
G01 X2.0693 Y10.8321
G01 X2.0611 Y10.8246
G01 X1.5254 Y10.2889
G01 X1.5179 Y10.2807
G01 X1.5098 Y10.2694
G01 X1.5043 Y10.2597
G01 X1.4998 Y10.2496
G01 X1.4963 Y10.2390
G01 X1.4939 Y10.2281
G01 X1.4925 Y10.2171
G01 X1.4922 Y10.2088
G01 X1.4922 Y9.4485
G01 X1.4931 Y9.4374
G01 X1.4950 Y9.4264
G01 X1.4971 Y9.4183
G01 X1.5008 Y9.4078
G01 X1.5056 Y9.3978
G01 X1.5113 Y9.3882
G01 X1.5179 Y9.3793
G01 X1.5254 Y9.3711
G00 Z3.0000
G00 X4.0654 Y9.3711
G01 F60.00
G01 Z-0.0500
G01 F60.00
G01 X4.3113 Y9.1252
G01 X4.3113 Y3.0540
G01 X4.2614 Y3.0086
G01 X4.1888 Y2.9286
G01 X4.1835 Y2.9221
G01 X4.1225 Y2.8398
G01 X4.1180 Y2.8328
G01 X4.0640 Y2.7424
G01 X4.0188 Y2.6473
G01 X4.0155 Y2.6396
G01 X3.9810 Y2.5431
G01 X3.9777 Y2.5325
G01 X3.9523 Y2.4303
G01 X3.9367 Y2.3262
G01 X3.9356 Y2.3151
G01 X3.9306 Y2.2100
G01 X3.9356 Y2.1049
G01 X3.9363 Y2.0965
G01 X3.9523 Y1.9897
G01 X3.9792 Y1.8822
G01 X4.0166 Y1.7778
G01 X4.0640 Y1.6776
G01 X4.1209 Y1.5825
G01 X4.1870 Y1.4935
G01 X4.2614 Y1.4114
G01 X4.3435 Y1.3370
G01 X4.4325 Y1.2709
G01 X4.5276 Y1.2140
G01 X4.6278 Y1.1666
G01 X4.7322 Y1.1292
G01 X4.8397 Y1.1023
G01 X4.9493 Y1.0860
G01 X5.0600 Y1.0806
G01 X5.1651 Y1.0856
G01 X5.1735 Y1.0863
G01 X5.2803 Y1.1023
G01 X5.3878 Y1.1292
G01 X5.4922 Y1.1666
G01 X5.5874 Y1.2115
G01 X5.5972 Y1.2167
G01 X5.6828 Y1.2680
G01 X5.6920 Y1.2741
G01 X5.7765 Y1.3370
G01 X5.8586 Y1.4114
G01 X5.9330 Y1.4935
G01 X5.9959 Y1.5780
G01 X6.0020 Y1.5872
G01 X6.0533 Y1.6728
G01 X6.0585 Y1.6826
G01 X6.1034 Y1.7778
G01 X6.1408 Y1.8822
G01 X6.1677 Y1.9897
G01 X6.1840 Y2.0993
G01 X6.1894 Y2.2100
G01 X6.1844 Y2.3151
G01 X6.1833 Y2.3262
G01 X6.1677 Y2.4303
G01 X6.1423 Y2.5325
G01 X6.1390 Y2.5431
G01 X6.1045 Y2.6396
G01 X6.1012 Y2.6473
G01 X6.0560 Y2.7424
G01 X6.0020 Y2.8328
G01 X5.9975 Y2.8398
G01 X5.9365 Y2.9221
G01 X5.9312 Y2.9286
G01 X5.8586 Y3.0086
G01 X5.8087 Y3.0540
G01 X5.8087 Y9.1252
G01 X6.0584 Y9.3751
G01 X6.0671 Y9.3859
G01 X6.0744 Y9.3978
G01 X6.0802 Y9.4104
G01 X6.0844 Y9.4237
G01 X6.0869 Y9.4374
G01 X6.0878 Y9.4512
G01 X6.0878 Y10.2088
G01 X6.0873 Y10.2199
G01 X6.0850 Y10.2336
G01 X6.0821 Y10.2443
G01 X6.0781 Y10.2547
G01 X6.0744 Y10.2622
G01 X6.0687 Y10.2718
G01 X6.0621 Y10.2807
G01 X6.0546 Y10.2889
G01 X5.5189 Y10.8246
G01 X5.5107 Y10.8321
G01 X5.5018 Y10.8387
G01 X5.4922 Y10.8444
G01 X5.4822 Y10.8492
G01 X5.4717 Y10.8529
G01 X5.4609 Y10.8556
G01 X5.4499 Y10.8573
G01 X5.4388 Y10.8578
G01 X4.6812 Y10.8578
G01 X4.6701 Y10.8573
G01 X4.6564 Y10.8550
G01 X4.6457 Y10.8521
G01 X4.6353 Y10.8481
G01 X4.6253 Y10.8431
G01 X4.6159 Y10.8371
G01 X4.6093 Y10.8321
G01 X4.6011 Y10.8246
G01 X4.0654 Y10.2889
G01 X4.0579 Y10.2807
G01 X4.0498 Y10.2694
G01 X4.0443 Y10.2597
G01 X4.0398 Y10.2496
G01 X4.0371 Y10.2417
G01 X4.0344 Y10.2309
G01 X4.0327 Y10.2199
G01 X4.0322 Y10.2088
G01 X4.0322 Y9.4485
G01 X4.0331 Y9.4374
G01 X4.0350 Y9.4264
G01 X4.0379 Y9.4157
G01 X4.0419 Y9.4053
G01 X4.0469 Y9.3953
G01 X4.0513 Y9.3882
G01 X4.0579 Y9.3793
G01 X4.0654 Y9.3711
G00 Z3.0000
G00 X6.6054 Y9.3711
G01 F60.00
G01 Z-0.0500
G01 F60.00
G01 X6.8513 Y9.1252
G01 X6.8513 Y3.0540
G01 X6.8014 Y3.0086
G01 X6.7288 Y2.9286
G01 X6.7235 Y2.9221
G01 X6.6625 Y2.8398
G01 X6.6580 Y2.8328
G01 X6.6040 Y2.7424
G01 X6.5588 Y2.6473
G01 X6.5555 Y2.6396
G01 X6.5210 Y2.5431
G01 X6.5177 Y2.5325
G01 X6.4923 Y2.4303
G01 X6.4767 Y2.3262
G01 X6.4756 Y2.3151
G01 X6.4706 Y2.2100
G01 X6.4756 Y2.1049
G01 X6.4763 Y2.0965
G01 X6.4923 Y1.9897
G01 X6.5192 Y1.8822
G01 X6.5566 Y1.7778
G01 X6.6040 Y1.6776
G01 X6.6609 Y1.5825
G01 X6.7270 Y1.4935
G01 X6.8014 Y1.4114
G01 X6.8835 Y1.3370
G01 X6.9725 Y1.2709
G01 X7.0676 Y1.2140
G01 X7.1678 Y1.1666
G01 X7.2722 Y1.1292
G01 X7.3797 Y1.1023
G01 X7.4893 Y1.0860
G01 X7.6000 Y1.0806
G01 X7.7051 Y1.0856
G01 X7.7135 Y1.0863
G01 X7.8203 Y1.1023
G01 X7.9278 Y1.1292
G01 X8.0322 Y1.1666
G01 X8.1274 Y1.2115
G01 X8.1372 Y1.2167
G01 X8.2228 Y1.2680
G01 X8.2320 Y1.2741
G01 X8.3165 Y1.3370
G01 X8.3986 Y1.4114
G01 X8.4730 Y1.4935
G01 X8.5359 Y1.5780
G01 X8.5420 Y1.5872
G01 X8.5933 Y1.6728
G01 X8.5985 Y1.6826
G01 X8.6434 Y1.7778
G01 X8.6808 Y1.8822
G01 X8.7077 Y1.9897
G01 X8.7240 Y2.0993
G01 X8.7294 Y2.2100
G01 X8.7244 Y2.3151
G01 X8.7233 Y2.3262
G01 X8.7077 Y2.4303
G01 X8.6823 Y2.5325
G01 X8.6790 Y2.5431
G01 X8.6445 Y2.6396
G01 X8.6412 Y2.6473
G01 X8.5960 Y2.7424
G01 X8.5420 Y2.8328
G01 X8.5375 Y2.8398
G01 X8.4765 Y2.9221
G01 X8.4712 Y2.9286
G01 X8.3986 Y3.0086
G01 X8.3487 Y3.0540
G01 X8.3487 Y9.1252
G01 X8.5984 Y9.3751
G01 X8.6071 Y9.3859
G01 X8.6144 Y9.3978
G01 X8.6202 Y9.4104
G01 X8.6244 Y9.4237
G01 X8.6269 Y9.4374
G01 X8.6278 Y9.4512
G01 X8.6278 Y10.2088
G01 X8.6273 Y10.2199
G01 X8.6250 Y10.2336
G01 X8.6221 Y10.2443
G01 X8.6181 Y10.2547
G01 X8.6131 Y10.2647
G01 X8.6071 Y10.2741
G01 X8.6021 Y10.2807
G01 X8.5946 Y10.2889
G01 X8.0589 Y10.8246
G01 X8.0507 Y10.8321
G01 X8.0418 Y10.8387
G01 X8.0322 Y10.8444
G01 X8.0222 Y10.8492
G01 X8.0117 Y10.8529
G01 X8.0009 Y10.8556
G01 X7.9899 Y10.8573
G01 X7.9788 Y10.8578
G01 X7.2212 Y10.8578
G01 X7.2101 Y10.8573
G01 X7.1964 Y10.8550
G01 X7.1857 Y10.8521
G01 X7.1753 Y10.8481
G01 X7.1653 Y10.8431
G01 X7.1559 Y10.8371
G01 X7.1493 Y10.8321
G01 X7.1411 Y10.8246
G01 X6.6054 Y10.2889
G01 X6.5979 Y10.2807
G01 X6.5898 Y10.2694
G01 X6.5843 Y10.2597
G01 X6.5798 Y10.2496
G01 X6.5771 Y10.2417
G01 X6.5744 Y10.2309
G01 X6.5727 Y10.2199
G01 X6.5722 Y10.2088
G01 X6.5722 Y9.4485
G01 X6.5731 Y9.4374
G01 X6.5750 Y9.4264
G01 X6.5779 Y9.4157
G01 X6.5819 Y9.4053
G01 X6.5869 Y9.3953
G01 X6.5913 Y9.3882
G01 X6.5979 Y9.3793
G01 X6.6054 Y9.3711
G00 Z3.0000
G00 X9.1454 Y9.3711
G01 F60.00
G01 Z-0.0500
G01 F60.00
G01 X9.3913 Y9.1252
G01 X9.3913 Y3.0540
G01 X9.3414 Y3.0086
G01 X9.2688 Y2.9286
G01 X9.2635 Y2.9221
G01 X9.2025 Y2.8398
G01 X9.1980 Y2.8328
G01 X9.1440 Y2.7424
G01 X9.0988 Y2.6473
G01 X9.0955 Y2.6396
G01 X9.0610 Y2.5431
G01 X9.0577 Y2.5325
G01 X9.0323 Y2.4303
G01 X9.0167 Y2.3262
G01 X9.0156 Y2.3151
G01 X9.0106 Y2.2100
G01 X9.0156 Y2.1049
G01 X9.0163 Y2.0965
G01 X9.0323 Y1.9897
G01 X9.0592 Y1.8822
G01 X9.0966 Y1.7778
G01 X9.1440 Y1.6776
G01 X9.2009 Y1.5825
G01 X9.2670 Y1.4935
G01 X9.3414 Y1.4114
G01 X9.4235 Y1.3370
G01 X9.5125 Y1.2709
G01 X9.6076 Y1.2140
G01 X9.7078 Y1.1666
G01 X9.8122 Y1.1292
G01 X9.9197 Y1.1023
G01 X10.0293 Y1.0860
G01 X10.1400 Y1.0806
G01 X10.2451 Y1.0856
G01 X10.2535 Y1.0863
G01 X10.3603 Y1.1023
G01 X10.4678 Y1.1292
G01 X10.5722 Y1.1666
G01 X10.6674 Y1.2115
G01 X10.6772 Y1.2167
G01 X10.7628 Y1.2680
G01 X10.7720 Y1.2741
G01 X10.8565 Y1.3370
G01 X10.9386 Y1.4114
G01 X11.0130 Y1.4935
G01 X11.0759 Y1.5780
G01 X11.0820 Y1.5872
G01 X11.1333 Y1.6728
G01 X11.1385 Y1.6826
G01 X11.1834 Y1.7778
G01 X11.2208 Y1.8822
G01 X11.2477 Y1.9897
G01 X11.2640 Y2.0993
G01 X11.2694 Y2.2100
G01 X11.2644 Y2.3151
G01 X11.2633 Y2.3262
G01 X11.2477 Y2.4303
G01 X11.2223 Y2.5325
G01 X11.2190 Y2.5431
G01 X11.1845 Y2.6396
G01 X11.1812 Y2.6473
G01 X11.1360 Y2.7424
G01 X11.0820 Y2.8328
G01 X11.0775 Y2.8398
G01 X11.0165 Y2.9221
G01 X11.0112 Y2.9286
G01 X10.9386 Y3.0086
G01 X10.8887 Y3.0540
G01 X10.8887 Y9.1252
G01 X11.1384 Y9.3751
G01 X11.1471 Y9.3859
G01 X11.1544 Y9.3978
G01 X11.1602 Y9.4104
G01 X11.1644 Y9.4237
G01 X11.1669 Y9.4374
G01 X11.1678 Y9.4512
G01 X11.1678 Y10.2088
G01 X11.1673 Y10.2199
G01 X11.1650 Y10.2336
G01 X11.1621 Y10.2443
G01 X11.1581 Y10.2547
G01 X11.1531 Y10.2647
G01 X11.1471 Y10.2741
G01 X11.1421 Y10.2807
G01 X11.1346 Y10.2889
G01 X10.5989 Y10.8246
G01 X10.5907 Y10.8321
G01 X10.5818 Y10.8387
G01 X10.5722 Y10.8444
G01 X10.5622 Y10.8492
G01 X10.5517 Y10.8529
G01 X10.5409 Y10.8556
G01 X10.5299 Y10.8573
G01 X10.5188 Y10.8578
G01 X9.7612 Y10.8578
G01 X9.7501 Y10.8573
G01 X9.7391 Y10.8556
G01 X9.7283 Y10.8529
G01 X9.7153 Y10.8481
G01 X9.7053 Y10.8431
G01 X9.6959 Y10.8371
G01 X9.6893 Y10.8321
G01 X9.6811 Y10.8246
G01 X9.1454 Y10.2889
G01 X9.1379 Y10.2807
G01 X9.1298 Y10.2694
G01 X9.1243 Y10.2597
G01 X9.1198 Y10.2496
G01 X9.1171 Y10.2417
G01 X9.1144 Y10.2309
G01 X9.1127 Y10.2199
G01 X9.1122 Y10.2088
G01 X9.1122 Y9.4485
G01 X9.1131 Y9.4374
G01 X9.1150 Y9.4264
G01 X9.1179 Y9.4157
G01 X9.1219 Y9.4053
G01 X9.1256 Y9.3978
G01 X9.1313 Y9.3882
G01 X9.1379 Y9.3793
G01 X9.1454 Y9.3711
G00 Z3.0000
G00 X11.6854 Y9.3711
G01 F60.00
G01 Z-0.0500
G01 F60.00
G01 X11.9313 Y9.1252
G01 X11.9313 Y3.0540
G01 X11.8814 Y3.0086
G01 X11.8088 Y2.9286
G01 X11.8035 Y2.9221
G01 X11.7425 Y2.8398
G01 X11.7380 Y2.8328
G01 X11.6840 Y2.7424
G01 X11.6388 Y2.6473
G01 X11.6355 Y2.6396
G01 X11.6010 Y2.5431
G01 X11.5977 Y2.5325
G01 X11.5723 Y2.4303
G01 X11.5567 Y2.3262
G01 X11.5556 Y2.3151
G01 X11.5506 Y2.2100
G01 X11.5556 Y2.1049
G01 X11.5563 Y2.0965
G01 X11.5723 Y1.9897
G01 X11.5992 Y1.8822
G01 X11.6366 Y1.7778
G01 X11.6840 Y1.6776
G01 X11.7409 Y1.5825
G01 X11.8070 Y1.4935
G01 X11.8814 Y1.4114
G01 X11.9635 Y1.3370
G01 X12.0525 Y1.2709
G01 X12.1476 Y1.2140
G01 X12.2478 Y1.1666
G01 X12.3522 Y1.1292
G01 X12.4597 Y1.1023
G01 X12.5693 Y1.0860
G01 X12.6800 Y1.0806
G01 X12.7851 Y1.0856
G01 X12.7935 Y1.0863
G01 X12.9003 Y1.1023
G01 X13.0078 Y1.1292
G01 X13.1122 Y1.1666
G01 X13.2074 Y1.2115
G01 X13.2172 Y1.2167
G01 X13.3028 Y1.2680
G01 X13.3120 Y1.2741
G01 X13.3965 Y1.3370
G01 X13.4786 Y1.4114
G01 X13.5530 Y1.4935
G01 X13.6159 Y1.5780
G01 X13.6220 Y1.5872
G01 X13.6733 Y1.6728
G01 X13.6785 Y1.6826
G01 X13.7234 Y1.7778
G01 X13.7608 Y1.8822
G01 X13.7877 Y1.9897
G01 X13.8040 Y2.0993
G01 X13.8094 Y2.2100
G01 X13.8044 Y2.3151
G01 X13.8033 Y2.3262
G01 X13.7877 Y2.4303
G01 X13.7623 Y2.5325
G01 X13.7590 Y2.5431
G01 X13.7245 Y2.6396
G01 X13.7212 Y2.6473
G01 X13.6760 Y2.7424
G01 X13.6220 Y2.8328
G01 X13.6175 Y2.8398
G01 X13.5565 Y2.9221
G01 X13.5512 Y2.9286
G01 X13.4786 Y3.0086
G01 X13.4287 Y3.0540
G01 X13.4287 Y9.1252
G01 X13.6784 Y9.3751
G01 X13.6871 Y9.3859
G01 X13.6944 Y9.3978
G01 X13.7002 Y9.4104
G01 X13.7044 Y9.4237
G01 X13.7069 Y9.4374
G01 X13.7078 Y9.4512
G01 X13.7078 Y10.2088
G01 X13.7073 Y10.2199
G01 X13.7050 Y10.2336
G01 X13.7021 Y10.2443
G01 X13.6981 Y10.2547
G01 X13.6931 Y10.2647
G01 X13.6871 Y10.2741
G01 X13.6821 Y10.2807
G01 X13.6746 Y10.2889
G01 X13.1389 Y10.8246
G01 X13.1307 Y10.8321
G01 X13.1218 Y10.8387
G01 X13.1122 Y10.8444
G01 X13.1022 Y10.8492
G01 X13.0917 Y10.8529
G01 X13.0809 Y10.8556
G01 X13.0699 Y10.8573
G01 X13.0588 Y10.8578
G01 X12.3012 Y10.8578
G01 X12.2901 Y10.8573
G01 X12.2791 Y10.8556
G01 X12.2657 Y10.8521
G01 X12.2553 Y10.8481
G01 X12.2453 Y10.8431
G01 X12.2359 Y10.8371
G01 X12.2293 Y10.8321
G01 X12.2211 Y10.8246
G01 X11.6854 Y10.2889
G01 X11.6779 Y10.2807
G01 X11.6698 Y10.2694
G01 X11.6643 Y10.2597
G01 X11.6598 Y10.2496
G01 X11.6563 Y10.2390
G01 X11.6544 Y10.2309
G01 X11.6527 Y10.2199
G01 X11.6522 Y10.2088
G01 X11.6522 Y9.4485
G01 X11.6531 Y9.4374
G01 X11.6550 Y9.4264
G01 X11.6579 Y9.4157
G01 X11.6619 Y9.4053
G01 X11.6656 Y9.3978
G01 X11.6713 Y9.3882
G01 X11.6779 Y9.3793
G01 X11.6854 Y9.3711
G00 Z3.0000
G00 X14.2254 Y9.3711
G01 F60.00
G01 Z-0.0500
G01 F60.00
G01 X14.4713 Y9.1252
G01 X14.4713 Y3.0540
G01 X14.4214 Y3.0086
G01 X14.3488 Y2.9286
G01 X14.3435 Y2.9221
G01 X14.2825 Y2.8398
G01 X14.2780 Y2.8328
G01 X14.2240 Y2.7424
G01 X14.1788 Y2.6473
G01 X14.1755 Y2.6396
G01 X14.1410 Y2.5431
G01 X14.1377 Y2.5325
G01 X14.1123 Y2.4303
G01 X14.0967 Y2.3262
G01 X14.0956 Y2.3151
G01 X14.0906 Y2.2100
G01 X14.0956 Y2.1049
G01 X14.0963 Y2.0965
G01 X14.1123 Y1.9897
G01 X14.1392 Y1.8822
G01 X14.1766 Y1.7778
G01 X14.2240 Y1.6776
G01 X14.2809 Y1.5825
G01 X14.3470 Y1.4935
G01 X14.4214 Y1.4114
G01 X14.5035 Y1.3370
G01 X14.5925 Y1.2709
G01 X14.6876 Y1.2140
G01 X14.7878 Y1.1666
G01 X14.8922 Y1.1292
G01 X14.9997 Y1.1023
G01 X15.1093 Y1.0860
G01 X15.2200 Y1.0806
G01 X15.3251 Y1.0856
G01 X15.3335 Y1.0863
G01 X15.4403 Y1.1023
G01 X15.5478 Y1.1292
G01 X15.6522 Y1.1666
G01 X15.7474 Y1.2115
G01 X15.7572 Y1.2167
G01 X15.8428 Y1.2680
G01 X15.8520 Y1.2741
G01 X15.9365 Y1.3370
G01 X16.0186 Y1.4114
G01 X16.0930 Y1.4935
G01 X16.1559 Y1.5780
G01 X16.1620 Y1.5872
G01 X16.2133 Y1.6728
G01 X16.2185 Y1.6826
G01 X16.2634 Y1.7778
G01 X16.3008 Y1.8822
G01 X16.3277 Y1.9897
G01 X16.3440 Y2.0993
G01 X16.3494 Y2.2100
G01 X16.3444 Y2.3151
G01 X16.3433 Y2.3262
G01 X16.3277 Y2.4303
G01 X16.3023 Y2.5325
G01 X16.2990 Y2.5431
G01 X16.2645 Y2.6396
G01 X16.2612 Y2.6473
G01 X16.2160 Y2.7424
G01 X16.1620 Y2.8328
G01 X16.1575 Y2.8398
G01 X16.0965 Y2.9221
G01 X16.0912 Y2.9286
G01 X16.0186 Y3.0086
G01 X15.9687 Y3.0540
G01 X15.9687 Y9.1252
G01 X16.2184 Y9.3751
G01 X16.2271 Y9.3859
G01 X16.2344 Y9.3978
G01 X16.2402 Y9.4104
G01 X16.2444 Y9.4237
G01 X16.2469 Y9.4374
G01 X16.2478 Y9.4512
G01 X16.2478 Y10.2088
G01 X16.2473 Y10.2199
G01 X16.2456 Y10.2309
G01 X16.2429 Y10.2417
G01 X16.2381 Y10.2547
G01 X16.2344 Y10.2622
G01 X16.2287 Y10.2718
G01 X16.2221 Y10.2807
G01 X16.2146 Y10.2889
G01 X15.6789 Y10.8246
G01 X15.6707 Y10.8321
G01 X15.6618 Y10.8387
G01 X15.6522 Y10.8444
G01 X15.6422 Y10.8492
G01 X15.6317 Y10.8529
G01 X15.6209 Y10.8556
G01 X15.6099 Y10.8573
G01 X15.5988 Y10.8578
G01 X14.8412 Y10.8578
G01 X14.8301 Y10.8573
G01 X14.8191 Y10.8556
G01 X14.8057 Y10.8521
G01 X14.7953 Y10.8481
G01 X14.7878 Y10.8444
G01 X14.7782 Y10.8387
G01 X14.7693 Y10.8321
G01 X14.7611 Y10.8246
G01 X14.2254 Y10.2889
G01 X14.2179 Y10.2807
G01 X14.2113 Y10.2718
G01 X14.2043 Y10.2597
G01 X14.1998 Y10.2496
G01 X14.1963 Y10.2390
G01 X14.1944 Y10.2309
G01 X14.1927 Y10.2199
G01 X14.1922 Y10.2088
G01 X14.1922 Y9.4485
G01 X14.1927 Y9.4401
G01 X14.1944 Y9.4291
G01 X14.1971 Y9.4183
G01 X14.2008 Y9.4078
G01 X14.2056 Y9.3978
G01 X14.2113 Y9.3882
G01 X14.2179 Y9.3793
G01 X14.2254 Y9.3711
G00 Z3.0000
G00 X16.7654 Y9.3711
G01 F60.00
G01 Z-0.0500
G01 F60.00
G01 X17.0113 Y9.1252
G01 X17.0113 Y3.0540
G01 X16.9614 Y3.0086
G01 X16.8888 Y2.9286
G01 X16.8835 Y2.9221
G01 X16.8225 Y2.8398
G01 X16.8180 Y2.8328
G01 X16.7640 Y2.7424
G01 X16.7188 Y2.6473
G01 X16.7155 Y2.6396
G01 X16.6810 Y2.5431
G01 X16.6777 Y2.5325
G01 X16.6523 Y2.4303
G01 X16.6367 Y2.3262
G01 X16.6356 Y2.3151
G01 X16.6306 Y2.2100
G01 X16.6356 Y2.1049
G01 X16.6363 Y2.0965
G01 X16.6523 Y1.9897
G01 X16.6792 Y1.8822
G01 X16.7166 Y1.7778
G01 X16.7640 Y1.6776
G01 X16.8209 Y1.5825
G01 X16.8870 Y1.4935
G01 X16.9614 Y1.4114
G01 X17.0435 Y1.3370
G01 X17.1325 Y1.2709
G01 X17.2276 Y1.2140
G01 X17.3278 Y1.1666
G01 X17.4322 Y1.1292
G01 X17.5397 Y1.1023
G01 X17.6493 Y1.0860
G01 X17.7600 Y1.0806
G01 X17.8651 Y1.0856
G01 X17.8735 Y1.0863
G01 X17.9803 Y1.1023
G01 X18.0878 Y1.1292
G01 X18.1922 Y1.1666
G01 X18.2874 Y1.2115
G01 X18.2972 Y1.2167
G01 X18.3828 Y1.2680
G01 X18.3920 Y1.2741
G01 X18.4765 Y1.3370
G01 X18.5586 Y1.4114
G01 X18.6330 Y1.4935
G01 X18.6959 Y1.5780
G01 X18.7020 Y1.5872
G01 X18.7533 Y1.6728
G01 X18.7585 Y1.6826
G01 X18.8034 Y1.7778
G01 X18.8408 Y1.8822
G01 X18.8677 Y1.9897
G01 X18.8840 Y2.0993
G01 X18.8894 Y2.2100
G01 X18.8844 Y2.3151
G01 X18.8833 Y2.3262
G01 X18.8677 Y2.4303
G01 X18.8423 Y2.5325
G01 X18.8390 Y2.5431
G01 X18.8045 Y2.6396
G01 X18.8012 Y2.6473
G01 X18.7560 Y2.7424
G01 X18.7020 Y2.8328
G01 X18.6975 Y2.8398
G01 X18.6365 Y2.9221
G01 X18.6312 Y2.9286
G01 X18.5586 Y3.0086
G01 X18.5087 Y3.0540
G01 X18.5087 Y9.1252
G01 X18.7584 Y9.3751
G01 X18.7671 Y9.3859
G01 X18.7744 Y9.3978
G01 X18.7802 Y9.4104
G01 X18.7844 Y9.4237
G01 X18.7869 Y9.4374
G01 X18.7878 Y9.4512
G01 X18.7878 Y10.2088
G01 X18.7873 Y10.2199
G01 X18.7856 Y10.2309
G01 X18.7829 Y10.2417
G01 X18.7781 Y10.2547
G01 X18.7744 Y10.2622
G01 X18.7687 Y10.2718
G01 X18.7621 Y10.2807
G01 X18.7546 Y10.2889
G01 X18.2189 Y10.8246
G01 X18.2107 Y10.8321
G01 X18.2018 Y10.8387
G01 X18.1922 Y10.8444
G01 X18.1822 Y10.8492
G01 X18.1717 Y10.8529
G01 X18.1609 Y10.8556
G01 X18.1499 Y10.8573
G01 X18.1388 Y10.8578
G01 X17.3812 Y10.8578
G01 X17.3701 Y10.8573
G01 X17.3591 Y10.8556
G01 X17.3457 Y10.8521
G01 X17.3353 Y10.8481
G01 X17.3278 Y10.8444
G01 X17.3182 Y10.8387
G01 X17.3093 Y10.8321
G01 X17.3011 Y10.8246
G01 X16.7654 Y10.2889
G01 X16.7579 Y10.2807
G01 X16.7513 Y10.2718
G01 X16.7456 Y10.2622
G01 X16.7398 Y10.2496
G01 X16.7371 Y10.2417
G01 X16.7344 Y10.2309
G01 X16.7327 Y10.2199
G01 X16.7322 Y10.2088
G01 X16.7322 Y9.4485
G01 X16.7331 Y9.4374
G01 X16.7350 Y9.4264
G01 X16.7379 Y9.4157
G01 X16.7408 Y9.4078
G01 X16.7456 Y9.3978
G01 X16.7513 Y9.3882
G01 X16.7579 Y9.3793
G01 X16.7654 Y9.3711
G00 Z3.0000
G00 X19.3054 Y9.3711
G01 F60.00
G01 Z-0.0500
G01 F60.00
G01 X19.5513 Y9.1252
G01 X19.5513 Y3.0540
G01 X19.5014 Y3.0086
G01 X19.4288 Y2.9286
G01 X19.4235 Y2.9221
G01 X19.3625 Y2.8398
G01 X19.3580 Y2.8328
G01 X19.3040 Y2.7424
G01 X19.2588 Y2.6473
G01 X19.2555 Y2.6396
G01 X19.2210 Y2.5431
G01 X19.2177 Y2.5325
G01 X19.1923 Y2.4303
G01 X19.1767 Y2.3262
G01 X19.1756 Y2.3151
G01 X19.1706 Y2.2100
G01 X19.1756 Y2.1049
G01 X19.1763 Y2.0965
G01 X19.1923 Y1.9897
G01 X19.2192 Y1.8822
G01 X19.2566 Y1.7778
G01 X19.3040 Y1.6776
G01 X19.3609 Y1.5825
G01 X19.4270 Y1.4935
G01 X19.5014 Y1.4114
G01 X19.5835 Y1.3370
G01 X19.6725 Y1.2709
G01 X19.7676 Y1.2140
G01 X19.8678 Y1.1666
G01 X19.9722 Y1.1292
G01 X20.0797 Y1.1023
G01 X20.1893 Y1.0860
G01 X20.3000 Y1.0806
G01 X20.4051 Y1.0856
G01 X20.4135 Y1.0863
G01 X20.5203 Y1.1023
G01 X20.6278 Y1.1292
G01 X20.7322 Y1.1666
G01 X20.8274 Y1.2115
G01 X20.8372 Y1.2167
G01 X20.9228 Y1.2680
G01 X20.9320 Y1.2741
G01 X21.0165 Y1.3370
G01 X21.0986 Y1.4114
G01 X21.1730 Y1.4935
G01 X21.2359 Y1.5780
G01 X21.2420 Y1.5872
G01 X21.2933 Y1.6728
G01 X21.2985 Y1.6826
G01 X21.3434 Y1.7778
G01 X21.3808 Y1.8822
G01 X21.4077 Y1.9897
G01 X21.4240 Y2.0993
G01 X21.4294 Y2.2100
G01 X21.4244 Y2.3151
G01 X21.4233 Y2.3262
G01 X21.4077 Y2.4303
G01 X21.3823 Y2.5325
G01 X21.3790 Y2.5431
G01 X21.3445 Y2.6396
G01 X21.3412 Y2.6473
G01 X21.2960 Y2.7424
G01 X21.2420 Y2.8328
G01 X21.2375 Y2.8398
G01 X21.1765 Y2.9221
G01 X21.1712 Y2.9286
G01 X21.0986 Y3.0086
G01 X21.0487 Y3.0540
G01 X21.0487 Y9.1252
G01 X21.2984 Y9.3751
G01 X21.3071 Y9.3859
G01 X21.3144 Y9.3978
G01 X21.3202 Y9.4104
G01 X21.3244 Y9.4237
G01 X21.3269 Y9.4374
G01 X21.3278 Y9.4512
G01 X21.3278 Y10.2088
G01 X21.3273 Y10.2199
G01 X21.3256 Y10.2309
G01 X21.3229 Y10.2417
G01 X21.3181 Y10.2547
G01 X21.3144 Y10.2622
G01 X21.3087 Y10.2718
G01 X21.3021 Y10.2807
G01 X21.2946 Y10.2889
G01 X20.7589 Y10.8246
G01 X20.7507 Y10.8321
G01 X20.7418 Y10.8387
G01 X20.7322 Y10.8444
G01 X20.7222 Y10.8492
G01 X20.7117 Y10.8529
G01 X20.7009 Y10.8556
G01 X20.6899 Y10.8573
G01 X20.6788 Y10.8578
G01 X19.9212 Y10.8578
G01 X19.9101 Y10.8573
G01 X19.8991 Y10.8556
G01 X19.8857 Y10.8521
G01 X19.8753 Y10.8481
G01 X19.8678 Y10.8444
G01 X19.8582 Y10.8387
G01 X19.8493 Y10.8321
G01 X19.8411 Y10.8246
G01 X19.3054 Y10.2889
G01 X19.2979 Y10.2807
G01 X19.2913 Y10.2718
G01 X19.2856 Y10.2622
G01 X19.2798 Y10.2496
G01 X19.2771 Y10.2417
G01 X19.2744 Y10.2309
G01 X19.2727 Y10.2199
G01 X19.2722 Y10.2088
G01 X19.2722 Y9.4485
G01 X19.2731 Y9.4374
G01 X19.2750 Y9.4264
G01 X19.2779 Y9.4157
G01 X19.2808 Y9.4078
G01 X19.2856 Y9.3978
G01 X19.2913 Y9.3882
G01 X19.2979 Y9.3793
G01 X19.3054 Y9.3711
G00 Z3.0000
G00 X21.8454 Y9.3711
G01 F60.00
G01 Z-0.0500
G01 F60.00
G01 X22.0913 Y9.1252
G01 X22.0913 Y3.0540
G01 X22.0414 Y3.0086
G01 X21.9688 Y2.9286
G01 X21.9635 Y2.9221
G01 X21.9025 Y2.8398
G01 X21.8980 Y2.8328
G01 X21.8440 Y2.7424
G01 X21.7988 Y2.6473
G01 X21.7955 Y2.6396
G01 X21.7610 Y2.5431
G01 X21.7577 Y2.5325
G01 X21.7323 Y2.4303
G01 X21.7167 Y2.3262
G01 X21.7156 Y2.3151
G01 X21.7106 Y2.2100
G01 X21.7156 Y2.1049
G01 X21.7163 Y2.0965
G01 X21.7323 Y1.9897
G01 X21.7592 Y1.8822
G01 X21.7966 Y1.7778
G01 X21.8440 Y1.6776
G01 X21.9009 Y1.5825
G01 X21.9670 Y1.4935
G01 X22.0414 Y1.4114
G01 X22.1235 Y1.3370
G01 X22.2125 Y1.2709
G01 X22.3076 Y1.2140
G01 X22.4078 Y1.1666
G01 X22.5122 Y1.1292
G01 X22.6197 Y1.1023
G01 X22.7293 Y1.0860
G01 X22.8400 Y1.0806
G01 X22.9451 Y1.0856
G01 X22.9535 Y1.0863
G01 X23.0603 Y1.1023
G01 X23.1678 Y1.1292
G01 X23.2722 Y1.1666
G01 X23.3674 Y1.2115
G01 X23.3772 Y1.2167
G01 X23.4628 Y1.2680
G01 X23.4720 Y1.2741
G01 X23.5565 Y1.3370
G01 X23.6386 Y1.4114
G01 X23.7130 Y1.4935
G01 X23.7759 Y1.5780
G01 X23.7820 Y1.5872
G01 X23.8333 Y1.6728
G01 X23.8385 Y1.6826
G01 X23.8834 Y1.7778
G01 X23.9208 Y1.8822
G01 X23.9477 Y1.9897
G01 X23.9640 Y2.0993
G01 X23.9694 Y2.2100
G01 X23.9644 Y2.3151
G01 X23.9633 Y2.3262
G01 X23.9477 Y2.4303
G01 X23.9223 Y2.5325
G01 X23.9190 Y2.5431
G01 X23.8845 Y2.6396
G01 X23.8812 Y2.6473
G01 X23.8360 Y2.7424
G01 X23.7820 Y2.8328
G01 X23.7775 Y2.8398
G01 X23.7165 Y2.9221
G01 X23.7112 Y2.9286
G01 X23.6386 Y3.0086
G01 X23.5887 Y3.0540
G01 X23.5887 Y9.1252
G01 X23.8384 Y9.3751
G01 X23.8471 Y9.3859
G01 X23.8544 Y9.3978
G01 X23.8602 Y9.4104
G01 X23.8644 Y9.4237
G01 X23.8669 Y9.4374
G01 X23.8678 Y9.4512
G01 X23.8678 Y10.2088
G01 X23.8673 Y10.2199
G01 X23.8656 Y10.2309
G01 X23.8629 Y10.2417
G01 X23.8581 Y10.2547
G01 X23.8531 Y10.2647
G01 X23.8471 Y10.2741
G01 X23.8403 Y10.2828
G01 X23.8346 Y10.2889
G01 X23.2989 Y10.8246
G01 X23.2907 Y10.8321
G01 X23.2818 Y10.8387
G01 X23.2722 Y10.8444
G01 X23.2622 Y10.8492
G01 X23.2517 Y10.8529
G01 X23.2409 Y10.8556
G01 X23.2299 Y10.8573
G01 X23.2188 Y10.8578
G01 X22.4612 Y10.8578
G01 X22.4501 Y10.8573
G01 X22.4391 Y10.8556
G01 X22.4257 Y10.8521
G01 X22.4153 Y10.8481
G01 X22.4078 Y10.8444
G01 X22.3982 Y10.8387
G01 X22.3893 Y10.8321
G01 X22.3811 Y10.8246
G01 X21.8454 Y10.2889
G01 X21.8379 Y10.2807
G01 X21.8313 Y10.2718
G01 X21.8256 Y10.2622
G01 X21.8198 Y10.2496
G01 X21.8171 Y10.2417
G01 X21.8144 Y10.2309
G01 X21.8127 Y10.2199
G01 X21.8122 Y10.2088
G01 X21.8122 Y9.4485
G01 X21.8131 Y9.4374
G01 X21.8150 Y9.4264
G01 X21.8179 Y9.4157
G01 X21.8208 Y9.4078
G01 X21.8256 Y9.3978
G01 X21.8313 Y9.3882
G01 X21.8379 Y9.3793
G01 X21.8454 Y9.3711
G00 Z3.0000
G00 X24.3854 Y9.3711
G01 F60.00
G01 Z-0.0500
G01 F60.00
G01 X24.6313 Y9.1252
G01 X24.6313 Y3.0540
G01 X24.5814 Y3.0086
G01 X24.5088 Y2.9286
G01 X24.5035 Y2.9221
G01 X24.4425 Y2.8398
G01 X24.4380 Y2.8328
G01 X24.3840 Y2.7424
G01 X24.3388 Y2.6473
G01 X24.3355 Y2.6396
G01 X24.3010 Y2.5431
G01 X24.2977 Y2.5325
G01 X24.2723 Y2.4303
G01 X24.2567 Y2.3262
G01 X24.2556 Y2.3151
G01 X24.2506 Y2.2100
G01 X24.2556 Y2.1049
G01 X24.2563 Y2.0965
G01 X24.2723 Y1.9897
G01 X24.2992 Y1.8822
G01 X24.3366 Y1.7778
G01 X24.3840 Y1.6776
G01 X24.4409 Y1.5825
G01 X24.5070 Y1.4935
G01 X24.5814 Y1.4114
G01 X24.6635 Y1.3370
G01 X24.7525 Y1.2709
G01 X24.8476 Y1.2140
G01 X24.9478 Y1.1666
G01 X25.0522 Y1.1292
G01 X25.1597 Y1.1023
G01 X25.2693 Y1.0860
G01 X25.3800 Y1.0806
G01 X25.4851 Y1.0856
G01 X25.4935 Y1.0863
G01 X25.6003 Y1.1023
G01 X25.7078 Y1.1292
G01 X25.8122 Y1.1666
G01 X25.9074 Y1.2115
G01 X25.9172 Y1.2167
G01 X26.0028 Y1.2680
G01 X26.0120 Y1.2741
G01 X26.0965 Y1.3370
G01 X26.1786 Y1.4114
G01 X26.2530 Y1.4935
G01 X26.3159 Y1.5780
G01 X26.3220 Y1.5872
G01 X26.3733 Y1.6728
G01 X26.3785 Y1.6826
G01 X26.4234 Y1.7778
G01 X26.4608 Y1.8822
G01 X26.4877 Y1.9897
G01 X26.5040 Y2.0993
G01 X26.5094 Y2.2100
G01 X26.5044 Y2.3151
G01 X26.5033 Y2.3262
G01 X26.4877 Y2.4303
G01 X26.4623 Y2.5325
G01 X26.4590 Y2.5431
G01 X26.4245 Y2.6396
G01 X26.4212 Y2.6473
G01 X26.3760 Y2.7424
G01 X26.3220 Y2.8328
G01 X26.3175 Y2.8398
G01 X26.2565 Y2.9221
G01 X26.2512 Y2.9286
G01 X26.1786 Y3.0086
G01 X26.1287 Y3.0540
G01 X26.1287 Y9.1252
G01 X26.3784 Y9.3751
G01 X26.3871 Y9.3859
G01 X26.3944 Y9.3978
G01 X26.4002 Y9.4104
G01 X26.4044 Y9.4237
G01 X26.4069 Y9.4374
G01 X26.4078 Y9.4512
G01 X26.4078 Y10.2088
G01 X26.4073 Y10.2199
G01 X26.4056 Y10.2309
G01 X26.4029 Y10.2417
G01 X26.3981 Y10.2547
G01 X26.3944 Y10.2622
G01 X26.3887 Y10.2718
G01 X26.3821 Y10.2807
G01 X26.3746 Y10.2889
G01 X25.8389 Y10.8246
G01 X25.8307 Y10.8321
G01 X25.8218 Y10.8387
G01 X25.8122 Y10.8444
G01 X25.8022 Y10.8492
G01 X25.7917 Y10.8529
G01 X25.7809 Y10.8556
G01 X25.7699 Y10.8573
G01 X25.7588 Y10.8578
G01 X25.0012 Y10.8578
G01 X24.9874 Y10.8569
G01 X24.9764 Y10.8550
G01 X24.9657 Y10.8521
G01 X24.9553 Y10.8481
G01 X24.9478 Y10.8444
G01 X24.9382 Y10.8387
G01 X24.9293 Y10.8321
G01 X24.9211 Y10.8246
G01 X24.3854 Y10.2889
G01 X24.3779 Y10.2807
G01 X24.3713 Y10.2718
G01 X24.3656 Y10.2622
G01 X24.3598 Y10.2496
G01 X24.3571 Y10.2417
G01 X24.3544 Y10.2309
G01 X24.3527 Y10.2199
G01 X24.3522 Y10.2088
G01 X24.3522 Y9.4485
G01 X24.3531 Y9.4374
G01 X24.3550 Y9.4264
G01 X24.3579 Y9.4157
G01 X24.3608 Y9.4078
G01 X24.3656 Y9.3978
G01 X24.3713 Y9.3882
G01 X24.3779 Y9.3793
G01 X24.3854 Y9.3711
G00 Z3.0000
G00 X26.9254 Y9.3711
G01 F60.00
G01 Z-0.0500
G01 F60.00
G01 X27.1713 Y9.1252
G01 X27.1713 Y3.0540
G01 X27.1214 Y3.0086
G01 X27.0488 Y2.9286
G01 X27.0435 Y2.9221
G01 X26.9825 Y2.8398
G01 X26.9780 Y2.8328
G01 X26.9240 Y2.7424
G01 X26.8788 Y2.6473
G01 X26.8755 Y2.6396
G01 X26.8410 Y2.5431
G01 X26.8377 Y2.5325
G01 X26.8123 Y2.4303
G01 X26.7967 Y2.3262
G01 X26.7956 Y2.3151
G01 X26.7906 Y2.2100
G01 X26.7956 Y2.1049
G01 X26.7963 Y2.0965
G01 X26.8123 Y1.9897
G01 X26.8392 Y1.8822
G01 X26.8766 Y1.7778
G01 X26.9240 Y1.6776
G01 X26.9809 Y1.5825
G01 X27.0470 Y1.4935
G01 X27.1214 Y1.4114
G01 X27.2035 Y1.3370
G01 X27.2925 Y1.2709
G01 X27.3876 Y1.2140
G01 X27.4878 Y1.1666
G01 X27.5922 Y1.1292
G01 X27.6997 Y1.1023
G01 X27.8093 Y1.0860
G01 X27.9200 Y1.0806
G01 X28.0251 Y1.0856
G01 X28.0335 Y1.0863
G01 X28.1403 Y1.1023
G01 X28.2478 Y1.1292
G01 X28.3522 Y1.1666
G01 X28.4474 Y1.2115
G01 X28.4572 Y1.2167
G01 X28.5428 Y1.2680
G01 X28.5520 Y1.2741
G01 X28.6365 Y1.3370
G01 X28.7186 Y1.4114
G01 X28.7930 Y1.4935
G01 X28.8559 Y1.5780
G01 X28.8620 Y1.5872
G01 X28.9133 Y1.6728
G01 X28.9185 Y1.6826
G01 X28.9634 Y1.7778
G01 X29.0008 Y1.8822
G01 X29.0277 Y1.9897
G01 X29.0440 Y2.0993
G01 X29.0494 Y2.2100
G01 X29.0444 Y2.3151
G01 X29.0433 Y2.3262
G01 X29.0277 Y2.4303
G01 X29.0023 Y2.5325
G01 X28.9990 Y2.5431
G01 X28.9645 Y2.6396
G01 X28.9612 Y2.6473
G01 X28.9160 Y2.7424
G01 X28.8620 Y2.8328
G01 X28.8575 Y2.8398
G01 X28.7965 Y2.9221
G01 X28.7912 Y2.9286
G01 X28.7186 Y3.0086
G01 X28.6687 Y3.0540
G01 X28.6687 Y9.1252
G01 X28.9184 Y9.3751
G01 X28.9271 Y9.3859
G01 X28.9344 Y9.3978
G01 X28.9402 Y9.4104
G01 X28.9444 Y9.4237
G01 X28.9469 Y9.4374
G01 X28.9478 Y9.4512
G01 X28.9478 Y10.2088
G01 X28.9473 Y10.2199
G01 X28.9456 Y10.2309
G01 X28.9429 Y10.2417
G01 X28.9381 Y10.2547
G01 X28.9344 Y10.2622
G01 X28.9287 Y10.2718
G01 X28.9221 Y10.2807
G01 X28.9146 Y10.2889
G01 X28.3789 Y10.8246
G01 X28.3707 Y10.8321
G01 X28.3618 Y10.8387
G01 X28.3522 Y10.8444
G01 X28.3422 Y10.8492
G01 X28.3317 Y10.8529
G01 X28.3209 Y10.8556
G01 X28.3099 Y10.8573
G01 X28.2988 Y10.8578
G01 X27.5412 Y10.8578
G01 X27.5301 Y10.8573
G01 X27.5191 Y10.8556
G01 X27.5083 Y10.8529
G01 X27.4953 Y10.8481
G01 X27.4878 Y10.8444
G01 X27.4782 Y10.8387
G01 X27.4693 Y10.8321
G01 X27.4611 Y10.8246
G01 X26.9254 Y10.2889
G01 X26.9179 Y10.2807
G01 X26.9113 Y10.2718
G01 X26.9043 Y10.2597
G01 X26.8998 Y10.2496
G01 X26.8971 Y10.2417
G01 X26.8944 Y10.2309
G01 X26.8927 Y10.2199
G01 X26.8922 Y10.2088
G01 X26.8922 Y9.4485
G01 X26.8931 Y9.4374
G01 X26.8950 Y9.4264
G01 X26.8979 Y9.4157
G01 X26.9008 Y9.4078
G01 X26.9056 Y9.3978
G01 X26.9113 Y9.3882
G01 X26.9179 Y9.3793
G01 X26.9254 Y9.3711
G00 Z3.0000
G00 X29.4654 Y9.3711
G01 F60.00
G01 Z-0.0500
G01 F60.00
G01 X29.7113 Y9.1252
G01 X29.7113 Y3.0540
G01 X29.6614 Y3.0086
G01 X29.5888 Y2.9286
G01 X29.5835 Y2.9221
G01 X29.5225 Y2.8398
G01 X29.5180 Y2.8328
G01 X29.4640 Y2.7424
G01 X29.4188 Y2.6473
G01 X29.4155 Y2.6396
G01 X29.3810 Y2.5431
G01 X29.3777 Y2.5325
G01 X29.3523 Y2.4303
G01 X29.3367 Y2.3262
G01 X29.3356 Y2.3151
G01 X29.3306 Y2.2100
G01 X29.3356 Y2.1049
G01 X29.3363 Y2.0965
G01 X29.3523 Y1.9897
G01 X29.3792 Y1.8822
G01 X29.4166 Y1.7778
G01 X29.4640 Y1.6776
G01 X29.5209 Y1.5825
G01 X29.5870 Y1.4935
G01 X29.6614 Y1.4114
G01 X29.7435 Y1.3370
G01 X29.8325 Y1.2709
G01 X29.9276 Y1.2140
G01 X30.0278 Y1.1666
G01 X30.1322 Y1.1292
G01 X30.2397 Y1.1023
G01 X30.3493 Y1.0860
G01 X30.4600 Y1.0806
G01 X30.5651 Y1.0856
G01 X30.5735 Y1.0863
G01 X30.6803 Y1.1023
G01 X30.7878 Y1.1292
G01 X30.8922 Y1.1666
G01 X30.9874 Y1.2115
G01 X30.9972 Y1.2167
G01 X31.0828 Y1.2680
G01 X31.0920 Y1.2741
G01 X31.1765 Y1.3370
G01 X31.2586 Y1.4114
G01 X31.3330 Y1.4935
G01 X31.3959 Y1.5780
G01 X31.4020 Y1.5872
G01 X31.4533 Y1.6728
G01 X31.4585 Y1.6826
G01 X31.5034 Y1.7778
G01 X31.5408 Y1.8822
G01 X31.5677 Y1.9897
G01 X31.5840 Y2.0993
G01 X31.5894 Y2.2100
G01 X31.5844 Y2.3151
G01 X31.5833 Y2.3262
G01 X31.5677 Y2.4303
G01 X31.5423 Y2.5325
G01 X31.5390 Y2.5431
G01 X31.5045 Y2.6396
G01 X31.5012 Y2.6473
G01 X31.4560 Y2.7424
G01 X31.4020 Y2.8328
G01 X31.3975 Y2.8398
G01 X31.3365 Y2.9221
G01 X31.3312 Y2.9286
G01 X31.2586 Y3.0086
G01 X31.2087 Y3.0540
G01 X31.2087 Y9.1252
G01 X31.4584 Y9.3751
G01 X31.4671 Y9.3859
G01 X31.4744 Y9.3978
G01 X31.4802 Y9.4104
G01 X31.4844 Y9.4237
G01 X31.4869 Y9.4374
G01 X31.4878 Y9.4512
G01 X31.4878 Y10.2088
G01 X31.4873 Y10.2199
G01 X31.4856 Y10.2309
G01 X31.4829 Y10.2417
G01 X31.4781 Y10.2547
G01 X31.4744 Y10.2622
G01 X31.4687 Y10.2718
G01 X31.4621 Y10.2807
G01 X31.4546 Y10.2889
G01 X30.9189 Y10.8246
G01 X30.9107 Y10.8321
G01 X30.9018 Y10.8387
G01 X30.8922 Y10.8444
G01 X30.8822 Y10.8492
G01 X30.8717 Y10.8529
G01 X30.8609 Y10.8556
G01 X30.8499 Y10.8573
G01 X30.8388 Y10.8578
G01 X30.0812 Y10.8578
G01 X30.0701 Y10.8573
G01 X30.0591 Y10.8556
G01 X30.0457 Y10.8521
G01 X30.0353 Y10.8481
G01 X30.0278 Y10.8444
G01 X30.0182 Y10.8387
G01 X30.0093 Y10.8321
G01 X30.0011 Y10.8246
G01 X29.4654 Y10.2889
G01 X29.4579 Y10.2807
G01 X29.4513 Y10.2718
G01 X29.4456 Y10.2622
G01 X29.4398 Y10.2496
G01 X29.4371 Y10.2417
G01 X29.4344 Y10.2309
G01 X29.4327 Y10.2199
G01 X29.4322 Y10.2088
G01 X29.4322 Y9.4485
G01 X29.4331 Y9.4374
G01 X29.4350 Y9.4264
G01 X29.4379 Y9.4157
G01 X29.4408 Y9.4078
G01 X29.4456 Y9.3978
G01 X29.4513 Y9.3882
G01 X29.4579 Y9.3793
G01 X29.4654 Y9.3711
G00 Z3.0000
G00 X32.0054 Y9.3711
G01 F60.00
G01 Z-0.0500
G01 F60.00
G01 X32.2513 Y9.1252
G01 X32.2513 Y3.0540
G01 X32.2014 Y3.0086
G01 X32.1288 Y2.9286
G01 X32.1235 Y2.9221
G01 X32.0625 Y2.8398
G01 X32.0580 Y2.8328
G01 X32.0040 Y2.7424
G01 X31.9588 Y2.6473
G01 X31.9555 Y2.6396
G01 X31.9210 Y2.5431
G01 X31.9177 Y2.5325
G01 X31.8923 Y2.4303
G01 X31.8767 Y2.3262
G01 X31.8756 Y2.3151
G01 X31.8706 Y2.2100
G01 X31.8756 Y2.1049
G01 X31.8763 Y2.0965
G01 X31.8923 Y1.9897
G01 X31.9192 Y1.8822
G01 X31.9566 Y1.7778
G01 X32.0040 Y1.6776
G01 X32.0609 Y1.5825
G01 X32.1270 Y1.4935
G01 X32.2014 Y1.4114
G01 X32.2835 Y1.3370
G01 X32.3725 Y1.2709
G01 X32.4676 Y1.2140
G01 X32.5678 Y1.1666
G01 X32.6722 Y1.1292
G01 X32.7797 Y1.1023
G01 X32.8893 Y1.0860
G01 X33.0000 Y1.0806
G01 X33.1051 Y1.0856
G01 X33.1135 Y1.0863
G01 X33.2203 Y1.1023
G01 X33.3278 Y1.1292
G01 X33.4322 Y1.1666
G01 X33.5274 Y1.2115
G01 X33.5372 Y1.2167
G01 X33.6228 Y1.2680
G01 X33.6320 Y1.2741
G01 X33.7165 Y1.3370
G01 X33.7986 Y1.4114
G01 X33.8730 Y1.4935
G01 X33.9359 Y1.5780
G01 X33.9420 Y1.5872
G01 X33.9933 Y1.6728
G01 X33.9985 Y1.6826
G01 X34.0434 Y1.7778
G01 X34.0808 Y1.8822
G01 X34.1077 Y1.9897
G01 X34.1240 Y2.0993
G01 X34.1294 Y2.2100
G01 X34.1244 Y2.3151
G01 X34.1233 Y2.3262
G01 X34.1077 Y2.4303
G01 X34.0823 Y2.5325
G01 X34.0790 Y2.5431
G01 X34.0445 Y2.6396
G01 X34.0412 Y2.6473
G01 X33.9960 Y2.7424
G01 X33.9420 Y2.8328
G01 X33.9375 Y2.8398
G01 X33.8765 Y2.9221
G01 X33.8712 Y2.9286
G01 X33.7986 Y3.0086
G01 X33.7487 Y3.0540
G01 X33.7487 Y9.1252
G01 X33.9984 Y9.3751
G01 X34.0071 Y9.3859
G01 X34.0144 Y9.3978
G01 X34.0202 Y9.4104
G01 X34.0244 Y9.4237
G01 X34.0269 Y9.4374
G01 X34.0278 Y9.4512
G01 X34.0278 Y10.2088
G01 X34.0269 Y10.2226
G01 X34.0250 Y10.2336
G01 X34.0221 Y10.2443
G01 X34.0181 Y10.2547
G01 X34.0144 Y10.2622
G01 X34.0087 Y10.2718
G01 X34.0021 Y10.2807
G01 X33.9946 Y10.2889
G01 X33.4589 Y10.8246
G01 X33.4507 Y10.8321
G01 X33.4418 Y10.8387
G01 X33.4322 Y10.8444
G01 X33.4222 Y10.8492
G01 X33.4117 Y10.8529
G01 X33.4009 Y10.8556
G01 X33.3899 Y10.8573
G01 X33.3788 Y10.8578
G01 X32.6212 Y10.8578
G01 X32.6074 Y10.8569
G01 X32.5964 Y10.8550
G01 X32.5857 Y10.8521
G01 X32.5753 Y10.8481
G01 X32.5653 Y10.8431
G01 X32.5559 Y10.8371
G01 X32.5472 Y10.8303
G01 X32.5411 Y10.8246
G01 X32.0054 Y10.2889
G01 X31.9979 Y10.2807
G01 X31.9913 Y10.2718
G01 X31.9856 Y10.2622
G01 X31.9798 Y10.2496
G01 X31.9763 Y10.2390
G01 X31.9739 Y10.2281
G01 X31.9727 Y10.2199
G01 X31.9722 Y10.2088
G01 X31.9722 Y9.4485
G01 X31.9731 Y9.4374
G01 X31.9750 Y9.4264
G01 X31.9779 Y9.4157
G01 X31.9808 Y9.4078
G01 X31.9856 Y9.3978
G01 X31.9913 Y9.3882
G01 X31.9979 Y9.3793
G01 X32.0054 Y9.3711
G00 Z3.0000
G00 X34.5454 Y9.3711
G01 F60.00
G01 Z-0.0500
G01 F60.00
G01 X34.7913 Y9.1252
G01 X34.7913 Y3.0540
G01 X34.7414 Y3.0086
G01 X34.6688 Y2.9286
G01 X34.6635 Y2.9221
G01 X34.6025 Y2.8398
G01 X34.5980 Y2.8328
G01 X34.5440 Y2.7424
G01 X34.4988 Y2.6473
G01 X34.4955 Y2.6396
G01 X34.4610 Y2.5431
G01 X34.4577 Y2.5325
G01 X34.4323 Y2.4303
G01 X34.4167 Y2.3262
G01 X34.4156 Y2.3151
G01 X34.4106 Y2.2100
G01 X34.4156 Y2.1049
G01 X34.4163 Y2.0965
G01 X34.4323 Y1.9897
G01 X34.4592 Y1.8822
G01 X34.4966 Y1.7778
G01 X34.5440 Y1.6776
G01 X34.6009 Y1.5825
G01 X34.6670 Y1.4935
G01 X34.7414 Y1.4114
G01 X34.8235 Y1.3370
G01 X34.9125 Y1.2709
G01 X35.0076 Y1.2140
G01 X35.1078 Y1.1666
G01 X35.2122 Y1.1292
G01 X35.3197 Y1.1023
G01 X35.4293 Y1.0860
G01 X35.5400 Y1.0806
G01 X35.6451 Y1.0856
G01 X35.6535 Y1.0863
G01 X35.7603 Y1.1023
G01 X35.8678 Y1.1292
G01 X35.9722 Y1.1666
G01 X36.0674 Y1.2115
G01 X36.0772 Y1.2167
G01 X36.1628 Y1.2680
G01 X36.1720 Y1.2741
G01 X36.2565 Y1.3370
G01 X36.3386 Y1.4114
G01 X36.4130 Y1.4935
G01 X36.4759 Y1.5780
G01 X36.4820 Y1.5872
G01 X36.5333 Y1.6728
G01 X36.5385 Y1.6826
G01 X36.5834 Y1.7778
G01 X36.6208 Y1.8822
G01 X36.6477 Y1.9897
G01 X36.6640 Y2.0993
G01 X36.6694 Y2.2100
G01 X36.6644 Y2.3151
G01 X36.6633 Y2.3262
G01 X36.6477 Y2.4303
G01 X36.6223 Y2.5325
G01 X36.6190 Y2.5431
G01 X36.5845 Y2.6396
G01 X36.5812 Y2.6473
G01 X36.5360 Y2.7424
G01 X36.4820 Y2.8328
G01 X36.4775 Y2.8398
G01 X36.4165 Y2.9221
G01 X36.4112 Y2.9286
G01 X36.3386 Y3.0086
G01 X36.2887 Y3.0540
G01 X36.2887 Y9.1252
G01 X36.5384 Y9.3751
G01 X36.5471 Y9.3859
G01 X36.5544 Y9.3978
G01 X36.5602 Y9.4104
G01 X36.5644 Y9.4237
G01 X36.5669 Y9.4374
G01 X36.5678 Y9.4512
G01 X36.5678 Y10.2088
G01 X36.5669 Y10.2226
G01 X36.5650 Y10.2336
G01 X36.5621 Y10.2443
G01 X36.5581 Y10.2547
G01 X36.5531 Y10.2647
G01 X36.5471 Y10.2741
G01 X36.5421 Y10.2807
G01 X36.5346 Y10.2889
G01 X35.9989 Y10.8246
G01 X35.9907 Y10.8321
G01 X35.9818 Y10.8387
G01 X35.9722 Y10.8444
G01 X35.9622 Y10.8492
G01 X35.9517 Y10.8529
G01 X35.9409 Y10.8556
G01 X35.9299 Y10.8573
G01 X35.9188 Y10.8578
G01 X35.1612 Y10.8578
G01 X35.1474 Y10.8569
G01 X35.1364 Y10.8550
G01 X35.1257 Y10.8521
G01 X35.1153 Y10.8481
G01 X35.1053 Y10.8431
G01 X35.0982 Y10.8387
G01 X35.0893 Y10.8321
G01 X35.0811 Y10.8246
G01 X34.5454 Y10.2889
G01 X34.5379 Y10.2807
G01 X34.5298 Y10.2694
G01 X34.5243 Y10.2597
G01 X34.5198 Y10.2496
G01 X34.5163 Y10.2390
G01 X34.5139 Y10.2281
G01 X34.5127 Y10.2199
G01 X34.5122 Y10.2088
G01 X34.5122 Y9.4485
G01 X34.5131 Y9.4374
G01 X34.5150 Y9.4264
G01 X34.5179 Y9.4157
G01 X34.5219 Y9.4053
G01 X34.5269 Y9.3953
G01 X34.5329 Y9.3859
G01 X34.5397 Y9.3772
G01 X34.5454 Y9.3711
G00 Z3.0000
G00 X37.0854 Y9.3711
G01 F60.00
G01 Z-0.0500
G01 F60.00
G01 X37.3313 Y9.1252
G01 X37.3313 Y3.0540
G01 X37.2814 Y3.0086
G01 X37.2088 Y2.9286
G01 X37.2035 Y2.9221
G01 X37.1425 Y2.8398
G01 X37.1380 Y2.8328
G01 X37.0840 Y2.7424
G01 X37.0388 Y2.6473
G01 X37.0355 Y2.6396
G01 X37.0010 Y2.5431
G01 X36.9977 Y2.5325
G01 X36.9723 Y2.4303
G01 X36.9567 Y2.3262
G01 X36.9556 Y2.3151
G01 X36.9506 Y2.2100
G01 X36.9556 Y2.1049
G01 X36.9563 Y2.0965
G01 X36.9723 Y1.9897
G01 X36.9992 Y1.8822
G01 X37.0366 Y1.7778
G01 X37.0840 Y1.6776
G01 X37.1409 Y1.5825
G01 X37.2070 Y1.4935
G01 X37.2814 Y1.4114
G01 X37.3635 Y1.3370
G01 X37.4525 Y1.2709
G01 X37.5476 Y1.2140
G01 X37.6478 Y1.1666
G01 X37.7522 Y1.1292
G01 X37.8597 Y1.1023
G01 X37.9693 Y1.0860
G01 X38.0800 Y1.0806
G01 X38.1851 Y1.0856
G01 X38.1935 Y1.0863
G01 X38.3003 Y1.1023
G01 X38.4078 Y1.1292
G01 X38.5122 Y1.1666
G01 X38.6074 Y1.2115
G01 X38.6172 Y1.2167
G01 X38.7028 Y1.2680
G01 X38.7120 Y1.2741
G01 X38.7965 Y1.3370
G01 X38.8786 Y1.4114
G01 X38.9530 Y1.4935
G01 X39.0159 Y1.5780
G01 X39.0220 Y1.5872
G01 X39.0733 Y1.6728
G01 X39.0785 Y1.6826
G01 X39.1234 Y1.7778
G01 X39.1608 Y1.8822
G01 X39.1877 Y1.9897
G01 X39.2040 Y2.0993
G01 X39.2094 Y2.2100
G01 X39.2044 Y2.3151
G01 X39.2033 Y2.3262
G01 X39.1877 Y2.4303
G01 X39.1623 Y2.5325
G01 X39.1590 Y2.5431
G01 X39.1245 Y2.6396
G01 X39.1212 Y2.6473
G01 X39.0760 Y2.7424
G01 X39.0220 Y2.8328
G01 X39.0175 Y2.8398
G01 X38.9565 Y2.9221
G01 X38.9512 Y2.9286
G01 X38.8786 Y3.0086
G01 X38.8287 Y3.0540
G01 X38.8287 Y9.1252
G01 X39.0784 Y9.3751
G01 X39.0871 Y9.3859
G01 X39.0944 Y9.3978
G01 X39.1002 Y9.4104
G01 X39.1044 Y9.4237
G01 X39.1069 Y9.4374
G01 X39.1078 Y9.4512
G01 X39.1078 Y10.2088
G01 X39.1069 Y10.2226
G01 X39.1050 Y10.2336
G01 X39.1021 Y10.2443
G01 X39.0981 Y10.2547
G01 X39.0944 Y10.2622
G01 X39.0887 Y10.2718
G01 X39.0821 Y10.2807
G01 X39.0746 Y10.2889
G01 X38.5389 Y10.8246
G01 X38.5307 Y10.8321
G01 X38.5218 Y10.8387
G01 X38.5122 Y10.8444
G01 X38.5022 Y10.8492
G01 X38.4917 Y10.8529
G01 X38.4809 Y10.8556
G01 X38.4699 Y10.8573
G01 X38.4588 Y10.8578
G01 X37.7012 Y10.8578
G01 X37.6874 Y10.8569
G01 X37.6764 Y10.8550
G01 X37.6657 Y10.8521
G01 X37.6553 Y10.8481
G01 X37.6453 Y10.8431
G01 X37.6359 Y10.8371
G01 X37.6272 Y10.8303
G01 X37.6211 Y10.8246
G01 X37.0854 Y10.2889
G01 X37.0779 Y10.2807
G01 X37.0713 Y10.2718
G01 X37.0656 Y10.2622
G01 X37.0598 Y10.2496
G01 X37.0563 Y10.2390
G01 X37.0539 Y10.2281
G01 X37.0527 Y10.2199
G01 X37.0522 Y10.2088
G01 X37.0522 Y9.4485
G01 X37.0527 Y9.4401
G01 X37.0544 Y9.4291
G01 X37.0571 Y9.4183
G01 X37.0608 Y9.4078
G01 X37.0656 Y9.3978
G01 X37.0713 Y9.3882
G01 X37.0779 Y9.3793
G01 X37.0854 Y9.3711
G00 Z3.0000
G00 X39.6254 Y9.3711
G01 F60.00
G01 Z-0.0500
G01 F60.00
G01 X39.8713 Y9.1252
G01 X39.8713 Y3.0540
G01 X39.8214 Y3.0086
G01 X39.7488 Y2.9286
G01 X39.7435 Y2.9221
G01 X39.6825 Y2.8398
G01 X39.6780 Y2.8328
G01 X39.6240 Y2.7424
G01 X39.5788 Y2.6473
G01 X39.5755 Y2.6396
G01 X39.5410 Y2.5431
G01 X39.5377 Y2.5325
G01 X39.5123 Y2.4303
G01 X39.4967 Y2.3262
G01 X39.4956 Y2.3151
G01 X39.4906 Y2.2100
G01 X39.4956 Y2.1049
G01 X39.4963 Y2.0965
G01 X39.5123 Y1.9897
G01 X39.5392 Y1.8822
G01 X39.5766 Y1.7778
G01 X39.6240 Y1.6776
G01 X39.6809 Y1.5825
G01 X39.7470 Y1.4935
G01 X39.8214 Y1.4114
G01 X39.9035 Y1.3370
G01 X39.9925 Y1.2709
G01 X40.0876 Y1.2140
G01 X40.1878 Y1.1666
G01 X40.2922 Y1.1292
G01 X40.3997 Y1.1023
G01 X40.5093 Y1.0860
G01 X40.6200 Y1.0806
G01 X40.7251 Y1.0856
G01 X40.7335 Y1.0863
G01 X40.8403 Y1.1023
G01 X40.9478 Y1.1292
G01 X41.0522 Y1.1666
G01 X41.1474 Y1.2115
G01 X41.1572 Y1.2167
G01 X41.2428 Y1.2680
G01 X41.2520 Y1.2741
G01 X41.3365 Y1.3370
G01 X41.4186 Y1.4114
G01 X41.4930 Y1.4935
G01 X41.5559 Y1.5780
G01 X41.5620 Y1.5872
G01 X41.6133 Y1.6728
G01 X41.6185 Y1.6826
G01 X41.6634 Y1.7778
G01 X41.7008 Y1.8822
G01 X41.7277 Y1.9897
G01 X41.7440 Y2.0993
G01 X41.7494 Y2.2100
G01 X41.7444 Y2.3151
G01 X41.7433 Y2.3262
G01 X41.7277 Y2.4303
G01 X41.7023 Y2.5325
G01 X41.6990 Y2.5431
G01 X41.6645 Y2.6396
G01 X41.6612 Y2.6473
G01 X41.6160 Y2.7424
G01 X41.5620 Y2.8328
G01 X41.5575 Y2.8398
G01 X41.4965 Y2.9221
G01 X41.4912 Y2.9286
G01 X41.4186 Y3.0086
G01 X41.3687 Y3.0540
G01 X41.3687 Y9.1252
G01 X41.6184 Y9.3751
G01 X41.6271 Y9.3859
G01 X41.6344 Y9.3978
G01 X41.6402 Y9.4104
G01 X41.6444 Y9.4237
G01 X41.6469 Y9.4374
G01 X41.6478 Y9.4512
G01 X41.6478 Y10.2088
G01 X41.6473 Y10.2199
G01 X41.6450 Y10.2336
G01 X41.6421 Y10.2443
G01 X41.6381 Y10.2547
G01 X41.6331 Y10.2647
G01 X41.6271 Y10.2741
G01 X41.6221 Y10.2807
G01 X41.6146 Y10.2889
G01 X41.0789 Y10.8246
G01 X41.0707 Y10.8321
G01 X41.0618 Y10.8387
G01 X41.0522 Y10.8444
G01 X41.0422 Y10.8492
G01 X41.0317 Y10.8529
G01 X41.0209 Y10.8556
G01 X41.0099 Y10.8573
G01 X40.9988 Y10.8578
G01 X40.2412 Y10.8578
G01 X40.2274 Y10.8569
G01 X40.2164 Y10.8550
G01 X40.2057 Y10.8521
G01 X40.1953 Y10.8481
G01 X40.1853 Y10.8431
G01 X40.1759 Y10.8371
G01 X40.1672 Y10.8303
G01 X40.1611 Y10.8246
G01 X39.6254 Y10.2889
G01 X39.6179 Y10.2807
G01 X39.6113 Y10.2718
G01 X39.6056 Y10.2622
G01 X39.5998 Y10.2496
G01 X39.5963 Y10.2390
G01 X39.5939 Y10.2281
G01 X39.5927 Y10.2199
G01 X39.5922 Y10.2088
G01 X39.5922 Y9.4485
G01 X39.5927 Y9.4401
G01 X39.5944 Y9.4291
G01 X39.5971 Y9.4183
G01 X39.6008 Y9.4078
G01 X39.6056 Y9.3978
G01 X39.6113 Y9.3882
G01 X39.6179 Y9.3793
G01 X39.6254 Y9.3711
G00 Z3.0000
G00 X39.6254 Y16.9911
G01 F60.00
G01 Z-0.0500
G01 F60.00
G01 X40.1611 Y16.4554
G01 X40.1693 Y16.4479
G01 X40.1782 Y16.4413
G01 X40.1878 Y16.4356
G01 X40.1978 Y16.4308
G01 X40.2083 Y16.4271
G01 X40.2191 Y16.4244
G01 X40.2301 Y16.4227
G01 X40.2412 Y16.4222
G01 X41.0015 Y16.4222
G01 X41.0126 Y16.4231
G01 X41.0209 Y16.4244
G01 X41.0317 Y16.4271
G01 X41.0422 Y16.4308
G01 X41.0522 Y16.4356
G01 X41.0618 Y16.4413
G01 X41.0707 Y16.4479
G01 X41.0789 Y16.4554
G01 X41.6165 Y16.9931
G01 X41.6221 Y16.9993
G01 X41.6271 Y17.0059
G01 X41.6317 Y17.0129
G01 X41.6369 Y17.0228
G01 X41.6402 Y17.0304
G01 X41.6437 Y17.0410
G01 X41.6456 Y17.0491
G01 X41.6469 Y17.0574
G01 X41.6478 Y17.0712
G01 X41.6478 Y17.8288
G01 X41.6469 Y17.8426
G01 X41.6444 Y17.8563
G01 X41.6402 Y17.8696
G01 X41.6344 Y17.8822
G01 X41.6271 Y17.8941
G01 X41.6184 Y17.9049
G01 X41.3687 Y18.1548
G01 X41.3687 Y25.6352
G01 X41.6184 Y25.8851
G01 X41.6271 Y25.8959
G01 X41.6344 Y25.9078
G01 X41.6402 Y25.9204
G01 X41.6444 Y25.9337
G01 X41.6469 Y25.9474
G01 X41.6478 Y25.9612
G01 X41.6478 Y26.7188
G01 X41.6475 Y26.7271
G01 X41.6466 Y26.7354
G01 X41.6444 Y26.7463
G01 X41.6412 Y26.7570
G01 X41.6381 Y26.7647
G01 X41.6344 Y26.7722
G01 X41.6287 Y26.7818
G01 X41.6221 Y26.7907
G01 X41.6146 Y26.7989
G01 X41.0769 Y27.3365
G01 X41.0707 Y27.3421
G01 X41.0618 Y27.3487
G01 X41.0547 Y27.3531
G01 X41.0472 Y27.3569
G01 X41.0396 Y27.3602
G01 X41.0317 Y27.3629
G01 X41.0236 Y27.3650
G01 X41.0126 Y27.3669
G01 X40.9988 Y27.3678
G01 X40.2412 Y27.3678
G01 X40.2301 Y27.3673
G01 X40.2191 Y27.3656
G01 X40.2083 Y27.3629
G01 X40.1953 Y27.3581
G01 X40.1853 Y27.3531
G01 X40.1782 Y27.3487
G01 X40.1693 Y27.3421
G01 X40.1611 Y27.3346
G01 X39.6235 Y26.7969
G01 X39.6179 Y26.7907
G01 X39.6113 Y26.7818
G01 X39.6069 Y26.7747
G01 X39.6031 Y26.7672
G01 X39.5998 Y26.7596
G01 X39.5963 Y26.7490
G01 X39.5944 Y26.7409
G01 X39.5931 Y26.7326
G01 X39.5922 Y26.7188
G01 X39.5922 Y25.9612
G01 X39.5931 Y25.9474
G01 X39.5956 Y25.9337
G01 X39.5998 Y25.9204
G01 X39.6056 Y25.9078
G01 X39.6129 Y25.8959
G01 X39.6216 Y25.8851
G01 X39.8713 Y25.6352
G01 X39.8713 Y18.1548
G01 X39.6216 Y17.9049
G01 X39.6129 Y17.8941
G01 X39.6083 Y17.8871
G01 X39.6043 Y17.8797
G01 X39.5988 Y17.8670
G01 X39.5963 Y17.8590
G01 X39.5944 Y17.8509
G01 X39.5927 Y17.8399
G01 X39.5922 Y17.8288
G01 X39.5922 Y17.0685
G01 X39.5931 Y17.0574
G01 X39.5950 Y17.0464
G01 X39.5979 Y17.0357
G01 X39.6019 Y17.0253
G01 X39.6069 Y17.0153
G01 X39.6129 Y17.0059
G01 X39.6179 Y16.9993
G01 X39.6254 Y16.9911
G00 Z3.0000
G00 X37.0854 Y20.8011
G01 F60.00
G01 Z-0.0500
G01 F60.00
G01 X37.3313 Y20.5552
G01 X37.3313 Y18.1548
G01 X37.0816 Y17.9049
G01 X37.0729 Y17.8941
G01 X37.0656 Y17.8822
G01 X37.0598 Y17.8696
G01 X37.0556 Y17.8563
G01 X37.0531 Y17.8426
G01 X37.0522 Y17.8288
G01 X37.0522 Y17.0712
G01 X37.0525 Y17.0629
G01 X37.0534 Y17.0546
G01 X37.0556 Y17.0437
G01 X37.0579 Y17.0357
G01 X37.0631 Y17.0228
G01 X37.0698 Y17.0106
G01 X37.0779 Y16.9993
G01 X37.0854 Y16.9911
G01 X37.6211 Y16.4554
G01 X37.6293 Y16.4479
G01 X37.6382 Y16.4413
G01 X37.6478 Y16.4356
G01 X37.6578 Y16.4308
G01 X37.6683 Y16.4271
G01 X37.6791 Y16.4244
G01 X37.6901 Y16.4227
G01 X37.7012 Y16.4222
G01 X38.4588 Y16.4222
G01 X38.4671 Y16.4225
G01 X38.4754 Y16.4234
G01 X38.4863 Y16.4256
G01 X38.4943 Y16.4279
G01 X38.5047 Y16.4319
G01 X38.5171 Y16.4383
G01 X38.5285 Y16.4462
G01 X38.5369 Y16.4535
G01 X39.0765 Y16.9931
G01 X39.0821 Y16.9993
G01 X39.0871 Y17.0059
G01 X39.0917 Y17.0129
G01 X39.0969 Y17.0228
G01 X39.1002 Y17.0304
G01 X39.1037 Y17.0410
G01 X39.1056 Y17.0491
G01 X39.1069 Y17.0574
G01 X39.1078 Y17.0712
G01 X39.1078 Y17.8288
G01 X39.1069 Y17.8426
G01 X39.1044 Y17.8563
G01 X39.1002 Y17.8696
G01 X39.0944 Y17.8822
G01 X39.0871 Y17.8941
G01 X39.0784 Y17.9049
G01 X38.8287 Y18.1548
G01 X38.8287 Y20.5552
G01 X39.0784 Y20.8051
G01 X39.0871 Y20.8159
G01 X39.0944 Y20.8278
G01 X39.1002 Y20.8404
G01 X39.1044 Y20.8537
G01 X39.1069 Y20.8674
G01 X39.1078 Y20.8812
G01 X39.1078 Y21.6388
G01 X39.1073 Y21.6499
G01 X39.1050 Y21.6636
G01 X39.1021 Y21.6743
G01 X39.0981 Y21.6847
G01 X39.0944 Y21.6922
G01 X39.0887 Y21.7018
G01 X39.0821 Y21.7107
G01 X39.0746 Y21.7189
G01 X38.5389 Y22.2546
G01 X38.5307 Y22.2621
G01 X38.5218 Y22.2687
G01 X38.5122 Y22.2744
G01 X38.5022 Y22.2792
G01 X38.4917 Y22.2829
G01 X38.4809 Y22.2856
G01 X38.4699 Y22.2873
G01 X38.4588 Y22.2878
G01 X37.7012 Y22.2878
G01 X37.6901 Y22.2873
G01 X37.6791 Y22.2856
G01 X37.6657 Y22.2821
G01 X37.6553 Y22.2781
G01 X37.6453 Y22.2731
G01 X37.6359 Y22.2671
G01 X37.6272 Y22.2603
G01 X37.6211 Y22.2546
G01 X37.0854 Y21.7189
G01 X37.0779 Y21.7107
G01 X37.0713 Y21.7018
G01 X37.0643 Y21.6897
G01 X37.0598 Y21.6796
G01 X37.0563 Y21.6690
G01 X37.0539 Y21.6581
G01 X37.0527 Y21.6499
G01 X37.0522 Y21.6388
G01 X37.0522 Y20.8785
G01 X37.0527 Y20.8701
G01 X37.0544 Y20.8591
G01 X37.0571 Y20.8483
G01 X37.0608 Y20.8378
G01 X37.0656 Y20.8278
G01 X37.0713 Y20.8182
G01 X37.0779 Y20.8093
G01 X37.0854 Y20.8011
G00 Z3.0000
G00 X34.5454 Y16.9911
G01 F60.00
G01 Z-0.0500
G01 F60.00
G01 X35.0811 Y16.4554
G01 X35.0893 Y16.4479
G01 X35.0982 Y16.4413
G01 X35.1078 Y16.4356
G01 X35.1178 Y16.4308
G01 X35.1283 Y16.4271
G01 X35.1391 Y16.4244
G01 X35.1501 Y16.4227
G01 X35.1612 Y16.4222
G01 X35.9215 Y16.4222
G01 X35.9326 Y16.4231
G01 X35.9409 Y16.4244
G01 X35.9517 Y16.4271
G01 X35.9622 Y16.4308
G01 X35.9722 Y16.4356
G01 X35.9818 Y16.4413
G01 X35.9907 Y16.4479
G01 X35.9989 Y16.4554
G01 X36.5365 Y16.9931
G01 X36.5421 Y16.9993
G01 X36.5471 Y17.0059
G01 X36.5517 Y17.0129
G01 X36.5569 Y17.0228
G01 X36.5602 Y17.0304
G01 X36.5637 Y17.0410
G01 X36.5656 Y17.0491
G01 X36.5669 Y17.0574
G01 X36.5678 Y17.0712
G01 X36.5678 Y17.8288
G01 X36.5669 Y17.8426
G01 X36.5644 Y17.8563
G01 X36.5602 Y17.8696
G01 X36.5544 Y17.8822
G01 X36.5471 Y17.8941
G01 X36.5384 Y17.9049
G01 X36.2887 Y18.1548
G01 X36.2887 Y25.6352
G01 X36.5384 Y25.8851
G01 X36.5471 Y25.8959
G01 X36.5544 Y25.9078
G01 X36.5602 Y25.9204
G01 X36.5644 Y25.9337
G01 X36.5669 Y25.9474
G01 X36.5678 Y25.9612
G01 X36.5678 Y26.7188
G01 X36.5675 Y26.7271
G01 X36.5666 Y26.7354
G01 X36.5644 Y26.7463
G01 X36.5612 Y26.7570
G01 X36.5581 Y26.7647
G01 X36.5544 Y26.7722
G01 X36.5487 Y26.7818
G01 X36.5421 Y26.7907
G01 X36.5346 Y26.7989
G01 X35.9969 Y27.3365
G01 X35.9907 Y27.3421
G01 X35.9818 Y27.3487
G01 X35.9747 Y27.3531
G01 X35.9672 Y27.3569
G01 X35.9596 Y27.3602
G01 X35.9517 Y27.3629
G01 X35.9436 Y27.3650
G01 X35.9326 Y27.3669
G01 X35.9188 Y27.3678
G01 X35.1612 Y27.3678
G01 X35.1501 Y27.3673
G01 X35.1391 Y27.3656
G01 X35.1257 Y27.3621
G01 X35.1153 Y27.3581
G01 X35.1053 Y27.3531
G01 X35.0959 Y27.3471
G01 X35.0872 Y27.3403
G01 X35.0811 Y27.3346
G01 X34.5435 Y26.7969
G01 X34.5379 Y26.7907
G01 X34.5329 Y26.7841
G01 X34.5283 Y26.7771
G01 X34.5231 Y26.7672
G01 X34.5198 Y26.7596
G01 X34.5163 Y26.7490
G01 X34.5144 Y26.7409
G01 X34.5131 Y26.7326
G01 X34.5122 Y26.7188
G01 X34.5122 Y25.9612
G01 X34.5131 Y25.9474
G01 X34.5156 Y25.9337
G01 X34.5198 Y25.9204
G01 X34.5256 Y25.9078
G01 X34.5329 Y25.8959
G01 X34.5416 Y25.8851
G01 X34.7913 Y25.6352
G01 X34.7913 Y18.1548
G01 X34.5416 Y17.9049
G01 X34.5362 Y17.8985
G01 X34.5313 Y17.8918
G01 X34.5243 Y17.8797
G01 X34.5188 Y17.8670
G01 X34.5163 Y17.8590
G01 X34.5144 Y17.8509
G01 X34.5127 Y17.8399
G01 X34.5122 Y17.8288
G01 X34.5122 Y17.0685
G01 X34.5131 Y17.0574
G01 X34.5150 Y17.0464
G01 X34.5179 Y17.0357
G01 X34.5219 Y17.0253
G01 X34.5269 Y17.0153
G01 X34.5313 Y17.0082
G01 X34.5379 Y16.9993
G01 X34.5454 Y16.9911
G00 Z3.0000
G00 X32.0054 Y16.9911
G01 F60.00
G01 Z-0.0500
G01 F60.00
G01 X32.5411 Y16.4554
G01 X32.5493 Y16.4479
G01 X32.5582 Y16.4413
G01 X32.5678 Y16.4356
G01 X32.5778 Y16.4308
G01 X32.5883 Y16.4271
G01 X32.5991 Y16.4244
G01 X32.6101 Y16.4227
G01 X32.6212 Y16.4222
G01 X33.3815 Y16.4222
G01 X33.3926 Y16.4231
G01 X33.4009 Y16.4244
G01 X33.4117 Y16.4271
G01 X33.4222 Y16.4308
G01 X33.4322 Y16.4356
G01 X33.4418 Y16.4413
G01 X33.4485 Y16.4462
G01 X33.4569 Y16.4535
G01 X33.9965 Y16.9931
G01 X34.0055 Y17.0037
G01 X34.0131 Y17.0153
G01 X34.0192 Y17.0278
G01 X34.0237 Y17.0410
G01 X34.0256 Y17.0491
G01 X34.0269 Y17.0574
G01 X34.0278 Y17.0712
G01 X34.0278 Y17.8288
G01 X34.0269 Y17.8426
G01 X34.0244 Y17.8563
G01 X34.0202 Y17.8696
G01 X34.0144 Y17.8822
G01 X34.0071 Y17.8941
G01 X33.9984 Y17.9049
G01 X33.7487 Y18.1548
G01 X33.7487 Y20.5552
G01 X33.9984 Y20.8051
G01 X34.0071 Y20.8159
G01 X34.0144 Y20.8278
G01 X34.0202 Y20.8404
G01 X34.0244 Y20.8537
G01 X34.0269 Y20.8674
G01 X34.0278 Y20.8812
G01 X34.0278 Y21.6388
G01 X34.0269 Y21.6526
G01 X34.0250 Y21.6636
G01 X34.0229 Y21.6717
G01 X34.0192 Y21.6822
G01 X34.0157 Y21.6897
G01 X34.0102 Y21.6994
G01 X34.0055 Y21.7063
G01 X34.0003 Y21.7128
G01 X33.9946 Y21.7189
G01 X33.4569 Y22.2565
G01 X33.4463 Y22.2655
G01 X33.4347 Y22.2731
G01 X33.4222 Y22.2792
G01 X33.4090 Y22.2837
G01 X33.4009 Y22.2856
G01 X33.3926 Y22.2869
G01 X33.3788 Y22.2878
G01 X32.6212 Y22.2878
G01 X32.6101 Y22.2873
G01 X32.5991 Y22.2856
G01 X32.5883 Y22.2829
G01 X32.5753 Y22.2781
G01 X32.5678 Y22.2744
G01 X32.5582 Y22.2687
G01 X32.5493 Y22.2621
G01 X32.5411 Y22.2546
G01 X32.0054 Y21.7189
G01 X31.9997 Y21.7128
G01 X31.9945 Y21.7063
G01 X31.9869 Y21.6947
G01 X31.9808 Y21.6822
G01 X31.9763 Y21.6690
G01 X31.9744 Y21.6609
G01 X31.9731 Y21.6526
G01 X31.9722 Y21.6388
G01 X31.9722 Y20.8812
G01 X31.9731 Y20.8674
G01 X31.9756 Y20.8537
G01 X31.9798 Y20.8404
G01 X31.9856 Y20.8278
G01 X31.9929 Y20.8159
G01 X32.0016 Y20.8051
G01 X32.2513 Y20.5552
G01 X32.2513 Y18.1548
G01 X32.0016 Y17.9049
G01 X31.9929 Y17.8941
G01 X31.9883 Y17.8871
G01 X31.9843 Y17.8797
G01 X31.9788 Y17.8670
G01 X31.9763 Y17.8590
G01 X31.9744 Y17.8509
G01 X31.9727 Y17.8399
G01 X31.9722 Y17.8288
G01 X31.9722 Y17.0685
G01 X31.9731 Y17.0574
G01 X31.9750 Y17.0464
G01 X31.9779 Y17.0357
G01 X31.9819 Y17.0253
G01 X31.9869 Y17.0153
G01 X31.9913 Y17.0082
G01 X31.9979 Y16.9993
G01 X32.0054 Y16.9911
G00 Z3.0000
G00 X29.4654 Y16.9911
G01 F60.00
G01 Z-0.0500
G01 F60.00
G01 X30.0011 Y16.4554
G01 X30.0093 Y16.4479
G01 X30.0182 Y16.4413
G01 X30.0278 Y16.4356
G01 X30.0378 Y16.4308
G01 X30.0483 Y16.4271
G01 X30.0591 Y16.4244
G01 X30.0701 Y16.4227
G01 X30.0812 Y16.4222
G01 X30.8415 Y16.4222
G01 X30.8526 Y16.4231
G01 X30.8636 Y16.4250
G01 X30.8743 Y16.4279
G01 X30.8847 Y16.4319
G01 X30.8947 Y16.4369
G01 X30.9041 Y16.4429
G01 X30.9107 Y16.4479
G01 X30.9189 Y16.4554
G01 X31.4565 Y16.9931
G01 X31.4621 Y16.9993
G01 X31.4687 Y17.0082
G01 X31.4731 Y17.0153
G01 X31.4769 Y17.0228
G01 X31.4802 Y17.0304
G01 X31.4829 Y17.0383
G01 X31.4856 Y17.0491
G01 X31.4869 Y17.0574
G01 X31.4878 Y17.0712
G01 X31.4878 Y17.8288
G01 X31.4869 Y17.8426
G01 X31.4844 Y17.8563
G01 X31.4802 Y17.8696
G01 X31.4744 Y17.8822
G01 X31.4671 Y17.8941
G01 X31.4584 Y17.9049
G01 X31.2087 Y18.1548
G01 X31.2087 Y25.6352
G01 X31.4584 Y25.8851
G01 X31.4671 Y25.8959
G01 X31.4744 Y25.9078
G01 X31.4802 Y25.9204
G01 X31.4844 Y25.9337
G01 X31.4869 Y25.9474
G01 X31.4878 Y25.9612
G01 X31.4878 Y26.7188
G01 X31.4875 Y26.7271
G01 X31.4861 Y26.7381
G01 X31.4844 Y26.7463
G01 X31.4812 Y26.7570
G01 X31.4781 Y26.7647
G01 X31.4731 Y26.7747
G01 X31.4671 Y26.7841
G01 X31.4621 Y26.7907
G01 X31.4546 Y26.7989
G01 X30.9169 Y27.3365
G01 X30.9107 Y27.3421
G01 X30.9041 Y27.3471
G01 X30.8971 Y27.3517
G01 X30.8872 Y27.3569
G01 X30.8796 Y27.3602
G01 X30.8717 Y27.3629
G01 X30.8609 Y27.3656
G01 X30.8526 Y27.3669
G01 X30.8388 Y27.3678
G01 X30.0812 Y27.3678
G01 X30.0701 Y27.3673
G01 X30.0591 Y27.3656
G01 X30.0483 Y27.3629
G01 X30.0353 Y27.3581
G01 X30.0278 Y27.3544
G01 X30.0182 Y27.3487
G01 X30.0093 Y27.3421
G01 X30.0011 Y27.3346
G01 X29.4635 Y26.7969
G01 X29.4579 Y26.7907
G01 X29.4529 Y26.7841
G01 X29.4483 Y26.7771
G01 X29.4431 Y26.7672
G01 X29.4388 Y26.7570
G01 X29.4363 Y26.7490
G01 X29.4344 Y26.7409
G01 X29.4331 Y26.7326
G01 X29.4322 Y26.7188
G01 X29.4322 Y25.9612
G01 X29.4331 Y25.9474
G01 X29.4356 Y25.9337
G01 X29.4398 Y25.9204
G01 X29.4456 Y25.9078
G01 X29.4529 Y25.8959
G01 X29.4616 Y25.8851
G01 X29.7113 Y25.6352
G01 X29.7113 Y18.1548
G01 X29.4616 Y17.9049
G01 X29.4562 Y17.8985
G01 X29.4513 Y17.8918
G01 X29.4443 Y17.8797
G01 X29.4408 Y17.8722
G01 X29.4379 Y17.8643
G01 X29.4344 Y17.8509
G01 X29.4327 Y17.8399
G01 X29.4322 Y17.8288
G01 X29.4322 Y17.0685
G01 X29.4327 Y17.0601
G01 X29.4344 Y17.0491
G01 X29.4371 Y17.0383
G01 X29.4408 Y17.0278
G01 X29.4456 Y17.0178
G01 X29.4513 Y17.0082
G01 X29.4579 Y16.9993
G01 X29.4654 Y16.9911
G00 Z3.0000
G00 X26.9254 Y16.9911
G01 F60.00
G01 Z-0.0500
G01 F60.00
G01 X27.4611 Y16.4554
G01 X27.4693 Y16.4479
G01 X27.4782 Y16.4413
G01 X27.4878 Y16.4356
G01 X27.4978 Y16.4308
G01 X27.5083 Y16.4271
G01 X27.5191 Y16.4244
G01 X27.5301 Y16.4227
G01 X27.5412 Y16.4222
G01 X28.3015 Y16.4222
G01 X28.3099 Y16.4227
G01 X28.3209 Y16.4244
G01 X28.3317 Y16.4271
G01 X28.3422 Y16.4308
G01 X28.3522 Y16.4356
G01 X28.3618 Y16.4413
G01 X28.3707 Y16.4479
G01 X28.3769 Y16.4535
G01 X28.9165 Y16.9931
G01 X28.9255 Y17.0037
G01 X28.9331 Y17.0153
G01 X28.9392 Y17.0278
G01 X28.9437 Y17.0410
G01 X28.9466 Y17.0546
G01 X28.9475 Y17.0629
G01 X28.9478 Y17.0712
G01 X28.9478 Y17.8288
G01 X28.9469 Y17.8426
G01 X28.9444 Y17.8563
G01 X28.9402 Y17.8696
G01 X28.9344 Y17.8822
G01 X28.9271 Y17.8941
G01 X28.9184 Y17.9049
G01 X28.6687 Y18.1548
G01 X28.6687 Y20.5552
G01 X28.9184 Y20.8051
G01 X28.9271 Y20.8159
G01 X28.9344 Y20.8278
G01 X28.9402 Y20.8404
G01 X28.9444 Y20.8537
G01 X28.9469 Y20.8674
G01 X28.9478 Y20.8812
G01 X28.9478 Y21.6388
G01 X28.9469 Y21.6526
G01 X28.9456 Y21.6609
G01 X28.9429 Y21.6717
G01 X28.9402 Y21.6796
G01 X28.9369 Y21.6872
G01 X28.9317 Y21.6971
G01 X28.9271 Y21.7041
G01 X28.9203 Y21.7128
G01 X28.9146 Y21.7189
G01 X28.3769 Y22.2565
G01 X28.3663 Y22.2655
G01 X28.3547 Y22.2731
G01 X28.3422 Y22.2792
G01 X28.3290 Y22.2837
G01 X28.3154 Y22.2866
G01 X28.3071 Y22.2875
G01 X28.2988 Y22.2878
G01 X27.5412 Y22.2878
G01 X27.5301 Y22.2873
G01 X27.5191 Y22.2856
G01 X27.5083 Y22.2829
G01 X27.4953 Y22.2781
G01 X27.4853 Y22.2731
G01 X27.4759 Y22.2671
G01 X27.4693 Y22.2621
G01 X27.4611 Y22.2546
G01 X26.9254 Y21.7189
G01 X26.9162 Y21.7085
G01 X26.9083 Y21.6971
G01 X26.9019 Y21.6847
G01 X26.8988 Y21.6770
G01 X26.8963 Y21.6690
G01 X26.8944 Y21.6609
G01 X26.8931 Y21.6526
G01 X26.8922 Y21.6388
G01 X26.8922 Y20.8812
G01 X26.8931 Y20.8674
G01 X26.8956 Y20.8537
G01 X26.8998 Y20.8404
G01 X26.9056 Y20.8278
G01 X26.9129 Y20.8159
G01 X26.9216 Y20.8051
G01 X27.1713 Y20.5552
G01 X27.1713 Y18.1548
G01 X26.9216 Y17.9049
G01 X26.9162 Y17.8985
G01 X26.9113 Y17.8918
G01 X26.9043 Y17.8797
G01 X26.9008 Y17.8722
G01 X26.8979 Y17.8643
G01 X26.8944 Y17.8509
G01 X26.8927 Y17.8399
G01 X26.8922 Y17.8288
G01 X26.8922 Y17.0685
G01 X26.8931 Y17.0574
G01 X26.8950 Y17.0464
G01 X26.8979 Y17.0357
G01 X26.9019 Y17.0253
G01 X26.9069 Y17.0153
G01 X26.9129 Y17.0059
G01 X26.9179 Y16.9993
G01 X26.9254 Y16.9911
G00 Z3.0000
G00 X21.8454 Y16.9911
G01 F60.00
G01 Z-0.0500
G01 F60.00
G01 X22.3811 Y16.4554
G01 X22.3893 Y16.4479
G01 X22.3982 Y16.4413
G01 X22.4078 Y16.4356
G01 X22.4178 Y16.4308
G01 X22.4283 Y16.4271
G01 X22.4391 Y16.4244
G01 X22.4501 Y16.4227
G01 X22.4612 Y16.4222
G01 X23.2215 Y16.4222
G01 X23.2326 Y16.4231
G01 X23.2409 Y16.4244
G01 X23.2517 Y16.4271
G01 X23.2622 Y16.4308
G01 X23.2722 Y16.4356
G01 X23.2818 Y16.4413
G01 X23.2885 Y16.4462
G01 X23.2969 Y16.4535
G01 X23.8365 Y16.9931
G01 X23.8455 Y17.0037
G01 X23.8531 Y17.0153
G01 X23.8592 Y17.0278
G01 X23.8637 Y17.0410
G01 X23.8666 Y17.0546
G01 X23.8675 Y17.0629
G01 X23.8678 Y17.0712
G01 X23.8678 Y17.8288
G01 X23.8669 Y17.8426
G01 X23.8644 Y17.8563
G01 X23.8602 Y17.8696
G01 X23.8544 Y17.8822
G01 X23.8471 Y17.8941
G01 X23.8384 Y17.9049
G01 X23.5887 Y18.1548
G01 X23.5887 Y20.5552
G01 X23.8384 Y20.8051
G01 X23.8471 Y20.8159
G01 X23.8544 Y20.8278
G01 X23.8602 Y20.8404
G01 X23.8644 Y20.8537
G01 X23.8669 Y20.8674
G01 X23.8678 Y20.8812
G01 X23.8678 Y21.6388
G01 X23.8669 Y21.6526
G01 X23.8656 Y21.6609
G01 X23.8629 Y21.6717
G01 X23.8602 Y21.6796
G01 X23.8557 Y21.6897
G01 X23.8517 Y21.6971
G01 X23.8455 Y21.7063
G01 X23.8403 Y21.7128
G01 X23.8346 Y21.7189
G01 X23.2969 Y22.2565
G01 X23.2863 Y22.2655
G01 X23.2747 Y22.2731
G01 X23.2622 Y22.2792
G01 X23.2490 Y22.2837
G01 X23.2354 Y22.2866
G01 X23.2271 Y22.2875
G01 X23.2188 Y22.2878
G01 X22.4612 Y22.2878
G01 X22.4501 Y22.2873
G01 X22.4391 Y22.2856
G01 X22.4283 Y22.2829
G01 X22.4153 Y22.2781
G01 X22.4078 Y22.2744
G01 X22.3982 Y22.2687
G01 X22.3893 Y22.2621
G01 X22.3811 Y22.2546
G01 X21.8454 Y21.7189
G01 X21.8362 Y21.7085
G01 X21.8283 Y21.6971
G01 X21.8243 Y21.6897
G01 X21.8208 Y21.6822
G01 X21.8163 Y21.6690
G01 X21.8134 Y21.6554
G01 X21.8125 Y21.6471
G01 X21.8122 Y21.6388
G01 X21.8122 Y20.8812
G01 X21.8131 Y20.8674
G01 X21.8156 Y20.8537
G01 X21.8198 Y20.8404
G01 X21.8256 Y20.8278
G01 X21.8329 Y20.8159
G01 X21.8416 Y20.8051
G01 X22.0913 Y20.5552
G01 X22.0913 Y18.1548
G01 X21.8416 Y17.9049
G01 X21.8362 Y17.8985
G01 X21.8313 Y17.8918
G01 X21.8243 Y17.8797
G01 X21.8208 Y17.8722
G01 X21.8179 Y17.8643
G01 X21.8144 Y17.8509
G01 X21.8127 Y17.8399
G01 X21.8122 Y17.8288
G01 X21.8122 Y17.0685
G01 X21.8131 Y17.0574
G01 X21.8150 Y17.0464
G01 X21.8179 Y17.0357
G01 X21.8219 Y17.0253
G01 X21.8269 Y17.0153
G01 X21.8329 Y17.0059
G01 X21.8379 Y16.9993
G01 X21.8454 Y16.9911
G00 Z3.0000
G00 X16.7654 Y16.9911
G01 F60.00
G01 Z-0.0500
G01 F60.00
G01 X17.3011 Y16.4554
G01 X17.3093 Y16.4479
G01 X17.3182 Y16.4413
G01 X17.3278 Y16.4356
G01 X17.3378 Y16.4308
G01 X17.3483 Y16.4271
G01 X17.3591 Y16.4244
G01 X17.3701 Y16.4227
G01 X17.3812 Y16.4222
G01 X18.1415 Y16.4222
G01 X18.1499 Y16.4227
G01 X18.1609 Y16.4244
G01 X18.1717 Y16.4271
G01 X18.1822 Y16.4308
G01 X18.1897 Y16.4343
G01 X18.1994 Y16.4398
G01 X18.2085 Y16.4462
G01 X18.2169 Y16.4535
G01 X18.7565 Y16.9931
G01 X18.7655 Y17.0037
G01 X18.7731 Y17.0153
G01 X18.7792 Y17.0278
G01 X18.7837 Y17.0410
G01 X18.7856 Y17.0491
G01 X18.7869 Y17.0574
G01 X18.7878 Y17.0712
G01 X18.7878 Y17.8288
G01 X18.7869 Y17.8426
G01 X18.7844 Y17.8563
G01 X18.7802 Y17.8696
G01 X18.7744 Y17.8822
G01 X18.7671 Y17.8941
G01 X18.7584 Y17.9049
G01 X18.5087 Y18.1548
G01 X18.5087 Y20.5552
G01 X18.7584 Y20.8051
G01 X18.7671 Y20.8159
G01 X18.7744 Y20.8278
G01 X18.7802 Y20.8404
G01 X18.7844 Y20.8537
G01 X18.7869 Y20.8674
G01 X18.7878 Y20.8812
G01 X18.7878 Y21.6388
G01 X18.7869 Y21.6526
G01 X18.7856 Y21.6609
G01 X18.7829 Y21.6717
G01 X18.7802 Y21.6796
G01 X18.7769 Y21.6872
G01 X18.7717 Y21.6971
G01 X18.7671 Y21.7041
G01 X18.7603 Y21.7128
G01 X18.7546 Y21.7189
G01 X18.2169 Y22.2565
G01 X18.2063 Y22.2655
G01 X18.1947 Y22.2731
G01 X18.1822 Y22.2792
G01 X18.1690 Y22.2837
G01 X18.1554 Y22.2866
G01 X18.1471 Y22.2875
G01 X18.1388 Y22.2878
G01 X17.3812 Y22.2878
G01 X17.3701 Y22.2873
G01 X17.3591 Y22.2856
G01 X17.3483 Y22.2829
G01 X17.3353 Y22.2781
G01 X17.3253 Y22.2731
G01 X17.3159 Y22.2671
G01 X17.3093 Y22.2621
G01 X17.3011 Y22.2546
G01 X16.7654 Y21.7189
G01 X16.7562 Y21.7085
G01 X16.7483 Y21.6971
G01 X16.7419 Y21.6847
G01 X16.7388 Y21.6770
G01 X16.7363 Y21.6690
G01 X16.7344 Y21.6609
G01 X16.7331 Y21.6526
G01 X16.7322 Y21.6388
G01 X16.7322 Y20.8812
G01 X16.7331 Y20.8674
G01 X16.7356 Y20.8537
G01 X16.7398 Y20.8404
G01 X16.7456 Y20.8278
G01 X16.7529 Y20.8159
G01 X16.7616 Y20.8051
G01 X17.0113 Y20.5552
G01 X17.0113 Y18.1548
G01 X16.7616 Y17.9049
G01 X16.7562 Y17.8985
G01 X16.7513 Y17.8918
G01 X16.7443 Y17.8797
G01 X16.7408 Y17.8722
G01 X16.7379 Y17.8643
G01 X16.7344 Y17.8509
G01 X16.7327 Y17.8399
G01 X16.7322 Y17.8288
G01 X16.7322 Y17.0685
G01 X16.7331 Y17.0574
G01 X16.7350 Y17.0464
G01 X16.7379 Y17.0357
G01 X16.7419 Y17.0253
G01 X16.7469 Y17.0153
G01 X16.7529 Y17.0059
G01 X16.7579 Y16.9993
G01 X16.7654 Y16.9911
G00 Z3.0000
G00 X14.2254 Y16.9911
G01 F60.00
G01 Z-0.0500
G01 F60.00
G01 X14.7611 Y16.4554
G01 X14.7693 Y16.4479
G01 X14.7782 Y16.4413
G01 X14.7878 Y16.4356
G01 X14.7978 Y16.4308
G01 X14.8083 Y16.4271
G01 X14.8191 Y16.4244
G01 X14.8301 Y16.4227
G01 X14.8412 Y16.4222
G01 X15.6015 Y16.4222
G01 X15.6126 Y16.4231
G01 X15.6236 Y16.4250
G01 X15.6343 Y16.4279
G01 X15.6447 Y16.4319
G01 X15.6547 Y16.4369
G01 X15.6618 Y16.4413
G01 X15.6707 Y16.4479
G01 X15.6789 Y16.4554
G01 X16.2165 Y16.9931
G01 X16.2221 Y16.9993
G01 X16.2271 Y17.0059
G01 X16.2317 Y17.0129
G01 X16.2369 Y17.0228
G01 X16.2402 Y17.0304
G01 X16.2437 Y17.0410
G01 X16.2456 Y17.0491
G01 X16.2469 Y17.0574
G01 X16.2478 Y17.0712
G01 X16.2478 Y17.8288
G01 X16.2469 Y17.8426
G01 X16.2444 Y17.8563
G01 X16.2402 Y17.8696
G01 X16.2344 Y17.8822
G01 X16.2271 Y17.8941
G01 X16.2184 Y17.9049
G01 X15.9687 Y18.1548
G01 X15.9687 Y25.6352
G01 X16.2184 Y25.8851
G01 X16.2271 Y25.8959
G01 X16.2344 Y25.9078
G01 X16.2402 Y25.9204
G01 X16.2444 Y25.9337
G01 X16.2469 Y25.9474
G01 X16.2478 Y25.9612
G01 X16.2478 Y26.7188
G01 X16.2475 Y26.7271
G01 X16.2461 Y26.7381
G01 X16.2444 Y26.7463
G01 X16.2412 Y26.7570
G01 X16.2381 Y26.7647
G01 X16.2331 Y26.7747
G01 X16.2271 Y26.7841
G01 X16.2221 Y26.7907
G01 X16.2146 Y26.7989
G01 X15.6769 Y27.3365
G01 X15.6685 Y27.3438
G01 X15.6618 Y27.3487
G01 X15.6547 Y27.3531
G01 X15.6472 Y27.3569
G01 X15.6396 Y27.3602
G01 X15.6317 Y27.3629
G01 X15.6209 Y27.3656
G01 X15.6126 Y27.3669
G01 X15.5988 Y27.3678
G01 X14.8412 Y27.3678
G01 X14.8301 Y27.3673
G01 X14.8191 Y27.3656
G01 X14.8057 Y27.3621
G01 X14.7953 Y27.3581
G01 X14.7853 Y27.3531
G01 X14.7759 Y27.3471
G01 X14.7693 Y27.3421
G01 X14.7611 Y27.3346
G01 X14.2235 Y26.7969
G01 X14.2179 Y26.7907
G01 X14.2129 Y26.7841
G01 X14.2083 Y26.7771
G01 X14.2031 Y26.7672
G01 X14.1998 Y26.7596
G01 X14.1963 Y26.7490
G01 X14.1944 Y26.7409
G01 X14.1931 Y26.7326
G01 X14.1922 Y26.7188
G01 X14.1922 Y25.9612
G01 X14.1931 Y25.9474
G01 X14.1956 Y25.9337
G01 X14.1998 Y25.9204
G01 X14.2056 Y25.9078
G01 X14.2129 Y25.8959
G01 X14.2216 Y25.8851
G01 X14.4713 Y25.6352
G01 X14.4713 Y18.1548
G01 X14.2216 Y17.9049
G01 X14.2129 Y17.8941
G01 X14.2083 Y17.8871
G01 X14.2043 Y17.8797
G01 X14.1988 Y17.8670
G01 X14.1963 Y17.8590
G01 X14.1944 Y17.8509
G01 X14.1927 Y17.8399
G01 X14.1922 Y17.8288
G01 X14.1922 Y17.0685
G01 X14.1927 Y17.0601
G01 X14.1944 Y17.0491
G01 X14.1971 Y17.0383
G01 X14.2008 Y17.0278
G01 X14.2056 Y17.0178
G01 X14.2113 Y17.0082
G01 X14.2179 Y16.9993
G01 X14.2254 Y16.9911
G00 Z3.0000
G00 X11.6854 Y16.9911
G01 F60.00
G01 Z-0.0500
G01 F60.00
G01 X12.2211 Y16.4554
G01 X12.2293 Y16.4479
G01 X12.2382 Y16.4413
G01 X12.2478 Y16.4356
G01 X12.2578 Y16.4308
G01 X12.2683 Y16.4271
G01 X12.2791 Y16.4244
G01 X12.2901 Y16.4227
G01 X12.3012 Y16.4222
G01 X13.0615 Y16.4222
G01 X13.0726 Y16.4231
G01 X13.0809 Y16.4244
G01 X13.0917 Y16.4271
G01 X13.1022 Y16.4308
G01 X13.1122 Y16.4356
G01 X13.1218 Y16.4413
G01 X13.1307 Y16.4479
G01 X13.1369 Y16.4535
G01 X13.6765 Y16.9931
G01 X13.6855 Y17.0037
G01 X13.6931 Y17.0153
G01 X13.6992 Y17.0278
G01 X13.7037 Y17.0410
G01 X13.7056 Y17.0491
G01 X13.7069 Y17.0574
G01 X13.7078 Y17.0712
G01 X13.7078 Y17.8288
G01 X13.7069 Y17.8426
G01 X13.7044 Y17.8563
G01 X13.7002 Y17.8696
G01 X13.6944 Y17.8822
G01 X13.6871 Y17.8941
G01 X13.6784 Y17.9049
G01 X13.4287 Y18.1548
G01 X13.4287 Y20.5552
G01 X13.6784 Y20.8051
G01 X13.6871 Y20.8159
G01 X13.6944 Y20.8278
G01 X13.7002 Y20.8404
G01 X13.7044 Y20.8537
G01 X13.7069 Y20.8674
G01 X13.7078 Y20.8812
G01 X13.7078 Y21.6388
G01 X13.7069 Y21.6526
G01 X13.7050 Y21.6636
G01 X13.7029 Y21.6717
G01 X13.7002 Y21.6796
G01 X13.6969 Y21.6872
G01 X13.6917 Y21.6971
G01 X13.6871 Y21.7041
G01 X13.6803 Y21.7128
G01 X13.6746 Y21.7189
G01 X13.1369 Y22.2565
G01 X13.1263 Y22.2655
G01 X13.1147 Y22.2731
G01 X13.1022 Y22.2792
G01 X13.0890 Y22.2837
G01 X13.0754 Y22.2866
G01 X13.0671 Y22.2875
G01 X13.0588 Y22.2878
G01 X12.3012 Y22.2878
G01 X12.2901 Y22.2873
G01 X12.2791 Y22.2856
G01 X12.2683 Y22.2829
G01 X12.2553 Y22.2781
G01 X12.2478 Y22.2744
G01 X12.2382 Y22.2687
G01 X12.2293 Y22.2621
G01 X12.2211 Y22.2546
G01 X11.6854 Y21.7189
G01 X11.6762 Y21.7085
G01 X11.6683 Y21.6971
G01 X11.6643 Y21.6897
G01 X11.6608 Y21.6822
G01 X11.6563 Y21.6690
G01 X11.6534 Y21.6554
G01 X11.6525 Y21.6471
G01 X11.6522 Y21.6388
G01 X11.6522 Y20.8812
G01 X11.6531 Y20.8674
G01 X11.6556 Y20.8537
G01 X11.6598 Y20.8404
G01 X11.6656 Y20.8278
G01 X11.6729 Y20.8159
G01 X11.6816 Y20.8051
G01 X11.9313 Y20.5552
G01 X11.9313 Y18.1548
G01 X11.6816 Y17.9049
G01 X11.6729 Y17.8941
G01 X11.6683 Y17.8871
G01 X11.6643 Y17.8797
G01 X11.6588 Y17.8670
G01 X11.6563 Y17.8590
G01 X11.6544 Y17.8509
G01 X11.6527 Y17.8399
G01 X11.6522 Y17.8288
G01 X11.6522 Y17.0685
G01 X11.6527 Y17.0601
G01 X11.6544 Y17.0491
G01 X11.6571 Y17.0383
G01 X11.6608 Y17.0278
G01 X11.6656 Y17.0178
G01 X11.6713 Y17.0082
G01 X11.6779 Y16.9993
G01 X11.6854 Y16.9911
G00 Z3.0000
G00 X6.6054 Y16.9911
G01 F60.00
G01 Z-0.0500
G01 F60.00
G01 X7.1411 Y16.4554
G01 X7.1493 Y16.4479
G01 X7.1582 Y16.4413
G01 X7.1678 Y16.4356
G01 X7.1778 Y16.4308
G01 X7.1883 Y16.4271
G01 X7.1991 Y16.4244
G01 X7.2101 Y16.4227
G01 X7.2212 Y16.4222
G01 X7.9815 Y16.4222
G01 X7.9899 Y16.4227
G01 X8.0009 Y16.4244
G01 X8.0117 Y16.4271
G01 X8.0222 Y16.4308
G01 X8.0297 Y16.4343
G01 X8.0394 Y16.4398
G01 X8.0485 Y16.4462
G01 X8.0569 Y16.4535
G01 X8.5965 Y16.9931
G01 X8.6055 Y17.0037
G01 X8.6131 Y17.0153
G01 X8.6192 Y17.0278
G01 X8.6237 Y17.0410
G01 X8.6256 Y17.0491
G01 X8.6269 Y17.0574
G01 X8.6278 Y17.0712
G01 X8.6278 Y17.8288
G01 X8.6269 Y17.8426
G01 X8.6244 Y17.8563
G01 X8.6202 Y17.8696
G01 X8.6144 Y17.8822
G01 X8.6071 Y17.8941
G01 X8.5984 Y17.9049
G01 X8.3487 Y18.1548
G01 X8.3487 Y20.5552
G01 X8.5984 Y20.8051
G01 X8.6071 Y20.8159
G01 X8.6144 Y20.8278
G01 X8.6202 Y20.8404
G01 X8.6244 Y20.8537
G01 X8.6269 Y20.8674
G01 X8.6278 Y20.8812
G01 X8.6278 Y21.6388
G01 X8.6269 Y21.6526
G01 X8.6250 Y21.6636
G01 X8.6229 Y21.6717
G01 X8.6202 Y21.6796
G01 X8.6169 Y21.6872
G01 X8.6117 Y21.6971
G01 X8.6071 Y21.7041
G01 X8.6003 Y21.7128
G01 X8.5946 Y21.7189
G01 X8.0569 Y22.2565
G01 X8.0463 Y22.2655
G01 X8.0347 Y22.2731
G01 X8.0222 Y22.2792
G01 X8.0090 Y22.2837
G01 X7.9954 Y22.2866
G01 X7.9871 Y22.2875
G01 X7.9788 Y22.2878
G01 X7.2212 Y22.2878
G01 X7.2101 Y22.2873
G01 X7.1991 Y22.2856
G01 X7.1883 Y22.2829
G01 X7.1753 Y22.2781
G01 X7.1678 Y22.2744
G01 X7.1582 Y22.2687
G01 X7.1493 Y22.2621
G01 X7.1411 Y22.2546
G01 X6.6054 Y21.7189
G01 X6.5962 Y21.7085
G01 X6.5883 Y21.6971
G01 X6.5819 Y21.6847
G01 X6.5788 Y21.6770
G01 X6.5763 Y21.6690
G01 X6.5734 Y21.6554
G01 X6.5725 Y21.6471
G01 X6.5722 Y21.6388
G01 X6.5722 Y20.8812
G01 X6.5731 Y20.8674
G01 X6.5756 Y20.8537
G01 X6.5798 Y20.8404
G01 X6.5856 Y20.8278
G01 X6.5929 Y20.8159
G01 X6.6016 Y20.8051
G01 X6.8513 Y20.5552
G01 X6.8513 Y18.1548
G01 X6.6016 Y17.9049
G01 X6.5929 Y17.8941
G01 X6.5883 Y17.8871
G01 X6.5843 Y17.8797
G01 X6.5808 Y17.8722
G01 X6.5779 Y17.8643
G01 X6.5744 Y17.8509
G01 X6.5727 Y17.8399
G01 X6.5722 Y17.8288
G01 X6.5722 Y17.0685
G01 X6.5731 Y17.0574
G01 X6.5750 Y17.0464
G01 X6.5779 Y17.0357
G01 X6.5808 Y17.0278
G01 X6.5856 Y17.0178
G01 X6.5913 Y17.0082
G01 X6.5979 Y16.9993
G01 X6.6054 Y16.9911
G00 Z3.0000
G00 X1.5254 Y16.9911
G01 F60.00
G01 Z-0.0500
G01 F60.00
G01 X2.0611 Y16.4554
G01 X2.0693 Y16.4479
G01 X2.0782 Y16.4413
G01 X2.0878 Y16.4356
G01 X2.0978 Y16.4308
G01 X2.1083 Y16.4271
G01 X2.1191 Y16.4244
G01 X2.1301 Y16.4227
G01 X2.1412 Y16.4222
G01 X2.9015 Y16.4222
G01 X2.9126 Y16.4231
G01 X2.9209 Y16.4244
G01 X2.9317 Y16.4271
G01 X2.9422 Y16.4308
G01 X2.9522 Y16.4356
G01 X2.9618 Y16.4413
G01 X2.9685 Y16.4462
G01 X2.9769 Y16.4535
G01 X3.5165 Y16.9931
G01 X3.5255 Y17.0037
G01 X3.5331 Y17.0153
G01 X3.5392 Y17.0278
G01 X3.5437 Y17.0410
G01 X3.5466 Y17.0546
G01 X3.5475 Y17.0629
G01 X3.5478 Y17.0712
G01 X3.5478 Y17.8288
G01 X3.5469 Y17.8426
G01 X3.5444 Y17.8563
G01 X3.5402 Y17.8696
G01 X3.5344 Y17.8822
G01 X3.5271 Y17.8941
G01 X3.5184 Y17.9049
G01 X3.2687 Y18.1548
G01 X3.2687 Y20.5552
G01 X3.5184 Y20.8051
G01 X3.5271 Y20.8159
G01 X3.5344 Y20.8278
G01 X3.5402 Y20.8404
G01 X3.5444 Y20.8537
G01 X3.5469 Y20.8674
G01 X3.5478 Y20.8812
G01 X3.5478 Y21.6388
G01 X3.5469 Y21.6526
G01 X3.5456 Y21.6609
G01 X3.5437 Y21.6690
G01 X3.5402 Y21.6796
G01 X3.5369 Y21.6872
G01 X3.5331 Y21.6947
G01 X3.5271 Y21.7041
G01 X3.5221 Y21.7107
G01 X3.5146 Y21.7189
G01 X2.9769 Y22.2565
G01 X2.9663 Y22.2655
G01 X2.9547 Y22.2731
G01 X2.9422 Y22.2792
G01 X2.9290 Y22.2837
G01 X2.9154 Y22.2866
G01 X2.9071 Y22.2875
G01 X2.8988 Y22.2878
G01 X2.1412 Y22.2878
G01 X2.1301 Y22.2873
G01 X2.1191 Y22.2856
G01 X2.1083 Y22.2829
G01 X2.0953 Y22.2781
G01 X2.0878 Y22.2744
G01 X2.0782 Y22.2687
G01 X2.0693 Y22.2621
G01 X2.0611 Y22.2546
G01 X1.5254 Y21.7189
G01 X1.5162 Y21.7085
G01 X1.5083 Y21.6971
G01 X1.5043 Y21.6897
G01 X1.5008 Y21.6822
G01 X1.4963 Y21.6690
G01 X1.4934 Y21.6554
G01 X1.4925 Y21.6471
G01 X1.4922 Y21.6388
G01 X1.4922 Y20.8812
G01 X1.4931 Y20.8674
G01 X1.4956 Y20.8537
G01 X1.4998 Y20.8404
G01 X1.5056 Y20.8278
G01 X1.5129 Y20.8159
G01 X1.5216 Y20.8051
G01 X1.7713 Y20.5552
G01 X1.7713 Y18.1548
G01 X1.5216 Y17.9049
G01 X1.5162 Y17.8985
G01 X1.5113 Y17.8918
G01 X1.5043 Y17.8797
G01 X1.4988 Y17.8670
G01 X1.4963 Y17.8590
G01 X1.4944 Y17.8509
G01 X1.4927 Y17.8399
G01 X1.4922 Y17.8288
G01 X1.4922 Y17.0685
G01 X1.4931 Y17.0574
G01 X1.4950 Y17.0464
G01 X1.4979 Y17.0357
G01 X1.5008 Y17.0278
G01 X1.5056 Y17.0178
G01 X1.5113 Y17.0082
G01 X1.5179 Y16.9993
G01 X1.5254 Y16.9911
G00 Z3.0000
G00 X1.5254 Y23.3411
G01 F60.00
G01 Z-0.0500
G01 F60.00
G01 X2.0611 Y22.8054
G01 X2.0693 Y22.7979
G01 X2.0782 Y22.7913
G01 X2.0878 Y22.7856
G01 X2.0978 Y22.7808
G01 X2.1083 Y22.7771
G01 X2.1191 Y22.7744
G01 X2.1301 Y22.7727
G01 X2.1412 Y22.7722
G01 X2.9015 Y22.7722
G01 X2.9126 Y22.7731
G01 X2.9236 Y22.7750
G01 X2.9343 Y22.7779
G01 X2.9422 Y22.7808
G01 X2.9522 Y22.7856
G01 X2.9618 Y22.7913
G01 X2.9685 Y22.7962
G01 X2.9769 Y22.8035
G01 X3.5165 Y23.3431
G01 X3.5255 Y23.3537
G01 X3.5317 Y23.3629
G01 X3.5369 Y23.3728
G01 X3.5412 Y23.3830
G01 X3.5437 Y23.3910
G01 X3.5461 Y23.4019
G01 X3.5475 Y23.4129
G01 X3.5478 Y23.4212
G01 X3.5478 Y24.1788
G01 X3.5469 Y24.1926
G01 X3.5444 Y24.2063
G01 X3.5402 Y24.2196
G01 X3.5344 Y24.2322
G01 X3.5271 Y24.2441
G01 X3.5184 Y24.2549
G01 X3.2687 Y24.5048
G01 X3.2687 Y28.1313
G01 X4.3552 Y28.1313
G01 X4.6011 Y27.8854
G01 X4.6072 Y27.8797
G01 X4.6159 Y27.8729
G01 X4.6229 Y27.8683
G01 X4.6303 Y27.8643
G01 X4.6404 Y27.8598
G01 X4.6510 Y27.8563
G01 X4.6591 Y27.8544
G01 X4.6701 Y27.8527
G01 X4.6812 Y27.8522
G01 X5.4388 Y27.8522
G01 X5.4526 Y27.8531
G01 X5.4663 Y27.8556
G01 X5.4796 Y27.8598
G01 X5.4922 Y27.8656
G01 X5.5041 Y27.8729
G01 X5.5149 Y27.8816
G01 X5.7648 Y28.1313
G01 X6.8513 Y28.1313
G01 X6.8513 Y24.5048
G01 X6.6016 Y24.2549
G01 X6.5929 Y24.2441
G01 X6.5856 Y24.2322
G01 X6.5798 Y24.2196
G01 X6.5756 Y24.2063
G01 X6.5731 Y24.1926
G01 X6.5722 Y24.1788
G01 X6.5722 Y23.4212
G01 X6.5725 Y23.4129
G01 X6.5739 Y23.4019
G01 X6.5756 Y23.3937
G01 X6.5779 Y23.3857
G01 X6.5819 Y23.3753
G01 X6.5856 Y23.3678
G01 X6.5913 Y23.3582
G01 X6.5962 Y23.3515
G01 X6.6035 Y23.3431
G01 X7.1411 Y22.8054
G01 X7.1493 Y22.7979
G01 X7.1582 Y22.7913
G01 X7.1678 Y22.7856
G01 X7.1778 Y22.7808
G01 X7.1883 Y22.7771
G01 X7.1991 Y22.7744
G01 X7.2101 Y22.7727
G01 X7.2212 Y22.7722
G01 X7.9788 Y22.7722
G01 X7.9899 Y22.7727
G01 X8.0009 Y22.7744
G01 X8.0117 Y22.7771
G01 X8.0247 Y22.7819
G01 X8.0347 Y22.7869
G01 X8.0418 Y22.7913
G01 X8.0507 Y22.7979
G01 X8.0589 Y22.8054
G01 X8.5965 Y23.3431
G01 X8.6021 Y23.3493
G01 X8.6071 Y23.3559
G01 X8.6144 Y23.3678
G01 X8.6181 Y23.3753
G01 X8.6212 Y23.3830
G01 X8.6237 Y23.3910
G01 X8.6256 Y23.3991
G01 X8.6273 Y23.4101
G01 X8.6278 Y23.4212
G01 X8.6278 Y24.1788
G01 X8.6269 Y24.1926
G01 X8.6244 Y24.2063
G01 X8.6202 Y24.2196
G01 X8.6144 Y24.2322
G01 X8.6071 Y24.2441
G01 X8.5984 Y24.2549
G01 X8.3487 Y24.5048
G01 X8.3487 Y28.1313
G01 X9.4352 Y28.1313
G01 X9.6811 Y27.8854
G01 X9.6872 Y27.8797
G01 X9.6959 Y27.8729
G01 X9.7053 Y27.8669
G01 X9.7128 Y27.8631
G01 X9.7230 Y27.8588
G01 X9.7337 Y27.8556
G01 X9.7419 Y27.8539
G01 X9.7529 Y27.8525
G01 X9.7612 Y27.8522
G01 X10.5188 Y27.8522
G01 X10.5326 Y27.8531
G01 X10.5463 Y27.8556
G01 X10.5596 Y27.8598
G01 X10.5722 Y27.8656
G01 X10.5841 Y27.8729
G01 X10.5949 Y27.8816
G01 X10.8448 Y28.1313
G01 X11.9313 Y28.1313
G01 X11.9313 Y24.5048
G01 X11.6816 Y24.2549
G01 X11.6729 Y24.2441
G01 X11.6656 Y24.2322
G01 X11.6598 Y24.2196
G01 X11.6556 Y24.2063
G01 X11.6531 Y24.1926
G01 X11.6522 Y24.1788
G01 X11.6522 Y23.4212
G01 X11.6525 Y23.4129
G01 X11.6539 Y23.4019
G01 X11.6556 Y23.3937
G01 X11.6579 Y23.3857
G01 X11.6619 Y23.3753
G01 X11.6669 Y23.3653
G01 X11.6713 Y23.3582
G01 X11.6762 Y23.3515
G01 X11.6835 Y23.3431
G01 X12.2211 Y22.8054
G01 X12.2293 Y22.7979
G01 X12.2382 Y22.7913
G01 X12.2478 Y22.7856
G01 X12.2578 Y22.7808
G01 X12.2683 Y22.7771
G01 X12.2791 Y22.7744
G01 X12.2901 Y22.7727
G01 X12.3012 Y22.7722
G01 X13.0588 Y22.7722
G01 X13.0699 Y22.7727
G01 X13.0809 Y22.7744
G01 X13.0943 Y22.7779
G01 X13.1047 Y22.7819
G01 X13.1147 Y22.7869
G01 X13.1218 Y22.7913
G01 X13.1307 Y22.7979
G01 X13.1389 Y22.8054
G01 X13.6765 Y23.3431
G01 X13.6821 Y23.3493
G01 X13.6871 Y23.3559
G01 X13.6944 Y23.3678
G01 X13.6981 Y23.3753
G01 X13.7012 Y23.3830
G01 X13.7037 Y23.3910
G01 X13.7056 Y23.3991
G01 X13.7073 Y23.4101
G01 X13.7078 Y23.4212
G01 X13.7078 Y24.1788
G01 X13.7069 Y24.1926
G01 X13.7044 Y24.2063
G01 X13.7002 Y24.2196
G01 X13.6944 Y24.2322
G01 X13.6871 Y24.2441
G01 X13.6784 Y24.2549
G01 X13.4287 Y24.5048
G01 X13.4287 Y28.1313
G01 X14.5152 Y28.1313
G01 X14.7611 Y27.8854
G01 X14.7672 Y27.8797
G01 X14.7759 Y27.8729
G01 X14.7829 Y27.8683
G01 X14.7928 Y27.8631
G01 X14.8030 Y27.8588
G01 X14.8137 Y27.8556
G01 X14.8219 Y27.8539
G01 X14.8329 Y27.8525
G01 X14.8412 Y27.8522
G01 X15.5988 Y27.8522
G01 X15.6126 Y27.8531
G01 X15.6263 Y27.8556
G01 X15.6396 Y27.8598
G01 X15.6522 Y27.8656
G01 X15.6641 Y27.8729
G01 X15.6749 Y27.8816
G01 X15.9248 Y28.1313
G01 X17.0113 Y28.1313
G01 X17.0113 Y24.5048
G01 X16.7616 Y24.2549
G01 X16.7529 Y24.2441
G01 X16.7456 Y24.2322
G01 X16.7398 Y24.2196
G01 X16.7356 Y24.2063
G01 X16.7331 Y24.1926
G01 X16.7322 Y24.1788
G01 X16.7322 Y23.4212
G01 X16.7331 Y23.4074
G01 X16.7350 Y23.3964
G01 X16.7388 Y23.3830
G01 X16.7419 Y23.3753
G01 X16.7456 Y23.3678
G01 X16.7498 Y23.3606
G01 X16.7545 Y23.3537
G01 X16.7597 Y23.3472
G01 X16.7654 Y23.3411
G01 X17.3011 Y22.8054
G01 X17.3093 Y22.7979
G01 X17.3159 Y22.7929
G01 X17.3253 Y22.7869
G01 X17.3353 Y22.7819
G01 X17.3457 Y22.7779
G01 X17.3591 Y22.7744
G01 X17.3701 Y22.7727
G01 X17.3812 Y22.7722
G01 X18.1388 Y22.7722
G01 X18.1499 Y22.7727
G01 X18.1636 Y22.7750
G01 X18.1770 Y22.7788
G01 X18.1847 Y22.7819
G01 X18.1922 Y22.7856
G01 X18.1994 Y22.7898
G01 X18.2063 Y22.7945
G01 X18.2169 Y22.8035
G01 X18.7546 Y23.3411
G01 X18.7621 Y23.3493
G01 X18.7671 Y23.3559
G01 X18.7717 Y23.3629
G01 X18.7769 Y23.3728
G01 X18.7812 Y23.3830
G01 X18.7844 Y23.3937
G01 X18.7861 Y23.4019
G01 X18.7875 Y23.4129
G01 X18.7878 Y23.4212
G01 X18.7878 Y24.1788
G01 X18.7869 Y24.1926
G01 X18.7844 Y24.2063
G01 X18.7802 Y24.2196
G01 X18.7744 Y24.2322
G01 X18.7671 Y24.2441
G01 X18.7584 Y24.2549
G01 X18.5087 Y24.5048
G01 X18.5087 Y28.1313
G01 X19.5952 Y28.1313
G01 X19.8411 Y27.8854
G01 X19.8472 Y27.8797
G01 X19.8537 Y27.8745
G01 X19.8629 Y27.8683
G01 X19.8703 Y27.8643
G01 X19.8804 Y27.8598
G01 X19.8910 Y27.8563
G01 X19.8991 Y27.8544
G01 X19.9101 Y27.8527
G01 X19.9212 Y27.8522
G01 X20.6788 Y27.8522
G01 X20.6926 Y27.8531
G01 X20.7063 Y27.8556
G01 X20.7196 Y27.8598
G01 X20.7322 Y27.8656
G01 X20.7441 Y27.8729
G01 X20.7549 Y27.8816
G01 X21.0048 Y28.1313
G01 X22.0913 Y28.1313
G01 X22.0913 Y24.5048
G01 X21.8416 Y24.2549
G01 X21.8329 Y24.2441
G01 X21.8256 Y24.2322
G01 X21.8198 Y24.2196
G01 X21.8156 Y24.2063
G01 X21.8131 Y24.1926
G01 X21.8122 Y24.1788
G01 X21.8122 Y23.4212
G01 X21.8127 Y23.4101
G01 X21.8150 Y23.3964
G01 X21.8171 Y23.3883
G01 X21.8198 Y23.3804
G01 X21.8256 Y23.3678
G01 X21.8298 Y23.3606
G01 X21.8345 Y23.3537
G01 X21.8397 Y23.3472
G01 X21.8454 Y23.3411
G01 X22.3811 Y22.8054
G01 X22.3893 Y22.7979
G01 X22.3982 Y22.7913
G01 X22.4078 Y22.7856
G01 X22.4153 Y22.7819
G01 X22.4257 Y22.7779
G01 X22.4391 Y22.7744
G01 X22.4501 Y22.7727
G01 X22.4612 Y22.7722
G01 X23.2188 Y22.7722
G01 X23.2299 Y22.7727
G01 X23.2409 Y22.7744
G01 X23.2490 Y22.7763
G01 X23.2570 Y22.7788
G01 X23.2647 Y22.7819
G01 X23.2722 Y22.7856
G01 X23.2841 Y22.7929
G01 X23.2907 Y22.7979
G01 X23.2969 Y22.8035
G01 X23.8346 Y23.3411
G01 X23.8421 Y23.3493
G01 X23.8471 Y23.3559
G01 X23.8517 Y23.3629
G01 X23.8569 Y23.3728
G01 X23.8612 Y23.3830
G01 X23.8644 Y23.3937
G01 X23.8661 Y23.4019
G01 X23.8675 Y23.4129
G01 X23.8678 Y23.4212
G01 X23.8678 Y24.1788
G01 X23.8669 Y24.1926
G01 X23.8644 Y24.2063
G01 X23.8602 Y24.2196
G01 X23.8544 Y24.2322
G01 X23.8471 Y24.2441
G01 X23.8384 Y24.2549
G01 X23.5887 Y24.5048
G01 X23.5887 Y28.1313
G01 X24.6752 Y28.1313
G01 X24.9211 Y27.8854
G01 X24.9272 Y27.8797
G01 X24.9359 Y27.8729
G01 X24.9453 Y27.8669
G01 X24.9528 Y27.8631
G01 X24.9630 Y27.8588
G01 X24.9737 Y27.8556
G01 X24.9819 Y27.8539
G01 X24.9929 Y27.8525
G01 X25.0012 Y27.8522
G01 X25.7588 Y27.8522
G01 X25.7726 Y27.8531
G01 X25.7863 Y27.8556
G01 X25.7996 Y27.8598
G01 X25.8122 Y27.8656
G01 X25.8241 Y27.8729
G01 X25.8349 Y27.8816
G01 X26.0848 Y28.1313
G01 X27.1713 Y28.1313
G01 X27.1713 Y24.5048
G01 X26.9216 Y24.2549
G01 X26.9129 Y24.2441
G01 X26.9056 Y24.2322
G01 X26.8998 Y24.2196
G01 X26.8956 Y24.2063
G01 X26.8931 Y24.1926
G01 X26.8922 Y24.1788
G01 X26.8922 Y23.4212
G01 X26.8927 Y23.4101
G01 X26.8950 Y23.3964
G01 X26.8971 Y23.3883
G01 X26.8998 Y23.3804
G01 X26.9031 Y23.3728
G01 X26.9069 Y23.3653
G01 X26.9113 Y23.3582
G01 X26.9162 Y23.3515
G01 X26.9254 Y23.3411
G01 X27.4611 Y22.8054
G01 X27.4693 Y22.7979
G01 X27.4759 Y22.7929
G01 X27.4853 Y22.7869
G01 X27.4953 Y22.7819
G01 X27.5057 Y22.7779
G01 X27.5164 Y22.7750
G01 X27.5274 Y22.7731
G01 X27.5412 Y22.7722
G01 X28.2988 Y22.7722
G01 X28.3071 Y22.7725
G01 X28.3154 Y22.7734
G01 X28.3236 Y22.7750
G01 X28.3317 Y22.7771
G01 X28.3396 Y22.7798
G01 X28.3472 Y22.7831
G01 X28.3547 Y22.7869
G01 X28.3618 Y22.7913
G01 X28.3707 Y22.7979
G01 X28.3769 Y22.8035
G01 X28.9146 Y23.3411
G01 X28.9221 Y23.3493
G01 X28.9271 Y23.3559
G01 X28.9317 Y23.3629
G01 X28.9369 Y23.3728
G01 X28.9412 Y23.3830
G01 X28.9444 Y23.3937
G01 X28.9461 Y23.4019
G01 X28.9475 Y23.4129
G01 X28.9478 Y23.4212
G01 X28.9478 Y24.1788
G01 X28.9469 Y24.1926
G01 X28.9444 Y24.2063
G01 X28.9402 Y24.2196
G01 X28.9344 Y24.2322
G01 X28.9271 Y24.2441
G01 X28.9184 Y24.2549
G01 X28.6687 Y24.5048
G01 X28.6687 Y28.1313
G01 X29.7552 Y28.1313
G01 X30.0011 Y27.8854
G01 X30.0072 Y27.8797
G01 X30.0159 Y27.8729
G01 X30.0253 Y27.8669
G01 X30.0328 Y27.8631
G01 X30.0430 Y27.8588
G01 X30.0537 Y27.8556
G01 X30.0619 Y27.8539
G01 X30.0729 Y27.8525
G01 X30.0812 Y27.8522
G01 X30.8388 Y27.8522
G01 X30.8526 Y27.8531
G01 X30.8663 Y27.8556
G01 X30.8796 Y27.8598
G01 X30.8922 Y27.8656
G01 X30.9041 Y27.8729
G01 X30.9149 Y27.8816
G01 X31.1648 Y28.1313
G01 X32.2513 Y28.1313
G01 X32.2513 Y24.5048
G01 X32.0016 Y24.2549
G01 X31.9929 Y24.2441
G01 X31.9856 Y24.2322
G01 X31.9798 Y24.2196
G01 X31.9756 Y24.2063
G01 X31.9731 Y24.1926
G01 X31.9722 Y24.1788
G01 X31.9722 Y23.4212
G01 X31.9731 Y23.4074
G01 X31.9750 Y23.3964
G01 X31.9771 Y23.3883
G01 X31.9798 Y23.3804
G01 X31.9831 Y23.3728
G01 X31.9869 Y23.3653
G01 X31.9945 Y23.3537
G01 X31.9997 Y23.3472
G01 X32.0054 Y23.3411
G01 X32.5411 Y22.8054
G01 X32.5493 Y22.7979
G01 X32.5582 Y22.7913
G01 X32.5678 Y22.7856
G01 X32.5753 Y22.7819
G01 X32.5857 Y22.7779
G01 X32.5964 Y22.7750
G01 X32.6074 Y22.7731
G01 X32.6212 Y22.7722
G01 X33.3788 Y22.7722
G01 X33.3926 Y22.7731
G01 X33.4009 Y22.7744
G01 X33.4117 Y22.7771
G01 X33.4196 Y22.7798
G01 X33.4272 Y22.7831
G01 X33.4347 Y22.7869
G01 X33.4418 Y22.7913
G01 X33.4507 Y22.7979
G01 X33.4569 Y22.8035
G01 X33.9946 Y23.3411
G01 X34.0021 Y23.3493
G01 X34.0071 Y23.3559
G01 X34.0131 Y23.3653
G01 X34.0181 Y23.3753
G01 X34.0212 Y23.3830
G01 X34.0244 Y23.3937
G01 X34.0261 Y23.4019
G01 X34.0275 Y23.4129
G01 X34.0278 Y23.4212
G01 X34.0278 Y24.1788
G01 X34.0269 Y24.1926
G01 X34.0244 Y24.2063
G01 X34.0202 Y24.2196
G01 X34.0144 Y24.2322
G01 X34.0071 Y24.2441
G01 X33.9984 Y24.2549
G01 X33.7487 Y24.5048
G01 X33.7487 Y28.1313
G01 X34.8352 Y28.1313
G01 X35.0811 Y27.8854
G01 X35.0872 Y27.8797
G01 X35.0959 Y27.8729
G01 X35.1029 Y27.8683
G01 X35.1103 Y27.8643
G01 X35.1204 Y27.8598
G01 X35.1310 Y27.8563
G01 X35.1419 Y27.8539
G01 X35.1529 Y27.8525
G01 X35.1612 Y27.8522
G01 X35.9188 Y27.8522
G01 X35.9326 Y27.8531
G01 X35.9463 Y27.8556
G01 X35.9596 Y27.8598
G01 X35.9722 Y27.8656
G01 X35.9841 Y27.8729
G01 X35.9949 Y27.8816
G01 X36.2448 Y28.1313
G01 X37.3313 Y28.1313
G01 X37.3313 Y24.5048
G01 X37.0816 Y24.2549
G01 X37.0729 Y24.2441
G01 X37.0656 Y24.2322
G01 X37.0598 Y24.2196
G01 X37.0556 Y24.2063
G01 X37.0531 Y24.1926
G01 X37.0522 Y24.1788
G01 X37.0522 Y23.4212
G01 X37.0527 Y23.4101
G01 X37.0550 Y23.3964
G01 X37.0588 Y23.3830
G01 X37.0619 Y23.3753
G01 X37.0656 Y23.3678
G01 X37.0698 Y23.3606
G01 X37.0745 Y23.3537
G01 X37.0797 Y23.3472
G01 X37.0854 Y23.3411
G01 X37.6211 Y22.8054
G01 X37.6293 Y22.7979
G01 X37.6382 Y22.7913
G01 X37.6453 Y22.7869
G01 X37.6553 Y22.7819
G01 X37.6657 Y22.7779
G01 X37.6764 Y22.7750
G01 X37.6874 Y22.7731
G01 X37.7012 Y22.7722
G01 X38.4588 Y22.7722
G01 X38.4699 Y22.7727
G01 X38.4809 Y22.7744
G01 X38.4890 Y22.7763
G01 X38.4970 Y22.7788
G01 X38.5047 Y22.7819
G01 X38.5147 Y22.7869
G01 X38.5218 Y22.7913
G01 X38.5307 Y22.7979
G01 X38.5369 Y22.8035
G01 X39.0746 Y23.3411
G01 X39.0821 Y23.3493
G01 X39.0887 Y23.3582
G01 X39.0944 Y23.3678
G01 X39.0981 Y23.3753
G01 X39.1012 Y23.3830
G01 X39.1044 Y23.3937
G01 X39.1061 Y23.4019
G01 X39.1075 Y23.4129
G01 X39.1078 Y23.4212
G01 X39.1078 Y24.1788
G01 X39.1069 Y24.1926
G01 X39.1044 Y24.2063
G01 X39.1002 Y24.2196
G01 X39.0944 Y24.2322
G01 X39.0871 Y24.2441
G01 X39.0784 Y24.2549
G01 X38.8287 Y24.5048
G01 X38.8287 Y28.1313
G01 X39.9152 Y28.1313
G01 X40.1611 Y27.8854
G01 X40.1672 Y27.8797
G01 X40.1759 Y27.8729
G01 X40.1829 Y27.8683
G01 X40.1903 Y27.8643
G01 X40.2004 Y27.8598
G01 X40.2110 Y27.8563
G01 X40.2219 Y27.8539
G01 X40.2329 Y27.8525
G01 X40.2412 Y27.8522
G01 X40.9988 Y27.8522
G01 X41.0126 Y27.8531
G01 X41.0263 Y27.8556
G01 X41.0396 Y27.8598
G01 X41.0522 Y27.8656
G01 X41.0641 Y27.8729
G01 X41.0749 Y27.8816
G01 X41.3248 Y28.1313
G01 X44.9513 Y28.1313
G01 X44.9513 Y25.6607
G01 X44.9010 Y25.6150
G01 X44.8284 Y25.5349
G01 X44.8231 Y25.5284
G01 X44.7637 Y25.4483
G01 X44.7590 Y25.4414
G01 X44.7063 Y25.3535
G01 X44.7010 Y25.3437
G01 X44.6561 Y25.2484
G01 X44.6196 Y25.1466
G01 X44.6173 Y25.1386
G01 X44.5918 Y25.0364
G01 X44.5762 Y24.9323
G01 X44.5753 Y24.9240
G01 X44.5701 Y24.8188
G01 X44.5701 Y24.5487
G01 X43.1572 Y24.5487
G01 X43.0866 Y24.5451
G01 X43.0194 Y24.5353
G01 X43.0085 Y24.5331
G01 X42.9427 Y24.5165
G01 X42.8735 Y24.4917
G01 X42.8120 Y24.4628
G01 X42.8022 Y24.4576
G01 X42.7440 Y24.4225
G01 X42.6850 Y24.3788
G01 X42.6346 Y24.3333
G01 X42.6267 Y24.3254
G01 X42.5812 Y24.2750
G01 X42.5375 Y24.2160
G01 X42.5024 Y24.1578
G01 X42.4972 Y24.1480
G01 X42.4683 Y24.0865
G01 X42.4435 Y24.0173
G01 X42.4269 Y23.9515
G01 X42.4247 Y23.9406
G01 X42.4156 Y23.8789
G01 X42.4146 Y23.8706
G01 X42.4113 Y23.8000
G01 X42.4113 Y3.0540
G01 X42.3614 Y3.0086
G01 X42.2888 Y2.9286
G01 X42.2835 Y2.9221
G01 X42.2225 Y2.8398
G01 X42.2180 Y2.8328
G01 X42.1640 Y2.7424
G01 X42.1177 Y2.6448
G01 X42.1146 Y2.6370
G01 X42.0792 Y2.5378
G01 X42.0523 Y2.4303
G01 X42.0360 Y2.3207
G01 X42.0307 Y2.2156
G01 X42.0306 Y2.2072
G01 X42.0360 Y2.0993
G01 X42.0523 Y1.9897
G01 X42.0792 Y1.8822
G01 X42.1166 Y1.7778
G01 X42.1640 Y1.6776
G01 X42.2209 Y1.5825
G01 X42.2870 Y1.4935
G01 X42.3576 Y1.4154
G01 X42.3654 Y1.4076
G01 X42.4435 Y1.3370
G01 X42.5280 Y1.2741
G01 X42.5372 Y1.2680
G01 X42.6228 Y1.2167
G01 X42.6326 Y1.2115
G01 X42.7278 Y1.1666
G01 X42.8322 Y1.1292
G01 X42.9397 Y1.1023
G01 X43.0465 Y1.0863
G01 X43.0549 Y1.0856
G01 X43.1600 Y1.0806
G01 X43.2707 Y1.0860
G01 X43.3803 Y1.1023
G01 X43.4878 Y1.1292
G01 X43.5922 Y1.1666
G01 X43.6924 Y1.2140
G01 X43.7875 Y1.2709
G01 X43.8721 Y1.3335
G01 X43.8807 Y1.3406
G01 X43.9586 Y1.4114
G01 X44.0330 Y1.4935
G01 X44.0991 Y1.5825
G01 X44.1533 Y1.6728
G01 X44.1585 Y1.6826
G01 X44.2034 Y1.7778
G01 X44.2390 Y1.8769
G01 X44.2423 Y1.8875
G01 X44.2665 Y1.9842
G01 X44.2687 Y1.9951
G01 X44.2840 Y2.0993
G01 X44.2893 Y2.2044
G01 X44.2893 Y2.2156
G01 X44.2840 Y2.3207
G01 X44.2677 Y2.4303
G01 X44.2408 Y2.5378
G01 X44.2054 Y2.6370
G01 X44.2023 Y2.6448
G01 X44.1560 Y2.7424
G01 X44.1020 Y2.8328
G01 X44.0975 Y2.8398
G01 X44.0365 Y2.9221
G01 X44.0312 Y2.9286
G01 X43.9586 Y3.0086
G01 X43.9087 Y3.0540
G01 X43.9087 Y23.0513
G01 X44.5701 Y23.0513
G01 X44.5702 Y22.7784
G01 X44.5755 Y22.6732
G01 X44.5909 Y22.5690
G01 X44.5924 Y22.5608
G01 X44.6187 Y22.4560
G01 X44.6561 Y22.3516
G01 X44.7035 Y22.2514
G01 X44.7605 Y22.1563
G01 X44.8266 Y22.0672
G01 X44.9010 Y21.9850
G01 X44.9832 Y21.9106
G01 X45.0723 Y21.8445
G01 X45.1674 Y21.7875
G01 X45.2676 Y21.7401
G01 X45.3720 Y21.7027
G01 X45.4741 Y21.6770
G01 X45.4850 Y21.6749
G01 X45.5892 Y21.6595
G01 X45.6944 Y21.6542
G01 X45.7056 Y21.6542
G01 X45.8052 Y21.6591
G01 X45.8163 Y21.6602
G01 X45.9204 Y21.6758
G01 X46.0280 Y21.7027
G01 X46.1324 Y21.7401
G01 X46.2326 Y21.7875
G01 X46.3277 Y21.8445
G01 X46.4124 Y21.9071
G01 X46.4210 Y21.9142
G01 X46.4949 Y21.9812
G01 X46.5028 Y21.9891
G01 X46.5734 Y22.0672
G01 X46.6395 Y22.1563
G01 X46.6965 Y22.2514
G01 X46.7439 Y22.3516
G01 X46.7813 Y22.4560
G01 X46.8082 Y22.5636
G01 X46.8245 Y22.6732
G01 X46.8299 Y22.7812
G01 X46.8298 Y24.8216
G01 X46.8245 Y24.9268
G01 X46.8082 Y25.0364
G01 X46.7813 Y25.1440
G01 X46.7459 Y25.2432
G01 X46.7428 Y25.2510
G01 X46.6965 Y25.3486
G01 X46.6425 Y25.4390
G01 X46.6379 Y25.4460
G01 X46.5769 Y25.5284
G01 X46.5716 Y25.5349
G01 X46.4990 Y25.6150
G01 X46.4487 Y25.6607
G01 X46.4487 Y29.4013
G01 X67.8113 Y29.4013
G01 X67.8113 Y14.3448
G01 X67.5616 Y14.0949
G01 X67.5529 Y14.0841
G01 X67.5456 Y14.0722
G01 X67.5398 Y14.0596
G01 X67.5356 Y14.0463
G01 X67.5331 Y14.0326
G01 X67.5322 Y14.0188
G01 X67.5322 Y13.2585
G01 X67.5331 Y13.2474
G01 X67.5350 Y13.2364
G01 X67.5371 Y13.2283
G01 X67.5408 Y13.2178
G01 X67.5456 Y13.2078
G01 X67.5498 Y13.2006
G01 X67.5562 Y13.1915
G01 X67.5635 Y13.1831
G01 X68.1011 Y12.6454
G01 X68.1093 Y12.6379
G01 X68.1159 Y12.6329
G01 X68.1253 Y12.6269
G01 X68.1328 Y12.6231
G01 X68.1430 Y12.6188
G01 X68.1510 Y12.6163
G01 X68.1591 Y12.6144
G01 X68.1674 Y12.6131
G01 X68.1785 Y12.6122
G01 X68.9388 Y12.6122
G01 X68.9499 Y12.6127
G01 X68.9636 Y12.6150
G01 X68.9770 Y12.6188
G01 X68.9897 Y12.6243
G01 X68.9971 Y12.6283
G01 X69.0041 Y12.6329
G01 X69.0149 Y12.6416
G01 X69.2648 Y12.8913
G01 X70.3952 Y12.8913
G01 X70.6451 Y12.6416
G01 X70.6559 Y12.6329
G01 X70.6678 Y12.6256
G01 X70.6804 Y12.6198
G01 X70.6937 Y12.6156
G01 X70.7074 Y12.6131
G01 X70.7212 Y12.6122
G01 X71.4843 Y12.6123
G01 X71.4926 Y12.6131
G01 X71.5036 Y12.6150
G01 X71.5117 Y12.6171
G01 X71.5196 Y12.6198
G01 X71.5272 Y12.6231
G01 X71.5371 Y12.6283
G01 X71.5441 Y12.6329
G01 X71.5528 Y12.6397
G01 X71.5589 Y12.6454
G01 X71.8048 Y12.8913
G01 X72.9352 Y12.8913
G01 X73.1851 Y12.6416
G01 X73.1959 Y12.6329
G01 X73.2078 Y12.6256
G01 X73.2204 Y12.6198
G01 X73.2337 Y12.6156
G01 X73.2474 Y12.6131
G01 X73.2612 Y12.6122
G01 X74.0215 Y12.6122
G01 X74.0299 Y12.6127
G01 X74.0409 Y12.6144
G01 X74.0517 Y12.6171
G01 X74.0596 Y12.6198
G01 X74.0672 Y12.6231
G01 X74.0771 Y12.6283
G01 X74.0841 Y12.6329
G01 X74.0928 Y12.6397
G01 X74.0989 Y12.6454
G01 X74.3448 Y12.8913
G01 X75.4752 Y12.8913
G01 X75.7251 Y12.6416
G01 X75.7359 Y12.6329
G01 X75.7478 Y12.6256
G01 X75.7604 Y12.6198
G01 X75.7737 Y12.6156
G01 X75.7874 Y12.6131
G01 X75.8012 Y12.6122
G01 X76.5615 Y12.6122
G01 X76.5699 Y12.6127
G01 X76.5809 Y12.6144
G01 X76.5917 Y12.6171
G01 X76.5996 Y12.6198
G01 X76.6072 Y12.6231
G01 X76.6171 Y12.6283
G01 X76.6241 Y12.6329
G01 X76.6328 Y12.6397
G01 X76.6389 Y12.6454
G01 X76.8848 Y12.8913
G01 X78.0152 Y12.8913
G01 X78.2651 Y12.6416
G01 X78.2759 Y12.6329
G01 X78.2878 Y12.6256
G01 X78.3004 Y12.6198
G01 X78.3137 Y12.6156
G01 X78.3274 Y12.6131
G01 X78.3412 Y12.6122
G01 X79.1015 Y12.6122
G01 X79.1099 Y12.6127
G01 X79.1209 Y12.6144
G01 X79.1317 Y12.6171
G01 X79.1396 Y12.6198
G01 X79.1472 Y12.6231
G01 X79.1571 Y12.6283
G01 X79.1641 Y12.6329
G01 X79.1728 Y12.6397
G01 X79.1789 Y12.6454
G01 X79.4248 Y12.8913
G01 X80.5552 Y12.8913
G01 X80.8051 Y12.6416
G01 X80.8159 Y12.6329
G01 X80.8278 Y12.6256
G01 X80.8404 Y12.6198
G01 X80.8537 Y12.6156
G01 X80.8674 Y12.6131
G01 X80.8812 Y12.6122
G01 X81.6415 Y12.6122
G01 X81.6499 Y12.6127
G01 X81.6609 Y12.6144
G01 X81.6717 Y12.6171
G01 X81.6796 Y12.6198
G01 X81.6872 Y12.6231
G01 X81.6971 Y12.6283
G01 X81.7041 Y12.6329
G01 X81.7128 Y12.6397
G01 X81.7189 Y12.6454
G01 X81.9648 Y12.8913
G01 X83.0952 Y12.8913
G01 X83.3451 Y12.6416
G01 X83.3559 Y12.6329
G01 X83.3678 Y12.6256
G01 X83.3804 Y12.6198
G01 X83.3937 Y12.6156
G01 X83.4074 Y12.6131
G01 X83.4212 Y12.6122
G01 X84.1815 Y12.6122
G01 X84.1899 Y12.6127
G01 X84.2009 Y12.6144
G01 X84.2117 Y12.6171
G01 X84.2196 Y12.6198
G01 X84.2272 Y12.6231
G01 X84.2371 Y12.6283
G01 X84.2441 Y12.6329
G01 X84.2528 Y12.6397
G01 X84.2589 Y12.6454
G01 X84.5048 Y12.8913
G01 X85.6352 Y12.8913
G01 X85.8851 Y12.6416
G01 X85.8959 Y12.6329
G01 X85.9078 Y12.6256
G01 X85.9204 Y12.6198
G01 X85.9337 Y12.6156
G01 X85.9474 Y12.6131
G01 X85.9612 Y12.6122
G01 X86.7215 Y12.6122
G01 X86.7326 Y12.6131
G01 X86.7436 Y12.6150
G01 X86.7543 Y12.6179
G01 X86.7647 Y12.6219
G01 X86.7747 Y12.6269
G01 X86.7841 Y12.6329
G01 X86.7907 Y12.6379
G01 X86.7989 Y12.6454
G01 X87.3365 Y13.1831
G01 X87.3421 Y13.1893
G01 X87.3471 Y13.1959
G01 X87.3517 Y13.2029
G01 X87.3569 Y13.2128
G01 X87.3602 Y13.2204
G01 X87.3637 Y13.2310
G01 X87.3656 Y13.2391
G01 X87.3669 Y13.2474
G01 X87.3678 Y13.2612
G01 X87.3678 Y14.0188
G01 X87.3673 Y14.0299
G01 X87.3656 Y14.0409
G01 X87.3621 Y14.0543
G01 X87.3581 Y14.0647
G01 X87.3531 Y14.0747
G01 X87.3471 Y14.0841
G01 X87.3403 Y14.0928
G01 X87.3346 Y14.0989
G01 X86.7969 Y14.6365
G01 X86.7885 Y14.6438
G01 X86.7818 Y14.6487
G01 X86.7722 Y14.6544
G01 X86.7647 Y14.6581
G01 X86.7543 Y14.6621
G01 X86.7463 Y14.6644
G01 X86.7381 Y14.6661
G01 X86.7271 Y14.6675
G01 X86.7188 Y14.6678
G01 X85.9612 Y14.6678
G01 X85.9474 Y14.6669
G01 X85.9337 Y14.6644
G01 X85.9204 Y14.6602
G01 X85.9078 Y14.6544
G01 X85.8959 Y14.6471
G01 X85.8851 Y14.6384
G01 X85.6352 Y14.3887
G01 X84.5048 Y14.3887
G01 X84.2589 Y14.6346
G01 X84.2528 Y14.6403
G01 X84.2463 Y14.6455
G01 X84.2371 Y14.6517
G01 X84.2272 Y14.6569
G01 X84.2196 Y14.6602
G01 X84.2090 Y14.6637
G01 X84.1981 Y14.6661
G01 X84.1871 Y14.6675
G01 X84.1788 Y14.6678
G01 X83.4212 Y14.6678
G01 X83.4074 Y14.6669
G01 X83.3937 Y14.6644
G01 X83.3804 Y14.6602
G01 X83.3678 Y14.6544
G01 X83.3559 Y14.6471
G01 X83.3451 Y14.6384
G01 X83.0952 Y14.3887
G01 X81.9648 Y14.3887
G01 X81.7189 Y14.6346
G01 X81.7128 Y14.6403
G01 X81.7063 Y14.6455
G01 X81.6971 Y14.6517
G01 X81.6872 Y14.6569
G01 X81.6796 Y14.6602
G01 X81.6690 Y14.6637
G01 X81.6581 Y14.6661
G01 X81.6471 Y14.6675
G01 X81.6388 Y14.6678
G01 X80.8812 Y14.6678
G01 X80.8674 Y14.6669
G01 X80.8537 Y14.6644
G01 X80.8404 Y14.6602
G01 X80.8278 Y14.6544
G01 X80.8159 Y14.6471
G01 X80.8051 Y14.6384
G01 X80.5552 Y14.3887
G01 X79.4248 Y14.3887
G01 X79.1789 Y14.6346
G01 X79.1728 Y14.6403
G01 X79.1641 Y14.6471
G01 X79.1571 Y14.6517
G01 X79.1472 Y14.6569
G01 X79.1396 Y14.6602
G01 X79.1290 Y14.6637
G01 X79.1209 Y14.6656
G01 X79.1099 Y14.6673
G01 X79.0988 Y14.6678
G01 X78.3412 Y14.6678
G01 X78.3274 Y14.6669
G01 X78.3137 Y14.6644
G01 X78.3004 Y14.6602
G01 X78.2878 Y14.6544
G01 X78.2759 Y14.6471
G01 X78.2651 Y14.6384
G01 X78.0152 Y14.3887
G01 X76.8848 Y14.3887
G01 X76.6389 Y14.6346
G01 X76.6328 Y14.6403
G01 X76.6263 Y14.6455
G01 X76.6171 Y14.6517
G01 X76.6072 Y14.6569
G01 X76.5996 Y14.6602
G01 X76.5890 Y14.6637
G01 X76.5781 Y14.6661
G01 X76.5671 Y14.6675
G01 X76.5588 Y14.6678
G01 X75.8012 Y14.6678
G01 X75.7874 Y14.6669
G01 X75.7737 Y14.6644
G01 X75.7604 Y14.6602
G01 X75.7478 Y14.6544
G01 X75.7359 Y14.6471
G01 X75.7251 Y14.6384
G01 X75.4752 Y14.3887
G01 X74.3448 Y14.3887
G01 X74.0989 Y14.6346
G01 X74.0928 Y14.6403
G01 X74.0841 Y14.6471
G01 X74.0771 Y14.6517
G01 X74.0672 Y14.6569
G01 X74.0596 Y14.6602
G01 X74.0490 Y14.6637
G01 X74.0409 Y14.6656
G01 X74.0299 Y14.6673
G01 X74.0188 Y14.6678
G01 X73.2612 Y14.6678
G01 X73.2474 Y14.6669
G01 X73.2337 Y14.6644
G01 X73.2204 Y14.6602
G01 X73.2078 Y14.6544
G01 X73.1959 Y14.6471
G01 X73.1851 Y14.6384
G01 X72.9352 Y14.3887
G01 X71.8048 Y14.3887
G01 X71.5589 Y14.6346
G01 X71.5528 Y14.6403
G01 X71.5463 Y14.6455
G01 X71.5371 Y14.6517
G01 X71.5272 Y14.6569
G01 X71.5196 Y14.6602
G01 X71.5090 Y14.6637
G01 X71.4981 Y14.6661
G01 X71.4871 Y14.6675
G01 X71.4788 Y14.6678
G01 X70.7212 Y14.6678
G01 X70.7074 Y14.6669
G01 X70.6937 Y14.6644
G01 X70.6804 Y14.6602
G01 X70.6678 Y14.6544
G01 X70.6559 Y14.6471
G01 X70.6451 Y14.6384
G01 X70.3952 Y14.3887
G01 X69.3087 Y14.3887
G01 X69.3086 Y30.1556
G01 X69.3051 Y30.2234
G01 X69.2943 Y30.2961
G01 X69.2765 Y30.3673
G01 X69.2517 Y30.4365
G01 X69.2203 Y30.5029
G01 X69.1825 Y30.5660
G01 X69.1388 Y30.6250
G01 X69.0933 Y30.6754
G01 X69.0854 Y30.6833
G01 X69.0350 Y30.7288
G01 X68.9805 Y30.7693
G01 X68.9713 Y30.7755
G01 X68.9178 Y30.8076
G01 X68.9080 Y30.8128
G01 X68.8465 Y30.8417
G01 X68.7773 Y30.8665
G01 X68.7061 Y30.8843
G01 X68.6362 Y30.8948
G01 X68.6278 Y30.8955
G01 X68.5600 Y30.8987
G01 X45.7000 Y30.8987
G01 X45.6322 Y30.8955
G01 X45.6211 Y30.8944
G01 X45.5539 Y30.8843
G01 X45.4880 Y30.8680
G01 X45.4774 Y30.8647
G01 X45.4135 Y30.8417
G01 X45.3520 Y30.8128
G01 X45.3422 Y30.8076
G01 X45.2840 Y30.7725
G01 X45.2250 Y30.7288
G01 X45.1746 Y30.6833
G01 X45.1667 Y30.6754
G01 X45.1212 Y30.6250
G01 X45.0807 Y30.5705
G01 X45.0745 Y30.5613
G01 X45.0397 Y30.5029
G01 X45.0083 Y30.4365
G01 X44.9835 Y30.3673
G01 X44.9657 Y30.2961
G01 X44.9549 Y30.2234
G01 X44.9513 Y30.1500
G01 X44.9513 Y29.6287
G01 X41.3248 Y29.6287
G01 X41.0789 Y29.8746
G01 X41.0728 Y29.8803
G01 X41.0641 Y29.8871
G01 X41.0571 Y29.8917
G01 X41.0497 Y29.8957
G01 X41.0396 Y29.9002
G01 X41.0290 Y29.9037
G01 X41.0181 Y29.9061
G01 X41.0071 Y29.9075
G01 X40.9988 Y29.9078
G01 X40.2412 Y29.9078
G01 X40.2274 Y29.9069
G01 X40.2137 Y29.9044
G01 X40.2004 Y29.9002
G01 X40.1878 Y29.8944
G01 X40.1759 Y29.8871
G01 X40.1651 Y29.8784
G01 X39.9152 Y29.6287
G01 X36.2448 Y29.6287
G01 X35.9989 Y29.8746
G01 X35.9928 Y29.8803
G01 X35.9841 Y29.8871
G01 X35.9771 Y29.8917
G01 X35.9697 Y29.8957
G01 X35.9596 Y29.9002
G01 X35.9490 Y29.9037
G01 X35.9381 Y29.9061
G01 X35.9271 Y29.9075
G01 X35.9188 Y29.9078
G01 X35.1612 Y29.9078
G01 X35.1474 Y29.9069
G01 X35.1337 Y29.9044
G01 X35.1204 Y29.9002
G01 X35.1078 Y29.8944
G01 X35.0959 Y29.8871
G01 X35.0851 Y29.8784
G01 X34.8352 Y29.6287
G01 X31.1648 Y29.6287
G01 X30.9189 Y29.8746
G01 X30.9128 Y29.8803
G01 X30.9041 Y29.8871
G01 X30.8947 Y29.8931
G01 X30.8872 Y29.8969
G01 X30.8770 Y29.9012
G01 X30.8663 Y29.9044
G01 X30.8581 Y29.9061
G01 X30.8471 Y29.9075
G01 X30.8388 Y29.9078
G01 X30.0812 Y29.9078
G01 X30.0674 Y29.9069
G01 X30.0537 Y29.9044
G01 X30.0404 Y29.9002
G01 X30.0278 Y29.8944
G01 X30.0159 Y29.8871
G01 X30.0051 Y29.8784
G01 X29.7552 Y29.6287
G01 X26.0848 Y29.6287
G01 X25.8389 Y29.8746
G01 X25.8328 Y29.8803
G01 X25.8241 Y29.8871
G01 X25.8147 Y29.8931
G01 X25.8072 Y29.8969
G01 X25.7970 Y29.9012
G01 X25.7863 Y29.9044
G01 X25.7781 Y29.9061
G01 X25.7671 Y29.9075
G01 X25.7588 Y29.9078
G01 X25.0012 Y29.9078
G01 X24.9874 Y29.9069
G01 X24.9737 Y29.9044
G01 X24.9604 Y29.9002
G01 X24.9478 Y29.8944
G01 X24.9359 Y29.8871
G01 X24.9251 Y29.8784
G01 X24.6752 Y29.6287
G01 X21.0048 Y29.6287
G01 X20.7589 Y29.8746
G01 X20.7528 Y29.8803
G01 X20.7441 Y29.8871
G01 X20.7347 Y29.8931
G01 X20.7272 Y29.8969
G01 X20.7170 Y29.9012
G01 X20.7063 Y29.9044
G01 X20.6981 Y29.9061
G01 X20.6871 Y29.9075
G01 X20.6788 Y29.9078
G01 X19.9212 Y29.9078
G01 X19.9074 Y29.9069
G01 X19.8937 Y29.9044
G01 X19.8804 Y29.9002
G01 X19.8678 Y29.8944
G01 X19.8559 Y29.8871
G01 X19.8451 Y29.8784
G01 X19.5952 Y29.6287
G01 X15.9248 Y29.6287
G01 X15.6789 Y29.8746
G01 X15.6728 Y29.8803
G01 X15.6641 Y29.8871
G01 X15.6571 Y29.8917
G01 X15.6472 Y29.8969
G01 X15.6396 Y29.9002
G01 X15.6290 Y29.9037
G01 X15.6209 Y29.9056
G01 X15.6099 Y29.9073
G01 X15.5988 Y29.9078
G01 X14.8412 Y29.9078
G01 X14.8274 Y29.9069
G01 X14.8137 Y29.9044
G01 X14.8004 Y29.9002
G01 X14.7878 Y29.8944
G01 X14.7759 Y29.8871
G01 X14.7651 Y29.8784
G01 X14.5152 Y29.6287
G01 X10.8448 Y29.6287
G01 X10.5989 Y29.8746
G01 X10.5928 Y29.8803
G01 X10.5841 Y29.8871
G01 X10.5747 Y29.8931
G01 X10.5672 Y29.8969
G01 X10.5570 Y29.9012
G01 X10.5463 Y29.9044
G01 X10.5381 Y29.9061
G01 X10.5271 Y29.9075
G01 X10.5188 Y29.9078
G01 X9.7612 Y29.9078
G01 X9.7474 Y29.9069
G01 X9.7337 Y29.9044
G01 X9.7204 Y29.9002
G01 X9.7078 Y29.8944
G01 X9.6959 Y29.8871
G01 X9.6851 Y29.8784
G01 X9.4352 Y29.6287
G01 X5.7648 Y29.6287
G01 X5.5149 Y29.8784
G01 X5.5041 Y29.8871
G01 X5.4922 Y29.8944
G01 X5.4796 Y29.9002
G01 X5.4663 Y29.9044
G01 X5.4526 Y29.9069
G01 X5.4388 Y29.9078
G01 X4.6812 Y29.9078
G01 X4.6674 Y29.9069
G01 X4.6591 Y29.9056
G01 X4.6510 Y29.9037
G01 X4.6430 Y29.9012
G01 X4.6353 Y29.8981
G01 X4.6278 Y29.8944
G01 X4.6182 Y29.8887
G01 X4.6115 Y29.8838
G01 X4.6051 Y29.8784
G01 X4.3552 Y29.6287
G01 X2.5200 Y29.6287
G01 X2.4466 Y29.6251
G01 X2.3794 Y29.6153
G01 X2.3685 Y29.6131
G01 X2.3080 Y29.5980
G01 X2.2974 Y29.5947
G01 X2.2335 Y29.5717
G01 X2.1720 Y29.5428
G01 X2.1622 Y29.5376
G01 X2.1040 Y29.5025
G01 X2.0494 Y29.4622
G01 X2.0408 Y29.4551
G01 X1.9906 Y29.4094
G01 X1.9412 Y29.3550
G01 X1.8975 Y29.2960
G01 X1.8624 Y29.2378
G01 X1.8572 Y29.2280
G01 X1.8305 Y29.1716
G01 X1.8263 Y29.1613
G01 X1.8035 Y29.0973
G01 X1.7869 Y29.0315
G01 X1.7847 Y29.0206
G01 X1.7749 Y28.9534
G01 X1.7713 Y28.8828
G01 X1.7713 Y24.5048
G01 X1.5216 Y24.2549
G01 X1.5162 Y24.2485
G01 X1.5113 Y24.2418
G01 X1.5043 Y24.2297
G01 X1.4988 Y24.2170
G01 X1.4963 Y24.2090
G01 X1.4944 Y24.2009
G01 X1.4927 Y24.1899
G01 X1.4922 Y24.1788
G01 X1.4922 Y23.4185
G01 X1.4931 Y23.4074
G01 X1.4950 Y23.3964
G01 X1.4979 Y23.3857
